DSAA
          79         109
    318.3670    342.0670
   7336.5760   7369.2760
  0.0000E+00  0.5810E-03
  0.0000E+00  0.0000E+00  0.0000E+00  0.0000E+00  0.0000E+00  0.0000E+00  0.0000E+00  0.0000E+00  0.0000E+00  0.0000E+00  0.0000E+00  0.0000E+00  0.0000E+00  0.0000E+00  0.0000E+00  0.0000E+00  0.0000E+00  0.0000E+00  0.0000E+00  0.0000E+00  0.0000E+00  0.0000E+00  0.0000E+00  0.0000E+00  0.0000E+00  0.0000E+00  0.0000E+00  0.0000E+00  0.0000E+00  0.0000E+00  0.0000E+00  0.0000E+00  0.0000E+00  0.0000E+00  0.0000E+00  0.0000E+00  0.0000E+00  0.0000E+00  0.0000E+00  0.0000E+00  0.0000E+00  0.0000E+00  0.0000E+00  0.0000E+00  0.0000E+00  0.0000E+00  0.0000E+00  0.0000E+00  0.0000E+00  0.0000E+00  0.0000E+00  0.0000E+00  0.0000E+00  0.0000E+00  0.0000E+00  0.0000E+00  0.0000E+00  0.0000E+00  0.0000E+00  0.0000E+00  0.0000E+00  0.0000E+00  0.0000E+00  0.0000E+00  0.0000E+00  0.0000E+00  0.0000E+00  0.0000E+00  0.0000E+00  0.0000E+00  0.0000E+00  0.0000E+00  0.0000E+00  0.0000E+00  0.0000E+00  0.0000E+00  0.0000E+00  0.0000E+00  0.0000E+00
  0.0000E+00  0.0000E+00  0.0000E+00  0.0000E+00  0.0000E+00  0.0000E+00  0.0000E+00  0.0000E+00  0.0000E+00  0.0000E+00  0.0000E+00  0.0000E+00  0.0000E+00  0.0000E+00  0.0000E+00  0.0000E+00  0.0000E+00  0.0000E+00  0.0000E+00  0.0000E+00  0.0000E+00  0.0000E+00  0.0000E+00  0.0000E+00  0.0000E+00  0.0000E+00  0.0000E+00  0.0000E+00  0.0000E+00  0.0000E+00  0.0000E+00  0.0000E+00  0.0000E+00  0.0000E+00  0.0000E+00  0.0000E+00  0.0000E+00  0.0000E+00  0.0000E+00  0.0000E+00  0.0000E+00  0.0000E+00  0.0000E+00  0.0000E+00  0.0000E+00  0.0000E+00  0.0000E+00  0.0000E+00  0.0000E+00  0.0000E+00  0.0000E+00  0.0000E+00  0.0000E+00  0.0000E+00  0.0000E+00  0.0000E+00  0.0000E+00  0.0000E+00  0.0000E+00  0.0000E+00  0.0000E+00  0.0000E+00  0.0000E+00  0.0000E+00  0.0000E+00  0.0000E+00  0.0000E+00  0.0000E+00  0.0000E+00  0.0000E+00  0.0000E+00  0.0000E+00  0.0000E+00  0.0000E+00  0.0000E+00  0.0000E+00  0.0000E+00  0.0000E+00  0.0000E+00
  0.0000E+00  0.0000E+00  0.0000E+00  0.0000E+00  0.0000E+00  0.0000E+00  0.0000E+00  0.0000E+00  0.0000E+00  0.0000E+00  0.0000E+00  0.0000E+00  0.0000E+00  0.0000E+00  0.0000E+00  0.0000E+00  0.0000E+00  0.0000E+00  0.0000E+00  0.0000E+00  0.0000E+00  0.0000E+00  0.0000E+00  0.0000E+00  0.0000E+00  0.0000E+00  0.0000E+00  0.0000E+00  0.0000E+00  0.0000E+00  0.0000E+00  0.0000E+00  0.0000E+00  0.0000E+00  0.0000E+00  0.0000E+00  0.0000E+00  0.0000E+00  0.0000E+00  0.0000E+00  0.0000E+00  0.0000E+00  0.0000E+00  0.0000E+00  0.0000E+00  0.0000E+00  0.0000E+00  0.0000E+00  0.0000E+00  0.0000E+00  0.0000E+00  0.0000E+00  0.0000E+00  0.0000E+00  0.0000E+00  0.0000E+00  0.0000E+00  0.0000E+00  0.0000E+00  0.0000E+00  0.0000E+00  0.0000E+00  0.0000E+00  0.0000E+00  0.0000E+00  0.0000E+00  0.0000E+00  0.0000E+00  0.0000E+00  0.0000E+00  0.0000E+00  0.0000E+00  0.0000E+00  0.0000E+00  0.0000E+00  0.0000E+00  0.0000E+00  0.0000E+00  0.0000E+00
  0.0000E+00  0.0000E+00  0.0000E+00  0.0000E+00  0.0000E+00  0.0000E+00  0.0000E+00  0.0000E+00  0.0000E+00  0.0000E+00  0.0000E+00  0.0000E+00  0.0000E+00  0.0000E+00  0.0000E+00  0.0000E+00  0.0000E+00  0.0000E+00  0.0000E+00  0.0000E+00  0.0000E+00  0.0000E+00  0.0000E+00  0.0000E+00  0.0000E+00  0.0000E+00  0.0000E+00  0.0000E+00  0.0000E+00  0.0000E+00  0.0000E+00  0.0000E+00  0.0000E+00  0.0000E+00  0.0000E+00  0.0000E+00  0.0000E+00  0.0000E+00  0.0000E+00  0.0000E+00  0.0000E+00  0.0000E+00  0.0000E+00  0.0000E+00  0.0000E+00  0.0000E+00  0.0000E+00  0.0000E+00  0.0000E+00  0.0000E+00  0.0000E+00  0.0000E+00  0.0000E+00  0.0000E+00  0.0000E+00  0.0000E+00  0.0000E+00  0.0000E+00  0.0000E+00  0.0000E+00  0.0000E+00  0.0000E+00  0.0000E+00  0.0000E+00  0.0000E+00  0.0000E+00  0.0000E+00  0.0000E+00  0.0000E+00  0.0000E+00  0.0000E+00  0.0000E+00  0.0000E+00  0.0000E+00  0.0000E+00  0.0000E+00  0.0000E+00  0.0000E+00  0.0000E+00
  0.0000E+00  0.0000E+00  0.0000E+00  0.0000E+00  0.0000E+00  0.0000E+00  0.0000E+00  0.0000E+00  0.0000E+00  0.0000E+00  0.0000E+00  0.0000E+00  0.0000E+00  0.0000E+00  0.0000E+00  0.0000E+00  0.0000E+00  0.0000E+00  0.0000E+00  0.0000E+00  0.0000E+00  0.0000E+00  0.0000E+00  0.0000E+00  0.0000E+00  0.0000E+00  0.0000E+00  0.0000E+00  0.0000E+00  0.0000E+00  0.0000E+00  0.0000E+00  0.0000E+00  0.0000E+00  0.0000E+00  0.0000E+00  0.0000E+00  0.0000E+00  0.0000E+00  0.0000E+00  0.0000E+00  0.0000E+00  0.0000E+00  0.0000E+00  0.0000E+00  0.0000E+00  0.0000E+00  0.0000E+00  0.0000E+00  0.0000E+00  0.0000E+00  0.0000E+00  0.0000E+00  0.0000E+00  0.0000E+00  0.0000E+00  0.0000E+00  0.0000E+00  0.0000E+00  0.0000E+00  0.0000E+00  0.0000E+00  0.0000E+00  0.0000E+00  0.0000E+00  0.0000E+00  0.0000E+00  0.0000E+00  0.0000E+00  0.0000E+00  0.0000E+00  0.0000E+00  0.0000E+00  0.0000E+00  0.0000E+00  0.0000E+00  0.0000E+00  0.0000E+00  0.0000E+00
  0.0000E+00  0.0000E+00  0.0000E+00  0.0000E+00  0.0000E+00  0.0000E+00  0.0000E+00  0.0000E+00  0.0000E+00  0.0000E+00  0.0000E+00  0.0000E+00  0.0000E+00  0.0000E+00  0.0000E+00  0.0000E+00  0.0000E+00  0.0000E+00  0.0000E+00  0.0000E+00  0.0000E+00  0.0000E+00  0.0000E+00  0.0000E+00  0.0000E+00  0.0000E+00  0.0000E+00  0.0000E+00  0.0000E+00  0.0000E+00  0.0000E+00  0.0000E+00  0.0000E+00  0.0000E+00  0.0000E+00  0.0000E+00  0.0000E+00  0.0000E+00  0.0000E+00  0.0000E+00  0.0000E+00  0.0000E+00  0.0000E+00  0.0000E+00  0.0000E+00  0.0000E+00  0.0000E+00  0.0000E+00  0.0000E+00  0.0000E+00  0.0000E+00  0.0000E+00  0.0000E+00  0.0000E+00  0.0000E+00  0.0000E+00  0.0000E+00  0.0000E+00  0.0000E+00  0.0000E+00  0.0000E+00  0.0000E+00  0.0000E+00  0.0000E+00  0.0000E+00  0.0000E+00  0.0000E+00  0.0000E+00  0.0000E+00  0.0000E+00  0.0000E+00  0.0000E+00  0.0000E+00  0.0000E+00  0.0000E+00  0.0000E+00  0.0000E+00  0.0000E+00  0.0000E+00
  0.0000E+00  0.0000E+00  0.0000E+00  0.0000E+00  0.0000E+00  0.0000E+00  0.0000E+00  0.0000E+00  0.0000E+00  0.0000E+00  0.0000E+00  0.0000E+00  0.0000E+00  0.0000E+00  0.0000E+00  0.0000E+00  0.0000E+00  0.0000E+00  0.0000E+00  0.0000E+00  0.0000E+00  0.0000E+00  0.0000E+00  0.0000E+00  0.0000E+00  0.0000E+00  0.0000E+00  0.0000E+00  0.0000E+00  0.0000E+00  0.0000E+00  0.0000E+00  0.0000E+00  0.0000E+00  0.0000E+00  0.0000E+00  0.0000E+00  0.0000E+00  0.0000E+00  0.0000E+00  0.0000E+00  0.0000E+00  0.0000E+00  0.0000E+00  0.0000E+00  0.0000E+00  0.0000E+00  0.0000E+00  0.0000E+00  0.0000E+00  0.0000E+00  0.0000E+00  0.0000E+00  0.0000E+00  0.0000E+00  0.0000E+00  0.0000E+00  0.0000E+00  0.0000E+00  0.0000E+00  0.0000E+00  0.0000E+00  0.0000E+00  0.0000E+00  0.0000E+00  0.0000E+00  0.0000E+00  0.0000E+00  0.0000E+00  0.0000E+00  0.0000E+00  0.0000E+00  0.0000E+00  0.0000E+00  0.0000E+00  0.0000E+00  0.0000E+00  0.0000E+00  0.0000E+00
  0.0000E+00  0.0000E+00  0.0000E+00  0.0000E+00  0.0000E+00  0.0000E+00  0.0000E+00  0.0000E+00  0.0000E+00  0.0000E+00  0.0000E+00  0.0000E+00  0.0000E+00  0.0000E+00  0.0000E+00  0.0000E+00  0.0000E+00  0.0000E+00  0.0000E+00  0.0000E+00  0.0000E+00  0.0000E+00  0.0000E+00  0.0000E+00  0.0000E+00  0.0000E+00  0.0000E+00  0.0000E+00  0.0000E+00  0.0000E+00  0.0000E+00  0.0000E+00  0.0000E+00  0.0000E+00  0.0000E+00  0.0000E+00  0.0000E+00  0.0000E+00  0.0000E+00  0.0000E+00  0.0000E+00  0.0000E+00  0.0000E+00  0.0000E+00  0.0000E+00  0.0000E+00  0.0000E+00  0.0000E+00  0.0000E+00  0.0000E+00  0.0000E+00  0.0000E+00  0.0000E+00  0.0000E+00  0.0000E+00  0.0000E+00  0.0000E+00  0.0000E+00  0.0000E+00  0.0000E+00  0.0000E+00  0.0000E+00  0.0000E+00  0.0000E+00  0.0000E+00  0.0000E+00  0.0000E+00  0.0000E+00  0.0000E+00  0.0000E+00  0.0000E+00  0.0000E+00  0.0000E+00  0.0000E+00  0.0000E+00  0.0000E+00  0.0000E+00  0.0000E+00  0.0000E+00
  0.0000E+00  0.0000E+00  0.0000E+00  0.0000E+00  0.0000E+00  0.0000E+00  0.0000E+00  0.0000E+00  0.0000E+00  0.0000E+00  0.0000E+00  0.0000E+00  0.0000E+00  0.0000E+00  0.0000E+00  0.0000E+00  0.0000E+00  0.0000E+00  0.0000E+00  0.0000E+00  0.0000E+00  0.0000E+00  0.0000E+00  0.0000E+00  0.0000E+00  0.0000E+00  0.0000E+00  0.0000E+00  0.0000E+00  0.0000E+00  0.0000E+00  0.0000E+00  0.0000E+00  0.0000E+00  0.0000E+00  0.0000E+00  0.0000E+00  0.0000E+00  0.0000E+00  0.0000E+00  0.0000E+00  0.0000E+00  0.0000E+00  0.0000E+00  0.0000E+00  0.0000E+00  0.0000E+00  0.0000E+00  0.0000E+00  0.0000E+00  0.0000E+00  0.0000E+00  0.0000E+00  0.0000E+00  0.0000E+00  0.0000E+00  0.0000E+00  0.0000E+00  0.0000E+00  0.0000E+00  0.0000E+00  0.0000E+00  0.0000E+00  0.0000E+00  0.0000E+00  0.0000E+00  0.0000E+00  0.0000E+00  0.0000E+00  0.0000E+00  0.0000E+00  0.0000E+00  0.0000E+00  0.0000E+00  0.0000E+00  0.0000E+00  0.0000E+00  0.0000E+00  0.0000E+00
  0.0000E+00  0.0000E+00  0.0000E+00  0.0000E+00  0.0000E+00  0.0000E+00  0.0000E+00  0.0000E+00  0.0000E+00  0.0000E+00  0.0000E+00  0.0000E+00  0.0000E+00  0.0000E+00  0.0000E+00  0.0000E+00  0.0000E+00  0.0000E+00  0.0000E+00  0.0000E+00  0.0000E+00  0.0000E+00  0.0000E+00  0.0000E+00  0.0000E+00  0.0000E+00  0.0000E+00  0.0000E+00  0.0000E+00  0.0000E+00  0.0000E+00  0.0000E+00  0.0000E+00  0.0000E+00  0.0000E+00  0.0000E+00  0.0000E+00  0.0000E+00  0.0000E+00  0.0000E+00  0.0000E+00  0.0000E+00  0.0000E+00  0.0000E+00  0.0000E+00  0.0000E+00  0.0000E+00  0.0000E+00  0.0000E+00  0.0000E+00  0.0000E+00  0.0000E+00  0.0000E+00  0.0000E+00  0.0000E+00  0.0000E+00  0.0000E+00  0.0000E+00  0.0000E+00  0.0000E+00  0.0000E+00  0.0000E+00  0.0000E+00  0.0000E+00  0.0000E+00  0.0000E+00  0.0000E+00  0.0000E+00  0.0000E+00  0.0000E+00  0.0000E+00  0.0000E+00  0.0000E+00  0.0000E+00  0.0000E+00  0.0000E+00  0.0000E+00  0.0000E+00  0.0000E+00
  0.0000E+00  0.0000E+00  0.0000E+00  0.0000E+00  0.0000E+00  0.0000E+00  0.0000E+00  0.0000E+00  0.0000E+00  0.0000E+00  0.0000E+00  0.0000E+00  0.0000E+00  0.0000E+00  0.0000E+00  0.0000E+00  0.0000E+00  0.0000E+00  0.0000E+00  0.0000E+00  0.0000E+00  0.0000E+00  0.0000E+00  0.0000E+00  0.0000E+00  0.0000E+00  0.0000E+00  0.0000E+00  0.0000E+00  0.0000E+00  0.0000E+00  0.0000E+00  0.0000E+00  0.0000E+00  0.0000E+00  0.0000E+00  0.0000E+00  0.0000E+00  0.0000E+00  0.0000E+00  0.0000E+00  0.0000E+00  0.0000E+00  0.0000E+00  0.0000E+00  0.0000E+00  0.0000E+00  0.0000E+00  0.0000E+00  0.0000E+00  0.0000E+00  0.0000E+00  0.0000E+00  0.0000E+00  0.0000E+00  0.0000E+00  0.0000E+00  0.0000E+00  0.0000E+00  0.0000E+00  0.0000E+00  0.0000E+00  0.0000E+00  0.0000E+00  0.0000E+00  0.0000E+00  0.0000E+00  0.0000E+00  0.0000E+00  0.0000E+00  0.0000E+00  0.0000E+00  0.0000E+00  0.0000E+00  0.0000E+00  0.0000E+00  0.0000E+00  0.0000E+00  0.0000E+00
  0.0000E+00  0.0000E+00  0.0000E+00  0.0000E+00  0.0000E+00  0.0000E+00  0.0000E+00  0.0000E+00  0.0000E+00  0.0000E+00  0.0000E+00  0.0000E+00  0.0000E+00  0.0000E+00  0.0000E+00  0.0000E+00  0.0000E+00  0.0000E+00  0.0000E+00  0.0000E+00  0.0000E+00  0.0000E+00  0.0000E+00  0.0000E+00  0.0000E+00  0.0000E+00  0.0000E+00  0.0000E+00  0.0000E+00  0.0000E+00  0.0000E+00  0.0000E+00  0.0000E+00  0.0000E+00  0.0000E+00  0.0000E+00  0.0000E+00  0.0000E+00  0.0000E+00  0.0000E+00  0.0000E+00  0.0000E+00  0.0000E+00  0.0000E+00  0.0000E+00  0.0000E+00  0.0000E+00  0.0000E+00  0.0000E+00  0.0000E+00  0.0000E+00  0.0000E+00  0.0000E+00  0.0000E+00  0.0000E+00  0.0000E+00  0.0000E+00  0.0000E+00  0.0000E+00  0.0000E+00  0.0000E+00  0.0000E+00  0.0000E+00  0.0000E+00  0.0000E+00  0.0000E+00  0.0000E+00  0.0000E+00  0.0000E+00  0.0000E+00  0.0000E+00  0.0000E+00  0.0000E+00  0.0000E+00  0.0000E+00  0.0000E+00  0.0000E+00  0.0000E+00  0.0000E+00
  0.0000E+00  0.0000E+00  0.0000E+00  0.0000E+00  0.0000E+00  0.0000E+00  0.0000E+00  0.0000E+00  0.0000E+00  0.0000E+00  0.0000E+00  0.0000E+00  0.0000E+00  0.0000E+00  0.0000E+00  0.0000E+00  0.0000E+00  0.0000E+00  0.0000E+00  0.0000E+00  0.0000E+00  0.0000E+00  0.0000E+00  0.0000E+00  0.0000E+00  0.0000E+00  0.0000E+00  0.0000E+00  0.0000E+00  0.0000E+00  0.0000E+00  0.0000E+00  0.0000E+00  0.0000E+00  0.0000E+00  0.0000E+00  0.0000E+00  0.0000E+00  0.0000E+00  0.0000E+00  0.0000E+00  0.0000E+00  0.0000E+00  0.0000E+00  0.0000E+00  0.0000E+00  0.0000E+00  0.0000E+00  0.0000E+00  0.0000E+00  0.0000E+00  0.0000E+00  0.0000E+00  0.0000E+00  0.0000E+00  0.0000E+00  0.0000E+00  0.0000E+00  0.0000E+00  0.0000E+00  0.0000E+00  0.0000E+00  0.0000E+00  0.0000E+00  0.0000E+00  0.0000E+00  0.0000E+00  0.0000E+00  0.0000E+00  0.0000E+00  0.0000E+00  0.0000E+00  0.0000E+00  0.0000E+00  0.0000E+00  0.0000E+00  0.0000E+00  0.0000E+00  0.0000E+00
  0.0000E+00  0.0000E+00  0.0000E+00  0.0000E+00  0.0000E+00  0.0000E+00  0.0000E+00  0.0000E+00  0.0000E+00  0.0000E+00  0.0000E+00  0.0000E+00  0.0000E+00  0.0000E+00  0.0000E+00  0.0000E+00  0.0000E+00  0.0000E+00  0.0000E+00  0.0000E+00  0.0000E+00  0.0000E+00  0.0000E+00  0.0000E+00  0.0000E+00  0.0000E+00  0.0000E+00  0.0000E+00  0.0000E+00  0.0000E+00  0.0000E+00  0.0000E+00  0.0000E+00  0.0000E+00  0.0000E+00  0.0000E+00  0.0000E+00  0.0000E+00  0.0000E+00  0.0000E+00  0.0000E+00  0.0000E+00  0.0000E+00  0.0000E+00  0.0000E+00  0.0000E+00  0.0000E+00  0.0000E+00  0.0000E+00  0.0000E+00  0.0000E+00  0.0000E+00  0.0000E+00  0.0000E+00  0.0000E+00  0.0000E+00  0.0000E+00  0.0000E+00  0.0000E+00  0.0000E+00  0.0000E+00  0.0000E+00  0.0000E+00  0.0000E+00  0.0000E+00  0.0000E+00  0.0000E+00  0.0000E+00  0.0000E+00  0.0000E+00  0.0000E+00  0.0000E+00  0.0000E+00  0.0000E+00  0.0000E+00  0.0000E+00  0.0000E+00  0.0000E+00  0.0000E+00
  0.0000E+00  0.0000E+00  0.0000E+00  0.0000E+00  0.0000E+00  0.0000E+00  0.0000E+00  0.0000E+00  0.0000E+00  0.0000E+00  0.0000E+00  0.0000E+00  0.0000E+00  0.0000E+00  0.0000E+00  0.0000E+00  0.0000E+00  0.0000E+00  0.0000E+00  0.0000E+00  0.0000E+00  0.0000E+00  0.0000E+00  0.0000E+00  0.0000E+00  0.0000E+00  0.0000E+00  0.0000E+00  0.0000E+00  0.0000E+00  0.0000E+00  0.0000E+00  0.0000E+00  0.0000E+00  0.0000E+00  0.0000E+00  0.0000E+00  0.0000E+00  0.0000E+00  0.0000E+00  0.0000E+00  0.0000E+00  0.0000E+00  0.0000E+00  0.0000E+00  0.0000E+00  0.0000E+00  0.0000E+00  0.0000E+00  0.0000E+00  0.0000E+00  0.0000E+00  0.0000E+00  0.0000E+00  0.0000E+00  0.0000E+00  0.0000E+00  0.0000E+00  0.0000E+00  0.0000E+00  0.0000E+00  0.0000E+00  0.0000E+00  0.0000E+00  0.0000E+00  0.0000E+00  0.0000E+00  0.0000E+00  0.0000E+00  0.0000E+00  0.0000E+00  0.0000E+00  0.0000E+00  0.0000E+00  0.0000E+00  0.0000E+00  0.0000E+00  0.0000E+00  0.0000E+00
  0.0000E+00  0.0000E+00  0.0000E+00  0.0000E+00  0.0000E+00  0.0000E+00  0.0000E+00  0.0000E+00  0.0000E+00  0.0000E+00  0.0000E+00  0.0000E+00  0.0000E+00  0.0000E+00  0.0000E+00  0.0000E+00  0.0000E+00  0.0000E+00  0.0000E+00  0.0000E+00  0.0000E+00  0.0000E+00  0.0000E+00  0.0000E+00  0.0000E+00  0.0000E+00  0.0000E+00  0.0000E+00  0.0000E+00  0.0000E+00  0.0000E+00  0.0000E+00  0.0000E+00  0.0000E+00  0.0000E+00  0.0000E+00  0.0000E+00  0.0000E+00  0.0000E+00  0.0000E+00  0.0000E+00  0.0000E+00  0.0000E+00  0.0000E+00  0.0000E+00  0.0000E+00  0.0000E+00  0.0000E+00  0.0000E+00  0.0000E+00  0.0000E+00  0.0000E+00  0.0000E+00  0.0000E+00  0.0000E+00  0.0000E+00  0.0000E+00  0.0000E+00  0.0000E+00  0.0000E+00  0.0000E+00  0.0000E+00  0.0000E+00  0.0000E+00  0.0000E+00  0.0000E+00  0.0000E+00  0.0000E+00  0.0000E+00  0.0000E+00  0.0000E+00  0.0000E+00  0.0000E+00  0.0000E+00  0.0000E+00  0.0000E+00  0.0000E+00  0.0000E+00  0.0000E+00
  0.0000E+00  0.0000E+00  0.0000E+00  0.0000E+00  0.0000E+00  0.0000E+00  0.0000E+00  0.0000E+00  0.0000E+00  0.0000E+00  0.0000E+00  0.0000E+00  0.0000E+00  0.0000E+00  0.0000E+00  0.0000E+00  0.0000E+00  0.0000E+00  0.0000E+00  0.0000E+00  0.0000E+00  0.0000E+00  0.0000E+00  0.0000E+00  0.0000E+00  0.0000E+00  0.0000E+00  0.0000E+00  0.0000E+00  0.0000E+00  0.0000E+00  0.0000E+00  0.0000E+00  0.0000E+00  0.0000E+00  0.0000E+00  0.0000E+00  0.0000E+00  0.0000E+00  0.0000E+00  0.0000E+00  0.0000E+00  0.0000E+00  0.0000E+00  0.0000E+00  0.0000E+00  0.0000E+00  0.0000E+00  0.0000E+00  0.0000E+00  0.0000E+00  0.0000E+00  0.0000E+00  0.0000E+00  0.0000E+00  0.0000E+00  0.0000E+00  0.0000E+00  0.0000E+00  0.0000E+00  0.0000E+00  0.0000E+00  0.0000E+00  0.0000E+00  0.0000E+00  0.0000E+00  0.0000E+00  0.0000E+00  0.0000E+00  0.0000E+00  0.0000E+00  0.0000E+00  0.0000E+00  0.0000E+00  0.0000E+00  0.0000E+00  0.0000E+00  0.0000E+00  0.0000E+00
  0.0000E+00  0.0000E+00  0.0000E+00  0.0000E+00  0.0000E+00  0.0000E+00  0.0000E+00  0.0000E+00  0.0000E+00  0.0000E+00  0.0000E+00  0.0000E+00  0.0000E+00  0.0000E+00  0.0000E+00  0.0000E+00  0.0000E+00  0.0000E+00  0.0000E+00  0.0000E+00  0.0000E+00  0.0000E+00  0.0000E+00  0.0000E+00  0.0000E+00  0.0000E+00  0.0000E+00  0.0000E+00  0.0000E+00  0.0000E+00  0.0000E+00  0.0000E+00  0.0000E+00  0.0000E+00  0.0000E+00  0.0000E+00  0.0000E+00  0.0000E+00  0.0000E+00  0.0000E+00  0.0000E+00  0.0000E+00  0.0000E+00  0.0000E+00  0.0000E+00  0.0000E+00  0.0000E+00  0.0000E+00  0.0000E+00  0.0000E+00  0.0000E+00  0.0000E+00  0.0000E+00  0.0000E+00  0.0000E+00  0.0000E+00  0.0000E+00  0.0000E+00  0.0000E+00  0.0000E+00  0.0000E+00  0.0000E+00  0.0000E+00  0.0000E+00  0.0000E+00  0.0000E+00  0.0000E+00  0.0000E+00  0.0000E+00  0.0000E+00  0.0000E+00  0.0000E+00  0.0000E+00  0.0000E+00  0.0000E+00  0.0000E+00  0.0000E+00  0.0000E+00  0.0000E+00
  0.0000E+00  0.0000E+00  0.0000E+00  0.0000E+00  0.0000E+00  0.0000E+00  0.0000E+00  0.0000E+00  0.0000E+00  0.0000E+00  0.0000E+00  0.0000E+00  0.0000E+00  0.0000E+00  0.0000E+00  0.0000E+00  0.0000E+00  0.0000E+00  0.0000E+00  0.0000E+00  0.0000E+00  0.0000E+00  0.0000E+00  0.0000E+00  0.0000E+00  0.0000E+00  0.0000E+00  0.0000E+00  0.0000E+00  0.0000E+00  0.0000E+00  0.0000E+00  0.0000E+00  0.0000E+00  0.0000E+00  0.0000E+00  0.0000E+00  0.0000E+00  0.0000E+00  0.0000E+00  0.0000E+00  0.0000E+00  0.0000E+00  0.0000E+00  0.0000E+00  0.0000E+00  0.0000E+00  0.0000E+00  0.0000E+00  0.0000E+00  0.0000E+00  0.0000E+00  0.0000E+00  0.0000E+00  0.0000E+00  0.0000E+00  0.0000E+00  0.0000E+00  0.0000E+00  0.0000E+00  0.0000E+00  0.0000E+00  0.0000E+00  0.0000E+00  0.0000E+00  0.0000E+00  0.0000E+00  0.0000E+00  0.0000E+00  0.0000E+00  0.0000E+00  0.0000E+00  0.0000E+00  0.0000E+00  0.0000E+00  0.0000E+00  0.0000E+00  0.0000E+00  0.0000E+00
  0.0000E+00  0.0000E+00  0.0000E+00  0.0000E+00  0.0000E+00  0.0000E+00  0.0000E+00  0.0000E+00  0.0000E+00  0.0000E+00  0.0000E+00  0.0000E+00  0.0000E+00  0.0000E+00  0.0000E+00  0.0000E+00  0.0000E+00  0.0000E+00  0.0000E+00  0.0000E+00  0.0000E+00  0.0000E+00  0.0000E+00  0.0000E+00  0.0000E+00  0.0000E+00  0.0000E+00  0.0000E+00  0.0000E+00  0.0000E+00  0.0000E+00  0.0000E+00  0.0000E+00  0.0000E+00  0.0000E+00  0.0000E+00  0.0000E+00  0.0000E+00  0.0000E+00  0.0000E+00  0.0000E+00  0.0000E+00  0.0000E+00  0.0000E+00  0.0000E+00  0.0000E+00  0.0000E+00  0.0000E+00  0.0000E+00  0.0000E+00  0.0000E+00  0.0000E+00  0.0000E+00  0.0000E+00  0.0000E+00  0.0000E+00  0.0000E+00  0.0000E+00  0.0000E+00  0.0000E+00  0.0000E+00  0.0000E+00  0.0000E+00  0.0000E+00  0.0000E+00  0.0000E+00  0.0000E+00  0.0000E+00  0.0000E+00  0.0000E+00  0.0000E+00  0.0000E+00  0.0000E+00  0.0000E+00  0.0000E+00  0.0000E+00  0.0000E+00  0.0000E+00  0.0000E+00
  0.0000E+00  0.0000E+00  0.0000E+00  0.0000E+00  0.0000E+00  0.0000E+00  0.0000E+00  0.0000E+00  0.0000E+00  0.0000E+00  0.0000E+00  0.0000E+00  0.0000E+00  0.0000E+00  0.0000E+00  0.0000E+00  0.0000E+00  0.0000E+00  0.0000E+00  0.0000E+00  0.0000E+00  0.0000E+00  0.0000E+00  0.0000E+00  0.0000E+00  0.0000E+00  0.0000E+00  0.0000E+00  0.0000E+00  0.0000E+00  0.0000E+00  0.0000E+00  0.0000E+00  0.0000E+00  0.0000E+00  0.0000E+00  0.0000E+00  0.0000E+00  0.0000E+00  0.0000E+00  0.0000E+00  0.0000E+00  0.0000E+00  0.0000E+00  0.0000E+00  0.0000E+00  0.0000E+00  0.0000E+00  0.0000E+00  0.0000E+00  0.0000E+00  0.0000E+00  0.0000E+00  0.0000E+00  0.0000E+00  0.0000E+00  0.0000E+00  0.0000E+00  0.0000E+00  0.0000E+00  0.0000E+00  0.0000E+00  0.0000E+00  0.0000E+00  0.0000E+00  0.0000E+00  0.0000E+00  0.0000E+00  0.0000E+00  0.0000E+00  0.0000E+00  0.0000E+00  0.0000E+00  0.0000E+00  0.0000E+00  0.0000E+00  0.0000E+00  0.0000E+00  0.0000E+00
  0.0000E+00  0.0000E+00  0.0000E+00  0.0000E+00  0.0000E+00  0.0000E+00  0.0000E+00  0.0000E+00  0.0000E+00  0.0000E+00  0.0000E+00  0.0000E+00  0.0000E+00  0.0000E+00  0.0000E+00  0.0000E+00  0.0000E+00  0.0000E+00  0.0000E+00  0.0000E+00  0.0000E+00  0.0000E+00  0.0000E+00  0.0000E+00  0.0000E+00  0.0000E+00  0.0000E+00  0.0000E+00  0.0000E+00  0.0000E+00  0.0000E+00  0.0000E+00  0.0000E+00  0.0000E+00  0.0000E+00  0.0000E+00  0.0000E+00  0.0000E+00  0.0000E+00  0.0000E+00  0.0000E+00  0.0000E+00  0.0000E+00  0.0000E+00  0.0000E+00  0.0000E+00  0.0000E+00  0.0000E+00  0.0000E+00  0.0000E+00  0.0000E+00  0.0000E+00  0.0000E+00  0.0000E+00  0.0000E+00  0.0000E+00  0.0000E+00  0.0000E+00  0.0000E+00  0.0000E+00  0.0000E+00  0.0000E+00  0.0000E+00  0.0000E+00  0.0000E+00  0.0000E+00  0.0000E+00  0.0000E+00  0.0000E+00  0.0000E+00  0.0000E+00  0.0000E+00  0.0000E+00  0.0000E+00  0.0000E+00  0.0000E+00  0.0000E+00  0.0000E+00  0.0000E+00
  0.0000E+00  0.0000E+00  0.0000E+00  0.0000E+00  0.0000E+00  0.0000E+00  0.0000E+00  0.0000E+00  0.0000E+00  0.0000E+00  0.0000E+00  0.0000E+00  0.0000E+00  0.0000E+00  0.0000E+00  0.0000E+00  0.0000E+00  0.0000E+00  0.0000E+00  0.0000E+00  0.0000E+00  0.0000E+00  0.0000E+00  0.0000E+00  0.0000E+00  0.0000E+00  0.0000E+00  0.0000E+00  0.0000E+00  0.0000E+00  0.0000E+00  0.0000E+00  0.0000E+00  0.0000E+00  0.0000E+00  0.0000E+00  0.0000E+00  0.0000E+00  0.0000E+00  0.0000E+00  0.0000E+00  0.0000E+00  0.0000E+00  0.0000E+00  0.0000E+00  0.0000E+00  0.0000E+00  0.0000E+00  0.0000E+00  0.0000E+00  0.0000E+00  0.0000E+00  0.0000E+00  0.0000E+00  0.0000E+00  0.0000E+00  0.0000E+00  0.0000E+00  0.0000E+00  0.0000E+00  0.0000E+00  0.0000E+00  0.0000E+00  0.0000E+00  0.0000E+00  0.0000E+00  0.0000E+00  0.0000E+00  0.0000E+00  0.0000E+00  0.0000E+00  0.0000E+00  0.0000E+00  0.0000E+00  0.0000E+00  0.0000E+00  0.0000E+00  0.0000E+00  0.0000E+00
  0.0000E+00  0.0000E+00  0.0000E+00  0.0000E+00  0.0000E+00  0.0000E+00  0.0000E+00  0.0000E+00  0.0000E+00  0.0000E+00  0.0000E+00  0.0000E+00  0.0000E+00  0.0000E+00  0.0000E+00  0.0000E+00  0.0000E+00  0.0000E+00  0.0000E+00  0.0000E+00  0.0000E+00  0.0000E+00  0.0000E+00  0.0000E+00  0.0000E+00  0.0000E+00  0.0000E+00  0.0000E+00  0.0000E+00  0.0000E+00  0.0000E+00  0.0000E+00  0.0000E+00  0.0000E+00  0.0000E+00  0.0000E+00  0.0000E+00  0.0000E+00  0.0000E+00  0.0000E+00  0.0000E+00  0.0000E+00  0.0000E+00  0.0000E+00  0.0000E+00  0.0000E+00  0.0000E+00  0.0000E+00  0.0000E+00  0.0000E+00  0.0000E+00  0.0000E+00  0.0000E+00  0.0000E+00  0.0000E+00  0.0000E+00  0.0000E+00  0.0000E+00  0.0000E+00  0.0000E+00  0.0000E+00  0.0000E+00  0.0000E+00  0.0000E+00  0.0000E+00  0.0000E+00  0.0000E+00  0.0000E+00  0.0000E+00  0.0000E+00  0.0000E+00  0.0000E+00  0.0000E+00  0.0000E+00  0.0000E+00  0.0000E+00  0.0000E+00  0.0000E+00  0.0000E+00
  0.0000E+00  0.0000E+00  0.0000E+00  0.0000E+00  0.0000E+00  0.0000E+00  0.0000E+00  0.0000E+00  0.0000E+00  0.0000E+00  0.0000E+00  0.0000E+00  0.0000E+00  0.0000E+00  0.0000E+00  0.0000E+00  0.0000E+00  0.0000E+00  0.0000E+00  0.0000E+00  0.0000E+00  0.0000E+00  0.0000E+00  0.0000E+00  0.0000E+00  0.0000E+00  0.0000E+00  0.0000E+00  0.0000E+00  0.0000E+00  0.0000E+00  0.0000E+00  0.0000E+00  0.0000E+00  0.0000E+00  0.0000E+00  0.0000E+00  0.0000E+00  0.0000E+00  0.0000E+00  0.0000E+00  0.0000E+00  0.0000E+00  0.0000E+00  0.0000E+00  0.0000E+00  0.0000E+00  0.0000E+00  0.0000E+00  0.0000E+00  0.0000E+00  0.0000E+00  0.0000E+00  0.0000E+00  0.0000E+00  0.0000E+00  0.0000E+00  0.0000E+00  0.0000E+00  0.0000E+00  0.0000E+00  0.0000E+00  0.0000E+00  0.0000E+00  0.0000E+00  0.0000E+00  0.0000E+00  0.0000E+00  0.0000E+00  0.0000E+00  0.0000E+00  0.0000E+00  0.0000E+00  0.0000E+00  0.0000E+00  0.0000E+00  0.0000E+00  0.0000E+00  0.0000E+00
  0.0000E+00  0.0000E+00  0.0000E+00  0.0000E+00  0.0000E+00  0.0000E+00  0.0000E+00  0.0000E+00  0.0000E+00  0.0000E+00  0.0000E+00  0.0000E+00  0.0000E+00  0.0000E+00  0.0000E+00  0.0000E+00  0.0000E+00  0.0000E+00  0.0000E+00  0.0000E+00  0.0000E+00  0.0000E+00  0.0000E+00  0.0000E+00  0.0000E+00  0.0000E+00  0.0000E+00  0.0000E+00  0.0000E+00  0.0000E+00  0.0000E+00  0.0000E+00  0.0000E+00  0.0000E+00  0.0000E+00  0.0000E+00  0.0000E+00  0.0000E+00  0.0000E+00  0.0000E+00  0.0000E+00  0.0000E+00  0.0000E+00  0.0000E+00  0.0000E+00  0.0000E+00  0.0000E+00  0.0000E+00  0.0000E+00  0.0000E+00  0.0000E+00  0.0000E+00  0.0000E+00  0.0000E+00  0.0000E+00  0.0000E+00  0.0000E+00  0.0000E+00  0.0000E+00  0.0000E+00  0.0000E+00  0.0000E+00  0.0000E+00  0.0000E+00  0.0000E+00  0.0000E+00  0.0000E+00  0.0000E+00  0.0000E+00  0.0000E+00  0.0000E+00  0.0000E+00  0.0000E+00  0.0000E+00  0.0000E+00  0.0000E+00  0.0000E+00  0.0000E+00  0.0000E+00
  0.0000E+00  0.0000E+00  0.0000E+00  0.0000E+00  0.0000E+00  0.0000E+00  0.0000E+00  0.0000E+00  0.0000E+00  0.0000E+00  0.0000E+00  0.0000E+00  0.0000E+00  0.0000E+00  0.0000E+00  0.0000E+00  0.0000E+00  0.0000E+00  0.0000E+00  0.0000E+00  0.0000E+00  0.0000E+00  0.0000E+00  0.0000E+00  0.0000E+00  0.0000E+00  0.0000E+00  0.0000E+00  0.0000E+00  0.0000E+00  0.0000E+00  0.0000E+00  0.0000E+00  0.0000E+00  0.0000E+00  0.0000E+00  0.0000E+00  0.0000E+00  0.0000E+00  0.0000E+00  0.0000E+00  0.0000E+00  0.0000E+00  0.0000E+00  0.0000E+00  0.0000E+00  0.0000E+00  0.0000E+00  0.0000E+00  0.0000E+00  0.0000E+00  0.0000E+00  0.0000E+00  0.0000E+00  0.0000E+00  0.0000E+00  0.0000E+00  0.0000E+00  0.0000E+00  0.0000E+00  0.0000E+00  0.0000E+00  0.0000E+00  0.0000E+00  0.0000E+00  0.0000E+00  0.0000E+00  0.0000E+00  0.0000E+00  0.0000E+00  0.0000E+00  0.0000E+00  0.0000E+00  0.0000E+00  0.0000E+00  0.0000E+00  0.0000E+00  0.0000E+00  0.0000E+00
  0.0000E+00  0.0000E+00  0.0000E+00  0.0000E+00  0.0000E+00  0.0000E+00  0.0000E+00  0.0000E+00  0.0000E+00  0.0000E+00  0.0000E+00  0.0000E+00  0.0000E+00  0.0000E+00  0.0000E+00  0.0000E+00  0.0000E+00  0.0000E+00  0.0000E+00  0.0000E+00  0.0000E+00  0.0000E+00  0.0000E+00  0.0000E+00  0.0000E+00  0.0000E+00  0.0000E+00  0.0000E+00  0.0000E+00  0.0000E+00  0.0000E+00  0.0000E+00  0.0000E+00  0.0000E+00  0.0000E+00  0.0000E+00  0.0000E+00  0.0000E+00  0.0000E+00  0.0000E+00  0.0000E+00  0.0000E+00  0.0000E+00  0.0000E+00  0.0000E+00  0.0000E+00  0.0000E+00  0.0000E+00  0.0000E+00  0.0000E+00  0.0000E+00  0.0000E+00  0.0000E+00  0.0000E+00  0.0000E+00  0.0000E+00  0.0000E+00  0.0000E+00  0.0000E+00  0.0000E+00  0.0000E+00  0.0000E+00  0.0000E+00  0.0000E+00  0.0000E+00  0.0000E+00  0.0000E+00  0.0000E+00  0.0000E+00  0.0000E+00  0.0000E+00  0.0000E+00  0.0000E+00  0.0000E+00  0.0000E+00  0.0000E+00  0.0000E+00  0.0000E+00  0.0000E+00
  0.0000E+00  0.0000E+00  0.0000E+00  0.0000E+00  0.0000E+00  0.0000E+00  0.0000E+00  0.0000E+00  0.0000E+00  0.0000E+00  0.0000E+00  0.0000E+00  0.0000E+00  0.0000E+00  0.0000E+00  0.0000E+00  0.0000E+00  0.0000E+00  0.0000E+00  0.0000E+00  0.0000E+00  0.0000E+00  0.0000E+00  0.0000E+00  0.0000E+00  0.0000E+00  0.0000E+00  0.0000E+00  0.0000E+00  0.0000E+00  0.0000E+00  0.0000E+00  0.0000E+00  0.0000E+00  0.0000E+00  0.0000E+00  0.0000E+00  0.0000E+00  0.0000E+00  0.0000E+00  0.0000E+00  0.0000E+00  0.0000E+00  0.0000E+00  0.0000E+00  0.0000E+00  0.0000E+00  0.0000E+00  0.0000E+00  0.0000E+00  0.0000E+00  0.0000E+00  0.0000E+00  0.0000E+00  0.0000E+00  0.0000E+00  0.0000E+00  0.0000E+00  0.0000E+00  0.0000E+00  0.0000E+00  0.0000E+00  0.0000E+00  0.0000E+00  0.0000E+00  0.0000E+00  0.0000E+00  0.0000E+00  0.0000E+00  0.0000E+00  0.0000E+00  0.0000E+00  0.0000E+00  0.0000E+00  0.0000E+00  0.0000E+00  0.0000E+00  0.0000E+00  0.0000E+00
  0.0000E+00  0.0000E+00  0.0000E+00  0.0000E+00  0.0000E+00  0.0000E+00  0.0000E+00  0.0000E+00  0.0000E+00  0.0000E+00  0.0000E+00  0.0000E+00  0.0000E+00  0.0000E+00  0.0000E+00  0.0000E+00  0.0000E+00  0.0000E+00  0.0000E+00  0.0000E+00  0.0000E+00  0.0000E+00  0.0000E+00  0.0000E+00  0.0000E+00  0.0000E+00  0.0000E+00  0.0000E+00  0.0000E+00  0.0000E+00  0.0000E+00  0.0000E+00  0.0000E+00  0.0000E+00  0.0000E+00  0.0000E+00  0.0000E+00  0.0000E+00  0.0000E+00  0.0000E+00  0.0000E+00  0.0000E+00  0.0000E+00  0.0000E+00  0.0000E+00  0.0000E+00  0.0000E+00  0.0000E+00  0.0000E+00  0.0000E+00  0.0000E+00  0.0000E+00  0.0000E+00  0.0000E+00  0.0000E+00  0.0000E+00  0.0000E+00  0.0000E+00  0.0000E+00  0.0000E+00  0.0000E+00  0.0000E+00  0.0000E+00  0.0000E+00  0.0000E+00  0.0000E+00  0.0000E+00  0.0000E+00  0.0000E+00  0.0000E+00  0.0000E+00  0.0000E+00  0.0000E+00  0.0000E+00  0.0000E+00  0.0000E+00  0.0000E+00  0.0000E+00  0.0000E+00
  0.0000E+00  0.0000E+00  0.0000E+00  0.0000E+00  0.0000E+00  0.0000E+00  0.0000E+00  0.0000E+00  0.0000E+00  0.0000E+00  0.0000E+00  0.0000E+00  0.0000E+00  0.0000E+00  0.0000E+00  0.0000E+00  0.0000E+00  0.0000E+00  0.0000E+00  0.0000E+00  0.0000E+00  0.0000E+00  0.0000E+00  0.0000E+00  0.0000E+00  0.0000E+00  0.0000E+00  0.0000E+00  0.0000E+00  0.0000E+00  0.0000E+00  0.0000E+00  0.0000E+00  0.0000E+00  0.0000E+00  0.0000E+00  0.0000E+00  0.0000E+00  0.0000E+00  0.0000E+00  0.0000E+00  0.0000E+00  0.0000E+00  0.0000E+00  0.0000E+00  0.0000E+00  0.0000E+00  0.0000E+00  0.0000E+00  0.0000E+00  0.0000E+00  0.0000E+00  0.0000E+00  0.0000E+00  0.0000E+00  0.0000E+00  0.0000E+00  0.0000E+00  0.0000E+00  0.0000E+00  0.0000E+00  0.0000E+00  0.0000E+00  0.0000E+00  0.0000E+00  0.0000E+00  0.0000E+00  0.0000E+00  0.0000E+00  0.0000E+00  0.0000E+00  0.0000E+00  0.0000E+00  0.0000E+00  0.0000E+00  0.0000E+00  0.0000E+00  0.0000E+00  0.0000E+00
  0.0000E+00  0.0000E+00  0.0000E+00  0.0000E+00  0.0000E+00  0.0000E+00  0.0000E+00  0.0000E+00  0.0000E+00  0.0000E+00  0.0000E+00  0.0000E+00  0.0000E+00  0.0000E+00  0.0000E+00  0.0000E+00  0.0000E+00  0.0000E+00  0.0000E+00  0.0000E+00  0.0000E+00  0.0000E+00  0.0000E+00  0.0000E+00  0.0000E+00  0.0000E+00  0.0000E+00  0.0000E+00  0.0000E+00  0.0000E+00  0.0000E+00  0.0000E+00  0.0000E+00  0.0000E+00  0.0000E+00  0.0000E+00  0.0000E+00  0.0000E+00  0.0000E+00  0.0000E+00  0.0000E+00  0.0000E+00  0.0000E+00  0.0000E+00  0.0000E+00  0.0000E+00  0.0000E+00  0.0000E+00  0.0000E+00  0.0000E+00  0.0000E+00  0.0000E+00  0.0000E+00  0.0000E+00  0.0000E+00  0.0000E+00  0.0000E+00  0.0000E+00  0.0000E+00  0.0000E+00  0.0000E+00  0.0000E+00  0.0000E+00  0.0000E+00  0.0000E+00  0.0000E+00  0.0000E+00  0.0000E+00  0.0000E+00  0.0000E+00  0.0000E+00  0.0000E+00  0.0000E+00  0.0000E+00  0.0000E+00  0.0000E+00  0.0000E+00  0.0000E+00  0.0000E+00
  0.0000E+00  0.0000E+00  0.0000E+00  0.0000E+00  0.0000E+00  0.0000E+00  0.0000E+00  0.0000E+00  0.0000E+00  0.0000E+00  0.0000E+00  0.0000E+00  0.0000E+00  0.0000E+00  0.0000E+00  0.0000E+00  0.0000E+00  0.0000E+00  0.0000E+00  0.0000E+00  0.0000E+00  0.0000E+00  0.0000E+00  0.0000E+00  0.0000E+00  0.0000E+00  0.0000E+00  0.0000E+00  0.0000E+00  0.0000E+00  0.0000E+00  0.0000E+00  0.0000E+00  0.0000E+00  0.0000E+00  0.0000E+00  0.0000E+00  0.0000E+00  0.0000E+00  0.0000E+00  0.0000E+00  0.0000E+00  0.0000E+00  0.0000E+00  0.0000E+00  0.0000E+00  0.0000E+00  0.0000E+00  0.0000E+00  0.0000E+00  0.0000E+00  0.0000E+00  0.0000E+00  0.0000E+00  0.0000E+00  0.0000E+00  0.0000E+00  0.0000E+00  0.0000E+00  0.0000E+00  0.0000E+00  0.0000E+00  0.0000E+00  0.0000E+00  0.0000E+00  0.0000E+00  0.0000E+00  0.0000E+00  0.0000E+00  0.0000E+00  0.0000E+00  0.0000E+00  0.0000E+00  0.0000E+00  0.0000E+00  0.0000E+00  0.0000E+00  0.0000E+00  0.0000E+00
  0.0000E+00  0.0000E+00  0.0000E+00  0.0000E+00  0.0000E+00  0.0000E+00  0.0000E+00  0.0000E+00  0.0000E+00  0.0000E+00  0.0000E+00  0.0000E+00  0.0000E+00  0.0000E+00  0.0000E+00  0.0000E+00  0.0000E+00  0.0000E+00  0.0000E+00  0.0000E+00  0.0000E+00  0.0000E+00  0.0000E+00  0.0000E+00  0.0000E+00  0.0000E+00  0.0000E+00  0.0000E+00  0.0000E+00  0.0000E+00  0.0000E+00  0.0000E+00  0.0000E+00  0.0000E+00  0.0000E+00  0.0000E+00  0.0000E+00  0.0000E+00  0.0000E+00  0.0000E+00  0.0000E+00  0.0000E+00  0.0000E+00  0.0000E+00  0.0000E+00  0.0000E+00  0.0000E+00  0.0000E+00  0.0000E+00  0.0000E+00  0.0000E+00  0.0000E+00  0.0000E+00  0.0000E+00  0.0000E+00  0.0000E+00  0.0000E+00  0.0000E+00  0.0000E+00  0.0000E+00  0.0000E+00  0.0000E+00  0.0000E+00  0.0000E+00  0.0000E+00  0.0000E+00  0.0000E+00  0.0000E+00  0.0000E+00  0.0000E+00  0.0000E+00  0.0000E+00  0.0000E+00  0.0000E+00  0.0000E+00  0.0000E+00  0.0000E+00  0.0000E+00  0.1065E-08
  0.0000E+00  0.0000E+00  0.0000E+00  0.0000E+00  0.0000E+00  0.0000E+00  0.0000E+00  0.0000E+00  0.0000E+00  0.0000E+00  0.0000E+00  0.0000E+00  0.0000E+00  0.0000E+00  0.0000E+00  0.0000E+00  0.0000E+00  0.0000E+00  0.0000E+00  0.0000E+00  0.0000E+00  0.0000E+00  0.0000E+00  0.0000E+00  0.0000E+00  0.0000E+00  0.0000E+00  0.0000E+00  0.0000E+00  0.0000E+00  0.0000E+00  0.0000E+00  0.0000E+00  0.0000E+00  0.0000E+00  0.0000E+00  0.0000E+00  0.0000E+00  0.0000E+00  0.0000E+00  0.0000E+00  0.0000E+00  0.0000E+00  0.0000E+00  0.0000E+00  0.0000E+00  0.0000E+00  0.0000E+00  0.0000E+00  0.0000E+00  0.0000E+00  0.0000E+00  0.0000E+00  0.0000E+00  0.0000E+00  0.0000E+00  0.0000E+00  0.0000E+00  0.0000E+00  0.0000E+00  0.0000E+00  0.0000E+00  0.0000E+00  0.0000E+00  0.0000E+00  0.0000E+00  0.0000E+00  0.0000E+00  0.0000E+00  0.0000E+00  0.0000E+00  0.0000E+00  0.0000E+00  0.0000E+00  0.1185E-08  0.2425E-08  0.3708E-08  0.4441E-08  0.5189E-08
  0.0000E+00  0.0000E+00  0.0000E+00  0.0000E+00  0.0000E+00  0.0000E+00  0.0000E+00  0.0000E+00  0.0000E+00  0.0000E+00  0.0000E+00  0.0000E+00  0.0000E+00  0.0000E+00  0.0000E+00  0.0000E+00  0.0000E+00  0.0000E+00  0.0000E+00  0.0000E+00  0.0000E+00  0.0000E+00  0.0000E+00  0.0000E+00  0.0000E+00  0.0000E+00  0.0000E+00  0.0000E+00  0.0000E+00  0.0000E+00  0.0000E+00  0.0000E+00  0.0000E+00  0.0000E+00  0.0000E+00  0.0000E+00  0.0000E+00  0.0000E+00  0.0000E+00  0.0000E+00  0.0000E+00  0.0000E+00  0.0000E+00  0.0000E+00  0.0000E+00  0.0000E+00  0.0000E+00  0.0000E+00  0.0000E+00  0.0000E+00  0.0000E+00  0.0000E+00  0.0000E+00  0.0000E+00  0.0000E+00  0.0000E+00  0.0000E+00  0.0000E+00  0.0000E+00  0.0000E+00  0.0000E+00  0.0000E+00  0.0000E+00  0.0000E+00  0.0000E+00  0.0000E+00  0.0000E+00  0.0000E+00  0.0000E+00  0.0000E+00  0.6532E-09  0.2017E-08  0.3460E-08  0.4972E-08  0.6540E-08  0.7477E-08  0.9118E-08  0.1078E-07  0.1244E-07
  0.0000E+00  0.0000E+00  0.0000E+00  0.0000E+00  0.0000E+00  0.0000E+00  0.0000E+00  0.0000E+00  0.0000E+00  0.0000E+00  0.0000E+00  0.0000E+00  0.0000E+00  0.0000E+00  0.0000E+00  0.0000E+00  0.0000E+00  0.0000E+00  0.0000E+00  0.0000E+00  0.0000E+00  0.0000E+00  0.0000E+00  0.0000E+00  0.0000E+00  0.0000E+00  0.0000E+00  0.0000E+00  0.0000E+00  0.0000E+00  0.0000E+00  0.0000E+00  0.0000E+00  0.0000E+00  0.0000E+00  0.0000E+00  0.0000E+00  0.0000E+00  0.0000E+00  0.0000E+00  0.0000E+00  0.0000E+00  0.0000E+00  0.0000E+00  0.0000E+00  0.0000E+00  0.0000E+00  0.0000E+00  0.0000E+00  0.0000E+00  0.0000E+00  0.0000E+00  0.0000E+00  0.0000E+00  0.0000E+00  0.0000E+00  0.0000E+00  0.0000E+00  0.0000E+00  0.0000E+00  0.0000E+00  0.0000E+00  0.0000E+00  0.0000E+00  0.0000E+00  0.0000E+00  0.0000E+00  0.1432E-08  0.2992E-08  0.4668E-08  0.6448E-08  0.8315E-08  0.1025E-07  0.1225E-07  0.1428E-07  0.1632E-07  0.1761E-07  0.1887E-07  0.2088E-07
  0.0000E+00  0.0000E+00  0.0000E+00  0.0000E+00  0.0000E+00  0.0000E+00  0.0000E+00  0.0000E+00  0.0000E+00  0.0000E+00  0.0000E+00  0.6418E-08  0.1569E-07  0.2588E-07  0.3711E-07  0.4952E-07  0.6328E-07  0.6802E-07  0.6844E-07  0.6870E-07  0.6879E-07  0.6870E-07  0.6637E-07  0.5948E-07  0.5210E-07  0.4423E-07  0.3310E-07  0.2401E-07  0.1437E-07  0.6482E-09  0.0000E+00  0.0000E+00  0.0000E+00  0.0000E+00  0.0000E+00  0.0000E+00  0.0000E+00  0.0000E+00  0.0000E+00  0.0000E+00  0.0000E+00  0.0000E+00  0.0000E+00  0.0000E+00  0.0000E+00  0.0000E+00  0.0000E+00  0.0000E+00  0.0000E+00  0.0000E+00  0.0000E+00  0.0000E+00  0.0000E+00  0.0000E+00  0.0000E+00  0.0000E+00  0.0000E+00  0.0000E+00  0.0000E+00  0.0000E+00  0.0000E+00  0.0000E+00  0.0000E+00  0.0000E+00  0.1568E-08  0.3313E-08  0.6036E-08  0.8121E-08  0.1034E-07  0.1267E-07  0.1510E-07  0.1760E-07  0.2015E-07  0.2272E-07  0.2439E-07  0.2695E-07  0.3376E-07  0.3456E-07  0.3522E-07
  0.0000E+00  0.0000E+00  0.0000E+00  0.0000E+00  0.6493E-08  0.1593E-07  0.2378E-07  0.3233E-07  0.4165E-07  0.5182E-07  0.6293E-07  0.7210E-07  0.7361E-07  0.7497E-07  0.7618E-07  0.7721E-07  0.7877E-07  0.7946E-07  0.7997E-07  0.8028E-07  0.8039E-07  0.8031E-07  0.8003E-07  0.7955E-07  0.7888E-07  0.7802E-07  0.7698E-07  0.7576E-07  0.7438E-07  0.7284E-07  0.6260E-07  0.5106E-07  0.3954E-07  0.2733E-07  0.1113E-07  0.0000E+00  0.0000E+00  0.0000E+00  0.0000E+00  0.0000E+00  0.0000E+00  0.0000E+00  0.0000E+00  0.0000E+00  0.0000E+00  0.0000E+00  0.0000E+00  0.0000E+00  0.0000E+00  0.0000E+00  0.0000E+00  0.0000E+00  0.0000E+00  0.0000E+00  0.0000E+00  0.0000E+00  0.0000E+00  0.0000E+00  0.0000E+00  0.0000E+00  0.0000E+00  0.1671E-08  0.3579E-08  0.6600E-08  0.8988E-08  0.1158E-07  0.1434E-07  0.1822E-07  0.2130E-07  0.2448E-07  0.2772E-07  0.3100E-07  0.3926E-07  0.4068E-07  0.4189E-07  0.4920E-07  0.5027E-07  0.5111E-07  0.5447E-07
  0.1114E-07  0.1624E-07  0.2432E-07  0.3314E-07  0.4281E-07  0.5340E-07  0.6165E-07  0.7414E-07  0.7709E-07  0.7927E-07  0.8133E-07  0.8394E-07  0.8572E-07  0.8732E-07  0.8874E-07  0.9071E-07  0.9175E-07  0.9258E-07  0.9318E-07  0.9356E-07  0.9371E-07  0.9363E-07  0.9331E-07  0.9276E-07  0.9199E-07  0.9100E-07  0.8979E-07  0.8837E-07  0.8676E-07  0.8497E-07  0.8300E-07  0.8088E-07  0.7789E-07  0.7552E-07  0.6883E-07  0.5520E-07  0.3997E-07  0.2441E-07  0.7693E-08  0.0000E+00  0.0000E+00  0.0000E+00  0.0000E+00  0.0000E+00  0.0000E+00  0.0000E+00  0.0000E+00  0.0000E+00  0.0000E+00  0.0000E+00  0.0000E+00  0.0000E+00  0.0000E+00  0.0000E+00  0.0000E+00  0.0000E+00  0.0000E+00  0.0000E+00  0.8907E-09  0.2867E-08  0.6071E-08  0.8697E-08  0.1264E-07  0.1587E-07  0.2039E-07  0.2412E-07  0.2916E-07  0.3325E-07  0.4024E-07  0.4638E-07  0.4849E-07  0.5760E-07  0.5960E-07  0.6126E-07  0.6910E-07  0.7042E-07  0.7141E-07  0.7767E-07  0.7823E-07
  0.3687E-07  0.4411E-07  0.5510E-07  0.6383E-07  0.7687E-07  0.8047E-07  0.8334E-07  0.8680E-07  0.8950E-07  0.9206E-07  0.9447E-07  0.9747E-07  0.9957E-07  0.1015E-06  0.1039E-06  0.1054E-06  0.1066E-06  0.1076E-06  0.1083E-06  0.1088E-06  0.1098E-06  0.1097E-06  0.1094E-06  0.1088E-06  0.1079E-06  0.1067E-06  0.1053E-06  0.1037E-06  0.1010E-06  0.9890E-07  0.9662E-07  0.9414E-07  0.9150E-07  0.8871E-07  0.8504E-07  0.8204E-07  0.7894E-07  0.7506E-07  0.6113E-07  0.4649E-07  0.2755E-07  0.7681E-08  0.0000E+00  0.0000E+00  0.1871E-08  0.1939E-08  0.3964E-08  0.4069E-08  0.6190E-08  0.6290E-08  0.6355E-08  0.8485E-08  0.8482E-08  0.8429E-08  0.7281E-08  0.6131E-08  0.4993E-08  0.5276E-08  0.8055E-08  0.1228E-07  0.1703E-07  0.2106E-07  0.2662E-07  0.3260E-07  0.3766E-07  0.4613E-07  0.5380E-07  0.6099E-07  0.6832E-07  0.7137E-07  0.8145E-07  0.8409E-07  0.8625E-07  0.9461E-07  0.9614E-07  0.9721E-07  0.1036E-06  0.1040E-06  0.1041E-06
  0.6133E-07  0.7436E-07  0.8199E-07  0.8552E-07  0.8900E-07  0.9312E-07  0.9648E-07  0.1004E-06  0.1036E-06  0.1066E-06  0.1102E-06  0.1129E-06  0.1153E-06  0.1176E-06  0.1204E-06  0.1221E-06  0.1236E-06  0.1247E-06  0.1256E-06  0.1271E-06  0.1273E-06  0.1273E-06  0.1269E-06  0.1262E-06  0.1252E-06  0.1239E-06  0.1222E-06  0.1203E-06  0.1181E-06  0.1157E-06  0.1122E-06  0.1093E-06  0.1062E-06  0.1030E-06  0.9957E-07  0.9525E-07  0.9165E-07  0.8795E-07  0.8346E-07  0.7971E-07  0.7713E-07  0.6479E-07  0.4622E-07  0.2446E-07  0.9027E-08  0.1164E-07  0.1208E-07  0.1484E-07  0.1647E-07  0.1806E-07  0.1835E-07  0.2111E-07  0.2121E-07  0.2117E-07  0.2099E-07  0.2069E-07  0.2074E-07  0.2032E-07  0.2087E-07  0.2714E-07  0.3394E-07  0.3997E-07  0.5134E-07  0.6074E-07  0.6988E-07  0.7932E-07  0.8809E-07  0.9682E-07  0.1010E-06  0.1121E-06  0.1155E-06  0.1181E-06  0.1270E-06  0.1286E-06  0.1297E-06  0.1361E-06  0.1362E-06  0.1358E-06  0.1350E-06
  0.8571E-07  0.8982E-07  0.9461E-07  0.9871E-07  0.1028E-06  0.1075E-06  0.1114E-06  0.1160E-06  0.1196E-06  0.1231E-06  0.1273E-06  0.1304E-06  0.1333E-06  0.1359E-06  0.1391E-06  0.1412E-06  0.1429E-06  0.1443E-06  0.1463E-06  0.1470E-06  0.1473E-06  0.1473E-06  0.1469E-06  0.1461E-06  0.1449E-06  0.1434E-06  0.1416E-06  0.1394E-06  0.1368E-06  0.1340E-06  0.1309E-06  0.1276E-06  0.1231E-06  0.1193E-06  0.1153E-06  0.1104E-06  0.1062E-06  0.1038E-06  0.1008E-06  0.9874E-07  0.9693E-07  0.9354E-07  0.9221E-07  0.8503E-07  0.6856E-07  0.5002E-07  0.2498E-07  0.3010E-07  0.3400E-07  0.3504E-07  0.3891E-07  0.4487E-07  0.5075E-07  0.5121E-07  0.5127E-07  0.5146E-07  0.5234E-07  0.5401E-07  0.5667E-07  0.5518E-07  0.6612E-07  0.7748E-07  0.8943E-07  0.1009E-06  0.1126E-06  0.1232E-06  0.1336E-06  0.1391E-06  0.1514E-06  0.1555E-06  0.1586E-06  0.1678E-06  0.1695E-06  0.1704E-06  0.1765E-06  0.1762E-06  0.1751E-06  0.1736E-06  0.1767E-06
  0.9860E-07  0.1034E-06  0.1081E-06  0.1136E-06  0.1183E-06  0.1237E-06  0.1283E-06  0.1335E-06  0.1378E-06  0.1419E-06  0.1466E-06  0.1502E-06  0.1536E-06  0.1576E-06  0.1604E-06  0.1628E-06  0.1648E-06  0.1675E-06  0.1688E-06  0.1696E-06  0.1701E-06  0.1701E-06  0.1696E-06  0.1687E-06  0.1674E-06  0.1657E-06  0.1636E-06  0.1610E-06  0.1581E-06  0.1549E-06  0.1513E-06  0.1474E-06  0.1432E-06  0.1378E-06  0.1342E-06  0.1315E-06  0.1279E-06  0.1245E-06  0.1222E-06  0.1194E-06  0.1177E-06  0.1156E-06  0.1146E-06  0.1146E-06  0.1144E-06  0.1124E-06  0.9770E-07  0.8316E-07  0.5835E-07  0.6072E-07  0.7330E-07  0.7532E-07  0.7677E-07  0.7763E-07  0.7843E-07  0.7985E-07  0.8201E-07  0.8514E-07  0.8939E-07  0.9667E-07  0.1064E-06  0.1266E-06  0.1410E-06  0.1553E-06  0.1683E-06  0.1806E-06  0.1874E-06  0.2011E-06  0.2059E-06  0.2094E-06  0.2189E-06  0.2204E-06  0.2208E-06  0.2265E-06  0.2253E-06  0.2234E-06  0.2207E-06  0.2228E-06  0.2191E-06
  0.1124E-06  0.1186E-06  0.1241E-06  0.1304E-06  0.1358E-06  0.1420E-06  0.1473E-06  0.1533E-06  0.1583E-06  0.1630E-06  0.1685E-06  0.1727E-06  0.1766E-06  0.1812E-06  0.1845E-06  0.1873E-06  0.1897E-06  0.1928E-06  0.1943E-06  0.1954E-06  0.1959E-06  0.1959E-06  0.1966E-06  0.1957E-06  0.1942E-06  0.1922E-06  0.1898E-06  0.1869E-06  0.1823E-06  0.1786E-06  0.1745E-06  0.1700E-06  0.1661E-06  0.1630E-06  0.1590E-06  0.1562E-06  0.1536E-06  0.1502E-06  0.1481E-06  0.1455E-06  0.1442E-06  0.1447E-06  0.1435E-06  0.1429E-06  0.1512E-06  0.1492E-06  0.1588E-06  0.1577E-06  0.1419E-06  0.1262E-06  0.1058E-06  0.1089E-06  0.1111E-06  0.1130E-06  0.1155E-06  0.1185E-06  0.1225E-06  0.1275E-06  0.1362E-06  0.1499E-06  0.1741E-06  0.1922E-06  0.2097E-06  0.2209E-06  0.2399E-06  0.2484E-06  0.2634E-06  0.2689E-06  0.2727E-06  0.2823E-06  0.2834E-06  0.2830E-06  0.2879E-06  0.2855E-06  0.2822E-06  0.2780E-06  0.2786E-06  0.2733E-06  0.2674E-06
  0.1287E-06  0.1358E-06  0.1421E-06  0.1493E-06  0.1556E-06  0.1627E-06  0.1688E-06  0.1747E-06  0.1814E-06  0.1869E-06  0.1931E-06  0.1981E-06  0.2027E-06  0.2080E-06  0.2118E-06  0.2151E-06  0.2191E-06  0.2215E-06  0.2233E-06  0.2246E-06  0.2253E-06  0.2266E-06  0.2262E-06  0.2251E-06  0.2235E-06  0.2212E-06  0.2184E-06  0.2151E-06  0.2112E-06  0.2069E-06  0.2008E-06  0.1976E-06  0.1944E-06  0.1912E-06  0.1892E-06  0.1852E-06  0.1826E-06  0.1804E-06  0.1775E-06  0.1776E-06  0.1760E-06  0.1760E-06  0.1835E-06  0.1931E-06  0.1925E-06  0.2038E-06  0.2044E-06  0.2048E-06  0.2168E-06  0.2170E-06  0.1991E-06  0.1639E-06  0.1566E-06  0.1607E-06  0.1653E-06  0.1706E-06  0.1768E-06  0.1870E-06  0.2052E-06  0.2345E-06  0.2521E-06  0.2784E-06  0.2927E-06  0.3144E-06  0.3247E-06  0.3411E-06  0.3472E-06  0.3511E-06  0.3605E-06  0.3608E-06  0.3593E-06  0.3629E-06  0.3588E-06  0.3536E-06  0.3473E-06  0.3460E-06  0.3384E-06  0.3302E-06  0.3217E-06
  0.1469E-06  0.1550E-06  0.1623E-06  0.1704E-06  0.1777E-06  0.1858E-06  0.1928E-06  0.1997E-06  0.2073E-06  0.2137E-06  0.2209E-06  0.2266E-06  0.2320E-06  0.2381E-06  0.2425E-06  0.2464E-06  0.2511E-06  0.2539E-06  0.2561E-06  0.2576E-06  0.2599E-06  0.2601E-06  0.2596E-06  0.2585E-06  0.2566E-06  0.2541E-06  0.2509E-06  0.2471E-06  0.2427E-06  0.2396E-06  0.2363E-06  0.2329E-06  0.2282E-06  0.2249E-06  0.2218E-06  0.2189E-06  0.2153E-06  0.2161E-06  0.2137E-06  0.2132E-06  0.2201E-06  0.2298E-06  0.2350E-06  0.2424E-06  0.2550E-06  0.2588E-06  0.2616E-06  0.2754E-06  0.2789E-06  0.2808E-06  0.2817E-06  0.2827E-06  0.2560E-06  0.2239E-06  0.2313E-06  0.2394E-06  0.2515E-06  0.2744E-06  0.3099E-06  0.3328E-06  0.3638E-06  0.3819E-06  0.4066E-06  0.4189E-06  0.4367E-06  0.4434E-06  0.4470E-06  0.4560E-06  0.4550E-06  0.4518E-06  0.4536E-06  0.4472E-06  0.4394E-06  0.4305E-06  0.4265E-06  0.4160E-06  0.4049E-06  0.3934E-06  0.3817E-06
  0.1673E-06  0.1765E-06  0.1849E-06  0.1941E-06  0.2025E-06  0.2107E-06  0.2198E-06  0.2277E-06  0.2365E-06  0.2439E-06  0.2521E-06  0.2588E-06  0.2650E-06  0.2720E-06  0.2772E-06  0.2818E-06  0.2872E-06  0.2905E-06  0.2931E-06  0.3049E-06  0.3065E-06  0.3072E-06  0.3070E-06  0.3054E-06  0.3035E-06  0.3007E-06  0.2971E-06  0.2927E-06  0.2895E-06  0.2870E-06  0.2833E-06  0.2794E-06  0.2755E-06  0.2639E-06  0.2609E-06  0.2583E-06  0.2563E-06  0.2551E-06  0.2583E-06  0.2660E-06  0.2773E-06  0.2842E-06  0.2994E-06  0.3093E-06  0.3205E-06  0.3274E-06  0.3448E-06  0.3517E-06  0.3570E-06  0.3610E-06  0.3650E-06  0.3684E-06  0.3721E-06  0.3675E-06  0.3286E-06  0.3323E-06  0.3601E-06  0.4031E-06  0.4325E-06  0.4692E-06  0.4916E-06  0.5199E-06  0.5344E-06  0.5537E-06  0.5606E-06  0.5638E-06  0.5717E-06  0.5690E-06  0.5635E-06  0.5628E-06  0.5533E-06  0.5423E-06  0.5298E-06  0.5224E-06  0.5082E-06  0.4935E-06  0.4783E-06  0.4629E-06  0.4523E-06
  0.1899E-06  0.1994E-06  0.2100E-06  0.2195E-06  0.2301E-06  0.2395E-06  0.2499E-06  0.2590E-06  0.2690E-06  0.2776E-06  0.2870E-06  0.2947E-06  0.3025E-06  0.3112E-06  0.3186E-06  0.3333E-06  0.3400E-06  0.3447E-06  0.3498E-06  0.3638E-06  0.3661E-06  0.3674E-06  0.3676E-06  0.3667E-06  0.3646E-06  0.3614E-06  0.3581E-06  0.3534E-06  0.3498E-06  0.3445E-06  0.3390E-06  0.3238E-06  0.3198E-06  0.3160E-06  0.3152E-06  0.3124E-06  0.3104E-06  0.3080E-06  0.3181E-06  0.3298E-06  0.3455E-06  0.3622E-06  0.3710E-06  0.3913E-06  0.4024E-06  0.4242E-06  0.4348E-06  0.4455E-06  0.4545E-06  0.4625E-06  0.4708E-06  0.4904E-06  0.4918E-06  0.4941E-06  0.5061E-06  0.5051E-06  0.5126E-06  0.5557E-06  0.5990E-06  0.6266E-06  0.6592E-06  0.6762E-06  0.6969E-06  0.7036E-06  0.7058E-06  0.7122E-06  0.7067E-06  0.6981E-06  0.6940E-06  0.6806E-06  0.6653E-06  0.6485E-06  0.6364E-06  0.6174E-06  0.5980E-06  0.5783E-06  0.5634E-06  0.5431E-06  0.5233E-06
  0.2151E-06  0.2260E-06  0.2379E-06  0.2488E-06  0.2608E-06  0.2716E-06  0.2835E-06  0.2939E-06  0.3059E-06  0.3164E-06  0.3285E-06  0.3382E-06  0.3481E-06  0.3679E-06  0.3768E-06  0.3949E-06  0.4029E-06  0.4100E-06  0.4161E-06  0.4312E-06  0.4354E-06  0.4382E-06  0.4388E-06  0.4381E-06  0.4358E-06  0.4341E-06  0.4313E-06  0.4261E-06  0.4217E-06  0.4152E-06  0.3994E-06  0.3929E-06  0.3859E-06  0.3815E-06  0.3764E-06  0.3625E-06  0.3744E-06  0.3900E-06  0.4042E-06  0.4215E-06  0.4340E-06  0.4463E-06  0.4729E-06  0.4882E-06  0.5178E-06  0.5341E-06  0.5509E-06  0.5670E-06  0.5928E-06  0.6063E-06  0.6208E-06  0.6332E-06  0.6450E-06  0.6543E-06  0.6804E-06  0.7283E-06  0.7680E-06  0.7572E-06  0.7909E-06  0.8277E-06  0.8474E-06  0.8695E-06  0.8760E-06  0.8768E-06  0.8807E-06  0.8721E-06  0.8595E-06  0.8510E-06  0.8326E-06  0.8117E-06  0.7890E-06  0.7717E-06  0.7473E-06  0.7222E-06  0.6963E-06  0.6761E-06  0.6503E-06  0.6250E-06  0.5999E-06
  0.2420E-06  0.2554E-06  0.2678E-06  0.2814E-06  0.2950E-06  0.3074E-06  0.3220E-06  0.3353E-06  0.3498E-06  0.3628E-06  0.3753E-06  0.3976E-06  0.4200E-06  0.4323E-06  0.4439E-06  0.4659E-06  0.4764E-06  0.4857E-06  0.4939E-06  0.5111E-06  0.5167E-06  0.5206E-06  0.5260E-06  0.5255E-06  0.5291E-06  0.5273E-06  0.5240E-06  0.5155E-06  0.4957E-06  0.4900E-06  0.4832E-06  0.4751E-06  0.4685E-06  0.4611E-06  0.4442E-06  0.4577E-06  0.4653E-06  0.4863E-06  0.4974E-06  0.5225E-06  0.5448E-06  0.5756E-06  0.5895E-06  0.6232E-06  0.6492E-06  0.6723E-06  0.6952E-06  0.7305E-06  0.7518E-06  0.7730E-06  0.7935E-06  0.8123E-06  0.8324E-06  0.8693E-06  0.9148E-06  0.9705E-06  0.1023E-05  0.1057E-05  0.1029E-05  0.1051E-05  0.1070E-05  0.1081E-05  0.1080E-05  0.1081E-05  0.1068E-05  0.1050E-05  0.1036E-05  0.1011E-05  0.9838E-06  0.9578E-06  0.9306E-06  0.8985E-06  0.8662E-06  0.8334E-06  0.8061E-06  0.7738E-06  0.7420E-06  0.7108E-06  0.6777E-06
  0.2727E-06  0.2878E-06  0.3020E-06  0.3179E-06  0.3334E-06  0.3501E-06  0.3650E-06  0.3831E-06  0.3984E-06  0.4229E-06  0.4487E-06  0.4653E-06  0.4911E-06  0.5076E-06  0.5233E-06  0.5485E-06  0.5620E-06  0.5816E-06  0.5917E-06  0.6000E-06  0.6174E-06  0.6259E-06  0.6281E-06  0.6341E-06  0.6339E-06  0.6318E-06  0.6173E-06  0.6038E-06  0.5976E-06  0.5916E-06  0.5837E-06  0.5767E-06  0.5684E-06  0.5466E-06  0.5539E-06  0.5709E-06  0.5837E-06  0.5957E-06  0.6237E-06  0.6553E-06  0.6812E-06  0.7105E-06  0.7529E-06  0.7883E-06  0.8158E-06  0.8536E-06  0.8923E-06  0.9235E-06  0.9539E-06  0.9829E-06  0.1011E-05  0.1038E-05  0.1082E-05  0.1141E-05  0.1203E-05  0.1260E-05  0.1307E-05  0.1347E-05  0.1365E-05  0.1314E-05  0.1324E-05  0.1321E-05  0.1318E-05  0.1300E-05  0.1276E-05  0.1255E-05  0.1223E-05  0.1186E-05  0.1149E-05  0.1114E-05  0.1074E-05  0.1033E-05  0.9915E-06  0.9564E-06  0.9163E-06  0.8770E-06  0.8386E-06  0.7985E-06  0.7597E-06
  0.3066E-06  0.3231E-06  0.3416E-06  0.3604E-06  0.3781E-06  0.3980E-06  0.4160E-06  0.4435E-06  0.4724E-06  0.4926E-06  0.5226E-06  0.5435E-06  0.5752E-06  0.5951E-06  0.6327E-06  0.6510E-06  0.6720E-06  0.6914E-06  0.7048E-06  0.7159E-06  0.7244E-06  0.7461E-06  0.7554E-06  0.7467E-06  0.7469E-06  0.7447E-06  0.7403E-06  0.7255E-06  0.7175E-06  0.7096E-06  0.7008E-06  0.6796E-06  0.6697E-06  0.6711E-06  0.6885E-06  0.6973E-06  0.7247E-06  0.7535E-06  0.7878E-06  0.8119E-06  0.8511E-06  0.8938E-06  0.9340E-06  0.9801E-06  0.1030E-05  0.1070E-05  0.1115E-05  0.1158E-05  0.1199E-05  0.1237E-05  0.1276E-05  0.1329E-05  0.1399E-05  0.1473E-05  0.1541E-05  0.1597E-05  0.1643E-05  0.1665E-05  0.1678E-05  0.1679E-05  0.1657E-05  0.1592E-05  0.1568E-05  0.1536E-05  0.1507E-05  0.1466E-05  0.1419E-05  0.1374E-05  0.1326E-05  0.1274E-05  0.1223E-05  0.1173E-05  0.1128E-05  0.1079E-05  0.1031E-05  0.9846E-06  0.9363E-06  0.8901E-06  0.8444E-06
  0.3457E-06  0.3651E-06  0.3861E-06  0.4068E-06  0.4286E-06  0.4492E-06  0.4802E-06  0.5130E-06  0.5475E-06  0.5831E-06  0.6085E-06  0.6490E-06  0.6784E-06  0.7115E-06  0.7475E-06  0.7753E-06  0.8014E-06  0.8214E-06  0.8387E-06  0.8531E-06  0.8687E-06  0.8829E-06  0.8896E-06  0.8932E-06  0.8935E-06  0.8907E-06  0.8851E-06  0.8684E-06  0.8582E-06  0.8490E-06  0.8254E-06  0.8125E-06  0.8139E-06  0.8293E-06  0.8362E-06  0.8633E-06  0.8937E-06  0.9309E-06  0.9589E-06  0.1010E-05  0.1059E-05  0.1108E-05  0.1164E-05  0.1231E-05  0.1278E-05  0.1336E-05  0.1394E-05  0.1442E-05  0.1495E-05  0.1546E-05  0.1614E-05  0.1700E-05  0.1790E-05  0.1876E-05  0.1943E-05  0.1992E-05  0.2025E-05  0.2038E-05  0.2038E-05  0.2017E-05  0.1996E-05  0.1948E-05  0.1846E-05  0.1806E-05  0.1751E-05  0.1692E-05  0.1635E-05  0.1571E-05  0.1508E-05  0.1444E-05  0.1380E-05  0.1325E-05  0.1265E-05  0.1207E-05  0.1150E-05  0.1093E-05  0.1040E-05  0.9828E-06  0.9308E-06
  0.3875E-06  0.4114E-06  0.4340E-06  0.4584E-06  0.4910E-06  0.5261E-06  0.5634E-06  0.6027E-06  0.6333E-06  0.6792E-06  0.7144E-06  0.7664E-06  0.8032E-06  0.8395E-06  0.8830E-06  0.9217E-06  0.9498E-06  0.9751E-06  0.9972E-06  0.1020E-05  0.1041E-05  0.1053E-05  0.1062E-05  0.1066E-05  0.1066E-05  0.1063E-05  0.1051E-05  0.1036E-05  0.1013E-05  0.9998E-06  0.9839E-06  0.9802E-06  0.9918E-06  0.1001E-05  0.1027E-05  0.1058E-05  0.1086E-05  0.1135E-05  0.1190E-05  0.1244E-05  0.1303E-05  0.1370E-05  0.1449E-05  0.1509E-05  0.1582E-05  0.1647E-05  0.1722E-05  0.1801E-05  0.1867E-05  0.1952E-05  0.2053E-05  0.2158E-05  0.2259E-05  0.2339E-05  0.2396E-05  0.2432E-05  0.2448E-05  0.2446E-05  0.2421E-05  0.2392E-05  0.2342E-05  0.2282E-05  0.2212E-05  0.2090E-05  0.2019E-05  0.1949E-05  0.1868E-05  0.1787E-05  0.1705E-05  0.1624E-05  0.1549E-05  0.1477E-05  0.1406E-05  0.1338E-05  0.1273E-05  0.1207E-05  0.1140E-05  0.1079E-05  0.1019E-05
  0.4356E-06  0.4606E-06  0.4876E-06  0.5235E-06  0.5622E-06  0.6038E-06  0.6482E-06  0.6951E-06  0.7395E-06  0.7982E-06  0.8583E-06  0.9000E-06  0.9499E-06  0.9907E-06  0.1048E-05  0.1090E-05  0.1126E-05  0.1157E-05  0.1190E-05  0.1218E-05  0.1239E-05  0.1254E-05  0.1266E-05  0.1271E-05  0.1270E-05  0.1265E-05  0.1247E-05  0.1222E-05  0.1205E-05  0.1187E-05  0.1167E-05  0.1174E-05  0.1193E-05  0.1222E-05  0.1258E-05  0.1287E-05  0.1338E-05  0.1397E-05  0.1446E-05  0.1527E-05  0.1599E-05  0.1680E-05  0.1765E-05  0.1854E-05  0.1949E-05  0.2051E-05  0.2146E-05  0.2229E-05  0.2333E-05  0.2442E-05  0.2566E-05  0.2681E-05  0.2784E-05  0.2854E-05  0.2896E-05  0.2914E-05  0.2909E-05  0.2879E-05  0.2843E-05  0.2782E-05  0.2709E-05  0.2635E-05  0.2546E-05  0.2438E-05  0.2300E-05  0.2203E-05  0.2107E-05  0.2011E-05  0.1917E-05  0.1829E-05  0.1732E-05  0.1640E-05  0.1553E-05  0.1472E-05  0.1394E-05  0.1319E-05  0.1247E-05  0.1174E-05  0.1108E-05
  0.4875E-06  0.5160E-06  0.5548E-06  0.5972E-06  0.6537E-06  0.7036E-06  0.7528E-06  0.8163E-06  0.8792E-06  0.9370E-06  0.1005E-05  0.1061E-05  0.1118E-05  0.1187E-05  0.1241E-05  0.1289E-05  0.1333E-05  0.1377E-05  0.1416E-05  0.1447E-05  0.1472E-05  0.1491E-05  0.1503E-05  0.1510E-05  0.1509E-05  0.1502E-05  0.1468E-05  0.1453E-05  0.1432E-05  0.1408E-05  0.1408E-05  0.1422E-05  0.1448E-05  0.1482E-05  0.1516E-05  0.1567E-05  0.1628E-05  0.1687E-05  0.1774E-05  0.1855E-05  0.1941E-05  0.2050E-05  0.2175E-05  0.2280E-05  0.2402E-05  0.2511E-05  0.2627E-05  0.2750E-05  0.2877E-05  0.3020E-05  0.3146E-05  0.3268E-05  0.3353E-05  0.3404E-05  0.3425E-05  0.3420E-05  0.3385E-05  0.3339E-05  0.3267E-05  0.3181E-05  0.3092E-05  0.2987E-05  0.2875E-05  0.2766E-05  0.2626E-05  0.2467E-05  0.2354E-05  0.2245E-05  0.2137E-05  0.2024E-05  0.1918E-05  0.1816E-05  0.1717E-05  0.1618E-05  0.1522E-05  0.1433E-05  0.1348E-05  0.1271E-05  0.1198E-05
  0.5431E-06  0.5849E-06  0.6410E-06  0.6920E-06  0.7472E-06  0.8133E-06  0.8847E-06  0.9486E-06  0.1029E-05  0.1112E-05  0.1181E-05  0.1251E-05  0.1316E-05  0.1402E-05  0.1465E-05  0.1524E-05  0.1583E-05  0.1636E-05  0.1681E-05  0.1718E-05  0.1749E-05  0.1771E-05  0.1785E-05  0.1791E-05  0.1776E-05  0.1767E-05  0.1743E-05  0.1723E-05  0.1697E-05  0.1670E-05  0.1702E-05  0.1725E-05  0.1743E-05  0.1787E-05  0.1836E-05  0.1897E-05  0.1964E-05  0.2049E-05  0.2142E-05  0.2251E-05  0.2382E-05  0.2504E-05  0.2640E-05  0.2778E-05  0.2923E-05  0.3063E-05  0.3201E-05  0.3355E-05  0.3513E-05  0.3662E-05  0.3809E-05  0.3901E-05  0.3965E-05  0.3992E-05  0.3988E-05  0.3949E-05  0.3895E-05  0.3810E-05  0.3708E-05  0.3603E-05  0.3478E-05  0.3346E-05  0.3217E-05  0.3075E-05  0.2934E-05  0.2769E-05  0.2604E-05  0.2476E-05  0.2348E-05  0.2226E-05  0.2108E-05  0.1990E-05  0.1874E-05  0.1765E-05  0.1662E-05  0.1562E-05  0.1463E-05  0.1367E-05  0.1288E-05
  0.6124E-06  0.6718E-06  0.7269E-06  0.7871E-06  0.8638E-06  0.9475E-06  0.1033E-05  0.1125E-05  0.1203E-05  0.1298E-05  0.1387E-05  0.1468E-05  0.1557E-05  0.1651E-05  0.1728E-05  0.1804E-05  0.1876E-05  0.1937E-05  0.1992E-05  0.2037E-05  0.2073E-05  0.2100E-05  0.2102E-05  0.2108E-05  0.2105E-05  0.2083E-05  0.2062E-05  0.2036E-05  0.1994E-05  0.2026E-05  0.2043E-05  0.2067E-05  0.2106E-05  0.2158E-05  0.2204E-05  0.2282E-05  0.2368E-05  0.2459E-05  0.2602E-05  0.2737E-05  0.2865E-05  0.3017E-05  0.3192E-05  0.3348E-05  0.3516E-05  0.3683E-05  0.3871E-05  0.4061E-05  0.4228E-05  0.4394E-05  0.4501E-05  0.4587E-05  0.4609E-05  0.4613E-05  0.4570E-05  0.4508E-05  0.4412E-05  0.4294E-05  0.4170E-05  0.4025E-05  0.3871E-05  0.3719E-05  0.3553E-05  0.3388E-05  0.3225E-05  0.3071E-05  0.2881E-05  0.2700E-05  0.2559E-05  0.2422E-05  0.2287E-05  0.2158E-05  0.2034E-05  0.1914E-05  0.1801E-05  0.1691E-05  0.1582E-05  0.1481E-05  0.1380E-05
  0.7001E-06  0.7590E-06  0.8358E-06  0.9234E-06  0.1011E-05  0.1111E-05  0.1201E-05  0.1306E-05  0.1406E-05  0.1521E-05  0.1624E-05  0.1728E-05  0.1831E-05  0.1943E-05  0.2037E-05  0.2134E-05  0.2215E-05  0.2290E-05  0.2355E-05  0.2409E-05  0.2451E-05  0.2468E-05  0.2486E-05  0.2492E-05  0.2485E-05  0.2463E-05  0.2424E-05  0.2395E-05  0.2394E-05  0.2434E-05  0.2446E-05  0.2484E-05  0.2530E-05  0.2570E-05  0.2643E-05  0.2726E-05  0.2857E-05  0.2970E-05  0.3116E-05  0.3256E-05  0.3424E-05  0.3609E-05  0.3802E-05  0.3999E-05  0.4196E-05  0.4415E-05  0.4625E-05  0.4837E-05  0.5024E-05  0.5157E-05  0.5261E-05  0.5294E-05  0.5303E-05  0.5251E-05  0.5182E-05  0.5073E-05  0.4939E-05  0.4797E-05  0.4631E-05  0.4454E-05  0.4276E-05  0.4085E-05  0.3894E-05  0.3705E-05  0.3525E-05  0.3343E-05  0.3159E-05  0.2955E-05  0.2770E-05  0.2615E-05  0.2466E-05  0.2324E-05  0.2183E-05  0.2052E-05  0.1930E-05  0.1810E-05  0.1706E-05  0.1592E-05  0.1489E-05
  0.7989E-06  0.8693E-06  0.9627E-06  0.1063E-05  0.1172E-05  0.1287E-05  0.1410E-05  0.1522E-05  0.1654E-05  0.1781E-05  0.1901E-05  0.2032E-05  0.2153E-05  0.2286E-05  0.2404E-05  0.2516E-05  0.2616E-05  0.2705E-05  0.2783E-05  0.2832E-05  0.2882E-05  0.2917E-05  0.2937E-05  0.2942E-05  0.2924E-05  0.2891E-05  0.2865E-05  0.2834E-05  0.2885E-05  0.2895E-05  0.2925E-05  0.2968E-05  0.2999E-05  0.3065E-05  0.3179E-05  0.3276E-05  0.3389E-05  0.3526E-05  0.3686E-05  0.3866E-05  0.4070E-05  0.4286E-05  0.4511E-05  0.4740E-05  0.4992E-05  0.5237E-05  0.5481E-05  0.5687E-05  0.5860E-05  0.5978E-05  0.6035E-05  0.6052E-05  0.5999E-05  0.5925E-05  0.5797E-05  0.5648E-05  0.5486E-05  0.5296E-05  0.5094E-05  0.4890E-05  0.4674E-05  0.4453E-05  0.4236E-05  0.4029E-05  0.3819E-05  0.3612E-05  0.3415E-05  0.3212E-05  0.2998E-05  0.2807E-05  0.2644E-05  0.2484E-05  0.2335E-05  0.2193E-05  0.2058E-05  0.1934E-05  0.1809E-05  0.1697E-05  0.1591E-05
  0.8983E-06  0.1009E-05  0.1121E-05  0.1241E-05  0.1368E-05  0.1490E-05  0.1633E-05  0.1773E-05  0.1935E-05  0.2079E-05  0.2230E-05  0.2382E-05  0.2529E-05  0.2692E-05  0.2834E-05  0.2962E-05  0.3065E-05  0.3172E-05  0.3264E-05  0.3339E-05  0.3397E-05  0.3437E-05  0.3458E-05  0.3448E-05  0.3432E-05  0.3411E-05  0.3383E-05  0.3358E-05  0.3423E-05  0.3450E-05  0.3477E-05  0.3513E-05  0.3590E-05  0.3674E-05  0.3750E-05  0.3862E-05  0.3996E-05  0.4158E-05  0.4346E-05  0.4563E-05  0.4799E-05  0.5039E-05  0.5314E-05  0.5601E-05  0.5879E-05  0.6156E-05  0.6399E-05  0.6606E-05  0.6753E-05  0.6827E-05  0.6845E-05  0.6805E-05  0.6717E-05  0.6588E-05  0.6414E-05  0.6234E-05  0.6022E-05  0.5794E-05  0.5563E-05  0.5317E-05  0.5069E-05  0.4819E-05  0.4582E-05  0.4343E-05  0.4107E-05  0.3882E-05  0.3665E-05  0.3456E-05  0.3228E-05  0.3011E-05  0.2815E-05  0.2646E-05  0.2485E-05  0.2328E-05  0.2182E-05  0.2041E-05  0.1914E-05  0.1794E-05  0.1683E-05
  0.1038E-05  0.1156E-05  0.1285E-05  0.1428E-05  0.1579E-05  0.1742E-05  0.1902E-05  0.2066E-05  0.2254E-05  0.2432E-05  0.2614E-05  0.2792E-05  0.2973E-05  0.3150E-05  0.3314E-05  0.3469E-05  0.3611E-05  0.3737E-05  0.3845E-05  0.3933E-05  0.4002E-05  0.4050E-05  0.4060E-05  0.4059E-05  0.4044E-05  0.4020E-05  0.3972E-05  0.4036E-05  0.4062E-05  0.4077E-05  0.4117E-05  0.4176E-05  0.4222E-05  0.4303E-05  0.4403E-05  0.4528E-05  0.4684E-05  0.4873E-05  0.5097E-05  0.5347E-05  0.5612E-05  0.5913E-05  0.6223E-05  0.6552E-05  0.6868E-05  0.7147E-05  0.7392E-05  0.7569E-05  0.7670E-05  0.7702E-05  0.7667E-05  0.7579E-05  0.7440E-05  0.7251E-05  0.7052E-05  0.6808E-05  0.6553E-05  0.6294E-05  0.6018E-05  0.5739E-05  0.5457E-05  0.5189E-05  0.4918E-05  0.4651E-05  0.4395E-05  0.4148E-05  0.3911E-05  0.3682E-05  0.3459E-05  0.3218E-05  0.2997E-05  0.2806E-05  0.2629E-05  0.2465E-05  0.2303E-05  0.2163E-05  0.2019E-05  0.1892E-05  0.1772E-05
  0.1217E-05  0.1364E-05  0.1520E-05  0.1685E-05  0.1849E-05  0.2044E-05  0.2231E-05  0.2447E-05  0.2645E-05  0.2863E-05  0.3069E-05  0.3277E-05  0.3495E-05  0.3697E-05  0.3891E-05  0.4074E-05  0.4241E-05  0.4389E-05  0.4516E-05  0.4621E-05  0.4701E-05  0.4742E-05  0.4774E-05  0.4778E-05  0.4774E-05  0.4736E-05  0.4697E-05  0.4796E-05  0.4803E-05  0.4840E-05  0.4862E-05  0.4881E-05  0.4935E-05  0.5022E-05  0.5123E-05  0.5274E-05  0.5442E-05  0.5679E-05  0.5939E-05  0.6215E-05  0.6542E-05  0.6885E-05  0.7249E-05  0.7591E-05  0.7922E-05  0.8195E-05  0.8418E-05  0.8556E-05  0.8609E-05  0.8583E-05  0.8496E-05  0.8351E-05  0.8149E-05  0.7932E-05  0.7668E-05  0.7388E-05  0.7091E-05  0.6784E-05  0.6472E-05  0.6156E-05  0.5855E-05  0.5550E-05  0.5249E-05  0.4961E-05  0.4683E-05  0.4419E-05  0.4154E-05  0.3904E-05  0.3659E-05  0.3427E-05  0.3188E-05  0.2961E-05  0.2774E-05  0.2600E-05  0.2429E-05  0.2264E-05  0.2121E-05  0.1986E-05  0.1849E-05
  0.1432E-05  0.1599E-05  0.1781E-05  0.1978E-05  0.2176E-05  0.2407E-05  0.2631E-05  0.2880E-05  0.3131E-05  0.3381E-05  0.3640E-05  0.3889E-05  0.4137E-05  0.4371E-05  0.4594E-05  0.4794E-05  0.4981E-05  0.5148E-05  0.5297E-05  0.5401E-05  0.5499E-05  0.5570E-05  0.5609E-05  0.5598E-05  0.5588E-05  0.5550E-05  0.5608E-05  0.5625E-05  0.5641E-05  0.5646E-05  0.5656E-05  0.5692E-05  0.5756E-05  0.5825E-05  0.5963E-05  0.6115E-05  0.6339E-05  0.6567E-05  0.6860E-05  0.7203E-05  0.7572E-05  0.7971E-05  0.8352E-05  0.8724E-05  0.9040E-05  0.9306E-05  0.9469E-05  0.9560E-05  0.9539E-05  0.9467E-05  0.9310E-05  0.9112E-05  0.8866E-05  0.8587E-05  0.8274E-05  0.7958E-05  0.7610E-05  0.7264E-05  0.6916E-05  0.6579E-05  0.6239E-05  0.5903E-05  0.5581E-05  0.5269E-05  0.4970E-05  0.4678E-05  0.4393E-05  0.4128E-05  0.3869E-05  0.3621E-05  0.3366E-05  0.3134E-05  0.2917E-05  0.2726E-05  0.2543E-05  0.2379E-05  0.2222E-05  0.2070E-05  0.1946E-05
  0.1664E-05  0.1858E-05  0.2059E-05  0.2292E-05  0.2545E-05  0.2815E-05  0.3112E-05  0.3435E-05  0.3733E-05  0.4046E-05  0.4367E-05  0.4674E-05  0.4966E-05  0.5236E-05  0.5488E-05  0.5726E-05  0.5936E-05  0.6100E-05  0.6244E-05  0.6359E-05  0.6451E-05  0.6522E-05  0.6533E-05  0.6540E-05  0.6515E-05  0.6461E-05  0.6543E-05  0.6546E-05  0.6531E-05  0.6528E-05  0.6536E-05  0.6554E-05  0.6616E-05  0.6726E-05  0.6854E-05  0.7066E-05  0.7294E-05  0.7589E-05  0.7921E-05  0.8339E-05  0.8762E-05  0.9166E-05  0.9555E-05  0.9914E-05  0.1022E-04  0.1043E-04  0.1055E-04  0.1055E-04  0.1049E-04  0.1034E-04  0.1013E-04  0.9873E-05  0.9571E-05  0.9230E-05  0.8885E-05  0.8507E-05  0.8127E-05  0.7738E-05  0.7362E-05  0.6985E-05  0.6617E-05  0.6254E-05  0.5906E-05  0.5573E-05  0.5248E-05  0.4930E-05  0.4633E-05  0.4350E-05  0.4066E-05  0.3803E-05  0.3552E-05  0.3305E-05  0.3067E-05  0.2847E-05  0.2663E-05  0.2483E-05  0.2319E-05  0.2169E-05  0.2018E-05
  0.1906E-05  0.2133E-05  0.2416E-05  0.2706E-05  0.3037E-05  0.3377E-05  0.3714E-05  0.4098E-05  0.4456E-05  0.4829E-05  0.5200E-05  0.5560E-05  0.5897E-05  0.6228E-05  0.6531E-05  0.6813E-05  0.7049E-05  0.7260E-05  0.7422E-05  0.7529E-05  0.7607E-05  0.7626E-05  0.7607E-05  0.7586E-05  0.7522E-05  0.7520E-05  0.7580E-05  0.7544E-05  0.7521E-05  0.7497E-05  0.7481E-05  0.7515E-05  0.7574E-05  0.7688E-05  0.7867E-05  0.8078E-05  0.8356E-05  0.8685E-05  0.9113E-05  0.9553E-05  0.1002E-04  0.1047E-04  0.1085E-04  0.1120E-04  0.1143E-04  0.1157E-04  0.1161E-04  0.1156E-04  0.1142E-04  0.1120E-04  0.1093E-04  0.1061E-04  0.1025E-04  0.9871E-05  0.9462E-05  0.9041E-05  0.8625E-05  0.8202E-05  0.7789E-05  0.7385E-05  0.6988E-05  0.6598E-05  0.6231E-05  0.5868E-05  0.5515E-05  0.5185E-05  0.4869E-05  0.4559E-05  0.4266E-05  0.3990E-05  0.3733E-05  0.3467E-05  0.3225E-05  0.2994E-05  0.2774E-05  0.2585E-05  0.2413E-05  0.2245E-05  0.2099E-05
  0.2243E-05  0.2554E-05  0.2897E-05  0.3263E-05  0.3632E-05  0.4024E-05  0.4435E-05  0.4886E-05  0.5318E-05  0.5756E-05  0.6189E-05  0.6614E-05  0.7015E-05  0.7412E-05  0.7745E-05  0.8079E-05  0.8356E-05  0.8585E-05  0.8753E-05  0.8857E-05  0.8926E-05  0.8921E-05  0.8878E-05  0.8778E-05  0.8657E-05  0.8703E-05  0.8689E-05  0.8640E-05  0.8597E-05  0.8544E-05  0.8536E-05  0.8545E-05  0.8625E-05  0.8767E-05  0.8945E-05  0.9198E-05  0.9529E-05  0.9939E-05  0.1039E-04  0.1089E-04  0.1136E-04  0.1181E-04  0.1219E-04  0.1249E-04  0.1267E-04  0.1274E-04  0.1270E-04  0.1256E-04  0.1232E-04  0.1205E-04  0.1170E-04  0.1133E-04  0.1092E-04  0.1048E-04  0.1003E-04  0.9573E-05  0.9114E-05  0.8663E-05  0.8211E-05  0.7774E-05  0.7355E-05  0.6943E-05  0.6544E-05  0.6154E-05  0.5788E-05  0.5437E-05  0.5095E-05  0.4769E-05  0.4461E-05  0.4174E-05  0.3894E-05  0.3635E-05  0.3376E-05  0.3119E-05  0.2888E-05  0.2692E-05  0.2502E-05  0.2333E-05  0.2180E-05
  0.2687E-05  0.3066E-05  0.3447E-05  0.3878E-05  0.4334E-05  0.4793E-05  0.5290E-05  0.5813E-05  0.6343E-05  0.6864E-05  0.7375E-05  0.7881E-05  0.8361E-05  0.8789E-05  0.9201E-05  0.9551E-05  0.9857E-05  0.1009E-04  0.1024E-04  0.1036E-04  0.1041E-04  0.1038E-04  0.1029E-04  0.1016E-04  0.9991E-05  0.1000E-04  0.9901E-05  0.9800E-05  0.9732E-05  0.9679E-05  0.9639E-05  0.9679E-05  0.9762E-05  0.9909E-05  0.1012E-04  0.1043E-04  0.1082E-04  0.1128E-04  0.1180E-04  0.1230E-04  0.1280E-04  0.1322E-04  0.1357E-04  0.1380E-04  0.1390E-04  0.1388E-04  0.1377E-04  0.1354E-04  0.1326E-04  0.1289E-04  0.1249E-04  0.1206E-04  0.1159E-04  0.1110E-04  0.1062E-04  0.1012E-04  0.9617E-05  0.9135E-05  0.8653E-05  0.8195E-05  0.7741E-05  0.7300E-05  0.6860E-05  0.6448E-05  0.6060E-05  0.5683E-05  0.5320E-05  0.4978E-05  0.4667E-05  0.4347E-05  0.4065E-05  0.3796E-05  0.3509E-05  0.3252E-05  0.3015E-05  0.2790E-05  0.2591E-05  0.2416E-05  0.2243E-05
  0.3201E-05  0.3643E-05  0.4100E-05  0.4617E-05  0.5157E-05  0.5722E-05  0.6301E-05  0.6933E-05  0.7572E-05  0.8215E-05  0.8832E-05  0.9391E-05  0.9942E-05  0.1045E-04  0.1090E-04  0.1130E-04  0.1161E-04  0.1184E-04  0.1200E-04  0.1205E-04  0.1202E-04  0.1196E-04  0.1184E-04  0.1164E-04  0.1155E-04  0.1146E-04  0.1127E-04  0.1108E-04  0.1096E-04  0.1088E-04  0.1086E-04  0.1088E-04  0.1098E-04  0.1113E-04  0.1141E-04  0.1176E-04  0.1223E-04  0.1275E-04  0.1329E-04  0.1382E-04  0.1429E-04  0.1469E-04  0.1497E-04  0.1511E-04  0.1512E-04  0.1501E-04  0.1480E-04  0.1450E-04  0.1413E-04  0.1369E-04  0.1323E-04  0.1273E-04  0.1221E-04  0.1169E-04  0.1116E-04  0.1062E-04  0.1010E-04  0.9577E-05  0.9081E-05  0.8583E-05  0.8110E-05  0.7640E-05  0.7197E-05  0.6771E-05  0.6355E-05  0.5945E-05  0.5563E-05  0.5202E-05  0.4851E-05  0.4535E-05  0.4235E-05  0.3933E-05  0.3653E-05  0.3387E-05  0.3132E-05  0.2896E-05  0.2684E-05  0.2482E-05  0.2317E-05
  0.3827E-05  0.4328E-05  0.4905E-05  0.5506E-05  0.6143E-05  0.6817E-05  0.7532E-05  0.8308E-05  0.9061E-05  0.9810E-05  0.1052E-04  0.1120E-04  0.1183E-04  0.1241E-04  0.1291E-04  0.1330E-04  0.1362E-04  0.1384E-04  0.1392E-04  0.1395E-04  0.1390E-04  0.1379E-04  0.1352E-04  0.1327E-04  0.1317E-04  0.1298E-04  0.1278E-04  0.1253E-04  0.1233E-04  0.1221E-04  0.1214E-04  0.1219E-04  0.1227E-04  0.1249E-04  0.1280E-04  0.1324E-04  0.1375E-04  0.1432E-04  0.1487E-04  0.1539E-04  0.1583E-04  0.1616E-04  0.1636E-04  0.1641E-04  0.1632E-04  0.1612E-04  0.1582E-04  0.1543E-04  0.1498E-04  0.1449E-04  0.1394E-04  0.1340E-04  0.1283E-04  0.1226E-04  0.1169E-04  0.1113E-04  0.1058E-04  0.1003E-04  0.9511E-05  0.8992E-05  0.8479E-05  0.8004E-05  0.7524E-05  0.7068E-05  0.6631E-05  0.6219E-05  0.5828E-05  0.5435E-05  0.5071E-05  0.4724E-05  0.4385E-05  0.4095E-05  0.3800E-05  0.3515E-05  0.3263E-05  0.3005E-05  0.2760E-05  0.2567E-05  0.2388E-05
  0.4532E-05  0.5136E-05  0.5826E-05  0.6541E-05  0.7334E-05  0.8183E-05  0.9076E-05  0.9972E-05  0.1087E-04  0.1173E-04  0.1257E-04  0.1335E-04  0.1408E-04  0.1471E-04  0.1522E-04  0.1563E-04  0.1594E-04  0.1610E-04  0.1613E-04  0.1610E-04  0.1597E-04  0.1570E-04  0.1542E-04  0.1511E-04  0.1493E-04  0.1465E-04  0.1436E-04  0.1411E-04  0.1387E-04  0.1371E-04  0.1362E-04  0.1362E-04  0.1375E-04  0.1398E-04  0.1437E-04  0.1484E-04  0.1540E-04  0.1597E-04  0.1653E-04  0.1701E-04  0.1740E-04  0.1765E-04  0.1775E-04  0.1768E-04  0.1749E-04  0.1720E-04  0.1681E-04  0.1633E-04  0.1581E-04  0.1524E-04  0.1465E-04  0.1406E-04  0.1344E-04  0.1284E-04  0.1223E-04  0.1165E-04  0.1106E-04  0.1050E-04  0.9951E-05  0.9407E-05  0.8893E-05  0.8369E-05  0.7862E-05  0.7381E-05  0.6930E-05  0.6492E-05  0.6059E-05  0.5667E-05  0.5295E-05  0.4933E-05  0.4587E-05  0.4245E-05  0.3947E-05  0.3656E-05  0.3366E-05  0.3095E-05  0.2878E-05  0.2649E-05  0.2444E-05
  0.5363E-05  0.6097E-05  0.6943E-05  0.7849E-05  0.8818E-05  0.9853E-05  0.1088E-04  0.1198E-04  0.1303E-04  0.1405E-04  0.1503E-04  0.1594E-04  0.1671E-04  0.1741E-04  0.1795E-04  0.1836E-04  0.1859E-04  0.1866E-04  0.1867E-04  0.1851E-04  0.1824E-04  0.1793E-04  0.1751E-04  0.1722E-04  0.1691E-04  0.1650E-04  0.1616E-04  0.1582E-04  0.1555E-04  0.1536E-04  0.1524E-04  0.1521E-04  0.1537E-04  0.1566E-04  0.1608E-04  0.1662E-04  0.1718E-04  0.1775E-04  0.1827E-04  0.1869E-04  0.1898E-04  0.1910E-04  0.1910E-04  0.1891E-04  0.1864E-04  0.1823E-04  0.1777E-04  0.1721E-04  0.1664E-04  0.1600E-04  0.1537E-04  0.1472E-04  0.1406E-04  0.1343E-04  0.1279E-04  0.1217E-04  0.1157E-04  0.1098E-04  0.1041E-04  0.9860E-05  0.9317E-05  0.8790E-05  0.8244E-05  0.7707E-05  0.7229E-05  0.6766E-05  0.6331E-05  0.5909E-05  0.5507E-05  0.5127E-05  0.4762E-05  0.4429E-05  0.4106E-05  0.3774E-05  0.3482E-05  0.3219E-05  0.2961E-05  0.2712E-05  0.2506E-05
  0.6383E-05  0.7294E-05  0.8296E-05  0.9437E-05  0.1060E-04  0.1183E-04  0.1312E-04  0.1439E-04  0.1565E-04  0.1686E-04  0.1800E-04  0.1900E-04  0.1989E-04  0.2062E-04  0.2118E-04  0.2153E-04  0.2168E-04  0.2173E-04  0.2159E-04  0.2130E-04  0.2095E-04  0.2047E-04  0.1994E-04  0.1957E-04  0.1908E-04  0.1863E-04  0.1816E-04  0.1776E-04  0.1740E-04  0.1715E-04  0.1702E-04  0.1701E-04  0.1715E-04  0.1749E-04  0.1795E-04  0.1852E-04  0.1908E-04  0.1961E-04  0.2006E-04  0.2041E-04  0.2056E-04  0.2058E-04  0.2042E-04  0.2014E-04  0.1974E-04  0.1926E-04  0.1870E-04  0.1808E-04  0.1744E-04  0.1676E-04  0.1608E-04  0.1539E-04  0.1471E-04  0.1404E-04  0.1338E-04  0.1273E-04  0.1211E-04  0.1150E-04  0.1090E-04  0.1034E-04  0.9763E-05  0.9220E-05  0.8703E-05  0.8114E-05  0.7542E-05  0.7063E-05  0.6598E-05  0.6151E-05  0.5728E-05  0.5320E-05  0.4947E-05  0.4593E-05  0.4241E-05  0.3931E-05  0.3620E-05  0.3317E-05  0.3036E-05  0.2790E-05  0.2576E-05
  0.7546E-05  0.8659E-05  0.9932E-05  0.1129E-04  0.1275E-04  0.1427E-04  0.1582E-04  0.1735E-04  0.1883E-04  0.2025E-04  0.2156E-04  0.2273E-04  0.2372E-04  0.2449E-04  0.2502E-04  0.2532E-04  0.2542E-04  0.2532E-04  0.2503E-04  0.2457E-04  0.2405E-04  0.2336E-04  0.2280E-04  0.2220E-04  0.2154E-04  0.2095E-04  0.2036E-04  0.1983E-04  0.1942E-04  0.1907E-04  0.1895E-04  0.1897E-04  0.1918E-04  0.1951E-04  0.1999E-04  0.2054E-04  0.2108E-04  0.2153E-04  0.2192E-04  0.2211E-04  0.2215E-04  0.2202E-04  0.2175E-04  0.2135E-04  0.2083E-04  0.2027E-04  0.1962E-04  0.1895E-04  0.1824E-04  0.1754E-04  0.1680E-04  0.1609E-04  0.1538E-04  0.1468E-04  0.1402E-04  0.1335E-04  0.1271E-04  0.1207E-04  0.1145E-04  0.1086E-04  0.1026E-04  0.9694E-05  0.9146E-05  0.8602E-05  0.7977E-05  0.7370E-05  0.6879E-05  0.6406E-05  0.5955E-05  0.5534E-05  0.5137E-05  0.4742E-05  0.4393E-05  0.4066E-05  0.3742E-05  0.3422E-05  0.3137E-05  0.2876E-05  0.2637E-05
  0.8968E-05  0.1045E-04  0.1197E-04  0.1367E-04  0.1543E-04  0.1731E-04  0.1919E-04  0.2109E-04  0.2294E-04  0.2463E-04  0.2612E-04  0.2741E-04  0.2828E-04  0.2906E-04  0.2957E-04  0.2971E-04  0.2970E-04  0.2944E-04  0.2891E-04  0.2829E-04  0.2747E-04  0.2658E-04  0.2590E-04  0.2505E-04  0.2424E-04  0.2345E-04  0.2272E-04  0.2208E-04  0.2157E-04  0.2120E-04  0.2106E-04  0.2110E-04  0.2135E-04  0.2174E-04  0.2221E-04  0.2271E-04  0.2321E-04  0.2360E-04  0.2383E-04  0.2389E-04  0.2381E-04  0.2354E-04  0.2308E-04  0.2253E-04  0.2196E-04  0.2127E-04  0.2057E-04  0.1982E-04  0.1908E-04  0.1831E-04  0.1756E-04  0.1683E-04  0.1610E-04  0.1538E-04  0.1470E-04  0.1401E-04  0.1336E-04  0.1271E-04  0.1207E-04  0.1145E-04  0.1083E-04  0.1022E-04  0.9642E-05  0.9073E-05  0.8509E-05  0.7833E-05  0.7175E-05  0.6673E-05  0.6204E-05  0.5756E-05  0.5316E-05  0.4919E-05  0.4551E-05  0.4193E-05  0.3841E-05  0.3549E-05  0.3249E-05  0.2965E-05  0.2713E-05
  0.1082E-04  0.1261E-04  0.1454E-04  0.1660E-04  0.1883E-04  0.2113E-04  0.2343E-04  0.2578E-04  0.2797E-04  0.2990E-04  0.3163E-04  0.3300E-04  0.3401E-04  0.3467E-04  0.3487E-04  0.3464E-04  0.3441E-04  0.3384E-04  0.3315E-04  0.3219E-04  0.3118E-04  0.3020E-04  0.2917E-04  0.2807E-04  0.2706E-04  0.2611E-04  0.2523E-04  0.2447E-04  0.2385E-04  0.2349E-04  0.2333E-04  0.2342E-04  0.2367E-04  0.2410E-04  0.2458E-04  0.2502E-04  0.2541E-04  0.2569E-04  0.2578E-04  0.2569E-04  0.2545E-04  0.2507E-04  0.2459E-04  0.2403E-04  0.2340E-04  0.2274E-04  0.2202E-04  0.2123E-04  0.2037E-04  0.1950E-04  0.1860E-04  0.1773E-04  0.1687E-04  0.1616E-04  0.1545E-04  0.1475E-04  0.1408E-04  0.1341E-04  0.1276E-04  0.1211E-04  0.1146E-04  0.1082E-04  0.1021E-04  0.9602E-05  0.9002E-05  0.8372E-05  0.7625E-05  0.6981E-05  0.6463E-05  0.5969E-05  0.5521E-05  0.5102E-05  0.4698E-05  0.4327E-05  0.3984E-05  0.3647E-05  0.3341E-05  0.3067E-05  0.2835E-05
  0.1315E-04  0.1532E-04  0.1770E-04  0.2033E-04  0.2305E-04  0.2586E-04  0.2870E-04  0.3144E-04  0.3393E-04  0.3613E-04  0.3801E-04  0.3939E-04  0.4039E-04  0.4081E-04  0.4095E-04  0.4064E-04  0.3985E-04  0.3885E-04  0.3751E-04  0.3632E-04  0.3498E-04  0.3383E-04  0.3254E-04  0.3121E-04  0.2998E-04  0.2883E-04  0.2783E-04  0.2694E-04  0.2630E-04  0.2591E-04  0.2578E-04  0.2587E-04  0.2618E-04  0.2658E-04  0.2704E-04  0.2742E-04  0.2767E-04  0.2778E-04  0.2772E-04  0.2752E-04  0.2715E-04  0.2669E-04  0.2609E-04  0.2545E-04  0.2490E-04  0.2425E-04  0.2354E-04  0.2274E-04  0.2192E-04  0.2108E-04  0.2019E-04  0.1930E-04  0.1837E-04  0.1747E-04  0.1653E-04  0.1567E-04  0.1496E-04  0.1430E-04  0.1355E-04  0.1284E-04  0.1217E-04  0.1150E-04  0.1085E-04  0.1020E-04  0.9544E-05  0.8937E-05  0.8236E-05  0.7414E-05  0.6725E-05  0.6228E-05  0.5740E-05  0.5278E-05  0.4857E-05  0.4473E-05  0.4100E-05  0.3757E-05  0.3460E-05  0.3187E-05  0.2916E-05
  0.1599E-04  0.1866E-04  0.2164E-04  0.2480E-04  0.2815E-04  0.3152E-04  0.3491E-04  0.3808E-04  0.4086E-04  0.4326E-04  0.4522E-04  0.4663E-04  0.4750E-04  0.4772E-04  0.4757E-04  0.4693E-04  0.4590E-04  0.4457E-04  0.4289E-04  0.4102E-04  0.3910E-04  0.3742E-04  0.3587E-04  0.3433E-04  0.3289E-04  0.3157E-04  0.3045E-04  0.2948E-04  0.2880E-04  0.2842E-04  0.2834E-04  0.2844E-04  0.2878E-04  0.2917E-04  0.2954E-04  0.2984E-04  0.2997E-04  0.2988E-04  0.2967E-04  0.2935E-04  0.2889E-04  0.2833E-04  0.2782E-04  0.2740E-04  0.2688E-04  0.2614E-04  0.2538E-04  0.2457E-04  0.2380E-04  0.2294E-04  0.2210E-04  0.2122E-04  0.2032E-04  0.1944E-04  0.1857E-04  0.1768E-04  0.1690E-04  0.1611E-04  0.1533E-04  0.1446E-04  0.1361E-04  0.1263E-04  0.1156E-04  0.1086E-04  0.1017E-04  0.9494E-05  0.8800E-05  0.8014E-05  0.7184E-05  0.6469E-05  0.5950E-05  0.5473E-05  0.5031E-05  0.4612E-05  0.4232E-05  0.3887E-05  0.3581E-05  0.3277E-05  0.2989E-05
  0.1941E-04  0.2271E-04  0.2628E-04  0.3016E-04  0.3420E-04  0.3819E-04  0.4207E-04  0.4563E-04  0.4876E-04  0.5138E-04  0.5332E-04  0.5467E-04  0.5533E-04  0.5545E-04  0.5494E-04  0.5396E-04  0.5262E-04  0.5088E-04  0.4877E-04  0.4655E-04  0.4444E-04  0.4269E-04  0.4108E-04  0.3921E-04  0.3774E-04  0.3622E-04  0.3407E-04  0.3268E-04  0.3206E-04  0.3169E-04  0.3151E-04  0.3151E-04  0.3165E-04  0.3189E-04  0.3211E-04  0.3223E-04  0.3223E-04  0.3201E-04  0.3168E-04  0.3123E-04  0.3082E-04  0.3044E-04  0.3022E-04  0.2986E-04  0.2925E-04  0.2855E-04  0.2781E-04  0.2704E-04  0.2629E-04  0.2553E-04  0.2477E-04  0.2393E-04  0.2306E-04  0.2211E-04  0.2107E-04  0.2002E-04  0.1903E-04  0.1805E-04  0.1712E-04  0.1612E-04  0.1513E-04  0.1412E-04  0.1313E-04  0.1217E-04  0.1096E-04  0.1013E-04  0.9431E-05  0.8629E-05  0.7758E-05  0.6897E-05  0.6192E-05  0.5683E-05  0.5202E-05  0.4767E-05  0.4378E-05  0.4031E-05  0.3686E-05  0.3361E-05  0.3062E-05
  0.2341E-04  0.2742E-04  0.3179E-04  0.3644E-04  0.4113E-04  0.4580E-04  0.5023E-04  0.5416E-04  0.5761E-04  0.6031E-04  0.6235E-04  0.6358E-04  0.6418E-04  0.6411E-04  0.6330E-04  0.6212E-04  0.6045E-04  0.5841E-04  0.5607E-04  0.5353E-04  0.5213E-04  0.5322E-04  0.5830E-04  0.6454E-04  0.6790E-04  0.6766E-04  0.6646E-04  0.6485E-04  0.6283E-04  0.5982E-04  0.5419E-04  0.4661E-04  0.3863E-04  0.3507E-04  0.3530E-04  0.3465E-04  0.3445E-04  0.3416E-04  0.3384E-04  0.3362E-04  0.3350E-04  0.3346E-04  0.3328E-04  0.3287E-04  0.3236E-04  0.3179E-04  0.3119E-04  0.3060E-04  0.2999E-04  0.2935E-04  0.2862E-04  0.2783E-04  0.2690E-04  0.2588E-04  0.2470E-04  0.2345E-04  0.2211E-04  0.2080E-04  0.1960E-04  0.1836E-04  0.1707E-04  0.1582E-04  0.1459E-04  0.1347E-04  0.1236E-04  0.1126E-04  0.1012E-04  0.9260E-05  0.8386E-05  0.7510E-05  0.6612E-05  0.5904E-05  0.5396E-05  0.4945E-05  0.4547E-05  0.4157E-05  0.3785E-05  0.3450E-05  0.3155E-05
  0.2809E-04  0.3287E-04  0.3807E-04  0.4351E-04  0.4899E-04  0.5432E-04  0.5923E-04  0.6359E-04  0.6724E-04  0.7016E-04  0.7219E-04  0.7351E-04  0.7407E-04  0.7380E-04  0.7306E-04  0.7177E-04  0.7003E-04  0.6794E-04  0.6544E-04  0.6355E-04  0.6535E-04  0.7671E-04  0.1044E-03  0.1421E-03  0.1714E-03  0.1819E-03  0.1861E-03  0.1918E-03  0.1948E-03  0.1895E-03  0.1666E-03  0.1178E-03  0.5942E-04  0.4152E-04  0.3897E-04  0.3755E-04  0.3691E-04  0.3675E-04  0.3696E-04  0.3710E-04  0.3726E-04  0.3743E-04  0.3736E-04  0.3716E-04  0.3685E-04  0.3659E-04  0.3625E-04  0.3582E-04  0.3535E-04  0.3476E-04  0.3410E-04  0.3324E-04  0.3230E-04  0.3116E-04  0.2982E-04  0.2824E-04  0.2652E-04  0.2475E-04  0.2301E-04  0.2136E-04  0.1966E-04  0.1803E-04  0.1649E-04  0.1502E-04  0.1369E-04  0.1245E-04  0.1130E-04  0.1014E-04  0.9088E-05  0.8157E-05  0.7212E-05  0.6300E-05  0.5621E-05  0.5144E-05  0.4700E-05  0.4283E-05  0.3895E-05  0.3552E-05  0.3236E-05
  0.3339E-04  0.3912E-04  0.4519E-04  0.5145E-04  0.5767E-04  0.6357E-04  0.6893E-04  0.7369E-04  0.7766E-04  0.8075E-04  0.8285E-04  0.8429E-04  0.8489E-04  0.8490E-04  0.8432E-04  0.8324E-04  0.8169E-04  0.7999E-04  0.7809E-04  0.7762E-04  0.8401E-04  0.1105E-03  0.1712E-03  0.2542E-03  0.3126E-03  0.3132E-03  0.2800E-03  0.2432E-03  0.1995E-03  0.1451E-03  0.9517E-04  0.6740E-04  0.6732E-04  0.8771E-04  0.5532E-04  0.4302E-04  0.4376E-04  0.4371E-04  0.4374E-04  0.4401E-04  0.4430E-04  0.4445E-04  0.4438E-04  0.4429E-04  0.4415E-04  0.4399E-04  0.4374E-04  0.4337E-04  0.4295E-04  0.4238E-04  0.4164E-04  0.4073E-04  0.3962E-04  0.3826E-04  0.3665E-04  0.3472E-04  0.3253E-04  0.3012E-04  0.2770E-04  0.2532E-04  0.2308E-04  0.2088E-04  0.1886E-04  0.1697E-04  0.1531E-04  0.1378E-04  0.1247E-04  0.1122E-04  0.1002E-04  0.8887E-05  0.7861E-05  0.6913E-05  0.6040E-05  0.5336E-05  0.4860E-05  0.4415E-05  0.4014E-05  0.3650E-05  0.3312E-05
  0.3947E-04  0.4605E-04  0.5296E-04  0.6001E-04  0.6692E-04  0.7337E-04  0.7919E-04  0.8421E-04  0.8842E-04  0.9165E-04  0.9411E-04  0.9567E-04  0.9651E-04  0.9683E-04  0.9666E-04  0.9604E-04  0.9527E-04  0.9438E-04  0.9372E-04  0.9488E-04  0.1044E-03  0.1385E-03  0.2130E-03  0.3117E-03  0.3686E-03  0.3364E-03  0.2499E-03  0.1742E-03  0.1298E-03  0.1077E-03  0.9305E-04  0.9683E-04  0.1945E-03  0.1191E-03  0.8829E-04  0.5587E-04  0.5743E-04  0.5819E-04  0.5810E-04  0.5844E-04  0.5890E-04  0.5880E-04  0.5814E-04  0.5723E-04  0.5635E-04  0.5538E-04  0.5457E-04  0.5401E-04  0.5334E-04  0.5251E-04  0.5152E-04  0.5035E-04  0.4892E-04  0.4723E-04  0.4522E-04  0.4284E-04  0.4011E-04  0.3707E-04  0.3379E-04  0.3053E-04  0.2742E-04  0.2451E-04  0.2181E-04  0.1939E-04  0.1725E-04  0.1540E-04  0.1377E-04  0.1240E-04  0.1105E-04  0.9792E-05  0.8667E-05  0.7597E-05  0.6593E-05  0.5729E-05  0.5025E-05  0.4564E-05  0.4141E-05  0.3750E-05  0.3389E-05
  0.4608E-04  0.5357E-04  0.6133E-04  0.6909E-04  0.7650E-04  0.8332E-04  0.8951E-04  0.9484E-04  0.9915E-04  0.1026E-03  0.1053E-03  0.1071E-03  0.1084E-03  0.1090E-03  0.1092E-03  0.1092E-03  0.1091E-03  0.1091E-03  0.1096E-03  0.1117E-03  0.1207E-03  0.1495E-03  0.2106E-03  0.2927E-03  0.3445E-03  0.3241E-03  0.2535E-03  0.1891E-03  0.1539E-03  0.1317E-03  0.1347E-03  0.2495E-03  0.2084E-03  0.1743E-03  0.1368E-03  0.8625E-04  0.8257E-04  0.8410E-04  0.8420E-04  0.8494E-04  0.8597E-04  0.8571E-04  0.8378E-04  0.8067E-04  0.7736E-04  0.7419E-04  0.7146E-04  0.6905E-04  0.6696E-04  0.6480E-04  0.6331E-04  0.6164E-04  0.5981E-04  0.5762E-04  0.5517E-04  0.5229E-04  0.4901E-04  0.4528E-04  0.4119E-04  0.3696E-04  0.3281E-04  0.2893E-04  0.2540E-04  0.2230E-04  0.1960E-04  0.1732E-04  0.1535E-04  0.1369E-04  0.1220E-04  0.1083E-04  0.9554E-05  0.8392E-05  0.7292E-05  0.6338E-05  0.5409E-05  0.4724E-05  0.4267E-05  0.3848E-05  0.3468E-05
  0.5326E-04  0.6156E-04  0.7001E-04  0.7829E-04  0.8601E-04  0.9314E-04  0.9948E-04  0.1048E-03  0.1094E-03  0.1130E-03  0.1157E-03  0.1178E-03  0.1192E-03  0.1201E-03  0.1205E-03  0.1208E-03  0.1210E-03  0.1214E-03  0.1219E-03  0.1232E-03  0.1284E-03  0.1453E-03  0.1841E-03  0.2441E-03  0.3007E-03  0.3237E-03  0.3016E-03  0.2539E-03  0.2047E-03  0.1924E-03  0.2888E-03  0.3243E-03  0.2580E-03  0.2322E-03  0.1908E-03  0.1289E-03  0.1154E-03  0.1161E-03  0.1151E-03  0.1155E-03  0.1176E-03  0.1191E-03  0.1180E-03  0.1141E-03  0.1083E-03  0.1017E-03  0.9533E-04  0.8961E-04  0.8493E-04  0.8088E-04  0.7750E-04  0.7431E-04  0.7146E-04  0.6872E-04  0.6577E-04  0.6247E-04  0.5867E-04  0.5438E-04  0.4959E-04  0.4443E-04  0.3922E-04  0.3421E-04  0.2975E-04  0.2589E-04  0.2254E-04  0.1970E-04  0.1731E-04  0.1532E-04  0.1365E-04  0.1205E-04  0.1065E-04  0.9323E-05  0.8166E-05  0.7060E-05  0.6032E-05  0.5059E-05  0.4391E-05  0.3949E-05  0.3551E-05
  0.6092E-04  0.6982E-04  0.7871E-04  0.8720E-04  0.9512E-04  0.1022E-03  0.1085E-03  0.1139E-03  0.1184E-03  0.1219E-03  0.1246E-03  0.1265E-03  0.1279E-03  0.1287E-03  0.1289E-03  0.1289E-03  0.1286E-03  0.1281E-03  0.1278E-03  0.1278E-03  0.1289E-03  0.1359E-03  0.1571E-03  0.1994E-03  0.2585E-03  0.3155E-03  0.3427E-03  0.3256E-03  0.2987E-03  0.3426E-03  0.3994E-03  0.3161E-03  0.2880E-03  0.2584E-03  0.2204E-03  0.1585E-03  0.1378E-03  0.1361E-03  0.1341E-03  0.1329E-03  0.1353E-03  0.1397E-03  0.1427E-03  0.1428E-03  0.1393E-03  0.1327E-03  0.1244E-03  0.1157E-03  0.1077E-03  0.1007E-03  0.9479E-04  0.8972E-04  0.8562E-04  0.8174E-04  0.7795E-04  0.7399E-04  0.6961E-04  0.6474E-04  0.5929E-04  0.5337E-04  0.4717E-04  0.4103E-04  0.3540E-04  0.3054E-04  0.2639E-04  0.2291E-04  0.2004E-04  0.1770E-04  0.1564E-04  0.1376E-04  0.1205E-04  0.1051E-04  0.9163E-05  0.7895E-05  0.6717E-05  0.5607E-05  0.4691E-05  0.4052E-05  0.3648E-05
  0.6863E-04  0.7789E-04  0.8697E-04  0.9548E-04  0.1033E-03  0.1102E-03  0.1162E-03  0.1213E-03  0.1255E-03  0.1287E-03  0.1311E-03  0.1327E-03  0.1336E-03  0.1337E-03  0.1333E-03  0.1328E-03  0.1323E-03  0.1316E-03  0.1308E-03  0.1304E-03  0.1305E-03  0.1345E-03  0.1489E-03  0.1831E-03  0.2414E-03  0.3136E-03  0.3717E-03  0.4008E-03  0.4313E-03  0.4662E-03  0.3773E-03  0.3064E-03  0.2792E-03  0.2538E-03  0.2220E-03  0.1647E-03  0.1374E-03  0.1331E-03  0.1306E-03  0.1298E-03  0.1320E-03  0.1370E-03  0.1441E-03  0.1505E-03  0.1540E-03  0.1536E-03  0.1493E-03  0.1421E-03  0.1334E-03  0.1245E-03  0.1162E-03  0.1088E-03  0.1025E-03  0.9726E-04  0.9235E-04  0.8739E-04  0.8216E-04  0.7685E-04  0.7071E-04  0.6398E-04  0.5694E-04  0.4965E-04  0.4270E-04  0.3666E-04  0.3154E-04  0.2724E-04  0.2357E-04  0.2048E-04  0.1785E-04  0.1556E-04  0.1352E-04  0.1173E-04  0.1019E-04  0.8785E-05  0.7471E-05  0.6263E-05  0.5112E-05  0.4274E-05  0.3736E-05
  0.7611E-04  0.8546E-04  0.9435E-04  0.1026E-03  0.1100E-03  0.1165E-03  0.1220E-03  0.1266E-03  0.1303E-03  0.1330E-03  0.1348E-03  0.1360E-03  0.1366E-03  0.1367E-03  0.1368E-03  0.1368E-03  0.1372E-03  0.1383E-03  0.1403E-03  0.1435E-03  0.1490E-03  0.1573E-03  0.1717E-03  0.1968E-03  0.2388E-03  0.2970E-03  0.3673E-03  0.4513E-03  0.5258E-03  0.4771E-03  0.3527E-03  0.3154E-03  0.2751E-03  0.2519E-03  0.2181E-03  0.1609E-03  0.1252E-03  0.1160E-03  0.1141E-03  0.1137E-03  0.1157E-03  0.1207E-03  0.1284E-03  0.1379E-03  0.1473E-03  0.1548E-03  0.1587E-03  0.1581E-03  0.1535E-03  0.1461E-03  0.1376E-03  0.1292E-03  0.1216E-03  0.1149E-03  0.1090E-03  0.1029E-03  0.9680E-04  0.9030E-04  0.8340E-04  0.7595E-04  0.6791E-04  0.5962E-04  0.5146E-04  0.4400E-04  0.3774E-04  0.3238E-04  0.2774E-04  0.2381E-04  0.2051E-04  0.1770E-04  0.1528E-04  0.1314E-04  0.1126E-04  0.9615E-05  0.8167E-05  0.6855E-05  0.5639E-05  0.4548E-05  0.3824E-05
  0.8286E-04  0.9193E-04  0.1004E-03  0.1081E-03  0.1149E-03  0.1207E-03  0.1256E-03  0.1296E-03  0.1329E-03  0.1356E-03  0.1377E-03  0.1396E-03  0.1409E-03  0.1426E-03  0.1450E-03  0.1483E-03  0.1531E-03  0.1596E-03  0.1679E-03  0.1763E-03  0.1834E-03  0.1876E-03  0.1903E-03  0.1961E-03  0.2136E-03  0.2580E-03  0.3496E-03  0.4781E-03  0.5305E-03  0.4443E-03  0.3811E-03  0.3569E-03  0.3082E-03  0.2768E-03  0.2337E-03  0.1707E-03  0.1223E-03  0.1042E-03  0.9942E-04  0.9845E-04  0.9961E-04  0.1034E-03  0.1094E-03  0.1180E-03  0.1286E-03  0.1401E-03  0.1501E-03  0.1565E-03  0.1583E-03  0.1560E-03  0.1511E-03  0.1449E-03  0.1384E-03  0.1320E-03  0.1258E-03  0.1193E-03  0.1127E-03  0.1055E-03  0.9779E-04  0.8937E-04  0.8038E-04  0.7119E-04  0.6171E-04  0.5265E-04  0.4461E-04  0.3775E-04  0.3196E-04  0.2712E-04  0.2311E-04  0.1976E-04  0.1689E-04  0.1441E-04  0.1241E-04  0.1056E-04  0.8959E-05  0.7493E-05  0.6216E-05  0.5012E-05  0.4068E-05
  0.8818E-04  0.9664E-04  0.1044E-03  0.1113E-03  0.1176E-03  0.1234E-03  0.1284E-03  0.1327E-03  0.1364E-03  0.1401E-03  0.1438E-03  0.1480E-03  0.1530E-03  0.1595E-03  0.1675E-03  0.1768E-03  0.1863E-03  0.1942E-03  0.1992E-03  0.2002E-03  0.1968E-03  0.1888E-03  0.1783E-03  0.1697E-03  0.1775E-03  0.2272E-03  0.3452E-03  0.4709E-03  0.4877E-03  0.4471E-03  0.4524E-03  0.4415E-03  0.3876E-03  0.3352E-03  0.2809E-03  0.2128E-03  0.1493E-03  0.1150E-03  0.1016E-03  0.9590E-04  0.9417E-04  0.9502E-04  0.9779E-04  0.1032E-03  0.1112E-03  0.1216E-03  0.1328E-03  0.1427E-03  0.1496E-03  0.1532E-03  0.1540E-03  0.1525E-03  0.1494E-03  0.1452E-03  0.1405E-03  0.1346E-03  0.1280E-03  0.1205E-03  0.1123E-03  0.1033E-03  0.9375E-04  0.8322E-04  0.7227E-04  0.6144E-04  0.5152E-04  0.4308E-04  0.3602E-04  0.3023E-04  0.2570E-04  0.2183E-04  0.1854E-04  0.1577E-04  0.1339E-04  0.1135E-04  0.9567E-05  0.8018E-05  0.6599E-05  0.5370E-05  0.4270E-05
  0.9188E-04  0.1002E-03  0.1080E-03  0.1149E-03  0.1214E-03  0.1274E-03  0.1332E-03  0.1389E-03  0.1453E-03  0.1526E-03  0.1615E-03  0.1720E-03  0.1828E-03  0.1931E-03  0.2020E-03  0.2075E-03  0.2088E-03  0.2053E-03  0.1974E-03  0.1858E-03  0.1719E-03  0.1568E-03  0.1417E-03  0.1336E-03  0.1479E-03  0.2136E-03  0.3363E-03  0.4371E-03  0.4669E-03  0.4959E-03  0.5390E-03  0.5359E-03  0.4781E-03  0.4103E-03  0.3537E-03  0.2900E-03  0.2172E-03  0.1634E-03  0.1336E-03  0.1173E-03  0.1079E-03  0.1023E-03  0.1003E-03  0.1011E-03  0.1050E-03  0.1120E-03  0.1209E-03  0.1305E-03  0.1392E-03  0.1464E-03  0.1515E-03  0.1543E-03  0.1548E-03  0.1533E-03  0.1502E-03  0.1461E-03  0.1405E-03  0.1337E-03  0.1255E-03  0.1161E-03  0.1058E-03  0.9415E-04  0.8175E-04  0.6936E-04  0.5782E-04  0.4788E-04  0.3991E-04  0.3322E-04  0.2780E-04  0.2345E-04  0.1986E-04  0.1679E-04  0.1419E-04  0.1199E-04  0.1011E-04  0.8515E-05  0.7111E-05  0.5762E-05  0.4631E-05
  0.9497E-04  0.1038E-03  0.1123E-03  0.1205E-03  0.1289E-03  0.1383E-03  0.1492E-03  0.1607E-03  0.1723E-03  0.1831E-03  0.1923E-03  0.1993E-03  0.2035E-03  0.2044E-03  0.2018E-03  0.1961E-03  0.1875E-03  0.1768E-03  0.1641E-03  0.1512E-03  0.1385E-03  0.1271E-03  0.1189E-03  0.1187E-03  0.1411E-03  0.2094E-03  0.3119E-03  0.3982E-03  0.4580E-03  0.5215E-03  0.5758E-03  0.5810E-03  0.5359E-03  0.4751E-03  0.4297E-03  0.3793E-03  0.3091E-03  0.2430E-03  0.1997E-03  0.1714E-03  0.1515E-03  0.1367E-03  0.1258E-03  0.1198E-03  0.1174E-03  0.1185E-03  0.1229E-03  0.1292E-03  0.1367E-03  0.1439E-03  0.1499E-03  0.1545E-03  0.1575E-03  0.1583E-03  0.1574E-03  0.1547E-03  0.1506E-03  0.1446E-03  0.1368E-03  0.1271E-03  0.1158E-03  0.1028E-03  0.8917E-04  0.7561E-04  0.6300E-04  0.5197E-04  0.4305E-04  0.3565E-04  0.2961E-04  0.2478E-04  0.2088E-04  0.1764E-04  0.1489E-04  0.1268E-04  0.1065E-04  0.8920E-05  0.7374E-05  0.6018E-05  0.4833E-05
  0.1001E-03  0.1123E-03  0.1254E-03  0.1386E-03  0.1517E-03  0.1637E-03  0.1746E-03  0.1841E-03  0.1911E-03  0.1958E-03  0.1978E-03  0.1973E-03  0.1941E-03  0.1883E-03  0.1805E-03  0.1706E-03  0.1601E-03  0.1486E-03  0.1381E-03  0.1291E-03  0.1222E-03  0.1190E-03  0.1198E-03  0.1282E-03  0.1540E-03  0.2068E-03  0.2788E-03  0.3458E-03  0.4084E-03  0.4729E-03  0.5288E-03  0.5503E-03  0.5360E-03  0.5055E-03  0.4812E-03  0.4518E-03  0.3944E-03  0.3271E-03  0.2770E-03  0.2436E-03  0.2191E-03  0.1982E-03  0.1798E-03  0.1647E-03  0.1540E-03  0.1474E-03  0.1447E-03  0.1451E-03  0.1473E-03  0.1514E-03  0.1555E-03  0.1596E-03  0.1625E-03  0.1640E-03  0.1644E-03  0.1627E-03  0.1591E-03  0.1538E-03  0.1461E-03  0.1358E-03  0.1232E-03  0.1093E-03  0.9467E-04  0.8029E-04  0.6700E-04  0.5521E-04  0.4561E-04  0.3764E-04  0.3112E-04  0.2590E-04  0.2168E-04  0.1828E-04  0.1554E-04  0.1309E-04  0.1101E-04  0.9208E-05  0.7617E-05  0.6223E-05  0.5040E-05
  0.1122E-03  0.1268E-03  0.1411E-03  0.1540E-03  0.1650E-03  0.1741E-03  0.1811E-03  0.1855E-03  0.1877E-03  0.1873E-03  0.1849E-03  0.1805E-03  0.1741E-03  0.1660E-03  0.1575E-03  0.1486E-03  0.1394E-03  0.1317E-03  0.1267E-03  0.1245E-03  0.1265E-03  0.1329E-03  0.1425E-03  0.1562E-03  0.1751E-03  0.2017E-03  0.2357E-03  0.2728E-03  0.3168E-03  0.3693E-03  0.4216E-03  0.4621E-03  0.4852E-03  0.4932E-03  0.4965E-03  0.4882E-03  0.4488E-03  0.3875E-03  0.3363E-03  0.3038E-03  0.2821E-03  0.2641E-03  0.2449E-03  0.2255E-03  0.2076E-03  0.1934E-03  0.1830E-03  0.1762E-03  0.1729E-03  0.1716E-03  0.1716E-03  0.1728E-03  0.1738E-03  0.1744E-03  0.1739E-03  0.1723E-03  0.1685E-03  0.1626E-03  0.1543E-03  0.1428E-03  0.1292E-03  0.1142E-03  0.9902E-04  0.8411E-04  0.7021E-04  0.5789E-04  0.4770E-04  0.3928E-04  0.3241E-04  0.2687E-04  0.2235E-04  0.1870E-04  0.1590E-04  0.1341E-04  0.1128E-04  0.9416E-05  0.7811E-05  0.6423E-05  0.5180E-05
  0.1184E-03  0.1321E-03  0.1443E-03  0.1546E-03  0.1629E-03  0.1689E-03  0.1726E-03  0.1740E-03  0.1733E-03  0.1709E-03  0.1669E-03  0.1614E-03  0.1548E-03  0.1480E-03  0.1411E-03  0.1350E-03  0.1314E-03  0.1301E-03  0.1334E-03  0.1402E-03  0.1505E-03  0.1624E-03  0.1727E-03  0.1772E-03  0.1822E-03  0.1818E-03  0.1870E-03  0.1995E-03  0.2235E-03  0.2602E-03  0.3073E-03  0.3582E-03  0.4040E-03  0.4420E-03  0.4723E-03  0.4872E-03  0.4690E-03  0.4190E-03  0.3670E-03  0.3333E-03  0.3150E-03  0.3011E-03  0.2867E-03  0.2700E-03  0.2530E-03  0.2368E-03  0.2233E-03  0.2125E-03  0.2047E-03  0.1993E-03  0.1955E-03  0.1931E-03  0.1915E-03  0.1897E-03  0.1877E-03  0.1844E-03  0.1797E-03  0.1724E-03  0.1622E-03  0.1497E-03  0.1349E-03  0.1189E-03  0.1028E-03  0.8753E-04  0.7316E-04  0.6031E-04  0.4936E-04  0.4061E-04  0.3345E-04  0.2768E-04  0.2293E-04  0.1905E-04  0.1612E-04  0.1362E-04  0.1146E-04  0.9557E-05  0.7919E-05  0.6517E-05  0.5378E-05
  0.1174E-03  0.1286E-03  0.1384E-03  0.1464E-03  0.1525E-03  0.1566E-03  0.1587E-03  0.1589E-03  0.1577E-03  0.1552E-03  0.1513E-03  0.1466E-03  0.1423E-03  0.1378E-03  0.1361E-03  0.1368E-03  0.1399E-03  0.1472E-03  0.1575E-03  0.1689E-03  0.1795E-03  0.1856E-03  0.1844E-03  0.1774E-03  0.1643E-03  0.1514E-03  0.1436E-03  0.1442E-03  0.1570E-03  0.1824E-03  0.2202E-03  0.2668E-03  0.3185E-03  0.3694E-03  0.4169E-03  0.4536E-03  0.4584E-03  0.4234E-03  0.3714E-03  0.3314E-03  0.3103E-03  0.2993E-03  0.2914E-03  0.2820E-03  0.2714E-03  0.2602E-03  0.2494E-03  0.2398E-03  0.2314E-03  0.2246E-03  0.2190E-03  0.2143E-03  0.2105E-03  0.2071E-03  0.2031E-03  0.1985E-03  0.1919E-03  0.1829E-03  0.1713E-03  0.1569E-03  0.1410E-03  0.1241E-03  0.1071E-03  0.9089E-04  0.7611E-04  0.6269E-04  0.5115E-04  0.4168E-04  0.3431E-04  0.2834E-04  0.2339E-04  0.1934E-04  0.1623E-04  0.1371E-04  0.1153E-04  0.9618E-05  0.7982E-05  0.6579E-05  0.5460E-05
  0.1124E-03  0.1216E-03  0.1295E-03  0.1360E-03  0.1409E-03  0.1440E-03  0.1455E-03  0.1460E-03  0.1451E-03  0.1432E-03  0.1415E-03  0.1399E-03  0.1396E-03  0.1418E-03  0.1459E-03  0.1539E-03  0.1637E-03  0.1750E-03  0.1854E-03  0.1917E-03  0.1916E-03  0.1837E-03  0.1710E-03  0.1524E-03  0.1351E-03  0.1204E-03  0.1115E-03  0.1105E-03  0.1193E-03  0.1371E-03  0.1659E-03  0.2027E-03  0.2469E-03  0.2967E-03  0.3498E-03  0.3993E-03  0.4256E-03  0.4092E-03  0.3627E-03  0.3162E-03  0.2874E-03  0.2757E-03  0.2721E-03  0.2700E-03  0.2668E-03  0.2616E-03  0.2567E-03  0.2513E-03  0.2458E-03  0.2403E-03  0.2351E-03  0.2304E-03  0.2258E-03  0.2217E-03  0.2167E-03  0.2110E-03  0.2033E-03  0.1930E-03  0.1798E-03  0.1646E-03  0.1474E-03  0.1297E-03  0.1119E-03  0.9482E-04  0.7900E-04  0.6507E-04  0.5291E-04  0.4288E-04  0.3503E-04  0.2879E-04  0.2381E-04  0.1962E-04  0.1619E-04  0.1366E-04  0.1150E-04  0.9622E-05  0.7987E-05  0.6582E-05  0.5430E-05
  0.1067E-03  0.1143E-03  0.1212E-03  0.1268E-03  0.1310E-03  0.1340E-03  0.1363E-03  0.1376E-03  0.1386E-03  0.1401E-03  0.1419E-03  0.1457E-03  0.1512E-03  0.1590E-03  0.1691E-03  0.1803E-03  0.1897E-03  0.1963E-03  0.1973E-03  0.1914E-03  0.1780E-03  0.1604E-03  0.1401E-03  0.1224E-03  0.1073E-03  0.9696E-04  0.9141E-04  0.9150E-04  0.9895E-04  0.1128E-03  0.1343E-03  0.1621E-03  0.1965E-03  0.2389E-03  0.2889E-03  0.3428E-03  0.3834E-03  0.3872E-03  0.3530E-03  0.3053E-03  0.2691E-03  0.2513E-03  0.2459E-03  0.2469E-03  0.2484E-03  0.2489E-03  0.2487E-03  0.2474E-03  0.2459E-03  0.2438E-03  0.2410E-03  0.2378E-03  0.2341E-03  0.2303E-03  0.2258E-03  0.2195E-03  0.2113E-03  0.2003E-03  0.1868E-03  0.1709E-03  0.1535E-03  0.1350E-03  0.1165E-03  0.9882E-04  0.8219E-04  0.6734E-04  0.5470E-04  0.4406E-04  0.3557E-04  0.2920E-04  0.2401E-04  0.1979E-04  0.1620E-04  0.1340E-04  0.1137E-04  0.9544E-05  0.7901E-05  0.6542E-05  0.5422E-05
  0.1015E-03  0.1086E-03  0.1148E-03  0.1201E-03  0.1250E-03  0.1294E-03  0.1329E-03  0.1371E-03  0.1418E-03  0.1471E-03  0.1540E-03  0.1614E-03  0.1704E-03  0.1791E-03  0.1872E-03  0.1933E-03  0.1949E-03  0.1921E-03  0.1828E-03  0.1675E-03  0.1486E-03  0.1276E-03  0.1111E-03  0.9778E-04  0.8797E-04  0.8202E-04  0.7954E-04  0.8108E-04  0.8712E-04  0.9805E-04  0.1144E-03  0.1356E-03  0.1623E-03  0.1972E-03  0.2412E-03  0.2935E-03  0.3422E-03  0.3631E-03  0.3447E-03  0.3028E-03  0.2617E-03  0.2362E-03  0.2250E-03  0.2233E-03  0.2257E-03  0.2287E-03  0.2318E-03  0.2339E-03  0.2357E-03  0.2369E-03  0.2371E-03  0.2362E-03  0.2346E-03  0.2321E-03  0.2283E-03  0.2225E-03  0.2144E-03  0.2038E-03  0.1905E-03  0.1750E-03  0.1575E-03  0.1390E-03  0.1203E-03  0.1020E-03  0.8505E-04  0.6965E-04  0.5629E-04  0.4529E-04  0.3633E-04  0.2936E-04  0.2410E-04  0.1974E-04  0.1614E-04  0.1320E-04  0.1119E-04  0.9379E-05  0.7802E-05  0.6405E-05  0.5258E-05
  0.9838E-04  0.1053E-03  0.1119E-03  0.1185E-03  0.1247E-03  0.1309E-03  0.1376E-03  0.1442E-03  0.1517E-03  0.1592E-03  0.1675E-03  0.1745E-03  0.1813E-03  0.1854E-03  0.1866E-03  0.1842E-03  0.1773E-03  0.1663E-03  0.1509E-03  0.1338E-03  0.1165E-03  0.1022E-03  0.9083E-04  0.8191E-04  0.7606E-04  0.7315E-04  0.7257E-04  0.7373E-04  0.7941E-04  0.8783E-04  0.9982E-04  0.1170E-03  0.1385E-03  0.1673E-03  0.2051E-03  0.2528E-03  0.3036E-03  0.3375E-03  0.3359E-03  0.3033E-03  0.2627E-03  0.2306E-03  0.2129E-03  0.2055E-03  0.2054E-03  0.2080E-03  0.2118E-03  0.2158E-03  0.2197E-03  0.2232E-03  0.2259E-03  0.2276E-03  0.2280E-03  0.2272E-03  0.2247E-03  0.2199E-03  0.2126E-03  0.2029E-03  0.1904E-03  0.1755E-03  0.1588E-03  0.1409E-03  0.1223E-03  0.1042E-03  0.8693E-04  0.7143E-04  0.5778E-04  0.4622E-04  0.3700E-04  0.2966E-04  0.2393E-04  0.1952E-04  0.1598E-04  0.1291E-04  0.1079E-04  0.9149E-05  0.7595E-05  0.6271E-05  0.5117E-05
  0.9775E-04  0.1056E-03  0.1136E-03  0.1214E-03  0.1296E-03  0.1379E-03  0.1457E-03  0.1539E-03  0.1611E-03  0.1682E-03  0.1734E-03  0.1772E-03  0.1785E-03  0.1766E-03  0.1721E-03  0.1638E-03  0.1523E-03  0.1379E-03  0.1227E-03  0.1074E-03  0.9568E-04  0.8556E-04  0.7773E-04  0.7224E-04  0.6894E-04  0.6755E-04  0.6748E-04  0.6849E-04  0.7247E-04  0.7907E-04  0.8862E-04  0.1027E-03  0.1204E-03  0.1442E-03  0.1763E-03  0.2197E-03  0.2696E-03  0.3102E-03  0.3231E-03  0.3035E-03  0.2665E-03  0.2320E-03  0.2086E-03  0.1961E-03  0.1910E-03  0.1910E-03  0.1931E-03  0.1972E-03  0.2017E-03  0.2063E-03  0.2108E-03  0.2142E-03  0.2161E-03  0.2170E-03  0.2159E-03  0.2126E-03  0.2064E-03  0.1978E-03  0.1866E-03  0.1728E-03  0.1571E-03  0.1400E-03  0.1224E-03  0.1046E-03  0.8775E-04  0.7215E-04  0.5842E-04  0.4687E-04  0.3726E-04  0.2979E-04  0.2385E-04  0.1919E-04  0.1559E-04  0.1270E-04  0.1043E-04  0.8745E-05  0.7364E-05  0.6098E-05  0.4977E-05
  0.9986E-04  0.1089E-03  0.1181E-03  0.1274E-03  0.1360E-03  0.1447E-03  0.1522E-03  0.1591E-03  0.1642E-03  0.1681E-03  0.1696E-03  0.1689E-03  0.1653E-03  0.1592E-03  0.1508E-03  0.1402E-03  0.1272E-03  0.1137E-03  0.1005E-03  0.9019E-04  0.8146E-04  0.7461E-04  0.6921E-04  0.6586E-04  0.6388E-04  0.6319E-04  0.6299E-04  0.6337E-04  0.6647E-04  0.7119E-04  0.7928E-04  0.9071E-04  0.1059E-03  0.1261E-03  0.1536E-03  0.1915E-03  0.2378E-03  0.2809E-03  0.3035E-03  0.2976E-03  0.2698E-03  0.2365E-03  0.2097E-03  0.1924E-03  0.1823E-03  0.1786E-03  0.1783E-03  0.1805E-03  0.1843E-03  0.1889E-03  0.1938E-03  0.1982E-03  0.2015E-03  0.2034E-03  0.2036E-03  0.2014E-03  0.1966E-03  0.1892E-03  0.1794E-03  0.1670E-03  0.1526E-03  0.1369E-03  0.1202E-03  0.1034E-03  0.8704E-04  0.7199E-04  0.5847E-04  0.4687E-04  0.3734E-04  0.2958E-04  0.2347E-04  0.1889E-04  0.1525E-04  0.1231E-04  0.1003E-04  0.8397E-05  0.6985E-05  0.5858E-05  0.4789E-05
  0.1029E-03  0.1130E-03  0.1227E-03  0.1320E-03  0.1405E-03  0.1476E-03  0.1536E-03  0.1576E-03  0.1599E-03  0.1601E-03  0.1581E-03  0.1540E-03  0.1476E-03  0.1396E-03  0.1294E-03  0.1180E-03  0.1061E-03  0.9456E-04  0.8565E-04  0.7780E-04  0.7148E-04  0.6642E-04  0.6303E-04  0.6077E-04  0.5981E-04  0.5907E-04  0.5851E-04  0.5865E-04  0.6073E-04  0.6481E-04  0.7163E-04  0.8112E-04  0.9402E-04  0.1122E-03  0.1360E-03  0.1693E-03  0.2093E-03  0.2493E-03  0.2761E-03  0.2815E-03  0.2664E-03  0.2400E-03  0.2137E-03  0.1928E-03  0.1789E-03  0.1706E-03  0.1673E-03  0.1670E-03  0.1691E-03  0.1727E-03  0.1772E-03  0.1817E-03  0.1855E-03  0.1880E-03  0.1888E-03  0.1878E-03  0.1842E-03  0.1782E-03  0.1696E-03  0.1588E-03  0.1458E-03  0.1315E-03  0.1161E-03  0.1004E-03  0.8507E-04  0.7066E-04  0.5763E-04  0.4640E-04  0.3684E-04  0.2922E-04  0.2303E-04  0.1829E-04  0.1481E-04  0.1204E-04  0.9477E-05  0.8044E-05  0.6689E-05  0.5461E-05  0.4578E-05
  0.1051E-03  0.1149E-03  0.1245E-03  0.1326E-03  0.1399E-03  0.1449E-03  0.1486E-03  0.1499E-03  0.1495E-03  0.1470E-03  0.1424E-03  0.1364E-03  0.1291E-03  0.1202E-03  0.1105E-03  0.9967E-04  0.8935E-04  0.8123E-04  0.7419E-04  0.6858E-04  0.6352E-04  0.6005E-04  0.5799E-04  0.5710E-04  0.5588E-04  0.5486E-04  0.5427E-04  0.5427E-04  0.5561E-04  0.5896E-04  0.6471E-04  0.7256E-04  0.8398E-04  0.9976E-04  0.1214E-03  0.1502E-03  0.1853E-03  0.2209E-03  0.2491E-03  0.2614E-03  0.2562E-03  0.2379E-03  0.2147E-03  0.1940E-03  0.1774E-03  0.1661E-03  0.1591E-03  0.1564E-03  0.1561E-03  0.1582E-03  0.1614E-03  0.1656E-03  0.1692E-03  0.1720E-03  0.1734E-03  0.1730E-03  0.1704E-03  0.1653E-03  0.1582E-03  0.1487E-03  0.1372E-03  0.1243E-03  0.1105E-03  0.9601E-04  0.8188E-04  0.6835E-04  0.5609E-04  0.4518E-04  0.3606E-04  0.2843E-04  0.2241E-04  0.1778E-04  0.1416E-04  0.1159E-04  0.9090E-05  0.7489E-05  0.6357E-05  0.5217E-05  0.4277E-05
  0.1040E-03  0.1135E-03  0.1218E-03  0.1288E-03  0.1341E-03  0.1373E-03  0.1389E-03  0.1382E-03  0.1361E-03  0.1318E-03  0.1263E-03  0.1196E-03  0.1118E-03  0.1030E-03  0.9384E-04  0.8476E-04  0.7750E-04  0.7115E-04  0.6561E-04  0.6088E-04  0.5782E-04  0.5551E-04  0.5424E-04  0.5335E-04  0.5203E-04  0.5099E-04  0.5015E-04  0.5026E-04  0.5139E-04  0.5417E-04  0.5849E-04  0.6498E-04  0.7511E-04  0.8928E-04  0.1085E-03  0.1336E-03  0.1637E-03  0.1959E-03  0.2229E-03  0.2389E-03  0.2404E-03  0.2295E-03  0.2115E-03  0.1923E-03  0.1756E-03  0.1625E-03  0.1533E-03  0.1472E-03  0.1451E-03  0.1453E-03  0.1474E-03  0.1503E-03  0.1538E-03  0.1562E-03  0.1578E-03  0.1577E-03  0.1557E-03  0.1517E-03  0.1457E-03  0.1375E-03  0.1273E-03  0.1159E-03  0.1036E-03  0.9056E-04  0.7754E-04  0.6523E-04  0.5371E-04  0.4361E-04  0.3477E-04  0.2756E-04  0.2167E-04  0.1704E-04  0.1361E-04  0.1092E-04  0.8637E-05  0.7080E-05  0.5856E-05  0.4849E-05  0.4121E-05
  0.9977E-04  0.1082E-03  0.1151E-03  0.1209E-03  0.1246E-03  0.1265E-03  0.1264E-03  0.1247E-03  0.1212E-03  0.1164E-03  0.1104E-03  0.1038E-03  0.9644E-04  0.8847E-04  0.8058E-04  0.7391E-04  0.6809E-04  0.6307E-04  0.5890E-04  0.5559E-04  0.5323E-04  0.5163E-04  0.5067E-04  0.4958E-04  0.4842E-04  0.4743E-04  0.4662E-04  0.4669E-04  0.4753E-04  0.4975E-04  0.5325E-04  0.5889E-04  0.6782E-04  0.8018E-04  0.9709E-04  0.1187E-03  0.1449E-03  0.1725E-03  0.1977E-03  0.2148E-03  0.2203E-03  0.2153E-03  0.2028E-03  0.1871E-03  0.1715E-03  0.1578E-03  0.1471E-03  0.1400E-03  0.1351E-03  0.1337E-03  0.1343E-03  0.1362E-03  0.1389E-03  0.1413E-03  0.1427E-03  0.1428E-03  0.1413E-03  0.1380E-03  0.1328E-03  0.1258E-03  0.1171E-03  0.1069E-03  0.9590E-04  0.8438E-04  0.7257E-04  0.6131E-04  0.5084E-04  0.4141E-04  0.3320E-04  0.2633E-04  0.2069E-04  0.1635E-04  0.1289E-04  0.1035E-04  0.8092E-05  0.6497E-05  0.5398E-05  0.4544E-05  0.3843E-05
  0.9321E-04  0.1002E-03  0.1059E-03  0.1104E-03  0.1130E-03  0.1138E-03  0.1131E-03  0.1106E-03  0.1070E-03  0.1021E-03  0.9661E-04  0.9004E-04  0.8311E-04  0.7656E-04  0.7036E-04  0.6526E-04  0.6062E-04  0.5673E-04  0.5324E-04  0.5086E-04  0.4907E-04  0.4810E-04  0.4727E-04  0.4622E-04  0.4505E-04  0.4400E-04  0.4336E-04  0.4342E-04  0.4395E-04  0.4556E-04  0.4844E-04  0.5347E-04  0.6132E-04  0.7224E-04  0.8666E-04  0.1054E-03  0.1277E-03  0.1514E-03  0.1732E-03  0.1895E-03  0.1975E-03  0.1960E-03  0.1884E-03  0.1767E-03  0.1634E-03  0.1508E-03  0.1400E-03  0.1317E-03  0.1262E-03  0.1228E-03  0.1222E-03  0.1232E-03  0.1250E-03  0.1270E-03  0.1285E-03  0.1285E-03  0.1274E-03  0.1245E-03  0.1201E-03  0.1140E-03  0.1065E-03  0.9760E-04  0.8789E-04  0.7762E-04  0.6717E-04  0.5703E-04  0.4755E-04  0.3888E-04  0.3139E-04  0.2489E-04  0.1969E-04  0.1546E-04  0.1225E-04  0.9666E-05  0.7603E-05  0.6044E-05  0.4937E-05  0.4252E-05  0.3745E-05
  0.8545E-04  0.9100E-04  0.9540E-04  0.9871E-04  0.1008E-03  0.1009E-03  0.9975E-04  0.9742E-04  0.9354E-04  0.8903E-04  0.8396E-04  0.7803E-04  0.7249E-04  0.6695E-04  0.6230E-04  0.5822E-04  0.5443E-04  0.5112E-04  0.4853E-04  0.4666E-04  0.4591E-04  0.4497E-04  0.4400E-04  0.4301E-04  0.4202E-04  0.4097E-04  0.4043E-04  0.4031E-04  0.4084E-04  0.4205E-04  0.4451E-04  0.4849E-04  0.5521E-04  0.6474E-04  0.7735E-04  0.9307E-04  0.1115E-03  0.1312E-03  0.1498E-03  0.1640E-03  0.1720E-03  0.1738E-03  0.1693E-03  0.1613E-03  0.1513E-03  0.1407E-03  0.1309E-03  0.1226E-03  0.1164E-03  0.1125E-03  0.1107E-03  0.1109E-03  0.1120E-03  0.1136E-03  0.1148E-03  0.1150E-03  0.1140E-03  0.1116E-03  0.1078E-03  0.1025E-03  0.9599E-04  0.8825E-04  0.7969E-04  0.7077E-04  0.6156E-04  0.5246E-04  0.4404E-04  0.3618E-04  0.2928E-04  0.2346E-04  0.1851E-04  0.1463E-04  0.1144E-04  0.9106E-05  0.6940E-05  0.5460E-05  0.4591E-05  0.4002E-05  0.3610E-05
