DSAA
          79         109
    318.3670    342.0670
   7336.5760   7369.2760
  0.0000E+00  0.1502E-03
  0.0000E+00  0.0000E+00  0.0000E+00  0.0000E+00  0.0000E+00  0.0000E+00  0.0000E+00  0.0000E+00  0.0000E+00  0.0000E+00  0.0000E+00  0.0000E+00  0.0000E+00  0.0000E+00  0.0000E+00  0.0000E+00  0.0000E+00  0.0000E+00  0.0000E+00  0.0000E+00  0.0000E+00  0.0000E+00  0.0000E+00  0.0000E+00  0.0000E+00  0.0000E+00  0.0000E+00  0.0000E+00  0.0000E+00  0.0000E+00  0.0000E+00  0.0000E+00  0.0000E+00  0.0000E+00  0.0000E+00  0.0000E+00  0.0000E+00  0.0000E+00  0.0000E+00  0.0000E+00  0.0000E+00  0.0000E+00  0.0000E+00  0.0000E+00  0.0000E+00  0.0000E+00  0.0000E+00  0.0000E+00  0.0000E+00  0.0000E+00  0.0000E+00  0.0000E+00  0.0000E+00  0.0000E+00  0.0000E+00  0.0000E+00  0.0000E+00  0.0000E+00  0.0000E+00  0.0000E+00  0.0000E+00  0.0000E+00  0.0000E+00  0.0000E+00  0.0000E+00  0.0000E+00  0.0000E+00  0.0000E+00  0.0000E+00  0.0000E+00  0.0000E+00  0.0000E+00  0.0000E+00  0.0000E+00  0.0000E+00  0.0000E+00  0.0000E+00  0.0000E+00  0.0000E+00
  0.0000E+00  0.0000E+00  0.0000E+00  0.0000E+00  0.0000E+00  0.0000E+00  0.0000E+00  0.0000E+00  0.0000E+00  0.0000E+00  0.0000E+00  0.0000E+00  0.0000E+00  0.0000E+00  0.0000E+00  0.0000E+00  0.0000E+00  0.0000E+00  0.0000E+00  0.0000E+00  0.0000E+00  0.0000E+00  0.0000E+00  0.0000E+00  0.0000E+00  0.0000E+00  0.0000E+00  0.0000E+00  0.0000E+00  0.0000E+00  0.0000E+00  0.0000E+00  0.0000E+00  0.0000E+00  0.0000E+00  0.0000E+00  0.0000E+00  0.0000E+00  0.0000E+00  0.0000E+00  0.0000E+00  0.0000E+00  0.0000E+00  0.0000E+00  0.0000E+00  0.0000E+00  0.0000E+00  0.0000E+00  0.0000E+00  0.0000E+00  0.0000E+00  0.0000E+00  0.0000E+00  0.0000E+00  0.0000E+00  0.0000E+00  0.0000E+00  0.0000E+00  0.0000E+00  0.0000E+00  0.0000E+00  0.0000E+00  0.0000E+00  0.0000E+00  0.0000E+00  0.0000E+00  0.0000E+00  0.0000E+00  0.0000E+00  0.0000E+00  0.0000E+00  0.0000E+00  0.0000E+00  0.0000E+00  0.0000E+00  0.0000E+00  0.0000E+00  0.0000E+00  0.0000E+00
  0.0000E+00  0.0000E+00  0.0000E+00  0.0000E+00  0.0000E+00  0.0000E+00  0.0000E+00  0.0000E+00  0.0000E+00  0.0000E+00  0.0000E+00  0.0000E+00  0.0000E+00  0.0000E+00  0.0000E+00  0.0000E+00  0.0000E+00  0.0000E+00  0.0000E+00  0.0000E+00  0.0000E+00  0.0000E+00  0.0000E+00  0.0000E+00  0.0000E+00  0.0000E+00  0.0000E+00  0.0000E+00  0.0000E+00  0.0000E+00  0.0000E+00  0.0000E+00  0.0000E+00  0.0000E+00  0.0000E+00  0.0000E+00  0.0000E+00  0.0000E+00  0.0000E+00  0.0000E+00  0.0000E+00  0.0000E+00  0.0000E+00  0.0000E+00  0.0000E+00  0.0000E+00  0.0000E+00  0.0000E+00  0.0000E+00  0.0000E+00  0.0000E+00  0.0000E+00  0.0000E+00  0.0000E+00  0.0000E+00  0.0000E+00  0.0000E+00  0.0000E+00  0.0000E+00  0.0000E+00  0.0000E+00  0.0000E+00  0.0000E+00  0.0000E+00  0.0000E+00  0.0000E+00  0.0000E+00  0.0000E+00  0.0000E+00  0.0000E+00  0.0000E+00  0.0000E+00  0.0000E+00  0.0000E+00  0.0000E+00  0.0000E+00  0.0000E+00  0.0000E+00  0.0000E+00
  0.0000E+00  0.0000E+00  0.0000E+00  0.0000E+00  0.0000E+00  0.0000E+00  0.0000E+00  0.0000E+00  0.0000E+00  0.0000E+00  0.0000E+00  0.0000E+00  0.0000E+00  0.0000E+00  0.0000E+00  0.0000E+00  0.0000E+00  0.0000E+00  0.0000E+00  0.0000E+00  0.0000E+00  0.0000E+00  0.0000E+00  0.0000E+00  0.0000E+00  0.0000E+00  0.0000E+00  0.0000E+00  0.0000E+00  0.0000E+00  0.0000E+00  0.0000E+00  0.0000E+00  0.0000E+00  0.0000E+00  0.0000E+00  0.0000E+00  0.0000E+00  0.0000E+00  0.0000E+00  0.0000E+00  0.0000E+00  0.0000E+00  0.0000E+00  0.0000E+00  0.0000E+00  0.0000E+00  0.0000E+00  0.0000E+00  0.0000E+00  0.0000E+00  0.0000E+00  0.0000E+00  0.0000E+00  0.0000E+00  0.0000E+00  0.0000E+00  0.0000E+00  0.0000E+00  0.0000E+00  0.0000E+00  0.0000E+00  0.0000E+00  0.0000E+00  0.0000E+00  0.0000E+00  0.0000E+00  0.0000E+00  0.0000E+00  0.0000E+00  0.0000E+00  0.0000E+00  0.0000E+00  0.0000E+00  0.0000E+00  0.0000E+00  0.0000E+00  0.0000E+00  0.0000E+00
  0.0000E+00  0.0000E+00  0.0000E+00  0.0000E+00  0.0000E+00  0.0000E+00  0.0000E+00  0.0000E+00  0.0000E+00  0.0000E+00  0.0000E+00  0.0000E+00  0.0000E+00  0.0000E+00  0.0000E+00  0.0000E+00  0.0000E+00  0.0000E+00  0.0000E+00  0.0000E+00  0.0000E+00  0.0000E+00  0.0000E+00  0.0000E+00  0.0000E+00  0.0000E+00  0.0000E+00  0.0000E+00  0.0000E+00  0.0000E+00  0.0000E+00  0.0000E+00  0.0000E+00  0.0000E+00  0.0000E+00  0.0000E+00  0.0000E+00  0.0000E+00  0.0000E+00  0.0000E+00  0.0000E+00  0.0000E+00  0.0000E+00  0.0000E+00  0.0000E+00  0.0000E+00  0.0000E+00  0.0000E+00  0.0000E+00  0.0000E+00  0.0000E+00  0.0000E+00  0.0000E+00  0.0000E+00  0.0000E+00  0.0000E+00  0.0000E+00  0.0000E+00  0.0000E+00  0.0000E+00  0.0000E+00  0.0000E+00  0.0000E+00  0.0000E+00  0.0000E+00  0.0000E+00  0.0000E+00  0.0000E+00  0.0000E+00  0.0000E+00  0.0000E+00  0.0000E+00  0.0000E+00  0.0000E+00  0.0000E+00  0.0000E+00  0.0000E+00  0.0000E+00  0.0000E+00
  0.0000E+00  0.0000E+00  0.0000E+00  0.0000E+00  0.0000E+00  0.0000E+00  0.0000E+00  0.0000E+00  0.0000E+00  0.0000E+00  0.0000E+00  0.0000E+00  0.0000E+00  0.0000E+00  0.0000E+00  0.0000E+00  0.0000E+00  0.0000E+00  0.0000E+00  0.0000E+00  0.0000E+00  0.0000E+00  0.0000E+00  0.0000E+00  0.0000E+00  0.0000E+00  0.0000E+00  0.0000E+00  0.0000E+00  0.0000E+00  0.0000E+00  0.0000E+00  0.0000E+00  0.0000E+00  0.0000E+00  0.0000E+00  0.0000E+00  0.0000E+00  0.0000E+00  0.0000E+00  0.0000E+00  0.0000E+00  0.0000E+00  0.0000E+00  0.0000E+00  0.0000E+00  0.0000E+00  0.0000E+00  0.0000E+00  0.0000E+00  0.0000E+00  0.0000E+00  0.0000E+00  0.0000E+00  0.0000E+00  0.0000E+00  0.0000E+00  0.0000E+00  0.0000E+00  0.0000E+00  0.0000E+00  0.0000E+00  0.0000E+00  0.0000E+00  0.0000E+00  0.0000E+00  0.0000E+00  0.0000E+00  0.0000E+00  0.0000E+00  0.0000E+00  0.0000E+00  0.0000E+00  0.0000E+00  0.0000E+00  0.0000E+00  0.0000E+00  0.0000E+00  0.0000E+00
  0.0000E+00  0.0000E+00  0.0000E+00  0.0000E+00  0.0000E+00  0.0000E+00  0.0000E+00  0.0000E+00  0.0000E+00  0.0000E+00  0.0000E+00  0.0000E+00  0.0000E+00  0.0000E+00  0.0000E+00  0.0000E+00  0.0000E+00  0.0000E+00  0.0000E+00  0.0000E+00  0.0000E+00  0.0000E+00  0.0000E+00  0.0000E+00  0.0000E+00  0.0000E+00  0.0000E+00  0.0000E+00  0.0000E+00  0.0000E+00  0.0000E+00  0.0000E+00  0.0000E+00  0.0000E+00  0.0000E+00  0.0000E+00  0.0000E+00  0.0000E+00  0.0000E+00  0.0000E+00  0.0000E+00  0.0000E+00  0.0000E+00  0.0000E+00  0.0000E+00  0.0000E+00  0.0000E+00  0.0000E+00  0.0000E+00  0.0000E+00  0.0000E+00  0.0000E+00  0.0000E+00  0.0000E+00  0.0000E+00  0.0000E+00  0.0000E+00  0.0000E+00  0.0000E+00  0.0000E+00  0.0000E+00  0.0000E+00  0.0000E+00  0.0000E+00  0.0000E+00  0.0000E+00  0.0000E+00  0.0000E+00  0.0000E+00  0.0000E+00  0.0000E+00  0.0000E+00  0.0000E+00  0.0000E+00  0.0000E+00  0.0000E+00  0.0000E+00  0.0000E+00  0.0000E+00
  0.0000E+00  0.0000E+00  0.0000E+00  0.0000E+00  0.0000E+00  0.0000E+00  0.0000E+00  0.0000E+00  0.0000E+00  0.0000E+00  0.0000E+00  0.0000E+00  0.0000E+00  0.0000E+00  0.0000E+00  0.0000E+00  0.0000E+00  0.0000E+00  0.0000E+00  0.0000E+00  0.0000E+00  0.0000E+00  0.0000E+00  0.0000E+00  0.0000E+00  0.0000E+00  0.0000E+00  0.0000E+00  0.0000E+00  0.0000E+00  0.0000E+00  0.0000E+00  0.0000E+00  0.0000E+00  0.0000E+00  0.0000E+00  0.0000E+00  0.0000E+00  0.0000E+00  0.0000E+00  0.0000E+00  0.0000E+00  0.0000E+00  0.0000E+00  0.0000E+00  0.0000E+00  0.0000E+00  0.0000E+00  0.0000E+00  0.0000E+00  0.0000E+00  0.0000E+00  0.0000E+00  0.0000E+00  0.0000E+00  0.0000E+00  0.0000E+00  0.0000E+00  0.0000E+00  0.0000E+00  0.0000E+00  0.0000E+00  0.0000E+00  0.0000E+00  0.0000E+00  0.0000E+00  0.0000E+00  0.0000E+00  0.0000E+00  0.0000E+00  0.0000E+00  0.0000E+00  0.0000E+00  0.0000E+00  0.0000E+00  0.0000E+00  0.0000E+00  0.0000E+00  0.0000E+00
  0.0000E+00  0.0000E+00  0.0000E+00  0.0000E+00  0.0000E+00  0.0000E+00  0.0000E+00  0.0000E+00  0.0000E+00  0.0000E+00  0.0000E+00  0.0000E+00  0.0000E+00  0.0000E+00  0.0000E+00  0.0000E+00  0.0000E+00  0.0000E+00  0.0000E+00  0.0000E+00  0.0000E+00  0.0000E+00  0.0000E+00  0.0000E+00  0.0000E+00  0.0000E+00  0.0000E+00  0.0000E+00  0.0000E+00  0.0000E+00  0.0000E+00  0.0000E+00  0.0000E+00  0.0000E+00  0.0000E+00  0.0000E+00  0.0000E+00  0.0000E+00  0.0000E+00  0.0000E+00  0.0000E+00  0.0000E+00  0.0000E+00  0.0000E+00  0.0000E+00  0.0000E+00  0.0000E+00  0.0000E+00  0.0000E+00  0.0000E+00  0.0000E+00  0.0000E+00  0.0000E+00  0.0000E+00  0.0000E+00  0.0000E+00  0.0000E+00  0.0000E+00  0.0000E+00  0.0000E+00  0.0000E+00  0.0000E+00  0.0000E+00  0.0000E+00  0.0000E+00  0.0000E+00  0.0000E+00  0.0000E+00  0.0000E+00  0.0000E+00  0.0000E+00  0.0000E+00  0.0000E+00  0.0000E+00  0.0000E+00  0.0000E+00  0.0000E+00  0.0000E+00  0.0000E+00
  0.0000E+00  0.0000E+00  0.0000E+00  0.0000E+00  0.0000E+00  0.0000E+00  0.0000E+00  0.0000E+00  0.0000E+00  0.0000E+00  0.0000E+00  0.0000E+00  0.0000E+00  0.0000E+00  0.0000E+00  0.0000E+00  0.0000E+00  0.0000E+00  0.0000E+00  0.0000E+00  0.0000E+00  0.0000E+00  0.0000E+00  0.0000E+00  0.0000E+00  0.0000E+00  0.0000E+00  0.0000E+00  0.0000E+00  0.0000E+00  0.0000E+00  0.0000E+00  0.0000E+00  0.0000E+00  0.0000E+00  0.0000E+00  0.0000E+00  0.0000E+00  0.0000E+00  0.0000E+00  0.0000E+00  0.0000E+00  0.0000E+00  0.0000E+00  0.0000E+00  0.0000E+00  0.0000E+00  0.0000E+00  0.0000E+00  0.0000E+00  0.0000E+00  0.0000E+00  0.0000E+00  0.0000E+00  0.0000E+00  0.0000E+00  0.0000E+00  0.0000E+00  0.0000E+00  0.0000E+00  0.0000E+00  0.0000E+00  0.0000E+00  0.0000E+00  0.0000E+00  0.0000E+00  0.0000E+00  0.0000E+00  0.0000E+00  0.0000E+00  0.0000E+00  0.0000E+00  0.0000E+00  0.0000E+00  0.0000E+00  0.0000E+00  0.0000E+00  0.0000E+00  0.0000E+00
  0.0000E+00  0.0000E+00  0.0000E+00  0.0000E+00  0.0000E+00  0.0000E+00  0.0000E+00  0.0000E+00  0.0000E+00  0.0000E+00  0.0000E+00  0.0000E+00  0.0000E+00  0.0000E+00  0.0000E+00  0.0000E+00  0.0000E+00  0.0000E+00  0.0000E+00  0.0000E+00  0.0000E+00  0.0000E+00  0.0000E+00  0.0000E+00  0.0000E+00  0.0000E+00  0.0000E+00  0.0000E+00  0.0000E+00  0.0000E+00  0.0000E+00  0.0000E+00  0.0000E+00  0.0000E+00  0.0000E+00  0.0000E+00  0.0000E+00  0.0000E+00  0.0000E+00  0.0000E+00  0.0000E+00  0.0000E+00  0.0000E+00  0.0000E+00  0.0000E+00  0.0000E+00  0.0000E+00  0.0000E+00  0.0000E+00  0.0000E+00  0.0000E+00  0.0000E+00  0.0000E+00  0.0000E+00  0.0000E+00  0.0000E+00  0.0000E+00  0.0000E+00  0.0000E+00  0.0000E+00  0.0000E+00  0.0000E+00  0.0000E+00  0.0000E+00  0.0000E+00  0.0000E+00  0.0000E+00  0.0000E+00  0.0000E+00  0.0000E+00  0.0000E+00  0.0000E+00  0.0000E+00  0.0000E+00  0.0000E+00  0.0000E+00  0.0000E+00  0.0000E+00  0.0000E+00
  0.0000E+00  0.0000E+00  0.0000E+00  0.0000E+00  0.0000E+00  0.0000E+00  0.0000E+00  0.0000E+00  0.0000E+00  0.0000E+00  0.0000E+00  0.0000E+00  0.0000E+00  0.0000E+00  0.0000E+00  0.0000E+00  0.0000E+00  0.0000E+00  0.0000E+00  0.0000E+00  0.0000E+00  0.0000E+00  0.0000E+00  0.0000E+00  0.0000E+00  0.0000E+00  0.0000E+00  0.0000E+00  0.0000E+00  0.0000E+00  0.0000E+00  0.0000E+00  0.0000E+00  0.0000E+00  0.0000E+00  0.0000E+00  0.0000E+00  0.0000E+00  0.0000E+00  0.0000E+00  0.0000E+00  0.0000E+00  0.0000E+00  0.0000E+00  0.0000E+00  0.0000E+00  0.0000E+00  0.0000E+00  0.0000E+00  0.0000E+00  0.0000E+00  0.0000E+00  0.0000E+00  0.0000E+00  0.0000E+00  0.0000E+00  0.0000E+00  0.0000E+00  0.0000E+00  0.0000E+00  0.0000E+00  0.0000E+00  0.0000E+00  0.0000E+00  0.0000E+00  0.0000E+00  0.0000E+00  0.0000E+00  0.0000E+00  0.0000E+00  0.0000E+00  0.0000E+00  0.0000E+00  0.0000E+00  0.0000E+00  0.0000E+00  0.0000E+00  0.0000E+00  0.0000E+00
  0.0000E+00  0.0000E+00  0.0000E+00  0.0000E+00  0.0000E+00  0.0000E+00  0.0000E+00  0.0000E+00  0.0000E+00  0.0000E+00  0.0000E+00  0.0000E+00  0.0000E+00  0.0000E+00  0.0000E+00  0.0000E+00  0.0000E+00  0.0000E+00  0.0000E+00  0.0000E+00  0.0000E+00  0.0000E+00  0.0000E+00  0.0000E+00  0.0000E+00  0.0000E+00  0.0000E+00  0.0000E+00  0.0000E+00  0.0000E+00  0.0000E+00  0.0000E+00  0.0000E+00  0.0000E+00  0.0000E+00  0.0000E+00  0.0000E+00  0.0000E+00  0.0000E+00  0.0000E+00  0.0000E+00  0.0000E+00  0.0000E+00  0.0000E+00  0.0000E+00  0.0000E+00  0.0000E+00  0.0000E+00  0.0000E+00  0.0000E+00  0.0000E+00  0.0000E+00  0.0000E+00  0.0000E+00  0.0000E+00  0.0000E+00  0.0000E+00  0.0000E+00  0.0000E+00  0.0000E+00  0.0000E+00  0.0000E+00  0.0000E+00  0.0000E+00  0.0000E+00  0.0000E+00  0.0000E+00  0.0000E+00  0.0000E+00  0.0000E+00  0.0000E+00  0.0000E+00  0.0000E+00  0.0000E+00  0.0000E+00  0.0000E+00  0.0000E+00  0.0000E+00  0.0000E+00
  0.0000E+00  0.0000E+00  0.0000E+00  0.0000E+00  0.0000E+00  0.0000E+00  0.0000E+00  0.0000E+00  0.0000E+00  0.0000E+00  0.0000E+00  0.0000E+00  0.0000E+00  0.0000E+00  0.0000E+00  0.0000E+00  0.0000E+00  0.0000E+00  0.0000E+00  0.0000E+00  0.0000E+00  0.0000E+00  0.0000E+00  0.0000E+00  0.0000E+00  0.0000E+00  0.0000E+00  0.0000E+00  0.0000E+00  0.0000E+00  0.0000E+00  0.0000E+00  0.0000E+00  0.0000E+00  0.0000E+00  0.0000E+00  0.0000E+00  0.0000E+00  0.0000E+00  0.0000E+00  0.0000E+00  0.0000E+00  0.0000E+00  0.0000E+00  0.0000E+00  0.0000E+00  0.0000E+00  0.0000E+00  0.0000E+00  0.0000E+00  0.0000E+00  0.0000E+00  0.0000E+00  0.0000E+00  0.0000E+00  0.0000E+00  0.0000E+00  0.0000E+00  0.0000E+00  0.0000E+00  0.0000E+00  0.0000E+00  0.0000E+00  0.0000E+00  0.0000E+00  0.0000E+00  0.0000E+00  0.0000E+00  0.0000E+00  0.0000E+00  0.0000E+00  0.0000E+00  0.0000E+00  0.0000E+00  0.0000E+00  0.0000E+00  0.0000E+00  0.0000E+00  0.0000E+00
  0.0000E+00  0.0000E+00  0.0000E+00  0.0000E+00  0.0000E+00  0.0000E+00  0.0000E+00  0.0000E+00  0.0000E+00  0.0000E+00  0.0000E+00  0.0000E+00  0.0000E+00  0.0000E+00  0.0000E+00  0.0000E+00  0.0000E+00  0.0000E+00  0.0000E+00  0.0000E+00  0.0000E+00  0.0000E+00  0.0000E+00  0.0000E+00  0.0000E+00  0.0000E+00  0.0000E+00  0.0000E+00  0.0000E+00  0.0000E+00  0.0000E+00  0.0000E+00  0.0000E+00  0.0000E+00  0.0000E+00  0.0000E+00  0.0000E+00  0.0000E+00  0.0000E+00  0.0000E+00  0.0000E+00  0.0000E+00  0.0000E+00  0.0000E+00  0.0000E+00  0.0000E+00  0.0000E+00  0.0000E+00  0.0000E+00  0.0000E+00  0.0000E+00  0.0000E+00  0.0000E+00  0.0000E+00  0.0000E+00  0.0000E+00  0.0000E+00  0.0000E+00  0.0000E+00  0.0000E+00  0.0000E+00  0.0000E+00  0.0000E+00  0.0000E+00  0.0000E+00  0.0000E+00  0.0000E+00  0.0000E+00  0.0000E+00  0.0000E+00  0.0000E+00  0.0000E+00  0.0000E+00  0.0000E+00  0.0000E+00  0.0000E+00  0.0000E+00  0.0000E+00  0.0000E+00
  0.0000E+00  0.0000E+00  0.0000E+00  0.0000E+00  0.0000E+00  0.0000E+00  0.0000E+00  0.0000E+00  0.0000E+00  0.0000E+00  0.0000E+00  0.0000E+00  0.0000E+00  0.0000E+00  0.0000E+00  0.0000E+00  0.0000E+00  0.0000E+00  0.0000E+00  0.0000E+00  0.0000E+00  0.0000E+00  0.0000E+00  0.0000E+00  0.0000E+00  0.0000E+00  0.0000E+00  0.0000E+00  0.0000E+00  0.0000E+00  0.0000E+00  0.0000E+00  0.0000E+00  0.0000E+00  0.0000E+00  0.0000E+00  0.0000E+00  0.0000E+00  0.0000E+00  0.0000E+00  0.0000E+00  0.0000E+00  0.0000E+00  0.0000E+00  0.0000E+00  0.0000E+00  0.0000E+00  0.0000E+00  0.0000E+00  0.0000E+00  0.0000E+00  0.0000E+00  0.0000E+00  0.0000E+00  0.0000E+00  0.0000E+00  0.0000E+00  0.0000E+00  0.0000E+00  0.0000E+00  0.0000E+00  0.0000E+00  0.0000E+00  0.0000E+00  0.0000E+00  0.0000E+00  0.0000E+00  0.0000E+00  0.0000E+00  0.0000E+00  0.0000E+00  0.0000E+00  0.0000E+00  0.0000E+00  0.0000E+00  0.0000E+00  0.0000E+00  0.0000E+00  0.0000E+00
  0.0000E+00  0.0000E+00  0.0000E+00  0.0000E+00  0.0000E+00  0.0000E+00  0.0000E+00  0.0000E+00  0.0000E+00  0.0000E+00  0.0000E+00  0.0000E+00  0.0000E+00  0.0000E+00  0.0000E+00  0.0000E+00  0.0000E+00  0.0000E+00  0.0000E+00  0.0000E+00  0.0000E+00  0.0000E+00  0.0000E+00  0.0000E+00  0.0000E+00  0.0000E+00  0.0000E+00  0.0000E+00  0.0000E+00  0.0000E+00  0.0000E+00  0.0000E+00  0.0000E+00  0.0000E+00  0.0000E+00  0.0000E+00  0.0000E+00  0.0000E+00  0.0000E+00  0.0000E+00  0.0000E+00  0.0000E+00  0.0000E+00  0.0000E+00  0.0000E+00  0.0000E+00  0.0000E+00  0.0000E+00  0.0000E+00  0.0000E+00  0.0000E+00  0.0000E+00  0.0000E+00  0.0000E+00  0.0000E+00  0.0000E+00  0.0000E+00  0.0000E+00  0.0000E+00  0.0000E+00  0.0000E+00  0.0000E+00  0.0000E+00  0.0000E+00  0.0000E+00  0.0000E+00  0.0000E+00  0.0000E+00  0.0000E+00  0.0000E+00  0.0000E+00  0.0000E+00  0.0000E+00  0.0000E+00  0.0000E+00  0.0000E+00  0.0000E+00  0.0000E+00  0.0000E+00
  0.0000E+00  0.0000E+00  0.0000E+00  0.0000E+00  0.0000E+00  0.0000E+00  0.0000E+00  0.0000E+00  0.0000E+00  0.0000E+00  0.0000E+00  0.0000E+00  0.0000E+00  0.0000E+00  0.0000E+00  0.0000E+00  0.0000E+00  0.0000E+00  0.0000E+00  0.0000E+00  0.0000E+00  0.0000E+00  0.0000E+00  0.0000E+00  0.0000E+00  0.0000E+00  0.0000E+00  0.0000E+00  0.0000E+00  0.0000E+00  0.0000E+00  0.0000E+00  0.0000E+00  0.0000E+00  0.0000E+00  0.0000E+00  0.0000E+00  0.0000E+00  0.0000E+00  0.0000E+00  0.0000E+00  0.0000E+00  0.0000E+00  0.0000E+00  0.0000E+00  0.0000E+00  0.0000E+00  0.0000E+00  0.0000E+00  0.0000E+00  0.0000E+00  0.0000E+00  0.0000E+00  0.0000E+00  0.0000E+00  0.0000E+00  0.0000E+00  0.0000E+00  0.0000E+00  0.0000E+00  0.0000E+00  0.0000E+00  0.0000E+00  0.0000E+00  0.0000E+00  0.0000E+00  0.0000E+00  0.0000E+00  0.0000E+00  0.0000E+00  0.0000E+00  0.0000E+00  0.0000E+00  0.0000E+00  0.0000E+00  0.0000E+00  0.0000E+00  0.0000E+00  0.0000E+00
  0.0000E+00  0.0000E+00  0.0000E+00  0.0000E+00  0.0000E+00  0.0000E+00  0.0000E+00  0.0000E+00  0.0000E+00  0.0000E+00  0.0000E+00  0.0000E+00  0.0000E+00  0.0000E+00  0.0000E+00  0.0000E+00  0.0000E+00  0.0000E+00  0.0000E+00  0.0000E+00  0.0000E+00  0.0000E+00  0.0000E+00  0.0000E+00  0.0000E+00  0.0000E+00  0.0000E+00  0.0000E+00  0.0000E+00  0.0000E+00  0.0000E+00  0.0000E+00  0.0000E+00  0.0000E+00  0.0000E+00  0.0000E+00  0.0000E+00  0.0000E+00  0.0000E+00  0.0000E+00  0.0000E+00  0.0000E+00  0.0000E+00  0.0000E+00  0.0000E+00  0.0000E+00  0.0000E+00  0.0000E+00  0.0000E+00  0.0000E+00  0.0000E+00  0.0000E+00  0.0000E+00  0.0000E+00  0.0000E+00  0.0000E+00  0.0000E+00  0.0000E+00  0.0000E+00  0.0000E+00  0.0000E+00  0.0000E+00  0.0000E+00  0.0000E+00  0.0000E+00  0.0000E+00  0.0000E+00  0.0000E+00  0.0000E+00  0.0000E+00  0.0000E+00  0.0000E+00  0.0000E+00  0.0000E+00  0.0000E+00  0.0000E+00  0.0000E+00  0.0000E+00  0.0000E+00
  0.0000E+00  0.0000E+00  0.0000E+00  0.0000E+00  0.0000E+00  0.0000E+00  0.0000E+00  0.0000E+00  0.0000E+00  0.0000E+00  0.0000E+00  0.0000E+00  0.0000E+00  0.0000E+00  0.0000E+00  0.0000E+00  0.0000E+00  0.0000E+00  0.0000E+00  0.0000E+00  0.0000E+00  0.0000E+00  0.0000E+00  0.0000E+00  0.0000E+00  0.0000E+00  0.0000E+00  0.0000E+00  0.0000E+00  0.0000E+00  0.0000E+00  0.0000E+00  0.0000E+00  0.0000E+00  0.0000E+00  0.0000E+00  0.0000E+00  0.0000E+00  0.0000E+00  0.0000E+00  0.0000E+00  0.0000E+00  0.0000E+00  0.0000E+00  0.0000E+00  0.0000E+00  0.0000E+00  0.0000E+00  0.0000E+00  0.0000E+00  0.0000E+00  0.0000E+00  0.0000E+00  0.0000E+00  0.0000E+00  0.0000E+00  0.0000E+00  0.0000E+00  0.0000E+00  0.0000E+00  0.0000E+00  0.0000E+00  0.0000E+00  0.0000E+00  0.0000E+00  0.0000E+00  0.0000E+00  0.0000E+00  0.0000E+00  0.0000E+00  0.0000E+00  0.0000E+00  0.0000E+00  0.0000E+00  0.0000E+00  0.0000E+00  0.0000E+00  0.0000E+00  0.0000E+00
  0.0000E+00  0.0000E+00  0.0000E+00  0.0000E+00  0.0000E+00  0.0000E+00  0.0000E+00  0.0000E+00  0.0000E+00  0.0000E+00  0.0000E+00  0.0000E+00  0.0000E+00  0.0000E+00  0.0000E+00  0.0000E+00  0.0000E+00  0.0000E+00  0.0000E+00  0.0000E+00  0.0000E+00  0.0000E+00  0.0000E+00  0.0000E+00  0.0000E+00  0.0000E+00  0.0000E+00  0.0000E+00  0.0000E+00  0.0000E+00  0.0000E+00  0.0000E+00  0.0000E+00  0.0000E+00  0.0000E+00  0.0000E+00  0.0000E+00  0.0000E+00  0.0000E+00  0.0000E+00  0.0000E+00  0.0000E+00  0.0000E+00  0.0000E+00  0.0000E+00  0.0000E+00  0.0000E+00  0.0000E+00  0.0000E+00  0.0000E+00  0.0000E+00  0.0000E+00  0.0000E+00  0.0000E+00  0.0000E+00  0.0000E+00  0.0000E+00  0.0000E+00  0.0000E+00  0.0000E+00  0.0000E+00  0.0000E+00  0.0000E+00  0.0000E+00  0.0000E+00  0.0000E+00  0.0000E+00  0.0000E+00  0.0000E+00  0.0000E+00  0.0000E+00  0.0000E+00  0.0000E+00  0.0000E+00  0.0000E+00  0.0000E+00  0.0000E+00  0.0000E+00  0.0000E+00
  0.0000E+00  0.0000E+00  0.0000E+00  0.0000E+00  0.0000E+00  0.0000E+00  0.0000E+00  0.0000E+00  0.0000E+00  0.0000E+00  0.0000E+00  0.0000E+00  0.0000E+00  0.0000E+00  0.0000E+00  0.0000E+00  0.0000E+00  0.0000E+00  0.0000E+00  0.0000E+00  0.0000E+00  0.0000E+00  0.0000E+00  0.0000E+00  0.0000E+00  0.0000E+00  0.0000E+00  0.0000E+00  0.0000E+00  0.0000E+00  0.0000E+00  0.0000E+00  0.0000E+00  0.0000E+00  0.0000E+00  0.0000E+00  0.0000E+00  0.0000E+00  0.0000E+00  0.0000E+00  0.0000E+00  0.0000E+00  0.0000E+00  0.0000E+00  0.0000E+00  0.0000E+00  0.0000E+00  0.0000E+00  0.0000E+00  0.0000E+00  0.0000E+00  0.0000E+00  0.0000E+00  0.0000E+00  0.0000E+00  0.0000E+00  0.0000E+00  0.0000E+00  0.0000E+00  0.0000E+00  0.0000E+00  0.0000E+00  0.0000E+00  0.0000E+00  0.0000E+00  0.0000E+00  0.0000E+00  0.0000E+00  0.0000E+00  0.0000E+00  0.0000E+00  0.0000E+00  0.0000E+00  0.0000E+00  0.0000E+00  0.0000E+00  0.0000E+00  0.0000E+00  0.0000E+00
  0.0000E+00  0.0000E+00  0.0000E+00  0.0000E+00  0.0000E+00  0.0000E+00  0.0000E+00  0.0000E+00  0.0000E+00  0.0000E+00  0.0000E+00  0.0000E+00  0.0000E+00  0.0000E+00  0.0000E+00  0.0000E+00  0.0000E+00  0.0000E+00  0.0000E+00  0.0000E+00  0.0000E+00  0.0000E+00  0.0000E+00  0.0000E+00  0.0000E+00  0.0000E+00  0.0000E+00  0.0000E+00  0.0000E+00  0.0000E+00  0.0000E+00  0.0000E+00  0.0000E+00  0.0000E+00  0.0000E+00  0.0000E+00  0.0000E+00  0.0000E+00  0.0000E+00  0.0000E+00  0.0000E+00  0.0000E+00  0.0000E+00  0.0000E+00  0.0000E+00  0.0000E+00  0.0000E+00  0.0000E+00  0.0000E+00  0.0000E+00  0.0000E+00  0.0000E+00  0.0000E+00  0.0000E+00  0.0000E+00  0.0000E+00  0.0000E+00  0.0000E+00  0.0000E+00  0.0000E+00  0.0000E+00  0.0000E+00  0.0000E+00  0.0000E+00  0.0000E+00  0.0000E+00  0.0000E+00  0.0000E+00  0.0000E+00  0.0000E+00  0.0000E+00  0.0000E+00  0.0000E+00  0.0000E+00  0.0000E+00  0.0000E+00  0.0000E+00  0.0000E+00  0.0000E+00
  0.0000E+00  0.0000E+00  0.0000E+00  0.0000E+00  0.0000E+00  0.0000E+00  0.0000E+00  0.0000E+00  0.0000E+00  0.0000E+00  0.0000E+00  0.0000E+00  0.0000E+00  0.0000E+00  0.0000E+00  0.0000E+00  0.0000E+00  0.0000E+00  0.0000E+00  0.0000E+00  0.0000E+00  0.0000E+00  0.0000E+00  0.0000E+00  0.0000E+00  0.0000E+00  0.0000E+00  0.0000E+00  0.0000E+00  0.0000E+00  0.0000E+00  0.0000E+00  0.0000E+00  0.0000E+00  0.0000E+00  0.0000E+00  0.0000E+00  0.0000E+00  0.0000E+00  0.0000E+00  0.0000E+00  0.0000E+00  0.0000E+00  0.0000E+00  0.0000E+00  0.0000E+00  0.0000E+00  0.0000E+00  0.0000E+00  0.0000E+00  0.0000E+00  0.0000E+00  0.0000E+00  0.0000E+00  0.0000E+00  0.0000E+00  0.0000E+00  0.0000E+00  0.0000E+00  0.0000E+00  0.0000E+00  0.0000E+00  0.0000E+00  0.0000E+00  0.0000E+00  0.0000E+00  0.0000E+00  0.0000E+00  0.0000E+00  0.0000E+00  0.0000E+00  0.0000E+00  0.0000E+00  0.0000E+00  0.0000E+00  0.0000E+00  0.0000E+00  0.0000E+00  0.0000E+00
  0.0000E+00  0.0000E+00  0.0000E+00  0.0000E+00  0.0000E+00  0.0000E+00  0.0000E+00  0.0000E+00  0.0000E+00  0.0000E+00  0.0000E+00  0.0000E+00  0.0000E+00  0.0000E+00  0.0000E+00  0.0000E+00  0.0000E+00  0.0000E+00  0.0000E+00  0.0000E+00  0.0000E+00  0.0000E+00  0.0000E+00  0.0000E+00  0.0000E+00  0.0000E+00  0.0000E+00  0.0000E+00  0.0000E+00  0.0000E+00  0.0000E+00  0.0000E+00  0.0000E+00  0.0000E+00  0.0000E+00  0.0000E+00  0.0000E+00  0.0000E+00  0.0000E+00  0.0000E+00  0.0000E+00  0.0000E+00  0.0000E+00  0.0000E+00  0.0000E+00  0.0000E+00  0.0000E+00  0.0000E+00  0.0000E+00  0.0000E+00  0.0000E+00  0.0000E+00  0.0000E+00  0.0000E+00  0.0000E+00  0.0000E+00  0.0000E+00  0.0000E+00  0.0000E+00  0.0000E+00  0.0000E+00  0.0000E+00  0.0000E+00  0.0000E+00  0.0000E+00  0.0000E+00  0.0000E+00  0.0000E+00  0.0000E+00  0.0000E+00  0.0000E+00  0.0000E+00  0.0000E+00  0.0000E+00  0.0000E+00  0.0000E+00  0.0000E+00  0.0000E+00  0.0000E+00
  0.0000E+00  0.0000E+00  0.0000E+00  0.0000E+00  0.0000E+00  0.0000E+00  0.0000E+00  0.0000E+00  0.0000E+00  0.0000E+00  0.0000E+00  0.0000E+00  0.0000E+00  0.0000E+00  0.0000E+00  0.0000E+00  0.0000E+00  0.0000E+00  0.0000E+00  0.0000E+00  0.0000E+00  0.0000E+00  0.0000E+00  0.0000E+00  0.0000E+00  0.0000E+00  0.0000E+00  0.0000E+00  0.0000E+00  0.0000E+00  0.0000E+00  0.0000E+00  0.0000E+00  0.0000E+00  0.0000E+00  0.0000E+00  0.0000E+00  0.0000E+00  0.0000E+00  0.0000E+00  0.0000E+00  0.0000E+00  0.0000E+00  0.0000E+00  0.0000E+00  0.0000E+00  0.0000E+00  0.0000E+00  0.0000E+00  0.0000E+00  0.0000E+00  0.0000E+00  0.0000E+00  0.0000E+00  0.0000E+00  0.0000E+00  0.0000E+00  0.0000E+00  0.0000E+00  0.0000E+00  0.0000E+00  0.0000E+00  0.0000E+00  0.0000E+00  0.0000E+00  0.0000E+00  0.0000E+00  0.0000E+00  0.0000E+00  0.0000E+00  0.0000E+00  0.0000E+00  0.0000E+00  0.0000E+00  0.0000E+00  0.0000E+00  0.0000E+00  0.0000E+00  0.0000E+00
  0.0000E+00  0.0000E+00  0.0000E+00  0.0000E+00  0.0000E+00  0.0000E+00  0.0000E+00  0.0000E+00  0.0000E+00  0.0000E+00  0.0000E+00  0.0000E+00  0.0000E+00  0.0000E+00  0.0000E+00  0.0000E+00  0.0000E+00  0.0000E+00  0.0000E+00  0.0000E+00  0.0000E+00  0.0000E+00  0.0000E+00  0.0000E+00  0.0000E+00  0.0000E+00  0.0000E+00  0.0000E+00  0.0000E+00  0.0000E+00  0.0000E+00  0.0000E+00  0.0000E+00  0.0000E+00  0.0000E+00  0.0000E+00  0.0000E+00  0.0000E+00  0.0000E+00  0.0000E+00  0.0000E+00  0.0000E+00  0.0000E+00  0.0000E+00  0.0000E+00  0.0000E+00  0.0000E+00  0.0000E+00  0.0000E+00  0.0000E+00  0.0000E+00  0.0000E+00  0.0000E+00  0.0000E+00  0.0000E+00  0.0000E+00  0.0000E+00  0.0000E+00  0.0000E+00  0.0000E+00  0.0000E+00  0.0000E+00  0.0000E+00  0.0000E+00  0.0000E+00  0.0000E+00  0.0000E+00  0.0000E+00  0.0000E+00  0.0000E+00  0.0000E+00  0.0000E+00  0.0000E+00  0.0000E+00  0.0000E+00  0.0000E+00  0.0000E+00  0.0000E+00  0.0000E+00
  0.0000E+00  0.0000E+00  0.0000E+00  0.0000E+00  0.0000E+00  0.0000E+00  0.0000E+00  0.0000E+00  0.0000E+00  0.0000E+00  0.0000E+00  0.0000E+00  0.0000E+00  0.0000E+00  0.0000E+00  0.0000E+00  0.0000E+00  0.0000E+00  0.0000E+00  0.0000E+00  0.0000E+00  0.0000E+00  0.0000E+00  0.0000E+00  0.0000E+00  0.0000E+00  0.1386E-08  0.1331E-08  0.1270E-08  0.2365E-08  0.2227E-08  0.2081E-08  0.2862E-08  0.2622E-08  0.2379E-08  0.2134E-08  0.1892E-08  0.1656E-08  0.9766E-09  0.0000E+00  0.0000E+00  0.0000E+00  0.0000E+00  0.0000E+00  0.0000E+00  0.0000E+00  0.0000E+00  0.0000E+00  0.0000E+00  0.0000E+00  0.0000E+00  0.0000E+00  0.0000E+00  0.0000E+00  0.0000E+00  0.0000E+00  0.0000E+00  0.0000E+00  0.0000E+00  0.0000E+00  0.0000E+00  0.0000E+00  0.0000E+00  0.0000E+00  0.0000E+00  0.0000E+00  0.0000E+00  0.0000E+00  0.0000E+00  0.0000E+00  0.0000E+00  0.0000E+00  0.0000E+00  0.0000E+00  0.0000E+00  0.0000E+00  0.0000E+00  0.0000E+00  0.0000E+00
  0.0000E+00  0.0000E+00  0.0000E+00  0.0000E+00  0.0000E+00  0.0000E+00  0.0000E+00  0.0000E+00  0.0000E+00  0.0000E+00  0.0000E+00  0.0000E+00  0.0000E+00  0.0000E+00  0.0000E+00  0.0000E+00  0.0000E+00  0.0000E+00  0.0000E+00  0.0000E+00  0.0000E+00  0.0000E+00  0.1487E-08  0.1561E-08  0.1631E-08  0.3188E-08  0.4731E-08  0.4564E-08  0.5756E-08  0.6813E-08  0.6448E-08  0.7222E-08  0.6717E-08  0.6190E-08  0.6145E-08  0.5536E-08  0.4543E-08  0.4000E-08  0.3472E-08  0.2527E-08  0.0000E+00  0.0000E+00  0.0000E+00  0.0000E+00  0.0000E+00  0.0000E+00  0.0000E+00  0.0000E+00  0.0000E+00  0.0000E+00  0.0000E+00  0.0000E+00  0.0000E+00  0.0000E+00  0.0000E+00  0.0000E+00  0.0000E+00  0.0000E+00  0.0000E+00  0.0000E+00  0.0000E+00  0.0000E+00  0.0000E+00  0.0000E+00  0.0000E+00  0.0000E+00  0.0000E+00  0.0000E+00  0.0000E+00  0.0000E+00  0.0000E+00  0.0000E+00  0.0000E+00  0.0000E+00  0.0000E+00  0.0000E+00  0.0000E+00  0.0000E+00  0.0000E+00
  0.0000E+00  0.0000E+00  0.0000E+00  0.0000E+00  0.0000E+00  0.0000E+00  0.0000E+00  0.0000E+00  0.0000E+00  0.0000E+00  0.0000E+00  0.0000E+00  0.0000E+00  0.0000E+00  0.0000E+00  0.0000E+00  0.0000E+00  0.0000E+00  0.0000E+00  0.1457E-08  0.1548E-08  0.1638E-08  0.4845E-08  0.5101E-08  0.6862E-08  0.8759E-08  0.1063E-07  0.1042E-07  0.1161E-07  0.1356E-07  0.1433E-07  0.1350E-07  0.1336E-07  0.1235E-07  0.1295E-07  0.1227E-07  0.1096E-07  0.7973E-08  0.6952E-08  0.4892E-08  0.3201E-08  0.1394E-08  0.0000E+00  0.0000E+00  0.0000E+00  0.0000E+00  0.0000E+00  0.0000E+00  0.0000E+00  0.0000E+00  0.0000E+00  0.0000E+00  0.0000E+00  0.0000E+00  0.0000E+00  0.0000E+00  0.0000E+00  0.0000E+00  0.0000E+00  0.0000E+00  0.0000E+00  0.0000E+00  0.0000E+00  0.0000E+00  0.0000E+00  0.0000E+00  0.0000E+00  0.0000E+00  0.0000E+00  0.0000E+00  0.0000E+00  0.0000E+00  0.0000E+00  0.0000E+00  0.0000E+00  0.0000E+00  0.0000E+00  0.0000E+00  0.0000E+00
  0.0000E+00  0.0000E+00  0.0000E+00  0.0000E+00  0.0000E+00  0.0000E+00  0.0000E+00  0.0000E+00  0.0000E+00  0.0000E+00  0.0000E+00  0.0000E+00  0.0000E+00  0.0000E+00  0.0000E+00  0.0000E+00  0.0000E+00  0.1473E-08  0.1579E-08  0.3168E-08  0.5010E-08  0.5321E-08  0.1052E-07  0.1111E-07  0.1330E-07  0.1564E-07  0.1916E-07  0.1912E-07  0.2145E-07  0.2345E-07  0.2508E-07  0.2374E-07  0.2316E-07  0.2364E-07  0.2248E-07  0.2043E-07  0.1833E-07  0.1574E-07  0.1238E-07  0.8818E-08  0.5826E-08  0.3383E-08  0.1456E-08  0.0000E+00  0.0000E+00  0.0000E+00  0.0000E+00  0.0000E+00  0.0000E+00  0.0000E+00  0.0000E+00  0.0000E+00  0.0000E+00  0.0000E+00  0.0000E+00  0.0000E+00  0.0000E+00  0.0000E+00  0.0000E+00  0.0000E+00  0.0000E+00  0.0000E+00  0.0000E+00  0.0000E+00  0.0000E+00  0.0000E+00  0.0000E+00  0.0000E+00  0.0000E+00  0.0000E+00  0.0000E+00  0.0000E+00  0.0000E+00  0.0000E+00  0.0000E+00  0.0000E+00  0.0000E+00  0.0000E+00  0.0000E+00
  0.0000E+00  0.0000E+00  0.0000E+00  0.0000E+00  0.0000E+00  0.0000E+00  0.0000E+00  0.0000E+00  0.0000E+00  0.0000E+00  0.0000E+00  0.0000E+00  0.0000E+00  0.0000E+00  0.0000E+00  0.1459E-08  0.1577E-08  0.3181E-08  0.5069E-08  0.6933E-08  0.1079E-07  0.1151E-07  0.1561E-07  0.1844E-07  0.2093E-07  0.2552E-07  0.2974E-07  0.3269E-07  0.3538E-07  0.3757E-07  0.3918E-07  0.3729E-07  0.3789E-07  0.3635E-07  0.3590E-07  0.3279E-07  0.3025E-07  0.2688E-07  0.2249E-07  0.1574E-07  0.1142E-07  0.7365E-08  0.3543E-08  0.1506E-08  0.0000E+00  0.0000E+00  0.0000E+00  0.0000E+00  0.0000E+00  0.0000E+00  0.0000E+00  0.0000E+00  0.0000E+00  0.0000E+00  0.0000E+00  0.0000E+00  0.0000E+00  0.0000E+00  0.0000E+00  0.0000E+00  0.0000E+00  0.0000E+00  0.0000E+00  0.0000E+00  0.0000E+00  0.0000E+00  0.0000E+00  0.0000E+00  0.0000E+00  0.0000E+00  0.0000E+00  0.0000E+00  0.0000E+00  0.0000E+00  0.0000E+00  0.0000E+00  0.0000E+00  0.0000E+00  0.0000E+00
  0.0000E+00  0.0000E+00  0.0000E+00  0.0000E+00  0.0000E+00  0.0000E+00  0.0000E+00  0.0000E+00  0.0000E+00  0.0000E+00  0.0000E+00  0.0000E+00  0.0000E+00  0.0000E+00  0.1542E-08  0.1673E-08  0.5021E-08  0.6913E-08  0.1084E-07  0.1166E-07  0.1773E-07  0.1897E-07  0.2359E-07  0.3062E-07  0.3394E-07  0.4092E-07  0.4598E-07  0.4820E-07  0.5157E-07  0.5663E-07  0.5753E-07  0.5505E-07  0.5543E-07  0.5506E-07  0.5225E-07  0.4894E-07  0.4437E-07  0.3965E-07  0.3489E-07  0.2735E-07  0.2028E-07  0.1218E-07  0.8366E-08  0.4240E-08  0.1543E-08  0.0000E+00  0.0000E+00  0.0000E+00  0.0000E+00  0.0000E+00  0.0000E+00  0.0000E+00  0.0000E+00  0.0000E+00  0.0000E+00  0.0000E+00  0.0000E+00  0.0000E+00  0.0000E+00  0.0000E+00  0.0000E+00  0.0000E+00  0.0000E+00  0.0000E+00  0.0000E+00  0.0000E+00  0.0000E+00  0.0000E+00  0.0000E+00  0.0000E+00  0.0000E+00  0.0000E+00  0.0000E+00  0.0000E+00  0.0000E+00  0.0000E+00  0.0000E+00  0.0000E+00  0.0000E+00
  0.0000E+00  0.0000E+00  0.0000E+00  0.0000E+00  0.0000E+00  0.0000E+00  0.0000E+00  0.0000E+00  0.0000E+00  0.0000E+00  0.0000E+00  0.0000E+00  0.1477E-08  0.1616E-08  0.4866E-08  0.5304E-08  0.1064E-07  0.1154E-07  0.1587E-07  0.1906E-07  0.2386E-07  0.2961E-07  0.3507E-07  0.4524E-07  0.4970E-07  0.5772E-07  0.6609E-07  0.6918E-07  0.7346E-07  0.7959E-07  0.7950E-07  0.7811E-07  0.7834E-07  0.7763E-07  0.7390E-07  0.7126E-07  0.6496E-07  0.5924E-07  0.5315E-07  0.4253E-07  0.3449E-07  0.2184E-07  0.1397E-07  0.8715E-08  0.4359E-08  0.1562E-08  0.0000E+00  0.0000E+00  0.0000E+00  0.0000E+00  0.0000E+00  0.0000E+00  0.0000E+00  0.0000E+00  0.0000E+00  0.0000E+00  0.0000E+00  0.0000E+00  0.0000E+00  0.0000E+00  0.0000E+00  0.0000E+00  0.0000E+00  0.0000E+00  0.0000E+00  0.0000E+00  0.0000E+00  0.0000E+00  0.0000E+00  0.0000E+00  0.0000E+00  0.0000E+00  0.0000E+00  0.0000E+00  0.0000E+00  0.0000E+00  0.0000E+00  0.0000E+00  0.0000E+00
  0.0000E+00  0.0000E+00  0.0000E+00  0.0000E+00  0.0000E+00  0.0000E+00  0.0000E+00  0.0000E+00  0.0000E+00  0.0000E+00  0.0000E+00  0.1529E-08  0.1680E-08  0.5074E-08  0.7059E-08  0.1118E-07  0.1380E-07  0.1872E-07  0.2358E-07  0.2948E-07  0.3348E-07  0.4567E-07  0.5080E-07  0.6229E-07  0.7062E-07  0.7635E-07  0.9068E-07  0.9509E-07  0.1007E-06  0.1054E-06  0.1089E-06  0.1078E-06  0.1081E-06  0.1071E-06  0.1048E-06  0.9894E-07  0.9081E-07  0.8325E-07  0.7507E-07  0.6479E-07  0.5243E-07  0.3914E-07  0.2775E-07  0.1523E-07  0.8974E-08  0.4426E-08  0.1560E-08  0.0000E+00  0.0000E+00  0.0000E+00  0.0000E+00  0.0000E+00  0.0000E+00  0.0000E+00  0.0000E+00  0.0000E+00  0.0000E+00  0.0000E+00  0.0000E+00  0.0000E+00  0.0000E+00  0.0000E+00  0.0000E+00  0.0000E+00  0.0000E+00  0.0000E+00  0.0000E+00  0.0000E+00  0.0000E+00  0.0000E+00  0.0000E+00  0.0000E+00  0.0000E+00  0.0000E+00  0.0000E+00  0.0000E+00  0.0000E+00  0.0000E+00  0.0000E+00
  0.0000E+00  0.0000E+00  0.0000E+00  0.0000E+00  0.0000E+00  0.0000E+00  0.0000E+00  0.0000E+00  0.0000E+00  0.0000E+00  0.1570E-08  0.4752E-08  0.5247E-08  0.1059E-07  0.1165E-07  0.1796E-07  0.1967E-07  0.2673E-07  0.3283E-07  0.4131E-07  0.5048E-07  0.5842E-07  0.7141E-07  0.8085E-07  0.9344E-07  0.1032E-06  0.1152E-06  0.1244E-06  0.1315E-06  0.1406E-06  0.1458E-06  0.1457E-06  0.1464E-06  0.1456E-06  0.1429E-06  0.1356E-06  0.1269E-06  0.1192E-06  0.1067E-06  0.9487E-07  0.8001E-07  0.6034E-07  0.4380E-07  0.2945E-07  0.1723E-07  0.9123E-08  0.4434E-08  0.1056E-08  0.0000E+00  0.0000E+00  0.0000E+00  0.0000E+00  0.0000E+00  0.0000E+00  0.0000E+00  0.0000E+00  0.0000E+00  0.0000E+00  0.0000E+00  0.0000E+00  0.0000E+00  0.0000E+00  0.0000E+00  0.0000E+00  0.0000E+00  0.0000E+00  0.0000E+00  0.0000E+00  0.0000E+00  0.0000E+00  0.0000E+00  0.0000E+00  0.0000E+00  0.0000E+00  0.0000E+00  0.0000E+00  0.0000E+00  0.0000E+00  0.0000E+00
  0.0000E+00  0.0000E+00  0.0000E+00  0.0000E+00  0.0000E+00  0.0000E+00  0.0000E+00  0.0000E+00  0.1436E-08  0.1598E-08  0.4850E-08  0.5377E-08  0.1089E-07  0.1203E-07  0.1861E-07  0.2047E-07  0.2993E-07  0.3442E-07  0.4731E-07  0.5331E-07  0.6845E-07  0.7608E-07  0.9357E-07  0.1029E-06  0.1198E-06  0.1327E-06  0.1471E-06  0.1620E-06  0.1695E-06  0.1840E-06  0.1916E-06  0.1931E-06  0.1953E-06  0.1991E-06  0.1925E-06  0.1839E-06  0.1762E-06  0.1636E-06  0.1476E-06  0.1321E-06  0.1146E-06  0.9417E-07  0.7009E-07  0.4771E-07  0.3165E-07  0.1770E-07  0.8494E-08  0.3774E-08  0.5312E-09  0.0000E+00  0.0000E+00  0.0000E+00  0.0000E+00  0.0000E+00  0.0000E+00  0.0000E+00  0.0000E+00  0.0000E+00  0.0000E+00  0.0000E+00  0.0000E+00  0.0000E+00  0.0000E+00  0.0000E+00  0.0000E+00  0.0000E+00  0.0000E+00  0.0000E+00  0.0000E+00  0.0000E+00  0.0000E+00  0.0000E+00  0.0000E+00  0.0000E+00  0.0000E+00  0.0000E+00  0.0000E+00  0.0000E+00  0.0000E+00
  0.0000E+00  0.0000E+00  0.0000E+00  0.0000E+00  0.0000E+00  0.0000E+00  0.0000E+00  0.1444E-08  0.1613E-08  0.4908E-08  0.5465E-08  0.1109E-07  0.1390E-07  0.1911E-07  0.2285E-07  0.3096E-07  0.3933E-07  0.4929E-07  0.5971E-07  0.7190E-07  0.8458E-07  0.1012E-06  0.1143E-06  0.1336E-06  0.1488E-06  0.1701E-06  0.1828E-06  0.2042E-06  0.2179E-06  0.2300E-06  0.2448E-06  0.2523E-06  0.2570E-06  0.2790E-06  0.2724E-06  0.2619E-06  0.2520E-06  0.2497E-06  0.2283E-06  0.2027E-06  0.1772E-06  0.1352E-06  0.1037E-06  0.7773E-07  0.5253E-07  0.3361E-07  0.1862E-07  0.8371E-08  0.3112E-08  0.0000E+00  0.0000E+00  0.0000E+00  0.0000E+00  0.0000E+00  0.0000E+00  0.0000E+00  0.0000E+00  0.0000E+00  0.0000E+00  0.0000E+00  0.0000E+00  0.0000E+00  0.0000E+00  0.0000E+00  0.0000E+00  0.0000E+00  0.0000E+00  0.0000E+00  0.0000E+00  0.0000E+00  0.0000E+00  0.0000E+00  0.0000E+00  0.0000E+00  0.0000E+00  0.0000E+00  0.0000E+00  0.0000E+00  0.0000E+00
  0.0000E+00  0.0000E+00  0.0000E+00  0.0000E+00  0.0000E+00  0.0000E+00  0.1440E-08  0.1615E-08  0.4923E-08  0.6967E-08  0.1120E-07  0.1409E-07  0.1943E-07  0.2671E-07  0.3172E-07  0.4242E-07  0.5256E-07  0.6403E-07  0.7665E-07  0.9328E-07  0.1061E-06  0.1280E-06  0.1415E-06  0.1638E-06  0.1829E-06  0.2078E-06  0.2278E-06  0.2496E-06  0.2723E-06  0.2888E-06  0.3278E-06  0.3387E-06  0.3530E-06  0.3979E-06  0.3936E-06  0.3812E-06  0.3843E-06  0.3604E-06  0.3318E-06  0.2965E-06  0.2679E-06  0.2234E-06  0.1675E-06  0.1167E-06  0.8415E-07  0.5591E-07  0.3431E-07  0.1777E-07  0.7450E-08  0.2405E-08  0.0000E+00  0.0000E+00  0.0000E+00  0.0000E+00  0.0000E+00  0.0000E+00  0.0000E+00  0.0000E+00  0.0000E+00  0.0000E+00  0.0000E+00  0.0000E+00  0.0000E+00  0.0000E+00  0.0000E+00  0.0000E+00  0.0000E+00  0.0000E+00  0.0000E+00  0.0000E+00  0.0000E+00  0.0000E+00  0.0000E+00  0.0000E+00  0.0000E+00  0.0000E+00  0.0000E+00  0.0000E+00  0.0000E+00
  0.0000E+00  0.0000E+00  0.0000E+00  0.0000E+00  0.0000E+00  0.1423E-08  0.1603E-08  0.4895E-08  0.5498E-08  0.1121E-07  0.1415E-07  0.1958E-07  0.2699E-07  0.3219E-07  0.4317E-07  0.5368E-07  0.6797E-07  0.7888E-07  0.9829E-07  0.1101E-06  0.1334E-06  0.1506E-06  0.1757E-06  0.1963E-06  0.2255E-06  0.2489E-06  0.2806E-06  0.3045E-06  0.3518E-06  0.3771E-06  0.4424E-06  0.4681E-06  0.4851E-06  0.5634E-06  0.5687E-06  0.5571E-06  0.5713E-06  0.5390E-06  0.5123E-06  0.4604E-06  0.4184E-06  0.3507E-06  0.2710E-06  0.1983E-06  0.1276E-06  0.8874E-07  0.5651E-07  0.3280E-07  0.1670E-07  0.5797E-08  0.1171E-08  0.0000E+00  0.0000E+00  0.0000E+00  0.0000E+00  0.0000E+00  0.0000E+00  0.0000E+00  0.0000E+00  0.0000E+00  0.0000E+00  0.0000E+00  0.0000E+00  0.0000E+00  0.0000E+00  0.0000E+00  0.0000E+00  0.0000E+00  0.0000E+00  0.0000E+00  0.0000E+00  0.0000E+00  0.0000E+00  0.0000E+00  0.0000E+00  0.0000E+00  0.0000E+00  0.0000E+00  0.0000E+00
  0.0000E+00  0.0000E+00  0.0000E+00  0.0000E+00  0.0000E+00  0.1579E-08  0.4827E-08  0.5445E-08  0.1112E-07  0.1409E-07  0.1956E-07  0.2703E-07  0.3236E-07  0.4353E-07  0.5431E-07  0.6898E-07  0.8039E-07  0.1005E-06  0.1153E-06  0.1376E-06  0.1587E-06  0.1829E-06  0.2084E-06  0.2400E-06  0.2674E-06  0.3036E-06  0.3337E-06  0.3891E-06  0.4476E-06  0.5027E-06  0.5849E-06  0.6453E-06  0.7252E-06  0.7787E-06  0.8084E-06  0.8241E-06  0.8323E-06  0.8097E-06  0.7666E-06  0.6870E-06  0.6073E-06  0.5095E-06  0.4030E-06  0.3059E-06  0.2163E-06  0.1374E-06  0.9230E-07  0.5744E-07  0.3241E-07  0.1457E-07  0.4850E-08  0.1698E-08  0.0000E+00  0.0000E+00  0.0000E+00  0.0000E+00  0.0000E+00  0.0000E+00  0.0000E+00  0.0000E+00  0.0000E+00  0.0000E+00  0.0000E+00  0.0000E+00  0.0000E+00  0.0000E+00  0.0000E+00  0.0000E+00  0.0000E+00  0.0000E+00  0.0000E+00  0.0000E+00  0.0000E+00  0.0000E+00  0.0000E+00  0.0000E+00  0.0000E+00  0.0000E+00  0.0000E+00
  0.0000E+00  0.0000E+00  0.0000E+00  0.0000E+00  0.1541E-08  0.3216E-08  0.5346E-08  0.1093E-07  0.1235E-07  0.1935E-07  0.2351E-07  0.3222E-07  0.4346E-07  0.5440E-07  0.6930E-07  0.8110E-07  0.1017E-06  0.1172E-06  0.1403E-06  0.1626E-06  0.1906E-06  0.2186E-06  0.2493E-06  0.2858E-06  0.3196E-06  0.3619E-06  0.4210E-06  0.5070E-06  0.6011E-06  0.6765E-06  0.8074E-06  0.8691E-06  0.9995E-06  0.1067E-05  0.1139E-05  0.1184E-05  0.1190E-05  0.1158E-05  0.1089E-05  0.9952E-06  0.8613E-06  0.7318E-06  0.5931E-06  0.4860E-06  0.3406E-06  0.2435E-06  0.1439E-06  0.9431E-07  0.5615E-07  0.2973E-07  0.1341E-07  0.6289E-08  0.3582E-08  0.0000E+00  0.0000E+00  0.0000E+00  0.0000E+00  0.0000E+00  0.0000E+00  0.0000E+00  0.0000E+00  0.0000E+00  0.0000E+00  0.0000E+00  0.0000E+00  0.0000E+00  0.0000E+00  0.0000E+00  0.0000E+00  0.0000E+00  0.0000E+00  0.0000E+00  0.0000E+00  0.0000E+00  0.0000E+00  0.0000E+00  0.0000E+00  0.0000E+00  0.0000E+00
  0.0000E+00  0.0000E+00  0.0000E+00  0.1493E-08  0.1696E-08  0.5204E-08  0.9034E-08  0.1208E-07  0.1896E-07  0.2144E-07  0.3179E-07  0.4105E-07  0.5231E-07  0.6670E-07  0.8103E-07  0.9999E-07  0.1158E-06  0.1417E-06  0.1648E-06  0.1940E-06  0.2235E-06  0.2560E-06  0.2948E-06  0.3316E-06  0.3974E-06  0.4641E-06  0.5605E-06  0.6468E-06  0.7892E-06  0.8939E-06  0.1059E-05  0.1172E-05  0.1364E-05  0.1507E-05  0.1578E-05  0.1639E-05  0.1645E-05  0.1604E-05  0.1518E-05  0.1389E-05  0.1236E-05  0.1051E-05  0.8893E-06  0.6831E-06  0.5470E-06  0.3731E-06  0.2699E-06  0.1466E-06  0.9044E-07  0.5170E-07  0.3047E-07  0.1841E-07  0.9115E-08  0.3793E-08  0.1598E-08  0.0000E+00  0.0000E+00  0.0000E+00  0.0000E+00  0.0000E+00  0.0000E+00  0.0000E+00  0.0000E+00  0.0000E+00  0.0000E+00  0.0000E+00  0.0000E+00  0.0000E+00  0.0000E+00  0.0000E+00  0.0000E+00  0.0000E+00  0.0000E+00  0.0000E+00  0.0000E+00  0.0000E+00  0.0000E+00  0.0000E+00  0.0000E+00
  0.0000E+00  0.0000E+00  0.1433E-08  0.1635E-08  0.5021E-08  0.7211E-08  0.1172E-07  0.1668E-07  0.2092E-07  0.3106E-07  0.3861E-07  0.5142E-07  0.6364E-07  0.8015E-07  0.9669E-07  0.1153E-06  0.1415E-06  0.1626E-06  0.1928E-06  0.2227E-06  0.2598E-06  0.2977E-06  0.3396E-06  0.4083E-06  0.4801E-06  0.5845E-06  0.7048E-06  0.8870E-06  0.1041E-05  0.1212E-05  0.1393E-05  0.1577E-05  0.1840E-05  0.2035E-05  0.2126E-05  0.2207E-05  0.2191E-05  0.2150E-05  0.2059E-05  0.1901E-05  0.1713E-05  0.1495E-05  0.1251E-05  0.1031E-05  0.7748E-06  0.6038E-06  0.4001E-06  0.2715E-06  0.1461E-06  0.9102E-07  0.5683E-07  0.3753E-07  0.2508E-07  0.1456E-07  0.6227E-08  0.1638E-08  0.0000E+00  0.0000E+00  0.0000E+00  0.0000E+00  0.0000E+00  0.0000E+00  0.0000E+00  0.0000E+00  0.0000E+00  0.0000E+00  0.0000E+00  0.0000E+00  0.0000E+00  0.0000E+00  0.0000E+00  0.0000E+00  0.0000E+00  0.0000E+00  0.0000E+00  0.0000E+00  0.0000E+00  0.0000E+00  0.0000E+00
  0.0000E+00  0.0000E+00  0.1564E-08  0.4804E-08  0.5489E-08  0.1127E-07  0.1444E-07  0.2022E-07  0.2820E-07  0.3576E-07  0.4846E-07  0.5842E-07  0.7672E-07  0.9269E-07  0.1137E-06  0.1351E-06  0.1591E-06  0.1919E-06  0.2225E-06  0.2606E-06  0.2963E-06  0.3435E-06  0.3953E-06  0.4887E-06  0.5984E-06  0.7499E-06  0.9490E-06  0.1126E-05  0.1328E-05  0.1595E-05  0.1856E-05  0.2100E-05  0.2428E-05  0.2675E-05  0.2787E-05  0.2899E-05  0.2909E-05  0.2868E-05  0.2735E-05  0.2566E-05  0.2333E-05  0.2063E-05  0.1775E-05  0.1447E-05  0.1176E-05  0.8624E-06  0.6417E-06  0.4188E-06  0.2676E-06  0.1480E-06  0.9957E-07  0.6782E-07  0.4820E-07  0.3156E-07  0.1830E-07  0.9607E-08  0.1644E-08  0.0000E+00  0.0000E+00  0.0000E+00  0.0000E+00  0.0000E+00  0.0000E+00  0.0000E+00  0.0000E+00  0.0000E+00  0.0000E+00  0.0000E+00  0.0000E+00  0.0000E+00  0.0000E+00  0.0000E+00  0.0000E+00  0.0000E+00  0.0000E+00  0.0000E+00  0.0000E+00  0.0000E+00  0.0000E+00
  0.0000E+00  0.1483E-08  0.1699E-08  0.5229E-08  0.9130E-08  0.1229E-07  0.1937E-07  0.2382E-07  0.3291E-07  0.4475E-07  0.5660E-07  0.7270E-07  0.8619E-07  0.1090E-06  0.1297E-06  0.1564E-06  0.1838E-06  0.2147E-06  0.2558E-06  0.2919E-06  0.3433E-06  0.3896E-06  0.4870E-06  0.6023E-06  0.7826E-06  0.9700E-06  0.1191E-05  0.1446E-05  0.1726E-05  0.2086E-05  0.2451E-05  0.2832E-05  0.3148E-05  0.3459E-05  0.3652E-05  0.3768E-05  0.3801E-05  0.3748E-05  0.3623E-05  0.3411E-05  0.3173E-05  0.2823E-05  0.2493E-05  0.2079E-05  0.1685E-05  0.1314E-05  0.9507E-06  0.6885E-06  0.4344E-06  0.3056E-06  0.1605E-06  0.1164E-06  0.8411E-07  0.5623E-07  0.3692E-07  0.2217E-07  0.9964E-08  0.2390E-08  0.0000E+00  0.0000E+00  0.0000E+00  0.0000E+00  0.0000E+00  0.0000E+00  0.0000E+00  0.0000E+00  0.0000E+00  0.0000E+00  0.0000E+00  0.0000E+00  0.0000E+00  0.0000E+00  0.0000E+00  0.0000E+00  0.0000E+00  0.0000E+00  0.0000E+00  0.0000E+00  0.0000E+00
  0.0000E+00  0.1604E-08  0.4939E-08  0.7145E-08  0.1166E-07  0.1669E-07  0.2108E-07  0.3141E-07  0.3752E-07  0.5266E-07  0.6565E-07  0.8318E-07  0.1010E-06  0.1214E-06  0.1499E-06  0.1766E-06  0.2101E-06  0.2452E-06  0.2848E-06  0.3362E-06  0.3829E-06  0.4630E-06  0.5743E-06  0.7539E-06  0.9703E-06  0.1231E-05  0.1485E-05  0.1846E-05  0.2202E-05  0.2708E-05  0.3143E-05  0.3621E-05  0.4020E-05  0.4406E-05  0.4661E-05  0.4827E-05  0.4894E-05  0.4866E-05  0.4733E-05  0.4521E-05  0.4183E-05  0.3842E-05  0.3370E-05  0.2910E-05  0.2388E-05  0.1879E-05  0.1434E-05  0.1013E-05  0.7216E-06  0.4483E-06  0.3266E-06  0.2242E-06  0.1338E-06  0.9221E-07  0.6285E-07  0.3965E-07  0.2320E-07  0.1129E-07  0.3374E-08  0.0000E+00  0.0000E+00  0.0000E+00  0.0000E+00  0.0000E+00  0.0000E+00  0.0000E+00  0.0000E+00  0.0000E+00  0.0000E+00  0.0000E+00  0.0000E+00  0.0000E+00  0.0000E+00  0.0000E+00  0.0000E+00  0.0000E+00  0.0000E+00  0.0000E+00  0.0000E+00
  0.1503E-08  0.3171E-08  0.5330E-08  0.1097E-07  0.1261E-07  0.1991E-07  0.2615E-07  0.3564E-07  0.4644E-07  0.5895E-07  0.7773E-07  0.9461E-07  0.1167E-06  0.1397E-06  0.1658E-06  0.2012E-06  0.2324E-06  0.2775E-06  0.3186E-06  0.3724E-06  0.4323E-06  0.5584E-06  0.7381E-06  0.9505E-06  0.1217E-05  0.1514E-05  0.1909E-05  0.2358E-05  0.2804E-05  0.3430E-05  0.4010E-05  0.4604E-05  0.5135E-05  0.5544E-05  0.5878E-05  0.6109E-05  0.6199E-05  0.6228E-05  0.6105E-05  0.5863E-05  0.5545E-05  0.5070E-05  0.4586E-05  0.3955E-05  0.3333E-05  0.2681E-05  0.2060E-05  0.1537E-05  0.1053E-05  0.7519E-06  0.5193E-06  0.3478E-06  0.2448E-06  0.1478E-06  0.9873E-07  0.6375E-07  0.4076E-07  0.2372E-07  0.1073E-07  0.2855E-08  0.0000E+00  0.0000E+00  0.0000E+00  0.0000E+00  0.0000E+00  0.0000E+00  0.0000E+00  0.0000E+00  0.0000E+00  0.0000E+00  0.0000E+00  0.0000E+00  0.0000E+00  0.0000E+00  0.0000E+00  0.0000E+00  0.0000E+00  0.0000E+00  0.0000E+00
  0.1612E-08  0.4969E-08  0.7217E-08  0.1180E-07  0.1694E-07  0.2146E-07  0.3204E-07  0.4195E-07  0.5407E-07  0.6977E-07  0.8597E-07  0.1067E-06  0.1286E-06  0.1565E-06  0.1851E-06  0.2211E-06  0.2616E-06  0.3051E-06  0.3610E-06  0.4136E-06  0.5170E-06  0.6669E-06  0.8769E-06  0.1159E-05  0.1508E-05  0.1904E-05  0.2383E-05  0.2934E-05  0.3616E-05  0.4356E-05  0.5010E-05  0.5736E-05  0.6360E-05  0.6897E-05  0.7314E-05  0.7625E-05  0.7811E-05  0.7860E-05  0.7770E-05  0.7554E-05  0.7191E-05  0.6704E-05  0.6056E-05  0.5354E-05  0.4538E-05  0.3726E-05  0.2942E-05  0.2224E-05  0.1624E-05  0.1143E-05  0.7887E-06  0.5611E-06  0.3599E-06  0.2553E-06  0.1501E-06  0.9880E-07  0.6438E-07  0.3964E-07  0.2262E-07  0.9934E-08  0.2299E-08  0.0000E+00  0.0000E+00  0.0000E+00  0.0000E+00  0.0000E+00  0.0000E+00  0.0000E+00  0.0000E+00  0.0000E+00  0.0000E+00  0.0000E+00  0.0000E+00  0.0000E+00  0.0000E+00  0.0000E+00  0.0000E+00  0.0000E+00  0.0000E+00
  0.3156E-08  0.5316E-08  0.9336E-08  0.1265E-07  0.2000E-07  0.2636E-07  0.3600E-07  0.4866E-07  0.5992E-07  0.7917E-07  0.9672E-07  0.1197E-06  0.1457E-06  0.1712E-06  0.2052E-06  0.2416E-06  0.2894E-06  0.3365E-06  0.3916E-06  0.4565E-06  0.5899E-06  0.8093E-06  0.1080E-05  0.1476E-05  0.1848E-05  0.2350E-05  0.2968E-05  0.3703E-05  0.4550E-05  0.5385E-05  0.6191E-05  0.7069E-05  0.7832E-05  0.8478E-05  0.9022E-05  0.9454E-05  0.9698E-05  0.9851E-05  0.9793E-05  0.9632E-05  0.9223E-05  0.8681E-05  0.7955E-05  0.7080E-05  0.6133E-05  0.5081E-05  0.4122E-05  0.3156E-05  0.2379E-05  0.1679E-05  0.1185E-05  0.8459E-06  0.5812E-06  0.3688E-06  0.2533E-06  0.1438E-06  0.9566E-07  0.6016E-07  0.3548E-07  0.1953E-07  0.7614E-08  0.1524E-08  0.0000E+00  0.0000E+00  0.0000E+00  0.0000E+00  0.0000E+00  0.0000E+00  0.0000E+00  0.0000E+00  0.0000E+00  0.0000E+00  0.0000E+00  0.0000E+00  0.0000E+00  0.0000E+00  0.0000E+00  0.0000E+00  0.0000E+00
  0.4893E-08  0.7134E-08  0.1168E-07  0.1681E-07  0.2136E-07  0.3004E-07  0.4015E-07  0.5420E-07  0.6805E-07  0.8668E-07  0.1079E-06  0.1304E-06  0.1591E-06  0.1889E-06  0.2263E-06  0.2686E-06  0.3143E-06  0.3692E-06  0.4256E-06  0.5354E-06  0.6965E-06  0.9682E-06  0.1339E-05  0.1757E-05  0.2248E-05  0.2850E-05  0.3652E-05  0.4576E-05  0.5644E-05  0.6631E-05  0.7651E-05  0.8629E-05  0.9555E-05  0.1035E-04  0.1105E-04  0.1161E-04  0.1198E-04  0.1219E-04  0.1225E-04  0.1205E-04  0.1170E-04  0.1106E-04  0.1024E-04  0.9227E-05  0.8037E-05  0.6835E-05  0.5539E-05  0.4408E-05  0.3357E-05  0.2431E-05  0.1750E-05  0.1209E-05  0.8528E-06  0.5604E-06  0.3556E-06  0.2383E-06  0.1327E-06  0.8471E-07  0.5319E-07  0.3102E-07  0.1618E-07  0.5802E-08  0.0000E+00  0.0000E+00  0.0000E+00  0.0000E+00  0.0000E+00  0.0000E+00  0.0000E+00  0.0000E+00  0.0000E+00  0.0000E+00  0.0000E+00  0.0000E+00  0.0000E+00  0.0000E+00  0.0000E+00  0.0000E+00  0.0000E+00
  0.5190E-08  0.9136E-08  0.1241E-07  0.1963E-07  0.2597E-07  0.3554E-07  0.4463E-07  0.5948E-07  0.7648E-07  0.9434E-07  0.1196E-06  0.1415E-06  0.1721E-06  0.2069E-06  0.2444E-06  0.2933E-06  0.3423E-06  0.3994E-06  0.4632E-06  0.6007E-06  0.8504E-06  0.1174E-05  0.1606E-05  0.2113E-05  0.2721E-05  0.3514E-05  0.4513E-05  0.5566E-05  0.6849E-05  0.8078E-05  0.9306E-05  0.1043E-04  0.1155E-04  0.1252E-04  0.1340E-04  0.1409E-04  0.1463E-04  0.1497E-04  0.1507E-04  0.1499E-04  0.1456E-04  0.1391E-04  0.1296E-04  0.1178E-04  0.1041E-04  0.8903E-05  0.7390E-05  0.5925E-05  0.4557E-05  0.3397E-05  0.2395E-05  0.1704E-05  0.1160E-05  0.7845E-06  0.5005E-06  0.3105E-06  0.2019E-06  0.1167E-06  0.7320E-07  0.4551E-07  0.2502E-07  0.1202E-07  0.3364E-08  0.0000E+00  0.0000E+00  0.0000E+00  0.0000E+00  0.0000E+00  0.0000E+00  0.0000E+00  0.0000E+00  0.0000E+00  0.0000E+00  0.0000E+00  0.0000E+00  0.0000E+00  0.0000E+00  0.0000E+00  0.0000E+00
  0.5482E-08  0.1131E-07  0.1472E-07  0.2077E-07  0.2928E-07  0.3763E-07  0.5101E-07  0.6683E-07  0.8529E-07  0.1042E-06  0.1269E-06  0.1550E-06  0.1852E-06  0.2253E-06  0.2652E-06  0.3119E-06  0.3643E-06  0.4286E-06  0.5010E-06  0.6926E-06  0.9932E-06  0.1390E-05  0.1912E-05  0.2523E-05  0.3316E-05  0.4286E-05  0.5506E-05  0.6788E-05  0.8246E-05  0.9712E-05  0.1117E-04  0.1256E-04  0.1384E-04  0.1507E-04  0.1609E-04  0.1699E-04  0.1768E-04  0.1820E-04  0.1842E-04  0.1834E-04  0.1798E-04  0.1722E-04  0.1619E-04  0.1478E-04  0.1320E-04  0.1139E-04  0.9552E-05  0.7731E-05  0.6056E-05  0.4510E-05  0.3269E-05  0.2278E-05  0.1580E-05  0.1047E-05  0.6562E-06  0.4255E-06  0.2695E-06  0.1513E-06  0.9673E-07  0.6044E-07  0.3664E-07  0.1886E-07  0.8197E-08  0.1577E-08  0.0000E+00  0.0000E+00  0.0000E+00  0.0000E+00  0.0000E+00  0.0000E+00  0.0000E+00  0.0000E+00  0.0000E+00  0.0000E+00  0.0000E+00  0.0000E+00  0.0000E+00  0.0000E+00  0.0000E+00
  0.7261E-08  0.1191E-07  0.1717E-07  0.2188E-07  0.3086E-07  0.4319E-07  0.5765E-07  0.7222E-07  0.8996E-07  0.1123E-06  0.1361E-06  0.1686E-06  0.2005E-06  0.2381E-06  0.2803E-06  0.3328E-06  0.3920E-06  0.4566E-06  0.5489E-06  0.7929E-06  0.1184E-05  0.1666E-05  0.2324E-05  0.2985E-05  0.3950E-05  0.5208E-05  0.6587E-05  0.8252E-05  0.9899E-05  0.1158E-04  0.1330E-04  0.1489E-04  0.1647E-04  0.1791E-04  0.1922E-04  0.2029E-04  0.2123E-04  0.2185E-04  0.2224E-04  0.2222E-04  0.2180E-04  0.2101E-04  0.1977E-04  0.1823E-04  0.1630E-04  0.1424E-04  0.1206E-04  0.9832E-05  0.7786E-05  0.5877E-05  0.4238E-05  0.2974E-05  0.2024E-05  0.1362E-05  0.8814E-06  0.5472E-06  0.3314E-06  0.2020E-06  0.1234E-06  0.7896E-07  0.4843E-07  0.2715E-07  0.1321E-07  0.4422E-08  0.0000E+00  0.0000E+00  0.0000E+00  0.0000E+00  0.0000E+00  0.0000E+00  0.0000E+00  0.0000E+00  0.0000E+00  0.0000E+00  0.0000E+00  0.0000E+00  0.0000E+00  0.0000E+00  0.0000E+00
  0.9166E-08  0.1248E-07  0.1800E-07  0.2622E-07  0.3594E-07  0.4693E-07  0.6049E-07  0.7797E-07  0.9644E-07  0.1199E-06  0.1474E-06  0.1771E-06  0.2107E-06  0.2528E-06  0.3006E-06  0.3526E-06  0.4122E-06  0.4839E-06  0.6426E-06  0.9008E-06  0.1339E-05  0.1977E-05  0.2690E-05  0.3568E-05  0.4677E-05  0.6160E-05  0.7943E-05  0.9838E-05  0.1179E-04  0.1370E-04  0.1572E-04  0.1767E-04  0.1948E-04  0.2122E-04  0.2275E-04  0.2412E-04  0.2518E-04  0.2607E-04  0.2650E-04  0.2656E-04  0.2613E-04  0.2520E-04  0.2384E-04  0.2197E-04  0.1982E-04  0.1737E-04  0.1474E-04  0.1215E-04  0.9628E-05  0.7344E-05  0.5329E-05  0.3714E-05  0.2554E-05  0.1694E-05  0.1082E-05  0.6767E-06  0.4293E-06  0.2682E-06  0.1523E-06  0.9761E-07  0.6198E-07  0.3748E-07  0.1933E-07  0.8431E-08  0.2339E-08  0.0000E+00  0.0000E+00  0.0000E+00  0.0000E+00  0.0000E+00  0.0000E+00  0.0000E+00  0.0000E+00  0.0000E+00  0.0000E+00  0.0000E+00  0.0000E+00  0.0000E+00  0.0000E+00
  0.9563E-08  0.1459E-07  0.2060E-07  0.2737E-07  0.3752E-07  0.5098E-07  0.6501E-07  0.8330E-07  0.1048E-06  0.1279E-06  0.1541E-06  0.1875E-06  0.2255E-06  0.2667E-06  0.3142E-06  0.3718E-06  0.4379E-06  0.5091E-06  0.7186E-06  0.9849E-06  0.1567E-05  0.2325E-05  0.3136E-05  0.4190E-05  0.5602E-05  0.7463E-05  0.9435E-05  0.1168E-04  0.1391E-04  0.1619E-04  0.1850E-04  0.2079E-04  0.2290E-04  0.2495E-04  0.2681E-04  0.2838E-04  0.2976E-04  0.3070E-04  0.3133E-04  0.3135E-04  0.3093E-04  0.2983E-04  0.2823E-04  0.2608E-04  0.2353E-04  0.2065E-04  0.1764E-04  0.1453E-04  0.1160E-04  0.8846E-05  0.6432E-05  0.4516E-05  0.3056E-05  0.2006E-05  0.1305E-05  0.8228E-06  0.5165E-06  0.3142E-06  0.1800E-06  0.1187E-06  0.7492E-07  0.4525E-07  0.2684E-07  0.1220E-07  0.4418E-08  0.0000E+00  0.0000E+00  0.0000E+00  0.0000E+00  0.0000E+00  0.0000E+00  0.0000E+00  0.0000E+00  0.0000E+00  0.0000E+00  0.0000E+00  0.0000E+00  0.0000E+00  0.0000E+00
  0.1160E-07  0.1515E-07  0.2140E-07  0.3025E-07  0.4068E-07  0.5470E-07  0.7128E-07  0.8889E-07  0.1089E-06  0.1351E-06  0.1649E-06  0.1949E-06  0.2343E-06  0.2772E-06  0.3293E-06  0.3863E-06  0.4550E-06  0.5289E-06  0.8029E-06  0.1213E-05  0.1786E-05  0.2654E-05  0.3655E-05  0.4998E-05  0.6717E-05  0.8849E-05  0.1115E-04  0.1373E-04  0.1638E-04  0.1907E-04  0.2165E-04  0.2428E-04  0.2680E-04  0.2913E-04  0.3134E-04  0.3317E-04  0.3472E-04  0.3585E-04  0.3645E-04  0.3653E-04  0.3587E-04  0.3467E-04  0.3272E-04  0.3026E-04  0.2729E-04  0.2399E-04  0.2045E-04  0.1691E-04  0.1347E-04  0.1033E-04  0.7523E-05  0.5231E-05  0.3535E-05  0.2341E-05  0.1515E-05  0.9492E-06  0.5860E-06  0.3559E-06  0.2089E-06  0.1379E-06  0.8840E-07  0.5432E-07  0.3170E-07  0.1695E-07  0.6816E-08  0.1576E-08  0.0000E+00  0.0000E+00  0.0000E+00  0.0000E+00  0.0000E+00  0.0000E+00  0.0000E+00  0.0000E+00  0.0000E+00  0.0000E+00  0.0000E+00  0.0000E+00  0.0000E+00
  0.1200E-07  0.1733E-07  0.2369E-07  0.3286E-07  0.4388E-07  0.5866E-07  0.7373E-07  0.9388E-07  0.1127E-06  0.1397E-06  0.1705E-06  0.2038E-06  0.2423E-06  0.2894E-06  0.3437E-06  0.4021E-06  0.4728E-06  0.5460E-06  0.8894E-06  0.1390E-05  0.2000E-05  0.3147E-05  0.4249E-05  0.5850E-05  0.7941E-05  0.1042E-04  0.1317E-04  0.1610E-04  0.1911E-04  0.2222E-04  0.2517E-04  0.2826E-04  0.3111E-04  0.3389E-04  0.3633E-04  0.3850E-04  0.4020E-04  0.4143E-04  0.4207E-04  0.4200E-04  0.4122E-04  0.3962E-04  0.3741E-04  0.3452E-04  0.3103E-04  0.2721E-04  0.2315E-04  0.1908E-04  0.1520E-04  0.1159E-04  0.8448E-05  0.5895E-05  0.3987E-05  0.2619E-05  0.1676E-05  0.1046E-05  0.6459E-06  0.4083E-06  0.2460E-06  0.1548E-06  0.1016E-06  0.6378E-07  0.3867E-07  0.2124E-07  0.9472E-08  0.3379E-08  0.0000E+00  0.0000E+00  0.0000E+00  0.0000E+00  0.0000E+00  0.0000E+00  0.0000E+00  0.0000E+00  0.0000E+00  0.0000E+00  0.0000E+00  0.0000E+00  0.0000E+00
  0.1235E-07  0.1785E-07  0.2438E-07  0.3383E-07  0.4681E-07  0.6038E-07  0.7590E-07  0.9662E-07  0.1203E-06  0.1458E-06  0.1754E-06  0.2096E-06  0.2516E-06  0.2975E-06  0.3531E-06  0.4129E-06  0.4853E-06  0.5603E-06  0.9851E-06  0.1612E-05  0.2404E-05  0.3629E-05  0.4946E-05  0.6821E-05  0.9330E-05  0.1230E-04  0.1542E-04  0.1880E-04  0.2222E-04  0.2579E-04  0.2929E-04  0.3274E-04  0.3605E-04  0.3910E-04  0.4203E-04  0.4435E-04  0.4622E-04  0.4744E-04  0.4798E-04  0.4769E-04  0.4657E-04  0.4461E-04  0.4188E-04  0.3839E-04  0.3444E-04  0.3002E-04  0.2550E-04  0.2096E-04  0.1659E-04  0.1268E-04  0.9215E-05  0.6380E-05  0.4299E-05  0.2820E-05  0.1821E-05  0.1147E-05  0.7129E-06  0.4397E-06  0.2675E-06  0.1725E-06  0.1133E-06  0.7238E-07  0.4524E-07  0.2510E-07  0.1209E-07  0.4597E-08  0.7504E-09  0.0000E+00  0.0000E+00  0.0000E+00  0.0000E+00  0.0000E+00  0.0000E+00  0.0000E+00  0.0000E+00  0.0000E+00  0.0000E+00  0.0000E+00  0.0000E+00
  0.1266E-07  0.1829E-07  0.2668E-07  0.3659E-07  0.4797E-07  0.6366E-07  0.7959E-07  0.9895E-07  0.1232E-06  0.1492E-06  0.1795E-06  0.2170E-06  0.2573E-06  0.3067E-06  0.3634E-06  0.4216E-06  0.4980E-06  0.5804E-06  0.1101E-05  0.1802E-05  0.2792E-05  0.4141E-05  0.5681E-05  0.7998E-05  0.1092E-04  0.1438E-04  0.1807E-04  0.2185E-04  0.2572E-04  0.2989E-04  0.3397E-04  0.3788E-04  0.4164E-04  0.4512E-04  0.4813E-04  0.5072E-04  0.5253E-04  0.5369E-04  0.5390E-04  0.5329E-04  0.5170E-04  0.4922E-04  0.4587E-04  0.4188E-04  0.3727E-04  0.3236E-04  0.2726E-04  0.2228E-04  0.1759E-04  0.1338E-04  0.9721E-05  0.6748E-05  0.4548E-05  0.2964E-05  0.1914E-05  0.1199E-05  0.7590E-06  0.4739E-06  0.2860E-06  0.1855E-06  0.1231E-06  0.8004E-07  0.4915E-07  0.2971E-07  0.1475E-07  0.6768E-08  0.1572E-08  0.0000E+00  0.0000E+00  0.0000E+00  0.0000E+00  0.0000E+00  0.0000E+00  0.0000E+00  0.0000E+00  0.0000E+00  0.0000E+00  0.0000E+00  0.0000E+00
  0.1291E-07  0.1866E-07  0.2722E-07  0.3731E-07  0.4893E-07  0.6492E-07  0.8327E-07  0.1027E-06  0.1255E-06  0.1520E-06  0.1850E-06  0.2208E-06  0.2617E-06  0.3118E-06  0.3657E-06  0.4330E-06  0.5130E-06  0.6029E-06  0.1195E-05  0.2067E-05  0.3240E-05  0.4821E-05  0.6662E-05  0.9323E-05  0.1280E-04  0.1681E-04  0.2103E-04  0.2545E-04  0.2987E-04  0.3453E-04  0.3915E-04  0.4362E-04  0.4774E-04  0.5147E-04  0.5463E-04  0.5710E-04  0.5882E-04  0.5959E-04  0.5952E-04  0.5829E-04  0.5614E-04  0.5307E-04  0.4907E-04  0.4437E-04  0.3921E-04  0.3374E-04  0.2828E-04  0.2302E-04  0.1810E-04  0.1368E-04  0.9906E-05  0.6947E-05  0.4737E-05  0.3132E-05  0.2001E-05  0.1244E-05  0.7953E-06  0.5008E-06  0.3017E-06  0.2015E-06  0.1315E-06  0.8530E-07  0.5451E-07  0.3302E-07  0.1686E-07  0.8189E-08  0.2438E-08  0.0000E+00  0.0000E+00  0.0000E+00  0.0000E+00  0.0000E+00  0.0000E+00  0.0000E+00  0.0000E+00  0.0000E+00  0.0000E+00  0.0000E+00  0.0000E+00
  0.1469E-07  0.2070E-07  0.2764E-07  0.3955E-07  0.5137E-07  0.6588E-07  0.8448E-07  0.1042E-06  0.1273E-06  0.1540E-06  0.1874E-06  0.2258E-06  0.2648E-06  0.3151E-06  0.3739E-06  0.4462E-06  0.5290E-06  0.6266E-06  0.1315E-05  0.2313E-05  0.3737E-05  0.5626E-05  0.7806E-05  0.1092E-04  0.1498E-04  0.1959E-04  0.2444E-04  0.2938E-04  0.3455E-04  0.3965E-04  0.4484E-04  0.4964E-04  0.5413E-04  0.5798E-04  0.6114E-04  0.6348E-04  0.6483E-04  0.6521E-04  0.6447E-04  0.6258E-04  0.5971E-04  0.5580E-04  0.5112E-04  0.4577E-04  0.4001E-04  0.3417E-04  0.2839E-04  0.2290E-04  0.1791E-04  0.1356E-04  0.9940E-05  0.6928E-05  0.4760E-05  0.3220E-05  0.2107E-05  0.1365E-05  0.8253E-06  0.5234E-06  0.3273E-06  0.2219E-06  0.1459E-06  0.8945E-07  0.5741E-07  0.3491E-07  0.2004E-07  0.8739E-08  0.3443E-08  0.0000E+00  0.0000E+00  0.0000E+00  0.0000E+00  0.0000E+00  0.0000E+00  0.0000E+00  0.0000E+00  0.0000E+00  0.0000E+00  0.0000E+00  0.0000E+00
  0.1485E-07  0.2092E-07  0.2793E-07  0.3996E-07  0.5192E-07  0.6828E-07  0.8530E-07  0.1052E-06  0.1284E-06  0.1553E-06  0.1888E-06  0.2248E-06  0.2681E-06  0.3223E-06  0.3857E-06  0.4589E-06  0.5422E-06  0.7051E-06  0.1455E-05  0.2609E-05  0.4338E-05  0.6471E-05  0.9181E-05  0.1295E-04  0.1739E-04  0.2280E-04  0.2817E-04  0.3379E-04  0.3962E-04  0.4538E-04  0.5102E-04  0.5630E-04  0.6086E-04  0.6485E-04  0.6774E-04  0.6974E-04  0.7049E-04  0.7013E-04  0.6855E-04  0.6589E-04  0.6206E-04  0.5739E-04  0.5189E-04  0.4593E-04  0.3969E-04  0.3345E-04  0.2750E-04  0.2205E-04  0.1719E-04  0.1300E-04  0.9477E-05  0.6815E-05  0.4837E-05  0.3259E-05  0.2215E-05  0.1481E-05  0.9829E-06  0.5528E-06  0.3626E-06  0.2421E-06  0.1583E-06  0.1013E-06  0.5955E-07  0.3639E-07  0.2097E-07  0.1006E-07  0.4425E-08  0.0000E+00  0.0000E+00  0.0000E+00  0.0000E+00  0.0000E+00  0.0000E+00  0.0000E+00  0.0000E+00  0.0000E+00  0.0000E+00  0.0000E+00  0.0000E+00
  0.1495E-07  0.2258E-07  0.2811E-07  0.4020E-07  0.5223E-07  0.6865E-07  0.8571E-07  0.1056E-06  0.1289E-06  0.1558E-06  0.1893E-06  0.2266E-06  0.2713E-06  0.3263E-06  0.3926E-06  0.4657E-06  0.5575E-06  0.8694E-06  0.1553E-05  0.2965E-05  0.4974E-05  0.7427E-05  0.1077E-04  0.1518E-04  0.2050E-04  0.2641E-04  0.3251E-04  0.3876E-04  0.4528E-04  0.5170E-04  0.5786E-04  0.6331E-04  0.6799E-04  0.7162E-04  0.7417E-04  0.7538E-04  0.7542E-04  0.7411E-04  0.7164E-04  0.6794E-04  0.6327E-04  0.5764E-04  0.5146E-04  0.4486E-04  0.3821E-04  0.3182E-04  0.2588E-04  0.2056E-04  0.1596E-04  0.1209E-04  0.8944E-05  0.6524E-05  0.4638E-05  0.3382E-05  0.2381E-05  0.1597E-05  0.1121E-05  0.7164E-06  0.3847E-06  0.2722E-06  0.1834E-06  0.1149E-06  0.7287E-07  0.4016E-07  0.2164E-07  0.1044E-07  0.4608E-08  0.7563E-09  0.0000E+00  0.0000E+00  0.0000E+00  0.0000E+00  0.0000E+00  0.0000E+00  0.0000E+00  0.0000E+00  0.0000E+00  0.0000E+00  0.0000E+00
  0.1499E-07  0.2262E-07  0.2972E-07  0.4025E-07  0.5231E-07  0.6869E-07  0.8364E-07  0.1056E-06  0.1264E-06  0.1555E-06  0.1899E-06  0.2282E-06  0.2772E-06  0.3319E-06  0.4000E-06  0.4743E-06  0.5731E-06  0.9663E-06  0.1750E-05  0.3367E-05  0.5760E-05  0.8679E-05  0.1256E-04  0.1770E-04  0.2369E-04  0.3041E-04  0.3732E-04  0.4439E-04  0.5181E-04  0.5877E-04  0.6524E-04  0.7071E-04  0.7510E-04  0.7828E-04  0.8001E-04  0.8039E-04  0.7930E-04  0.7695E-04  0.7340E-04  0.6867E-04  0.6296E-04  0.5658E-04  0.4968E-04  0.4270E-04  0.3592E-04  0.2959E-04  0.2383E-04  0.1881E-04  0.1456E-04  0.1102E-04  0.8221E-05  0.6079E-05  0.4517E-05  0.3334E-05  0.2492E-05  0.1883E-05  0.1198E-05  0.9118E-06  0.5800E-06  0.3796E-06  0.2018E-06  0.1333E-06  0.8402E-07  0.4989E-07  0.2482E-07  0.1119E-07  0.4736E-08  0.7792E-09  0.0000E+00  0.0000E+00  0.0000E+00  0.0000E+00  0.0000E+00  0.0000E+00  0.0000E+00  0.0000E+00  0.0000E+00  0.0000E+00  0.0000E+00
  0.1495E-07  0.2083E-07  0.2965E-07  0.4171E-07  0.5214E-07  0.6842E-07  0.8328E-07  0.1050E-06  0.1257E-06  0.1554E-06  0.1890E-06  0.2295E-06  0.2761E-06  0.3348E-06  0.3984E-06  0.4855E-06  0.5965E-06  0.1084E-05  0.2047E-05  0.3841E-05  0.6557E-05  0.1003E-04  0.1466E-04  0.2065E-04  0.2765E-04  0.3513E-04  0.4302E-04  0.5116E-04  0.5910E-04  0.6660E-04  0.7300E-04  0.7829E-04  0.8199E-04  0.8425E-04  0.8491E-04  0.8407E-04  0.8175E-04  0.7822E-04  0.7344E-04  0.6771E-04  0.6108E-04  0.5393E-04  0.4665E-04  0.3954E-04  0.3287E-04  0.2680E-04  0.2151E-04  0.1693E-04  0.1315E-04  0.1008E-04  0.7582E-05  0.5730E-05  0.4329E-05  0.3345E-05  0.2592E-05  0.1963E-05  0.1508E-05  0.1035E-05  0.7881E-06  0.4863E-06  0.3152E-06  0.1566E-06  0.1005E-06  0.5735E-07  0.3118E-07  0.1409E-07  0.5568E-08  0.7924E-09  0.0000E+00  0.0000E+00  0.0000E+00  0.0000E+00  0.0000E+00  0.0000E+00  0.0000E+00  0.0000E+00  0.0000E+00  0.0000E+00  0.0000E+00
  0.1485E-07  0.2070E-07  0.2944E-07  0.3952E-07  0.5173E-07  0.6578E-07  0.8253E-07  0.1018E-06  0.1250E-06  0.1525E-06  0.1875E-06  0.2268E-06  0.2747E-06  0.3298E-06  0.4090E-06  0.5016E-06  0.6104E-06  0.1207E-05  0.2410E-05  0.4347E-05  0.7689E-05  0.1174E-04  0.1715E-04  0.2423E-04  0.3230E-04  0.4080E-04  0.4976E-04  0.5873E-04  0.6737E-04  0.7477E-04  0.8097E-04  0.8524E-04  0.8799E-04  0.8883E-04  0.8814E-04  0.8585E-04  0.8235E-04  0.7748E-04  0.7164E-04  0.6480E-04  0.5743E-04  0.4987E-04  0.4248E-04  0.3554E-04  0.2925E-04  0.2377E-04  0.1907E-04  0.1514E-04  0.1191E-04  0.9268E-05  0.7146E-05  0.5546E-05  0.4309E-05  0.3405E-05  0.2692E-05  0.2135E-05  0.1699E-05  0.1344E-05  0.9130E-06  0.6612E-06  0.4148E-06  0.2511E-06  0.1180E-06  0.7663E-07  0.4026E-07  0.1976E-07  0.4809E-08  0.7955E-09  0.0000E+00  0.0000E+00  0.0000E+00  0.0000E+00  0.0000E+00  0.0000E+00  0.0000E+00  0.0000E+00  0.0000E+00  0.0000E+00  0.0000E+00
  0.1469E-07  0.2047E-07  0.2909E-07  0.3907E-07  0.5109E-07  0.6495E-07  0.8140E-07  0.1003E-06  0.1237E-06  0.1521E-06  0.1850E-06  0.2235E-06  0.2720E-06  0.3379E-06  0.4148E-06  0.5054E-06  0.6082E-06  0.1345E-05  0.2740E-05  0.4946E-05  0.8916E-05  0.1383E-04  0.2058E-04  0.2860E-04  0.3777E-04  0.4740E-04  0.5765E-04  0.6746E-04  0.7618E-04  0.8327E-04  0.8832E-04  0.9138E-04  0.9237E-04  0.9169E-04  0.8937E-04  0.8584E-04  0.8101E-04  0.7496E-04  0.6792E-04  0.6029E-04  0.5244E-04  0.4477E-04  0.3760E-04  0.3116E-04  0.2552E-04  0.2076E-04  0.1677E-04  0.1346E-04  0.1078E-04  0.8598E-05  0.6886E-05  0.5493E-05  0.4426E-05  0.3587E-05  0.2881E-05  0.2360E-05  0.1891E-05  0.1537E-05  0.1206E-05  0.8702E-06  0.5811E-06  0.3370E-06  0.1971E-06  0.9128E-07  0.5717E-07  0.2665E-07  0.1362E-07  0.7883E-09  0.0000E+00  0.0000E+00  0.0000E+00  0.0000E+00  0.0000E+00  0.0000E+00  0.0000E+00  0.0000E+00  0.0000E+00  0.0000E+00  0.0000E+00
  0.1292E-07  0.2016E-07  0.2863E-07  0.3686E-07  0.5023E-07  0.6383E-07  0.7991E-07  0.9888E-07  0.1223E-06  0.1500E-06  0.1800E-06  0.2234E-06  0.2716E-06  0.3370E-06  0.4121E-06  0.5035E-06  0.6030E-06  0.1445E-05  0.3155E-05  0.6006E-05  0.1069E-04  0.1644E-04  0.2447E-04  0.3384E-04  0.4452E-04  0.5557E-04  0.6674E-04  0.7707E-04  0.8527E-04  0.9119E-04  0.9446E-04  0.9554E-04  0.9471E-04  0.9238E-04  0.8868E-04  0.8382E-04  0.7766E-04  0.7044E-04  0.6253E-04  0.5439E-04  0.4647E-04  0.3914E-04  0.3262E-04  0.2702E-04  0.2227E-04  0.1825E-04  0.1493E-04  0.1211E-04  0.9908E-05  0.8130E-05  0.6690E-05  0.5571E-05  0.4646E-05  0.3824E-05  0.3195E-05  0.2665E-05  0.2205E-05  0.1721E-05  0.1399E-05  0.1063E-05  0.7811E-06  0.5036E-06  0.2738E-06  0.1586E-06  0.7225E-07  0.4022E-07  0.2035E-07  0.6609E-08  0.0000E+00  0.0000E+00  0.0000E+00  0.0000E+00  0.0000E+00  0.0000E+00  0.0000E+00  0.0000E+00  0.0000E+00  0.0000E+00  0.0000E+00
  0.1267E-07  0.1976E-07  0.2486E-07  0.3610E-07  0.4739E-07  0.6245E-07  0.7618E-07  0.9700E-07  0.1172E-06  0.1446E-06  0.1788E-06  0.2185E-06  0.2699E-06  0.3333E-06  0.4089E-06  0.5000E-06  0.6019E-06  0.1670E-05  0.3794E-05  0.7201E-05  0.1288E-04  0.2004E-04  0.2947E-04  0.4051E-04  0.5277E-04  0.6551E-04  0.7728E-04  0.8723E-04  0.9396E-04  0.9749E-04  0.9835E-04  0.9719E-04  0.9464E-04  0.9085E-04  0.8592E-04  0.7969E-04  0.7232E-04  0.6414E-04  0.5576E-04  0.4770E-04  0.4027E-04  0.3374E-04  0.2834E-04  0.2417E-04  0.2039E-04  0.1695E-04  0.1383E-04  0.1135E-04  0.9366E-05  0.7901E-05  0.6699E-05  0.5698E-05  0.4833E-05  0.4175E-05  0.3590E-05  0.3001E-05  0.2535E-05  0.2054E-05  0.1569E-05  0.1264E-05  0.9586E-06  0.6702E-06  0.4154E-06  0.2143E-06  0.1181E-06  0.5445E-07  0.2974E-07  0.1310E-07  0.2870E-08  0.0000E+00  0.0000E+00  0.0000E+00  0.0000E+00  0.0000E+00  0.0000E+00  0.0000E+00  0.0000E+00  0.0000E+00  0.0000E+00
  0.1236E-07  0.1613E-07  0.2424E-07  0.3344E-07  0.4451E-07  0.5724E-07  0.7413E-07  0.8955E-07  0.1141E-06  0.1433E-06  0.1743E-06  0.2157E-06  0.2666E-06  0.3320E-06  0.4044E-06  0.4899E-06  0.5951E-06  0.1955E-05  0.4512E-05  0.8957E-05  0.1605E-04  0.2501E-04  0.3635E-04  0.4932E-04  0.6348E-04  0.7738E-04  0.8890E-04  0.9697E-04  0.1006E-03  0.1010E-03  0.9928E-04  0.9624E-04  0.9236E-04  0.8745E-04  0.8123E-04  0.7360E-04  0.6502E-04  0.5638E-04  0.4834E-04  0.4123E-04  0.3498E-04  0.2999E-04  0.2657E-04  0.2420E-04  0.2140E-04  0.1775E-04  0.1417E-04  0.1128E-04  0.9310E-05  0.7920E-05  0.6833E-05  0.5915E-05  0.5159E-05  0.4518E-05  0.3946E-05  0.3430E-05  0.2816E-05  0.2409E-05  0.1906E-05  0.1517E-05  0.1134E-05  0.8471E-06  0.5718E-06  0.3478E-06  0.1779E-06  0.8979E-07  0.4347E-07  0.1933E-07  0.9060E-08  0.0000E+00  0.0000E+00  0.0000E+00  0.0000E+00  0.0000E+00  0.0000E+00  0.0000E+00  0.0000E+00  0.0000E+00  0.0000E+00
  0.1039E-07  0.1567E-07  0.2179E-07  0.3084E-07  0.4132E-07  0.5373E-07  0.6805E-07  0.8929E-07  0.1114E-06  0.1399E-06  0.1689E-06  0.2058E-06  0.2592E-06  0.3194E-06  0.3939E-06  0.4820E-06  0.5884E-06  0.2188E-05  0.5550E-05  0.1157E-04  0.2028E-04  0.3157E-04  0.4560E-04  0.6107E-04  0.7690E-04  0.9082E-04  0.1002E-03  0.1041E-03  0.1036E-03  0.1008E-03  0.9710E-04  0.9314E-04  0.8844E-04  0.8229E-04  0.7444E-04  0.6538E-04  0.5616E-04  0.4798E-04  0.4142E-04  0.3633E-04  0.3201E-04  0.2968E-04  0.2964E-04  0.2981E-04  0.2727E-04  0.2195E-04  0.1643E-04  0.1226E-04  0.9740E-05  0.8184E-05  0.7193E-05  0.6305E-05  0.5563E-05  0.4893E-05  0.4286E-05  0.3732E-05  0.3232E-05  0.2646E-05  0.2252E-05  0.1747E-05  0.1397E-05  0.1010E-05  0.7231E-06  0.4663E-06  0.2683E-06  0.1388E-06  0.6171E-07  0.3320E-07  0.1281E-07  0.5880E-08  0.0000E+00  0.0000E+00  0.0000E+00  0.0000E+00  0.0000E+00  0.0000E+00  0.0000E+00  0.0000E+00  0.0000E+00
  0.1006E-07  0.1515E-07  0.2108E-07  0.2981E-07  0.3994E-07  0.5268E-07  0.6831E-07  0.8525E-07  0.1092E-06  0.1337E-06  0.1641E-06  0.1999E-06  0.2548E-06  0.3152E-06  0.3901E-06  0.4779E-06  0.7725E-06  0.2843E-05  0.7490E-05  0.1549E-04  0.2675E-04  0.4118E-04  0.5839E-04  0.7636E-04  0.9238E-04  0.1035E-03  0.1076E-03  0.1059E-03  0.1016E-03  0.9700E-04  0.9302E-04  0.8877E-04  0.8298E-04  0.7492E-04  0.6535E-04  0.5545E-04  0.4661E-04  0.4008E-04  0.3629E-04  0.3403E-04  0.3341E-04  0.3538E-04  0.4014E-04  0.4291E-04  0.3883E-04  0.2981E-04  0.2083E-04  0.1439E-04  0.1082E-04  0.8843E-05  0.7644E-05  0.6789E-05  0.6009E-05  0.5290E-05  0.4644E-05  0.4060E-05  0.3527E-05  0.3048E-05  0.2548E-05  0.2075E-05  0.1596E-05  0.1235E-05  0.8688E-06  0.6047E-06  0.3686E-06  0.2042E-06  0.1034E-06  0.4195E-07  0.2589E-07  0.9309E-08  0.2850E-08  0.0000E+00  0.0000E+00  0.0000E+00  0.0000E+00  0.0000E+00  0.0000E+00  0.0000E+00  0.0000E+00
  0.9705E-08  0.1459E-07  0.2030E-07  0.2702E-07  0.3924E-07  0.5076E-07  0.6602E-07  0.8255E-07  0.1060E-06  0.1298E-06  0.1611E-06  0.1974E-06  0.2518E-06  0.3100E-06  0.3812E-06  0.4711E-06  0.1478E-05  0.4155E-05  0.1057E-04  0.2147E-04  0.3648E-04  0.5515E-04  0.7510E-04  0.9341E-04  0.1061E-03  0.1102E-03  0.1075E-03  0.1012E-03  0.9559E-04  0.9178E-04  0.8838E-04  0.8320E-04  0.7522E-04  0.6499E-04  0.5435E-04  0.4475E-04  0.3755E-04  0.3367E-04  0.3352E-04  0.3579E-04  0.4045E-04  0.4847E-04  0.5739E-04  0.5944E-04  0.5190E-04  0.3909E-04  0.2663E-04  0.1776E-04  0.1246E-04  0.9701E-05  0.8281E-05  0.7296E-05  0.6475E-05  0.5709E-05  0.5020E-05  0.4399E-05  0.3832E-05  0.3321E-05  0.2853E-05  0.2366E-05  0.1889E-05  0.1440E-05  0.1068E-05  0.7431E-06  0.4828E-06  0.2889E-06  0.1470E-06  0.7504E-07  0.3384E-07  0.1590E-07  0.5989E-08  0.0000E+00  0.0000E+00  0.0000E+00  0.0000E+00  0.0000E+00  0.0000E+00  0.0000E+00  0.0000E+00
  0.9318E-08  0.1250E-07  0.1784E-07  0.2495E-07  0.3776E-07  0.4903E-07  0.6592E-07  0.8219E-07  0.1050E-06  0.1274E-06  0.1544E-06  0.1909E-06  0.2386E-06  0.3022E-06  0.3727E-06  0.4651E-06  0.2112E-05  0.6621E-05  0.1610E-04  0.3111E-04  0.5062E-04  0.7274E-04  0.9335E-04  0.1072E-03  0.1111E-03  0.1069E-03  0.9894E-04  0.9244E-04  0.8906E-04  0.8682E-04  0.8271E-04  0.7502E-04  0.6425E-04  0.5276E-04  0.4266E-04  0.3484E-04  0.3007E-04  0.2957E-04  0.3346E-04  0.4145E-04  0.5324E-04  0.6556E-04  0.7223E-04  0.7076E-04  0.6167E-04  0.4770E-04  0.3302E-04  0.2149E-04  0.1435E-04  0.1066E-04  0.8932E-05  0.7838E-05  0.6956E-05  0.6142E-05  0.5412E-05  0.4746E-05  0.4145E-05  0.3594E-05  0.3104E-05  0.2634E-05  0.2160E-05  0.1698E-05  0.1258E-05  0.9173E-06  0.6006E-06  0.3904E-06  0.2284E-06  0.1085E-06  0.5579E-07  0.2306E-07  0.9397E-08  0.2879E-08  0.0000E+00  0.0000E+00  0.0000E+00  0.0000E+00  0.0000E+00  0.0000E+00  0.0000E+00
  0.7448E-08  0.1035E-07  0.1704E-07  0.2332E-07  0.3669E-07  0.4776E-07  0.6430E-07  0.7960E-07  0.9806E-07  0.1217E-06  0.1471E-06  0.1891E-06  0.2347E-06  0.2996E-06  0.3671E-06  0.1074E-05  0.4048E-05  0.1150E-04  0.2590E-04  0.4662E-04  0.7003E-04  0.9161E-04  0.1058E-03  0.1095E-03  0.1037E-03  0.9409E-04  0.8709E-04  0.8458E-04  0.8392E-04  0.8115E-04  0.7378E-04  0.6268E-04  0.5046E-04  0.3984E-04  0.3204E-04  0.2700E-04  0.2529E-04  0.2831E-04  0.3707E-04  0.5188E-04  0.6748E-04  0.7593E-04  0.7703E-04  0.7399E-04  0.6646E-04  0.5310E-04  0.3705E-04  0.2395E-04  0.1568E-04  0.1160E-04  0.9562E-05  0.8367E-05  0.7442E-05  0.6585E-05  0.5811E-05  0.5105E-05  0.4462E-05  0.3878E-05  0.3350E-05  0.2864E-05  0.2405E-05  0.1932E-05  0.1484E-05  0.1068E-05  0.7483E-06  0.4923E-06  0.2887E-06  0.1600E-06  0.7754E-07  0.3073E-07  0.1593E-07  0.5995E-08  0.0000E+00  0.0000E+00  0.0000E+00  0.0000E+00  0.0000E+00  0.0000E+00  0.0000E+00
  0.7095E-08  0.9850E-08  0.1648E-07  0.2429E-07  0.3344E-07  0.4594E-07  0.5866E-07  0.7730E-07  0.9462E-07  0.1205E-06  0.1454E-06  0.1841E-06  0.2297E-06  0.2923E-06  0.5428E-06  0.1997E-05  0.7099E-05  0.1964E-04  0.4128E-04  0.6881E-04  0.9445E-04  0.1096E-03  0.1105E-03  0.1000E-03  0.8750E-04  0.7930E-04  0.7804E-04  0.7934E-04  0.7820E-04  0.7151E-04  0.6003E-04  0.4729E-04  0.3656E-04  0.2889E-04  0.2419E-04  0.2180E-04  0.2309E-04  0.3050E-04  0.4614E-04  0.6349E-04  0.7272E-04  0.7472E-04  0.7353E-04  0.7002E-04  0.6250E-04  0.4967E-04  0.3494E-04  0.2297E-04  0.1585E-04  0.1207E-04  0.1011E-04  0.8907E-05  0.7928E-05  0.7027E-05  0.6207E-05  0.5457E-05  0.4777E-05  0.4153E-05  0.3598E-05  0.3087E-05  0.2614E-05  0.2154E-05  0.1698E-05  0.1273E-05  0.8737E-06  0.5986E-06  0.3768E-06  0.2216E-06  0.1137E-06  0.5260E-07  0.2290E-07  0.9320E-08  0.2858E-08  0.0000E+00  0.0000E+00  0.0000E+00  0.0000E+00  0.0000E+00  0.0000E+00
  0.5305E-08  0.9486E-08  0.1613E-07  0.2382E-07  0.3282E-07  0.4687E-07  0.5948E-07  0.7722E-07  0.9441E-07  0.1149E-06  0.1401E-06  0.1758E-06  0.2266E-06  0.2848E-06  0.7826E-06  0.3151E-05  0.1097E-04  0.2910E-04  0.5963E-04  0.9599E-04  0.1235E-03  0.1296E-03  0.1162E-03  0.9624E-04  0.8170E-04  0.7571E-04  0.7546E-04  0.7381E-04  0.6758E-04  0.5631E-04  0.4345E-04  0.3264E-04  0.2532E-04  0.2111E-04  0.1902E-04  0.1885E-04  0.2381E-04  0.3851E-04  0.5605E-04  0.6476E-04  0.6656E-04  0.6467E-04  0.6044E-04  0.5426E-04  0.4623E-04  0.3665E-04  0.2723E-04  0.1973E-04  0.1495E-04  0.1220E-04  0.1059E-04  0.9410E-05  0.8399E-05  0.7456E-05  0.6592E-05  0.5805E-05  0.5085E-05  0.4429E-05  0.3841E-05  0.3303E-05  0.2806E-05  0.2344E-05  0.1890E-05  0.1442E-05  0.1045E-05  0.7278E-06  0.4699E-06  0.2764E-06  0.1636E-06  0.7694E-07  0.3453E-07  0.1567E-07  0.5898E-08  0.0000E+00  0.0000E+00  0.0000E+00  0.0000E+00  0.0000E+00  0.0000E+00
  0.4367E-08  0.1013E-07  0.1523E-07  0.2448E-07  0.3350E-07  0.4407E-07  0.5646E-07  0.7036E-07  0.9092E-07  0.1112E-06  0.1390E-06  0.1716E-06  0.2212E-06  0.2815E-06  0.8987E-06  0.3957E-05  0.1341E-04  0.3482E-04  0.7082E-04  0.1133E-03  0.1438E-03  0.1493E-03  0.1360E-03  0.1207E-03  0.1110E-03  0.1042E-03  0.9385E-04  0.7783E-04  0.5838E-04  0.4065E-04  0.2841E-04  0.2166E-04  0.1815E-04  0.1659E-04  0.1639E-04  0.1829E-04  0.2909E-04  0.4516E-04  0.5222E-04  0.5239E-04  0.4875E-04  0.4334E-04  0.3759E-04  0.3301E-04  0.2863E-04  0.2427E-04  0.2011E-04  0.1667E-04  0.1409E-04  0.1230E-04  0.1100E-04  0.9882E-05  0.8836E-05  0.7859E-05  0.6963E-05  0.6135E-05  0.5385E-05  0.4697E-05  0.4077E-05  0.3506E-05  0.2990E-05  0.2516E-05  0.2059E-05  0.1615E-05  0.1191E-05  0.8477E-06  0.5778E-06  0.3614E-06  0.2001E-06  0.1088E-06  0.4853E-07  0.1932E-07  0.6181E-08  0.0000E+00  0.0000E+00  0.0000E+00  0.0000E+00  0.0000E+00  0.0000E+00
  0.5143E-08  0.1092E-07  0.1613E-07  0.2228E-07  0.3125E-07  0.4167E-07  0.5687E-07  0.7132E-07  0.9157E-07  0.1095E-06  0.1348E-06  0.1711E-06  0.2169E-06  0.2727E-06  0.9237E-06  0.3593E-05  0.1191E-04  0.3085E-04  0.6241E-04  0.9999E-04  0.1286E-03  0.1402E-03  0.1421E-03  0.1456E-03  0.1502E-03  0.1489E-03  0.1376E-03  0.1159E-03  0.8803E-04  0.5914E-04  0.3411E-04  0.1841E-04  0.1414E-04  0.1439E-04  0.1537E-04  0.1986E-04  0.3017E-04  0.3365E-04  0.3211E-04  0.2920E-04  0.2649E-04  0.2441E-04  0.2279E-04  0.2146E-04  0.2014E-04  0.1858E-04  0.1695E-04  0.1530E-04  0.1382E-04  0.1259E-04  0.1140E-04  0.1029E-04  0.9238E-05  0.8240E-05  0.7305E-05  0.6453E-05  0.5666E-05  0.4950E-05  0.4298E-05  0.3701E-05  0.3162E-05  0.2672E-05  0.2201E-05  0.1764E-05  0.1352E-05  0.9741E-06  0.6772E-06  0.4432E-06  0.2508E-06  0.1434E-06  0.6397E-07  0.2333E-07  0.9482E-08  0.2915E-08  0.0000E+00  0.0000E+00  0.0000E+00  0.0000E+00  0.0000E+00
  0.4626E-08  0.8956E-08  0.1572E-07  0.2192E-07  0.3248E-07  0.4243E-07  0.5635E-07  0.7076E-07  0.8875E-07  0.1081E-06  0.1318E-06  0.1662E-06  0.2151E-06  0.2736E-06  0.6372E-06  0.2257E-05  0.7458E-05  0.1926E-04  0.3823E-04  0.6029E-04  0.7870E-04  0.9143E-04  0.1041E-03  0.1189E-03  0.1299E-03  0.1306E-03  0.1213E-03  0.1069E-03  0.9232E-04  0.7820E-04  0.6355E-04  0.4582E-04  0.2723E-04  0.1468E-04  0.1635E-04  0.1647E-04  0.1753E-04  0.1836E-04  0.1892E-04  0.1926E-04  0.1944E-04  0.1938E-04  0.1919E-04  0.1889E-04  0.1831E-04  0.1745E-04  0.1640E-04  0.1525E-04  0.1408E-04  0.1290E-04  0.1175E-04  0.1065E-04  0.9588E-05  0.8578E-05  0.7622E-05  0.6741E-05  0.5927E-05  0.5181E-05  0.4506E-05  0.3882E-05  0.3317E-05  0.2823E-05  0.2337E-05  0.1892E-05  0.1471E-05  0.1095E-05  0.7735E-06  0.5289E-06  0.3239E-06  0.1750E-06  0.8471E-07  0.3639E-07  0.1577E-07  0.5935E-08  0.0000E+00  0.0000E+00  0.0000E+00  0.0000E+00  0.0000E+00
  0.5748E-08  0.1021E-07  0.1700E-07  0.2335E-07  0.3013E-07  0.4080E-07  0.5302E-07  0.7038E-07  0.8718E-07  0.1061E-06  0.1312E-06  0.1683E-06  0.2146E-06  0.2692E-06  0.4448E-06  0.1178E-05  0.3450E-05  0.8283E-05  0.1568E-04  0.2427E-04  0.3266E-04  0.4268E-04  0.5619E-04  0.7088E-04  0.7849E-04  0.7407E-04  0.6246E-04  0.4979E-04  0.3905E-04  0.2987E-04  0.2212E-04  0.1720E-04  0.1743E-04  0.1628E-04  0.1464E-04  0.1579E-04  0.1695E-04  0.1792E-04  0.1868E-04  0.1921E-04  0.1951E-04  0.1957E-04  0.1941E-04  0.1900E-04  0.1835E-04  0.1749E-04  0.1649E-04  0.1541E-04  0.1429E-04  0.1316E-04  0.1204E-04  0.1094E-04  0.9882E-05  0.8864E-05  0.7900E-05  0.6998E-05  0.6162E-05  0.5396E-05  0.4688E-05  0.4048E-05  0.3463E-05  0.2955E-05  0.2461E-05  0.2010E-05  0.1584E-05  0.1211E-05  0.8849E-06  0.6061E-06  0.3865E-06  0.2280E-06  0.1167E-06  0.5058E-07  0.1635E-07  0.6156E-08  0.0000E+00  0.0000E+00  0.0000E+00  0.0000E+00  0.0000E+00
  0.7098E-08  0.1031E-07  0.1573E-07  0.2311E-07  0.3082E-07  0.4306E-07  0.5514E-07  0.6957E-07  0.8802E-07  0.1092E-06  0.1325E-06  0.1651E-06  0.2135E-06  0.2725E-06  0.3458E-06  0.5649E-06  0.1234E-05  0.2527E-05  0.4551E-05  0.7088E-05  0.1112E-04  0.1838E-04  0.2894E-04  0.3944E-04  0.4276E-04  0.3769E-04  0.2859E-04  0.2229E-04  0.1875E-04  0.2022E-04  0.2972E-04  0.4057E-04  0.2707E-04  0.1593E-04  0.1520E-04  0.1613E-04  0.1731E-04  0.1831E-04  0.1907E-04  0.1958E-04  0.1983E-04  0.1984E-04  0.1960E-04  0.1912E-04  0.1843E-04  0.1756E-04  0.1658E-04  0.1554E-04  0.1445E-04  0.1335E-04  0.1226E-04  0.1118E-04  0.1012E-04  0.9100E-05  0.8129E-05  0.7216E-05  0.6364E-05  0.5581E-05  0.4859E-05  0.4197E-05  0.3596E-05  0.3071E-05  0.2574E-05  0.2101E-05  0.1668E-05  0.1299E-05  0.9697E-06  0.6943E-06  0.4590E-06  0.2732E-06  0.1404E-06  0.6986E-07  0.2432E-07  0.9312E-08  0.2873E-08  0.0000E+00  0.0000E+00  0.0000E+00  0.0000E+00
  0.7119E-08  0.1192E-07  0.1691E-07  0.2508E-07  0.3096E-07  0.4193E-07  0.5580E-07  0.6902E-07  0.8933E-07  0.1076E-06  0.1326E-06  0.1703E-06  0.2105E-06  0.2743E-06  0.3520E-06  0.4527E-06  0.5814E-06  0.8235E-06  0.1057E-05  0.2040E-05  0.4349E-05  0.8864E-05  0.1476E-04  0.1942E-04  0.2012E-04  0.1846E-04  0.1783E-04  0.2265E-04  0.3572E-04  0.5379E-04  0.5826E-04  0.3682E-04  0.2142E-04  0.1557E-04  0.1583E-04  0.1651E-04  0.1761E-04  0.1860E-04  0.1936E-04  0.1984E-04  0.2006E-04  0.2001E-04  0.1971E-04  0.1919E-04  0.1848E-04  0.1762E-04  0.1665E-04  0.1562E-04  0.1456E-04  0.1349E-04  0.1240E-04  0.1134E-04  0.1029E-04  0.9281E-05  0.8311E-05  0.7391E-05  0.6532E-05  0.5738E-05  0.5002E-05  0.4329E-05  0.3713E-05  0.3166E-05  0.2656E-05  0.2185E-05  0.1769E-05  0.1378E-05  0.1051E-05  0.7638E-06  0.5177E-06  0.3224E-06  0.1800E-06  0.8710E-07  0.3281E-07  0.1245E-07  0.2961E-08  0.0000E+00  0.0000E+00  0.0000E+00  0.0000E+00
  0.8697E-08  0.1305E-07  0.1752E-07  0.2392E-07  0.3363E-07  0.4290E-07  0.5597E-07  0.7097E-07  0.9014E-07  0.1122E-06  0.1322E-06  0.1713E-06  0.2199E-06  0.2825E-06  0.3547E-06  0.4627E-06  0.5993E-06  0.7731E-06  0.1035E-05  0.1534E-05  0.2691E-05  0.4617E-05  0.8093E-05  0.1166E-04  0.1608E-04  0.2348E-04  0.3691E-04  0.5644E-04  0.7126E-04  0.6578E-04  0.4300E-04  0.2775E-04  0.1916E-04  0.1568E-04  0.1640E-04  0.1690E-04  0.1782E-04  0.1878E-04  0.1951E-04  0.1998E-04  0.2017E-04  0.2009E-04  0.1975E-04  0.1920E-04  0.1848E-04  0.1761E-04  0.1665E-04  0.1564E-04  0.1459E-04  0.1353E-04  0.1248E-04  0.1143E-04  0.1040E-04  0.9394E-05  0.8435E-05  0.7521E-05  0.6658E-05  0.5853E-05  0.5114E-05  0.4425E-05  0.3807E-05  0.3248E-05  0.2731E-05  0.2261E-05  0.1834E-05  0.1440E-05  0.1121E-05  0.8309E-06  0.5882E-06  0.3834E-06  0.2163E-06  0.1032E-06  0.4156E-07  0.1278E-07  0.5922E-08  0.0000E+00  0.0000E+00  0.0000E+00  0.0000E+00
  0.9624E-08  0.1357E-07  0.1918E-07  0.2645E-07  0.3296E-07  0.4468E-07  0.5765E-07  0.7316E-07  0.8982E-07  0.1124E-06  0.1416E-06  0.1821E-06  0.2277E-06  0.2889E-06  0.3722E-06  0.4814E-06  0.6178E-06  0.7960E-06  0.1022E-05  0.1562E-05  0.3059E-05  0.6546E-05  0.1245E-04  0.2218E-04  0.3629E-04  0.5459E-04  0.7282E-04  0.7963E-04  0.6753E-04  0.4641E-04  0.3370E-04  0.2479E-04  0.1717E-04  0.1610E-04  0.1693E-04  0.1729E-04  0.1804E-04  0.1893E-04  0.1962E-04  0.2005E-04  0.2020E-04  0.2007E-04  0.1971E-04  0.1914E-04  0.1840E-04  0.1753E-04  0.1658E-04  0.1557E-04  0.1454E-04  0.1351E-04  0.1247E-04  0.1145E-04  0.1044E-04  0.9458E-05  0.8510E-05  0.7602E-05  0.6747E-05  0.5942E-05  0.5194E-05  0.4504E-05  0.3885E-05  0.3319E-05  0.2793E-05  0.2306E-05  0.1879E-05  0.1497E-05  0.1174E-05  0.8931E-06  0.6431E-06  0.4240E-06  0.2491E-06  0.1336E-06  0.5252E-07  0.1746E-07  0.6058E-08  0.0000E+00  0.0000E+00  0.0000E+00  0.0000E+00
  0.1135E-07  0.1499E-07  0.2007E-07  0.2724E-07  0.3577E-07  0.4780E-07  0.5828E-07  0.7423E-07  0.9486E-07  0.1183E-06  0.1462E-06  0.1877E-06  0.2424E-06  0.3036E-06  0.3910E-06  0.4981E-06  0.6409E-06  0.8216E-06  0.1181E-05  0.2849E-05  0.7111E-05  0.1622E-04  0.3115E-04  0.5097E-04  0.7043E-04  0.8264E-04  0.8095E-04  0.6556E-04  0.4824E-04  0.3853E-04  0.3100E-04  0.2164E-04  0.1669E-04  0.1692E-04  0.1761E-04  0.1778E-04  0.1829E-04  0.1903E-04  0.1966E-04  0.2003E-04  0.2013E-04  0.1997E-04  0.1958E-04  0.1899E-04  0.1824E-04  0.1738E-04  0.1643E-04  0.1544E-04  0.1442E-04  0.1341E-04  0.1240E-04  0.1140E-04  0.1042E-04  0.9455E-05  0.8524E-05  0.7635E-05  0.6790E-05  0.5997E-05  0.5251E-05  0.4564E-05  0.3935E-05  0.3356E-05  0.2838E-05  0.2350E-05  0.1929E-05  0.1542E-05  0.1211E-05  0.9372E-06  0.6821E-06  0.4699E-06  0.2933E-06  0.1567E-06  0.6826E-07  0.2827E-07  0.6175E-08  0.0000E+00  0.0000E+00  0.0000E+00  0.0000E+00
  0.1257E-07  0.1666E-07  0.2209E-07  0.2953E-07  0.3746E-07  0.4826E-07  0.6259E-07  0.7753E-07  0.9561E-07  0.1221E-06  0.1558E-06  0.2009E-06  0.2506E-06  0.3254E-06  0.4092E-06  0.5247E-06  0.6700E-06  0.9272E-06  0.1843E-05  0.5568E-05  0.1469E-04  0.3256E-04  0.5810E-04  0.8123E-04  0.8946E-04  0.7970E-04  0.6076E-04  0.4606E-04  0.4118E-04  0.3745E-04  0.2900E-04  0.2042E-04  0.1761E-04  0.1809E-04  0.1844E-04  0.1841E-04  0.1867E-04  0.1920E-04  0.1970E-04  0.1998E-04  0.2001E-04  0.1980E-04  0.1938E-04  0.1877E-04  0.1801E-04  0.1714E-04  0.1620E-04  0.1522E-04  0.1423E-04  0.1324E-04  0.1226E-04  0.1129E-04  0.1033E-04  0.9393E-05  0.8487E-05  0.7616E-05  0.6791E-05  0.6007E-05  0.5275E-05  0.4588E-05  0.3963E-05  0.3396E-05  0.2864E-05  0.2377E-05  0.1955E-05  0.1575E-05  0.1256E-05  0.9704E-06  0.7262E-06  0.5166E-06  0.3332E-06  0.1809E-06  0.7894E-07  0.2886E-07  0.6273E-08  0.2839E-08  0.0000E+00  0.0000E+00  0.0000E+00
  0.1375E-07  0.1874E-07  0.2421E-07  0.3069E-07  0.4050E-07  0.5171E-07  0.6385E-07  0.8123E-07  0.1017E-06  0.1246E-06  0.1651E-06  0.2103E-06  0.2689E-06  0.3429E-06  0.4350E-06  0.5518E-06  0.7003E-06  0.9977E-06  0.2594E-05  0.8387E-05  0.2210E-04  0.4675E-04  0.7685E-04  0.9443E-04  0.8624E-04  0.6127E-04  0.4188E-04  0.3741E-04  0.3955E-04  0.3786E-04  0.2938E-04  0.2253E-04  0.2014E-04  0.1987E-04  0.1964E-04  0.1935E-04  0.1932E-04  0.1957E-04  0.1984E-04  0.1997E-04  0.1990E-04  0.1961E-04  0.1913E-04  0.1848E-04  0.1771E-04  0.1684E-04  0.1591E-04  0.1494E-04  0.1397E-04  0.1300E-04  0.1205E-04  0.1111E-04  0.1018E-04  0.9277E-05  0.8400E-05  0.7555E-05  0.6750E-05  0.5983E-05  0.5259E-05  0.4581E-05  0.3957E-05  0.3389E-05  0.2870E-05  0.2409E-05  0.1970E-05  0.1592E-05  0.1274E-05  0.1000E-05  0.7571E-06  0.5380E-06  0.3573E-06  0.2102E-06  0.9507E-07  0.3884E-07  0.6350E-08  0.2876E-08  0.0000E+00  0.0000E+00  0.0000E+00
  0.1563E-07  0.2048E-07  0.2622E-07  0.3371E-07  0.4227E-07  0.5403E-07  0.6851E-07  0.8351E-07  0.1039E-06  0.1346E-06  0.1716E-06  0.2198E-06  0.2890E-06  0.3656E-06  0.4630E-06  0.5826E-06  0.7315E-06  0.1148E-05  0.3148E-05  0.1019E-04  0.2591E-04  0.5234E-04  0.8070E-04  0.9282E-04  0.7822E-04  0.5148E-04  0.3518E-04  0.3352E-04  0.3747E-04  0.3681E-04  0.3186E-04  0.2705E-04  0.2426E-04  0.2280E-04  0.2167E-04  0.2086E-04  0.2042E-04  0.2026E-04  0.2021E-04  0.2009E-04  0.1983E-04  0.1942E-04  0.1886E-04  0.1816E-04  0.1736E-04  0.1648E-04  0.1555E-04  0.1460E-04  0.1364E-04  0.1270E-04  0.1178E-04  0.1087E-04  0.9984E-05  0.9112E-05  0.8262E-05  0.7446E-05  0.6667E-05  0.5925E-05  0.5220E-05  0.4560E-05  0.3940E-05  0.3387E-05  0.2866E-05  0.2398E-05  0.1982E-05  0.1613E-05  0.1304E-05  0.1010E-05  0.7676E-06  0.5733E-06  0.3863E-06  0.2299E-06  0.1097E-06  0.3947E-07  0.6406E-08  0.2904E-08  0.0000E+00  0.0000E+00  0.0000E+00
  0.1687E-07  0.2191E-07  0.2823E-07  0.3639E-07  0.4529E-07  0.5660E-07  0.7109E-07  0.8878E-07  0.1075E-06  0.1394E-06  0.1836E-06  0.2368E-06  0.3060E-06  0.3885E-06  0.4900E-06  0.6160E-06  0.7710E-06  0.1233E-05  0.3484E-05  0.1078E-04  0.2623E-04  0.5048E-04  0.7586E-04  0.8810E-04  0.7767E-04  0.5463E-04  0.3729E-04  0.3241E-04  0.3316E-04  0.3355E-04  0.3229E-04  0.3009E-04  0.2800E-04  0.2598E-04  0.2424E-04  0.2289E-04  0.2194E-04  0.2131E-04  0.2085E-04  0.2040E-04  0.1988E-04  0.1928E-04  0.1860E-04  0.1782E-04  0.1697E-04  0.1607E-04  0.1514E-04  0.1419E-04  0.1326E-04  0.1235E-04  0.1145E-04  0.1058E-04  0.9731E-05  0.8896E-05  0.8083E-05  0.7297E-05  0.6545E-05  0.5824E-05  0.5136E-05  0.4488E-05  0.3888E-05  0.3343E-05  0.2843E-05  0.2393E-05  0.1975E-05  0.1623E-05  0.1302E-05  0.1027E-05  0.7841E-06  0.5895E-06  0.4046E-06  0.2500E-06  0.1310E-06  0.5372E-07  0.1368E-07  0.2923E-08  0.0000E+00  0.0000E+00  0.0000E+00
  0.1852E-07  0.2367E-07  0.2996E-07  0.3877E-07  0.4866E-07  0.6044E-07  0.7431E-07  0.9193E-07  0.1185E-06  0.1515E-06  0.1939E-06  0.2525E-06  0.3243E-06  0.4122E-06  0.5178E-06  0.6494E-06  0.8100E-06  0.1158E-05  0.3749E-05  0.1052E-04  0.2433E-04  0.4510E-04  0.6859E-04  0.8425E-04  0.8238E-04  0.6486E-04  0.4546E-04  0.3401E-04  0.3031E-04  0.2980E-04  0.2978E-04  0.2949E-04  0.2882E-04  0.2753E-04  0.2603E-04  0.2462E-04  0.2344E-04  0.2245E-04  0.2161E-04  0.2083E-04  0.2004E-04  0.1921E-04  0.1835E-04  0.1747E-04  0.1656E-04  0.1563E-04  0.1469E-04  0.1375E-04  0.1284E-04  0.1195E-04  0.1109E-04  0.1025E-04  0.9440E-05  0.8643E-05  0.7865E-05  0.7111E-05  0.6391E-05  0.5697E-05  0.5039E-05  0.4410E-05  0.3837E-05  0.3299E-05  0.2812E-05  0.2345E-05  0.1959E-05  0.1607E-05  0.1298E-05  0.1029E-05  0.7952E-06  0.5932E-06  0.4173E-06  0.2657E-06  0.1444E-06  0.5902E-07  0.1378E-07  0.2931E-08  0.0000E+00  0.0000E+00  0.0000E+00
  0.1955E-07  0.2523E-07  0.3181E-07  0.4075E-07  0.5167E-07  0.6377E-07  0.8031E-07  0.9958E-07  0.1248E-06  0.1608E-06  0.2071E-06  0.2699E-06  0.3430E-06  0.4337E-06  0.5431E-06  0.6811E-06  0.8478E-06  0.1318E-05  0.4135E-05  0.1031E-04  0.2171E-04  0.3861E-04  0.5981E-04  0.7797E-04  0.8439E-04  0.7558E-04  0.5689E-04  0.4005E-04  0.3098E-04  0.2775E-04  0.2726E-04  0.2747E-04  0.2742E-04  0.2697E-04  0.2630E-04  0.2535E-04  0.2429E-04  0.2324E-04  0.2222E-04  0.2121E-04  0.2019E-04  0.1917E-04  0.1814E-04  0.1712E-04  0.1612E-04  0.1515E-04  0.1420E-04  0.1327E-04  0.1237E-04  0.1151E-04  0.1068E-04  0.9882E-05  0.9108E-05  0.8351E-05  0.7612E-05  0.6898E-05  0.6200E-05  0.5537E-05  0.4902E-05  0.4298E-05  0.3750E-05  0.3231E-05  0.2751E-05  0.2318E-05  0.1926E-05  0.1585E-05  0.1294E-05  0.1037E-05  0.7972E-06  0.6084E-06  0.4280E-06  0.2742E-06  0.1561E-06  0.6438E-07  0.1384E-07  0.2930E-08  0.0000E+00  0.0000E+00  0.0000E+00
  0.2048E-07  0.2641E-07  0.3377E-07  0.4351E-07  0.5428E-07  0.7030E-07  0.8648E-07  0.1067E-06  0.1339E-06  0.1697E-06  0.2217E-06  0.2838E-06  0.3628E-06  0.4549E-06  0.5718E-06  0.7114E-06  0.8809E-06  0.1961E-05  0.4741E-05  0.1043E-04  0.1965E-04  0.3309E-04  0.5045E-04  0.6814E-04  0.8005E-04  0.7964E-04  0.6720E-04  0.4956E-04  0.3580E-04  0.2890E-04  0.2649E-04  0.2600E-04  0.2600E-04  0.2595E-04  0.2554E-04  0.2496E-04  0.2427E-04  0.2338E-04  0.2239E-04  0.2131E-04  0.2019E-04  0.1904E-04  0.1789E-04  0.1676E-04  0.1567E-04  0.1464E-04  0.1368E-04  0.1275E-04  0.1187E-04  0.1104E-04  0.1024E-04  0.9476E-05  0.8744E-05  0.8029E-05  0.7334E-05  0.6648E-05  0.5988E-05  0.5360E-05  0.4757E-05  0.4181E-05  0.3643E-05  0.3135E-05  0.2673E-05  0.2258E-05  0.1893E-05  0.1561E-05  0.1281E-05  0.1028E-05  0.7982E-06  0.6046E-06  0.4291E-06  0.2876E-06  0.1581E-06  0.6970E-07  0.1816E-07  0.2918E-08  0.0000E+00  0.0000E+00  0.0000E+00
  0.2159E-07  0.2762E-07  0.3535E-07  0.4702E-07  0.5985E-07  0.7496E-07  0.9175E-07  0.1138E-06  0.1425E-06  0.1792E-06  0.2348E-06  0.3001E-06  0.3781E-06  0.4751E-06  0.5936E-06  0.7372E-06  0.1184E-05  0.2660E-05  0.5628E-05  0.1045E-04  0.1814E-04  0.2901E-04  0.4286E-04  0.5771E-04  0.7020E-04  0.7576E-04  0.7099E-04  0.5801E-04  0.4332E-04  0.3290E-04  0.2779E-04  0.2579E-04  0.2511E-04  0.2487E-04  0.2462E-04  0.2426E-04  0.2362E-04  0.2286E-04  0.2201E-04  0.2102E-04  0.1992E-04  0.1874E-04  0.1754E-04  0.1635E-04  0.1521E-04  0.1413E-04  0.1312E-04  0.1220E-04  0.1134E-04  0.1053E-04  0.9772E-05  0.9052E-05  0.8357E-05  0.7686E-05  0.7025E-05  0.6384E-05  0.5760E-05  0.5158E-05  0.4587E-05  0.4051E-05  0.3536E-05  0.3057E-05  0.2613E-05  0.2211E-05  0.1855E-05  0.1532E-05  0.1240E-05  0.1007E-05  0.7911E-06  0.5959E-06  0.4375E-06  0.2817E-06  0.1642E-06  0.7168E-07  0.1539E-07  0.2897E-08  0.0000E+00  0.0000E+00  0.0000E+00
  0.2261E-07  0.3090E-07  0.3911E-07  0.5026E-07  0.6341E-07  0.7932E-07  0.9788E-07  0.1199E-06  0.1509E-06  0.1925E-06  0.2462E-06  0.3145E-06  0.3936E-06  0.4907E-06  0.6109E-06  0.7563E-06  0.1566E-05  0.3298E-05  0.6152E-05  0.1055E-04  0.1714E-04  0.2607E-04  0.3726E-04  0.4953E-04  0.6088E-04  0.6832E-04  0.6886E-04  0.6193E-04  0.5010E-04  0.3854E-04  0.3078E-04  0.2684E-04  0.2497E-04  0.2415E-04  0.2368E-04  0.2326E-04  0.2277E-04  0.2209E-04  0.2125E-04  0.2032E-04  0.1931E-04  0.1821E-04  0.1704E-04  0.1584E-04  0.1468E-04  0.1358E-04  0.1256E-04  0.1162E-04  0.1078E-04  0.1001E-04  0.9286E-05  0.8599E-05  0.7948E-05  0.7318E-05  0.6702E-05  0.6099E-05  0.5506E-05  0.4947E-05  0.4410E-05  0.3890E-05  0.3387E-05  0.2918E-05  0.2495E-05  0.2119E-05  0.1781E-05  0.1485E-05  0.1219E-05  0.9780E-06  0.7768E-06  0.5907E-06  0.4300E-06  0.2879E-06  0.1717E-06  0.7214E-07  0.2478E-07  0.2866E-08  0.0000E+00  0.0000E+00  0.0000E+00
  0.2502E-07  0.3246E-07  0.4186E-07  0.5293E-07  0.6716E-07  0.8401E-07  0.1037E-06  0.1260E-06  0.1591E-06  0.2023E-06  0.2593E-06  0.3254E-06  0.4065E-06  0.5053E-06  0.6256E-06  0.9591E-06  0.2017E-05  0.3855E-05  0.6701E-05  0.1058E-04  0.1623E-04  0.2389E-04  0.3314E-04  0.4352E-04  0.5343E-04  0.6110E-04  0.6442E-04  0.6193E-04  0.5434E-04  0.4411E-04  0.3505E-04  0.2911E-04  0.2585E-04  0.2403E-04  0.2301E-04  0.2231E-04  0.2169E-04  0.2106E-04  0.2031E-04  0.1944E-04  0.1845E-04  0.1742E-04  0.1634E-04  0.1521E-04  0.1409E-04  0.1300E-04  0.1198E-04  0.1105E-04  0.1022E-04  0.9466E-05  0.8779E-05  0.8133E-05  0.7522E-05  0.6936E-05  0.6364E-05  0.5802E-05  0.5253E-05  0.4721E-05  0.4213E-05  0.3730E-05  0.3269E-05  0.2823E-05  0.2428E-05  0.2062E-05  0.1738E-05  0.1452E-05  0.1179E-05  0.9568E-06  0.7491E-06  0.5738E-06  0.4264E-06  0.2852E-06  0.1722E-06  0.7687E-07  0.2489E-07  0.0000E+00  0.0000E+00  0.0000E+00  0.0000E+00
  0.2622E-07  0.3431E-07  0.4421E-07  0.5632E-07  0.7032E-07  0.8810E-07  0.1089E-06  0.1331E-06  0.1659E-06  0.2115E-06  0.2701E-06  0.3361E-06  0.4175E-06  0.5159E-06  0.6387E-06  0.1273E-05  0.2436E-05  0.4410E-05  0.6765E-05  0.1050E-04  0.1531E-04  0.2205E-04  0.2989E-04  0.3865E-04  0.4744E-04  0.5485E-04  0.5942E-04  0.5990E-04  0.5576E-04  0.4817E-04  0.3956E-04  0.3231E-04  0.2751E-04  0.2463E-04  0.2280E-04  0.2163E-04  0.2073E-04  0.1996E-04  0.1922E-04  0.1840E-04  0.1747E-04  0.1649E-04  0.1547E-04  0.1444E-04  0.1339E-04  0.1236E-04  0.1138E-04  0.1047E-04  0.9653E-05  0.8919E-05  0.8260E-05  0.7656E-05  0.7086E-05  0.6541E-05  0.6012E-05  0.5495E-05  0.4983E-05  0.4492E-05  0.4008E-05  0.3544E-05  0.3097E-05  0.2678E-05  0.2296E-05  0.1959E-05  0.1657E-05  0.1384E-05  0.1140E-05  0.9201E-06  0.7294E-06  0.5499E-06  0.4193E-06  0.2846E-06  0.1766E-06  0.7882E-07  0.2201E-07  0.0000E+00  0.0000E+00  0.0000E+00  0.0000E+00
  0.2743E-07  0.3569E-07  0.4668E-07  0.5941E-07  0.7360E-07  0.9230E-07  0.1142E-06  0.1385E-06  0.1713E-06  0.2195E-06  0.2769E-06  0.3433E-06  0.4245E-06  0.5239E-06  0.8368E-06  0.1557E-05  0.2854E-05  0.4517E-05  0.6904E-05  0.1028E-04  0.1485E-04  0.2038E-04  0.2707E-04  0.3459E-04  0.4226E-04  0.4927E-04  0.5428E-04  0.5646E-04  0.5504E-04  0.5016E-04  0.4313E-04  0.3574E-04  0.2973E-04  0.2571E-04  0.2309E-04  0.2128E-04  0.2001E-04  0.1900E-04  0.1813E-04  0.1730E-04  0.1643E-04  0.1550E-04  0.1454E-04  0.1356E-04  0.1261E-04  0.1166E-04  0.1074E-04  0.9881E-05  0.9095E-05  0.8383E-05  0.7750E-05  0.7181E-05  0.6652E-05  0.6148E-05  0.5659E-05  0.5180E-05  0.4710E-05  0.4241E-05  0.3781E-05  0.3350E-05  0.2950E-05  0.2572E-05  0.2211E-05  0.1886E-05  0.1590E-05  0.1328E-05  0.1082E-05  0.8848E-06  0.7012E-06  0.5440E-06  0.3942E-06  0.2729E-06  0.1682E-06  0.7570E-07  0.2202E-07  0.0000E+00  0.0000E+00  0.0000E+00  0.0000E+00
  0.2835E-07  0.3665E-07  0.4855E-07  0.6151E-07  0.7667E-07  0.9581E-07  0.1182E-06  0.1441E-06  0.1787E-06  0.2243E-06  0.2804E-06  0.3453E-06  0.4295E-06  0.5296E-06  0.9700E-06  0.1752E-05  0.3038E-05  0.4717E-05  0.6944E-05  0.9991E-05  0.1400E-04  0.1901E-04  0.2487E-04  0.3121E-04  0.3787E-04  0.4407E-04  0.4930E-04  0.5242E-04  0.5268E-04  0.5006E-04  0.4505E-04  0.3857E-04  0.3221E-04  0.2718E-04  0.2371E-04  0.2130E-04  0.1953E-04  0.1822E-04  0.1714E-04  0.1623E-04  0.1535E-04  0.1446E-04  0.1357E-04  0.1265E-04  0.1176E-04  0.1090E-04  0.1006E-04  0.9261E-05  0.8527E-05  0.7859E-05  0.7255E-05  0.6710E-05  0.6213E-05  0.5747E-05  0.5298E-05  0.4860E-05  0.4420E-05  0.3990E-05  0.3573E-05  0.3168E-05  0.2781E-05  0.2419E-05  0.2085E-05  0.1784E-05  0.1509E-05  0.1260E-05  0.1036E-05  0.8530E-06  0.6734E-06  0.5161E-06  0.3732E-06  0.2590E-06  0.1590E-06  0.7074E-07  0.1708E-07  0.0000E+00  0.0000E+00  0.0000E+00  0.0000E+00
  0.2999E-07  0.3853E-07  0.5068E-07  0.6405E-07  0.7979E-07  0.9854E-07  0.1214E-06  0.1487E-06  0.1831E-06  0.2284E-06  0.2826E-06  0.3470E-06  0.4308E-06  0.6450E-06  0.1125E-05  0.1966E-05  0.3173E-05  0.4698E-05  0.6811E-05  0.9622E-05  0.1310E-04  0.1765E-04  0.2264E-04  0.2823E-04  0.3404E-04  0.3974E-04  0.4469E-04  0.4809E-04  0.4944E-04  0.4845E-04  0.4517E-04  0.4014E-04  0.3429E-04  0.2883E-04  0.2454E-04  0.2151E-04  0.1929E-04  0.1760E-04  0.1631E-04  0.1523E-04  0.1431E-04  0.1343E-04  0.1259E-04  0.1175E-04  0.1092E-04  0.1011E-04  0.9352E-05  0.8628E-05  0.7949E-05  0.7326E-05  0.6760E-05  0.6248E-05  0.5782E-05  0.5349E-05  0.4939E-05  0.4533E-05  0.4132E-05  0.3732E-05  0.3339E-05  0.2964E-05  0.2619E-05  0.2291E-05  0.1982E-05  0.1691E-05  0.1423E-05  0.1194E-05  0.9748E-06  0.7939E-06  0.6376E-06  0.4920E-06  0.3623E-06  0.2462E-06  0.1427E-06  0.6539E-07  0.1698E-07  0.0000E+00  0.0000E+00  0.0000E+00  0.0000E+00
  0.3158E-07  0.3992E-07  0.5150E-07  0.6622E-07  0.8250E-07  0.1016E-06  0.1236E-06  0.1499E-06  0.1826E-06  0.2289E-06  0.2816E-06  0.3466E-06  0.4250E-06  0.7131E-06  0.1265E-05  0.2071E-05  0.3141E-05  0.4676E-05  0.6664E-05  0.9173E-05  0.1247E-04  0.1624E-04  0.2076E-04  0.2555E-04  0.3061E-04  0.3566E-04  0.4027E-04  0.4382E-04  0.4576E-04  0.4588E-04  0.4392E-04  0.4024E-04  0.3540E-04  0.3018E-04  0.2548E-04  0.2182E-04  0.1913E-04  0.1715E-04  0.1558E-04  0.1435E-04  0.1332E-04  0.1244E-04  0.1161E-04  0.1083E-04  0.1007E-04  0.9329E-05  0.8641E-05  0.7986E-05  0.7367E-05  0.6792E-05  0.6268E-05  0.5793E-05  0.5360E-05  0.4959E-05  0.4577E-05  0.4202E-05  0.3841E-05  0.3470E-05  0.3114E-05  0.2782E-05  0.2457E-05  0.2146E-05  0.1866E-05  0.1593E-05  0.1347E-05  0.1131E-05  0.9358E-06  0.7628E-06  0.5966E-06  0.4580E-06  0.3387E-06  0.2371E-06  0.1288E-06  0.5744E-07  0.9699E-08  0.0000E+00  0.0000E+00  0.0000E+00  0.0000E+00
  0.3270E-07  0.4179E-07  0.5325E-07  0.6822E-07  0.8435E-07  0.1035E-06  0.1257E-06  0.1520E-06  0.1835E-06  0.2261E-06  0.2766E-06  0.3423E-06  0.4389E-06  0.7401E-06  0.1276E-05  0.2104E-05  0.3180E-05  0.4530E-05  0.6390E-05  0.8669E-05  0.1156E-04  0.1501E-04  0.1893E-04  0.2310E-04  0.2760E-04  0.3205E-04  0.3623E-04  0.3961E-04  0.4180E-04  0.4262E-04  0.4174E-04  0.3919E-04  0.3539E-04  0.3083E-04  0.2619E-04  0.2217E-04  0.1905E-04  0.1672E-04  0.1496E-04  0.1355E-04  0.1244E-04  0.1150E-04  0.1069E-04  0.9940E-05  0.9243E-05  0.8565E-05  0.7935E-05  0.7345E-05  0.6791E-05  0.6270E-05  0.5790E-05  0.5358E-05  0.4954E-05  0.4581E-05  0.4223E-05  0.3886E-05  0.3545E-05  0.3219E-05  0.2895E-05  0.2584E-05  0.2285E-05  0.1999E-05  0.1732E-05  0.1478E-05  0.1247E-05  0.1042E-05  0.8566E-06  0.6929E-06  0.5570E-06  0.4289E-06  0.3197E-06  0.2115E-06  0.1238E-06  0.4890E-07  0.9680E-08  0.0000E+00  0.0000E+00  0.0000E+00  0.0000E+00
  0.3395E-07  0.4257E-07  0.5406E-07  0.6839E-07  0.8433E-07  0.1040E-06  0.1272E-06  0.1525E-06  0.1822E-06  0.2235E-06  0.2735E-06  0.3335E-06  0.5000E-06  0.8218E-06  0.1342E-05  0.2129E-05  0.3076E-05  0.4347E-05  0.5997E-05  0.8191E-05  0.1063E-04  0.1378E-04  0.1711E-04  0.2082E-04  0.2476E-04  0.2866E-04  0.3241E-04  0.3555E-04  0.3789E-04  0.3904E-04  0.3886E-04  0.3726E-04  0.3438E-04  0.3060E-04  0.2639E-04  0.2234E-04  0.1894E-04  0.1632E-04  0.1433E-04  0.1282E-04  0.1160E-04  0.1063E-04  0.9799E-05  0.9095E-05  0.8436E-05  0.7825E-05  0.7245E-05  0.6720E-05  0.6221E-05  0.5754E-05  0.5319E-05  0.4923E-05  0.4557E-05  0.4215E-05  0.3892E-05  0.3577E-05  0.3277E-05  0.2973E-05  0.2678E-05  0.2392E-05  0.2127E-05  0.1869E-05  0.1632E-05  0.1401E-05  0.1185E-05  0.9917E-06  0.8157E-06  0.6609E-06  0.5258E-06  0.3994E-06  0.2901E-06  0.1964E-06  0.1116E-06  0.4379E-07  0.9623E-08  0.0000E+00  0.0000E+00  0.0000E+00  0.0000E+00
  0.3363E-07  0.4394E-07  0.5584E-07  0.6993E-07  0.8553E-07  0.1040E-06  0.1248E-06  0.1494E-06  0.1779E-06  0.2166E-06  0.2646E-06  0.3243E-06  0.4941E-06  0.8478E-06  0.1377E-05  0.2036E-05  0.2990E-05  0.4175E-05  0.5687E-05  0.7557E-05  0.9908E-05  0.1249E-04  0.1553E-04  0.1872E-04  0.2213E-04  0.2552E-04  0.2876E-04  0.3171E-04  0.3400E-04  0.3531E-04  0.3559E-04  0.3469E-04  0.3259E-04  0.2956E-04  0.2593E-04  0.2214E-04  0.1867E-04  0.1586E-04  0.1370E-04  0.1204E-04  0.1081E-04  0.9790E-05  0.8977E-05  0.8272E-05  0.7667E-05  0.7102E-05  0.6588E-05  0.6111E-05  0.5671E-05  0.5250E-05  0.4865E-05  0.4502E-05  0.4168E-05  0.3854E-05  0.3566E-05  0.3279E-05  0.3008E-05  0.2730E-05  0.2462E-05  0.2206E-05  0.1965E-05  0.1725E-05  0.1499E-05  0.1281E-05  0.1086E-05  0.9097E-06  0.7434E-06  0.6035E-06  0.4761E-06  0.3655E-06  0.2680E-06  0.1732E-06  0.9649E-07  0.4284E-07  0.9530E-08  0.0000E+00  0.0000E+00  0.0000E+00  0.0000E+00
  0.3388E-07  0.4335E-07  0.5592E-07  0.7095E-07  0.8563E-07  0.1037E-06  0.1243E-06  0.1477E-06  0.1748E-06  0.2100E-06  0.2558E-06  0.3118E-06  0.5082E-06  0.8068E-06  0.1327E-05  0.2007E-05  0.2863E-05  0.3920E-05  0.5294E-05  0.6964E-05  0.9002E-05  0.1137E-04  0.1399E-04  0.1675E-04  0.1970E-04  0.2265E-04  0.2554E-04  0.2819E-04  0.3030E-04  0.3166E-04  0.3216E-04  0.3166E-04  0.3023E-04  0.2787E-04  0.2486E-04  0.2148E-04  0.1817E-04  0.1530E-04  0.1302E-04  0.1130E-04  0.9979E-05  0.8986E-05  0.8175E-05  0.7508E-05  0.6925E-05  0.6424E-05  0.5952E-05  0.5525E-05  0.5137E-05  0.4769E-05  0.4419E-05  0.4098E-05  0.3797E-05  0.3517E-05  0.3248E-05  0.3000E-05  0.2747E-05  0.2502E-05  0.2260E-05  0.2026E-05  0.1800E-05  0.1594E-05  0.1395E-05  0.1206E-05  0.1019E-05  0.8550E-06  0.7051E-06  0.5665E-06  0.4452E-06  0.3309E-06  0.2373E-06  0.1563E-06  0.8196E-07  0.3501E-07  0.9400E-08  0.0000E+00  0.0000E+00  0.0000E+00  0.0000E+00
  0.3474E-07  0.4373E-07  0.5506E-07  0.6857E-07  0.8298E-07  0.1018E-06  0.1217E-06  0.1436E-06  0.1684E-06  0.2015E-06  0.2465E-06  0.3188E-06  0.5153E-06  0.8140E-06  0.1302E-05  0.1882E-05  0.2679E-05  0.3683E-05  0.4878E-05  0.6424E-05  0.8110E-05  0.1026E-04  0.1247E-04  0.1491E-04  0.1746E-04  0.2001E-04  0.2251E-04  0.2483E-04  0.2677E-04  0.2806E-04  0.2869E-04  0.2854E-04  0.2746E-04  0.2572E-04  0.2325E-04  0.2038E-04  0.1737E-04  0.1454E-04  0.1227E-04  0.1052E-04  0.9187E-05  0.8175E-05  0.7406E-05  0.6772E-05  0.6244E-05  0.5766E-05  0.5354E-05  0.4965E-05  0.4627E-05  0.4303E-05  0.3999E-05  0.3714E-05  0.3448E-05  0.3197E-05  0.2963E-05  0.2731E-05  0.2510E-05  0.2285E-05  0.2063E-05  0.1845E-05  0.1650E-05  0.1463E-05  0.1271E-05  0.1094E-05  0.9230E-06  0.7766E-06  0.6357E-06  0.5110E-06  0.4041E-06  0.3078E-06  0.2182E-06  0.1366E-06  0.6632E-07  0.2486E-07  0.9236E-08  0.0000E+00  0.0000E+00  0.0000E+00  0.0000E+00
  0.3481E-07  0.4368E-07  0.5537E-07  0.6844E-07  0.8233E-07  0.9884E-07  0.1175E-06  0.1390E-06  0.1640E-06  0.1923E-06  0.2342E-06  0.3247E-06  0.5212E-06  0.7923E-06  0.1232E-05  0.1779E-05  0.2472E-05  0.3387E-05  0.4456E-05  0.5780E-05  0.7409E-05  0.9125E-05  0.1114E-04  0.1327E-04  0.1539E-04  0.1757E-04  0.1977E-04  0.2179E-04  0.2339E-04  0.2464E-04  0.2534E-04  0.2532E-04  0.2462E-04  0.2323E-04  0.2129E-04  0.1888E-04  0.1626E-04  0.1369E-04  0.1140E-04  0.9677E-05  0.8380E-05  0.7397E-05  0.6644E-05  0.6071E-05  0.5569E-05  0.5152E-05  0.4780E-05  0.4447E-05  0.4144E-05  0.3865E-05  0.3602E-05  0.3351E-05  0.3112E-05  0.2885E-05  0.2674E-05  0.2470E-05  0.2277E-05  0.2073E-05  0.1870E-05  0.1679E-05  0.1499E-05  0.1320E-05  0.1163E-05  0.1009E-05  0.8644E-06  0.7182E-06  0.5923E-06  0.4703E-06  0.3633E-06  0.2659E-06  0.1771E-06  0.1091E-06  0.5269E-07  0.1990E-07  0.4659E-08  0.0000E+00  0.0000E+00  0.0000E+00  0.0000E+00
  0.3282E-07  0.4270E-07  0.5465E-07  0.6654E-07  0.8028E-07  0.9666E-07  0.1139E-06  0.1342E-06  0.1557E-06  0.1854E-06  0.2214E-06  0.3102E-06  0.4772E-06  0.7323E-06  0.1152E-05  0.1656E-05  0.2260E-05  0.3041E-05  0.4033E-05  0.5194E-05  0.6584E-05  0.8157E-05  0.9868E-05  0.1163E-04  0.1350E-04  0.1535E-04  0.1717E-04  0.1890E-04  0.2041E-04  0.2152E-04  0.2214E-04  0.2220E-04  0.2173E-04  0.2069E-04  0.1907E-04  0.1712E-04  0.1490E-04  0.1264E-04  0.1053E-04  0.8794E-05  0.7547E-05  0.6622E-05  0.5923E-05  0.5377E-05  0.4955E-05  0.4573E-05  0.4249E-05  0.3951E-05  0.3693E-05  0.3455E-05  0.3223E-05  0.3003E-05  0.2794E-05  0.2596E-05  0.2408E-05  0.2228E-05  0.2050E-05  0.1876E-05  0.1697E-05  0.1521E-05  0.1356E-05  0.1204E-05  0.1059E-05  0.9104E-06  0.7720E-06  0.6493E-06  0.5272E-06  0.4186E-06  0.3251E-06  0.2397E-06  0.1648E-06  0.9554E-07  0.5111E-07  0.1938E-07  0.4551E-08  0.0000E+00  0.0000E+00  0.0000E+00  0.0000E+00
