DSAA
          79         109
    318.3670    342.0670
   7336.5760   7369.2760
  0.0000E+00  0.5140E-03
  0.0000E+00  0.0000E+00  0.0000E+00  0.0000E+00  0.0000E+00  0.0000E+00  0.0000E+00  0.0000E+00  0.0000E+00  0.0000E+00  0.0000E+00  0.0000E+00  0.0000E+00  0.0000E+00  0.0000E+00  0.0000E+00  0.0000E+00  0.0000E+00  0.0000E+00  0.0000E+00  0.0000E+00  0.0000E+00  0.0000E+00  0.0000E+00  0.0000E+00  0.0000E+00  0.0000E+00  0.0000E+00  0.0000E+00  0.0000E+00  0.0000E+00  0.0000E+00  0.0000E+00  0.0000E+00  0.0000E+00  0.0000E+00  0.0000E+00  0.0000E+00  0.0000E+00  0.0000E+00  0.0000E+00  0.0000E+00  0.0000E+00  0.0000E+00  0.0000E+00  0.0000E+00  0.0000E+00  0.0000E+00  0.0000E+00  0.0000E+00  0.0000E+00  0.0000E+00  0.0000E+00  0.0000E+00  0.0000E+00  0.0000E+00  0.0000E+00  0.0000E+00  0.0000E+00  0.0000E+00  0.0000E+00  0.0000E+00  0.0000E+00  0.0000E+00  0.0000E+00  0.0000E+00  0.0000E+00  0.0000E+00  0.0000E+00  0.0000E+00  0.0000E+00  0.0000E+00  0.0000E+00  0.0000E+00  0.0000E+00  0.0000E+00  0.0000E+00  0.0000E+00  0.0000E+00
  0.0000E+00  0.0000E+00  0.0000E+00  0.0000E+00  0.0000E+00  0.0000E+00  0.0000E+00  0.0000E+00  0.0000E+00  0.0000E+00  0.0000E+00  0.0000E+00  0.0000E+00  0.0000E+00  0.0000E+00  0.0000E+00  0.0000E+00  0.0000E+00  0.0000E+00  0.0000E+00  0.0000E+00  0.0000E+00  0.0000E+00  0.0000E+00  0.0000E+00  0.0000E+00  0.0000E+00  0.0000E+00  0.0000E+00  0.0000E+00  0.0000E+00  0.0000E+00  0.0000E+00  0.0000E+00  0.0000E+00  0.0000E+00  0.0000E+00  0.0000E+00  0.0000E+00  0.0000E+00  0.0000E+00  0.0000E+00  0.0000E+00  0.0000E+00  0.0000E+00  0.0000E+00  0.0000E+00  0.0000E+00  0.0000E+00  0.0000E+00  0.0000E+00  0.0000E+00  0.0000E+00  0.0000E+00  0.0000E+00  0.0000E+00  0.0000E+00  0.0000E+00  0.0000E+00  0.0000E+00  0.0000E+00  0.0000E+00  0.0000E+00  0.0000E+00  0.0000E+00  0.0000E+00  0.0000E+00  0.0000E+00  0.0000E+00  0.0000E+00  0.0000E+00  0.0000E+00  0.0000E+00  0.0000E+00  0.0000E+00  0.0000E+00  0.0000E+00  0.0000E+00  0.0000E+00
  0.0000E+00  0.0000E+00  0.0000E+00  0.0000E+00  0.0000E+00  0.0000E+00  0.0000E+00  0.0000E+00  0.0000E+00  0.0000E+00  0.0000E+00  0.0000E+00  0.0000E+00  0.0000E+00  0.0000E+00  0.0000E+00  0.0000E+00  0.0000E+00  0.0000E+00  0.0000E+00  0.0000E+00  0.0000E+00  0.0000E+00  0.0000E+00  0.0000E+00  0.0000E+00  0.0000E+00  0.0000E+00  0.0000E+00  0.0000E+00  0.0000E+00  0.0000E+00  0.0000E+00  0.0000E+00  0.0000E+00  0.0000E+00  0.0000E+00  0.0000E+00  0.0000E+00  0.0000E+00  0.0000E+00  0.0000E+00  0.0000E+00  0.0000E+00  0.0000E+00  0.0000E+00  0.0000E+00  0.0000E+00  0.0000E+00  0.0000E+00  0.0000E+00  0.0000E+00  0.0000E+00  0.0000E+00  0.0000E+00  0.0000E+00  0.0000E+00  0.0000E+00  0.0000E+00  0.0000E+00  0.0000E+00  0.0000E+00  0.0000E+00  0.0000E+00  0.0000E+00  0.0000E+00  0.0000E+00  0.0000E+00  0.0000E+00  0.0000E+00  0.0000E+00  0.0000E+00  0.0000E+00  0.0000E+00  0.0000E+00  0.0000E+00  0.0000E+00  0.0000E+00  0.0000E+00
  0.0000E+00  0.0000E+00  0.0000E+00  0.0000E+00  0.0000E+00  0.0000E+00  0.0000E+00  0.0000E+00  0.0000E+00  0.0000E+00  0.0000E+00  0.0000E+00  0.0000E+00  0.0000E+00  0.0000E+00  0.0000E+00  0.0000E+00  0.0000E+00  0.0000E+00  0.0000E+00  0.0000E+00  0.0000E+00  0.0000E+00  0.0000E+00  0.0000E+00  0.0000E+00  0.0000E+00  0.0000E+00  0.0000E+00  0.0000E+00  0.0000E+00  0.0000E+00  0.0000E+00  0.0000E+00  0.0000E+00  0.0000E+00  0.0000E+00  0.0000E+00  0.0000E+00  0.0000E+00  0.0000E+00  0.0000E+00  0.0000E+00  0.0000E+00  0.0000E+00  0.0000E+00  0.0000E+00  0.0000E+00  0.0000E+00  0.0000E+00  0.0000E+00  0.0000E+00  0.0000E+00  0.0000E+00  0.0000E+00  0.0000E+00  0.0000E+00  0.0000E+00  0.0000E+00  0.0000E+00  0.0000E+00  0.0000E+00  0.0000E+00  0.0000E+00  0.0000E+00  0.0000E+00  0.0000E+00  0.0000E+00  0.0000E+00  0.0000E+00  0.0000E+00  0.0000E+00  0.0000E+00  0.0000E+00  0.0000E+00  0.0000E+00  0.0000E+00  0.0000E+00  0.0000E+00
  0.0000E+00  0.0000E+00  0.0000E+00  0.0000E+00  0.0000E+00  0.0000E+00  0.0000E+00  0.0000E+00  0.0000E+00  0.0000E+00  0.0000E+00  0.0000E+00  0.0000E+00  0.0000E+00  0.0000E+00  0.0000E+00  0.0000E+00  0.0000E+00  0.0000E+00  0.0000E+00  0.0000E+00  0.0000E+00  0.0000E+00  0.0000E+00  0.0000E+00  0.0000E+00  0.0000E+00  0.0000E+00  0.0000E+00  0.0000E+00  0.0000E+00  0.0000E+00  0.0000E+00  0.0000E+00  0.0000E+00  0.0000E+00  0.0000E+00  0.0000E+00  0.0000E+00  0.0000E+00  0.0000E+00  0.0000E+00  0.0000E+00  0.0000E+00  0.0000E+00  0.0000E+00  0.0000E+00  0.0000E+00  0.0000E+00  0.0000E+00  0.0000E+00  0.0000E+00  0.0000E+00  0.0000E+00  0.0000E+00  0.0000E+00  0.0000E+00  0.0000E+00  0.0000E+00  0.0000E+00  0.0000E+00  0.0000E+00  0.0000E+00  0.0000E+00  0.0000E+00  0.0000E+00  0.0000E+00  0.0000E+00  0.0000E+00  0.0000E+00  0.0000E+00  0.0000E+00  0.0000E+00  0.0000E+00  0.0000E+00  0.0000E+00  0.0000E+00  0.0000E+00  0.0000E+00
  0.0000E+00  0.0000E+00  0.0000E+00  0.0000E+00  0.0000E+00  0.0000E+00  0.0000E+00  0.0000E+00  0.0000E+00  0.0000E+00  0.0000E+00  0.0000E+00  0.0000E+00  0.0000E+00  0.0000E+00  0.0000E+00  0.0000E+00  0.0000E+00  0.0000E+00  0.0000E+00  0.0000E+00  0.0000E+00  0.0000E+00  0.0000E+00  0.0000E+00  0.0000E+00  0.0000E+00  0.0000E+00  0.0000E+00  0.0000E+00  0.0000E+00  0.0000E+00  0.0000E+00  0.0000E+00  0.0000E+00  0.0000E+00  0.0000E+00  0.0000E+00  0.0000E+00  0.0000E+00  0.0000E+00  0.0000E+00  0.0000E+00  0.0000E+00  0.0000E+00  0.0000E+00  0.0000E+00  0.0000E+00  0.0000E+00  0.0000E+00  0.0000E+00  0.0000E+00  0.0000E+00  0.0000E+00  0.0000E+00  0.0000E+00  0.0000E+00  0.0000E+00  0.0000E+00  0.0000E+00  0.0000E+00  0.0000E+00  0.0000E+00  0.0000E+00  0.0000E+00  0.0000E+00  0.0000E+00  0.0000E+00  0.0000E+00  0.0000E+00  0.0000E+00  0.0000E+00  0.0000E+00  0.0000E+00  0.0000E+00  0.0000E+00  0.0000E+00  0.0000E+00  0.0000E+00
  0.0000E+00  0.0000E+00  0.0000E+00  0.0000E+00  0.0000E+00  0.0000E+00  0.0000E+00  0.0000E+00  0.0000E+00  0.0000E+00  0.0000E+00  0.0000E+00  0.0000E+00  0.0000E+00  0.0000E+00  0.0000E+00  0.0000E+00  0.0000E+00  0.0000E+00  0.0000E+00  0.0000E+00  0.0000E+00  0.0000E+00  0.0000E+00  0.0000E+00  0.0000E+00  0.0000E+00  0.0000E+00  0.0000E+00  0.0000E+00  0.0000E+00  0.0000E+00  0.0000E+00  0.0000E+00  0.0000E+00  0.0000E+00  0.0000E+00  0.0000E+00  0.0000E+00  0.0000E+00  0.0000E+00  0.0000E+00  0.0000E+00  0.0000E+00  0.0000E+00  0.0000E+00  0.0000E+00  0.0000E+00  0.0000E+00  0.0000E+00  0.0000E+00  0.0000E+00  0.0000E+00  0.0000E+00  0.0000E+00  0.0000E+00  0.0000E+00  0.0000E+00  0.0000E+00  0.0000E+00  0.0000E+00  0.0000E+00  0.0000E+00  0.0000E+00  0.0000E+00  0.0000E+00  0.0000E+00  0.0000E+00  0.0000E+00  0.0000E+00  0.0000E+00  0.0000E+00  0.0000E+00  0.0000E+00  0.0000E+00  0.0000E+00  0.0000E+00  0.0000E+00  0.0000E+00
  0.0000E+00  0.0000E+00  0.0000E+00  0.0000E+00  0.0000E+00  0.0000E+00  0.0000E+00  0.0000E+00  0.0000E+00  0.0000E+00  0.0000E+00  0.0000E+00  0.0000E+00  0.0000E+00  0.0000E+00  0.0000E+00  0.0000E+00  0.0000E+00  0.0000E+00  0.0000E+00  0.0000E+00  0.0000E+00  0.0000E+00  0.0000E+00  0.0000E+00  0.0000E+00  0.0000E+00  0.0000E+00  0.0000E+00  0.0000E+00  0.0000E+00  0.0000E+00  0.0000E+00  0.0000E+00  0.0000E+00  0.0000E+00  0.0000E+00  0.0000E+00  0.0000E+00  0.0000E+00  0.0000E+00  0.0000E+00  0.0000E+00  0.0000E+00  0.0000E+00  0.0000E+00  0.0000E+00  0.0000E+00  0.0000E+00  0.0000E+00  0.0000E+00  0.0000E+00  0.0000E+00  0.0000E+00  0.0000E+00  0.0000E+00  0.0000E+00  0.0000E+00  0.0000E+00  0.0000E+00  0.0000E+00  0.0000E+00  0.0000E+00  0.0000E+00  0.0000E+00  0.0000E+00  0.0000E+00  0.0000E+00  0.0000E+00  0.0000E+00  0.0000E+00  0.0000E+00  0.0000E+00  0.0000E+00  0.0000E+00  0.0000E+00  0.0000E+00  0.0000E+00  0.0000E+00
  0.0000E+00  0.0000E+00  0.0000E+00  0.0000E+00  0.0000E+00  0.0000E+00  0.0000E+00  0.0000E+00  0.0000E+00  0.0000E+00  0.0000E+00  0.0000E+00  0.0000E+00  0.0000E+00  0.0000E+00  0.0000E+00  0.0000E+00  0.0000E+00  0.0000E+00  0.0000E+00  0.0000E+00  0.0000E+00  0.0000E+00  0.0000E+00  0.0000E+00  0.0000E+00  0.0000E+00  0.0000E+00  0.0000E+00  0.0000E+00  0.0000E+00  0.0000E+00  0.0000E+00  0.0000E+00  0.0000E+00  0.0000E+00  0.0000E+00  0.0000E+00  0.0000E+00  0.0000E+00  0.0000E+00  0.0000E+00  0.0000E+00  0.0000E+00  0.0000E+00  0.0000E+00  0.0000E+00  0.0000E+00  0.0000E+00  0.0000E+00  0.0000E+00  0.0000E+00  0.0000E+00  0.0000E+00  0.0000E+00  0.0000E+00  0.0000E+00  0.0000E+00  0.0000E+00  0.0000E+00  0.0000E+00  0.0000E+00  0.0000E+00  0.0000E+00  0.0000E+00  0.0000E+00  0.0000E+00  0.0000E+00  0.0000E+00  0.0000E+00  0.0000E+00  0.0000E+00  0.0000E+00  0.0000E+00  0.0000E+00  0.0000E+00  0.0000E+00  0.0000E+00  0.0000E+00
  0.0000E+00  0.0000E+00  0.0000E+00  0.0000E+00  0.0000E+00  0.0000E+00  0.0000E+00  0.0000E+00  0.0000E+00  0.0000E+00  0.0000E+00  0.0000E+00  0.0000E+00  0.0000E+00  0.0000E+00  0.0000E+00  0.0000E+00  0.0000E+00  0.0000E+00  0.0000E+00  0.0000E+00  0.0000E+00  0.0000E+00  0.0000E+00  0.0000E+00  0.0000E+00  0.0000E+00  0.0000E+00  0.0000E+00  0.0000E+00  0.0000E+00  0.0000E+00  0.0000E+00  0.0000E+00  0.0000E+00  0.0000E+00  0.0000E+00  0.0000E+00  0.0000E+00  0.0000E+00  0.0000E+00  0.0000E+00  0.0000E+00  0.0000E+00  0.0000E+00  0.0000E+00  0.0000E+00  0.0000E+00  0.0000E+00  0.0000E+00  0.0000E+00  0.0000E+00  0.0000E+00  0.0000E+00  0.0000E+00  0.0000E+00  0.0000E+00  0.0000E+00  0.0000E+00  0.0000E+00  0.0000E+00  0.0000E+00  0.0000E+00  0.0000E+00  0.0000E+00  0.0000E+00  0.0000E+00  0.0000E+00  0.0000E+00  0.0000E+00  0.0000E+00  0.0000E+00  0.0000E+00  0.0000E+00  0.0000E+00  0.0000E+00  0.0000E+00  0.0000E+00  0.0000E+00
  0.0000E+00  0.0000E+00  0.0000E+00  0.0000E+00  0.0000E+00  0.0000E+00  0.0000E+00  0.0000E+00  0.0000E+00  0.0000E+00  0.0000E+00  0.0000E+00  0.0000E+00  0.0000E+00  0.0000E+00  0.0000E+00  0.0000E+00  0.0000E+00  0.0000E+00  0.0000E+00  0.0000E+00  0.0000E+00  0.0000E+00  0.0000E+00  0.0000E+00  0.0000E+00  0.0000E+00  0.0000E+00  0.0000E+00  0.0000E+00  0.0000E+00  0.0000E+00  0.0000E+00  0.0000E+00  0.0000E+00  0.0000E+00  0.0000E+00  0.0000E+00  0.0000E+00  0.0000E+00  0.0000E+00  0.0000E+00  0.0000E+00  0.0000E+00  0.0000E+00  0.0000E+00  0.0000E+00  0.0000E+00  0.0000E+00  0.0000E+00  0.0000E+00  0.0000E+00  0.0000E+00  0.0000E+00  0.0000E+00  0.0000E+00  0.0000E+00  0.0000E+00  0.0000E+00  0.0000E+00  0.0000E+00  0.0000E+00  0.0000E+00  0.0000E+00  0.0000E+00  0.0000E+00  0.0000E+00  0.0000E+00  0.0000E+00  0.0000E+00  0.0000E+00  0.0000E+00  0.0000E+00  0.0000E+00  0.0000E+00  0.0000E+00  0.0000E+00  0.0000E+00  0.0000E+00
  0.0000E+00  0.0000E+00  0.0000E+00  0.0000E+00  0.0000E+00  0.0000E+00  0.0000E+00  0.0000E+00  0.0000E+00  0.0000E+00  0.0000E+00  0.0000E+00  0.0000E+00  0.0000E+00  0.0000E+00  0.0000E+00  0.0000E+00  0.0000E+00  0.0000E+00  0.0000E+00  0.0000E+00  0.0000E+00  0.0000E+00  0.0000E+00  0.0000E+00  0.0000E+00  0.0000E+00  0.0000E+00  0.0000E+00  0.0000E+00  0.0000E+00  0.0000E+00  0.0000E+00  0.0000E+00  0.0000E+00  0.0000E+00  0.0000E+00  0.0000E+00  0.0000E+00  0.0000E+00  0.0000E+00  0.0000E+00  0.0000E+00  0.0000E+00  0.0000E+00  0.0000E+00  0.0000E+00  0.0000E+00  0.0000E+00  0.0000E+00  0.0000E+00  0.0000E+00  0.0000E+00  0.0000E+00  0.0000E+00  0.0000E+00  0.0000E+00  0.0000E+00  0.0000E+00  0.0000E+00  0.0000E+00  0.0000E+00  0.0000E+00  0.0000E+00  0.0000E+00  0.0000E+00  0.0000E+00  0.0000E+00  0.0000E+00  0.0000E+00  0.0000E+00  0.0000E+00  0.0000E+00  0.0000E+00  0.0000E+00  0.0000E+00  0.0000E+00  0.0000E+00  0.0000E+00
  0.0000E+00  0.0000E+00  0.0000E+00  0.0000E+00  0.0000E+00  0.0000E+00  0.0000E+00  0.0000E+00  0.0000E+00  0.0000E+00  0.0000E+00  0.0000E+00  0.0000E+00  0.0000E+00  0.0000E+00  0.0000E+00  0.0000E+00  0.0000E+00  0.0000E+00  0.0000E+00  0.0000E+00  0.0000E+00  0.0000E+00  0.0000E+00  0.0000E+00  0.0000E+00  0.0000E+00  0.0000E+00  0.0000E+00  0.0000E+00  0.0000E+00  0.0000E+00  0.0000E+00  0.0000E+00  0.0000E+00  0.0000E+00  0.0000E+00  0.0000E+00  0.0000E+00  0.0000E+00  0.0000E+00  0.0000E+00  0.0000E+00  0.0000E+00  0.0000E+00  0.0000E+00  0.0000E+00  0.0000E+00  0.0000E+00  0.0000E+00  0.0000E+00  0.0000E+00  0.0000E+00  0.0000E+00  0.0000E+00  0.0000E+00  0.0000E+00  0.0000E+00  0.0000E+00  0.0000E+00  0.0000E+00  0.0000E+00  0.0000E+00  0.0000E+00  0.0000E+00  0.0000E+00  0.0000E+00  0.0000E+00  0.0000E+00  0.0000E+00  0.0000E+00  0.0000E+00  0.0000E+00  0.0000E+00  0.0000E+00  0.0000E+00  0.0000E+00  0.0000E+00  0.0000E+00
  0.0000E+00  0.0000E+00  0.0000E+00  0.0000E+00  0.0000E+00  0.0000E+00  0.0000E+00  0.0000E+00  0.0000E+00  0.0000E+00  0.0000E+00  0.0000E+00  0.0000E+00  0.0000E+00  0.0000E+00  0.0000E+00  0.0000E+00  0.0000E+00  0.0000E+00  0.0000E+00  0.0000E+00  0.0000E+00  0.0000E+00  0.0000E+00  0.0000E+00  0.0000E+00  0.0000E+00  0.0000E+00  0.0000E+00  0.0000E+00  0.0000E+00  0.0000E+00  0.0000E+00  0.0000E+00  0.0000E+00  0.0000E+00  0.0000E+00  0.0000E+00  0.0000E+00  0.0000E+00  0.0000E+00  0.0000E+00  0.0000E+00  0.0000E+00  0.0000E+00  0.0000E+00  0.0000E+00  0.0000E+00  0.0000E+00  0.0000E+00  0.0000E+00  0.0000E+00  0.0000E+00  0.0000E+00  0.0000E+00  0.0000E+00  0.0000E+00  0.0000E+00  0.0000E+00  0.0000E+00  0.0000E+00  0.0000E+00  0.0000E+00  0.0000E+00  0.0000E+00  0.0000E+00  0.0000E+00  0.0000E+00  0.0000E+00  0.0000E+00  0.0000E+00  0.0000E+00  0.0000E+00  0.0000E+00  0.0000E+00  0.0000E+00  0.0000E+00  0.0000E+00  0.0000E+00
  0.0000E+00  0.0000E+00  0.0000E+00  0.0000E+00  0.0000E+00  0.0000E+00  0.0000E+00  0.0000E+00  0.0000E+00  0.0000E+00  0.0000E+00  0.0000E+00  0.0000E+00  0.0000E+00  0.0000E+00  0.0000E+00  0.0000E+00  0.0000E+00  0.0000E+00  0.0000E+00  0.0000E+00  0.0000E+00  0.0000E+00  0.0000E+00  0.0000E+00  0.0000E+00  0.0000E+00  0.0000E+00  0.0000E+00  0.0000E+00  0.0000E+00  0.0000E+00  0.0000E+00  0.0000E+00  0.0000E+00  0.0000E+00  0.0000E+00  0.0000E+00  0.0000E+00  0.0000E+00  0.0000E+00  0.0000E+00  0.0000E+00  0.0000E+00  0.0000E+00  0.0000E+00  0.0000E+00  0.0000E+00  0.0000E+00  0.0000E+00  0.0000E+00  0.0000E+00  0.0000E+00  0.0000E+00  0.0000E+00  0.0000E+00  0.0000E+00  0.0000E+00  0.0000E+00  0.0000E+00  0.0000E+00  0.0000E+00  0.0000E+00  0.0000E+00  0.0000E+00  0.0000E+00  0.0000E+00  0.0000E+00  0.0000E+00  0.0000E+00  0.0000E+00  0.0000E+00  0.0000E+00  0.0000E+00  0.0000E+00  0.0000E+00  0.0000E+00  0.0000E+00  0.0000E+00
  0.0000E+00  0.0000E+00  0.0000E+00  0.0000E+00  0.0000E+00  0.0000E+00  0.0000E+00  0.0000E+00  0.0000E+00  0.0000E+00  0.0000E+00  0.0000E+00  0.0000E+00  0.0000E+00  0.0000E+00  0.0000E+00  0.0000E+00  0.0000E+00  0.0000E+00  0.0000E+00  0.0000E+00  0.0000E+00  0.0000E+00  0.0000E+00  0.0000E+00  0.0000E+00  0.0000E+00  0.0000E+00  0.0000E+00  0.0000E+00  0.0000E+00  0.0000E+00  0.0000E+00  0.0000E+00  0.0000E+00  0.0000E+00  0.0000E+00  0.0000E+00  0.0000E+00  0.0000E+00  0.0000E+00  0.0000E+00  0.0000E+00  0.0000E+00  0.0000E+00  0.0000E+00  0.0000E+00  0.0000E+00  0.0000E+00  0.0000E+00  0.0000E+00  0.0000E+00  0.0000E+00  0.0000E+00  0.0000E+00  0.0000E+00  0.0000E+00  0.0000E+00  0.0000E+00  0.0000E+00  0.0000E+00  0.0000E+00  0.0000E+00  0.0000E+00  0.0000E+00  0.0000E+00  0.0000E+00  0.0000E+00  0.0000E+00  0.0000E+00  0.0000E+00  0.0000E+00  0.0000E+00  0.0000E+00  0.0000E+00  0.0000E+00  0.0000E+00  0.0000E+00  0.0000E+00
  0.0000E+00  0.0000E+00  0.0000E+00  0.0000E+00  0.0000E+00  0.0000E+00  0.0000E+00  0.0000E+00  0.0000E+00  0.0000E+00  0.0000E+00  0.0000E+00  0.0000E+00  0.0000E+00  0.0000E+00  0.0000E+00  0.0000E+00  0.0000E+00  0.0000E+00  0.0000E+00  0.0000E+00  0.0000E+00  0.0000E+00  0.0000E+00  0.0000E+00  0.0000E+00  0.0000E+00  0.0000E+00  0.0000E+00  0.0000E+00  0.0000E+00  0.0000E+00  0.0000E+00  0.0000E+00  0.0000E+00  0.0000E+00  0.0000E+00  0.0000E+00  0.0000E+00  0.0000E+00  0.0000E+00  0.0000E+00  0.0000E+00  0.0000E+00  0.0000E+00  0.0000E+00  0.0000E+00  0.0000E+00  0.0000E+00  0.0000E+00  0.0000E+00  0.0000E+00  0.0000E+00  0.0000E+00  0.0000E+00  0.0000E+00  0.0000E+00  0.0000E+00  0.0000E+00  0.0000E+00  0.0000E+00  0.0000E+00  0.0000E+00  0.0000E+00  0.0000E+00  0.0000E+00  0.0000E+00  0.0000E+00  0.0000E+00  0.0000E+00  0.0000E+00  0.0000E+00  0.0000E+00  0.0000E+00  0.0000E+00  0.0000E+00  0.0000E+00  0.0000E+00  0.0000E+00
  0.0000E+00  0.0000E+00  0.0000E+00  0.0000E+00  0.0000E+00  0.0000E+00  0.0000E+00  0.0000E+00  0.0000E+00  0.0000E+00  0.0000E+00  0.0000E+00  0.0000E+00  0.0000E+00  0.0000E+00  0.0000E+00  0.0000E+00  0.0000E+00  0.0000E+00  0.0000E+00  0.0000E+00  0.0000E+00  0.0000E+00  0.0000E+00  0.0000E+00  0.0000E+00  0.0000E+00  0.0000E+00  0.0000E+00  0.0000E+00  0.0000E+00  0.0000E+00  0.0000E+00  0.0000E+00  0.0000E+00  0.0000E+00  0.0000E+00  0.0000E+00  0.0000E+00  0.0000E+00  0.0000E+00  0.0000E+00  0.0000E+00  0.0000E+00  0.0000E+00  0.0000E+00  0.0000E+00  0.0000E+00  0.0000E+00  0.0000E+00  0.0000E+00  0.0000E+00  0.0000E+00  0.0000E+00  0.0000E+00  0.0000E+00  0.0000E+00  0.0000E+00  0.0000E+00  0.0000E+00  0.0000E+00  0.0000E+00  0.0000E+00  0.0000E+00  0.0000E+00  0.0000E+00  0.0000E+00  0.0000E+00  0.0000E+00  0.0000E+00  0.0000E+00  0.0000E+00  0.0000E+00  0.0000E+00  0.0000E+00  0.0000E+00  0.0000E+00  0.0000E+00  0.0000E+00
  0.0000E+00  0.0000E+00  0.0000E+00  0.0000E+00  0.0000E+00  0.0000E+00  0.0000E+00  0.0000E+00  0.0000E+00  0.0000E+00  0.0000E+00  0.0000E+00  0.0000E+00  0.0000E+00  0.0000E+00  0.0000E+00  0.0000E+00  0.0000E+00  0.0000E+00  0.0000E+00  0.0000E+00  0.0000E+00  0.0000E+00  0.0000E+00  0.0000E+00  0.0000E+00  0.0000E+00  0.0000E+00  0.0000E+00  0.0000E+00  0.0000E+00  0.0000E+00  0.0000E+00  0.0000E+00  0.0000E+00  0.0000E+00  0.0000E+00  0.0000E+00  0.0000E+00  0.0000E+00  0.0000E+00  0.0000E+00  0.0000E+00  0.0000E+00  0.0000E+00  0.0000E+00  0.0000E+00  0.0000E+00  0.0000E+00  0.0000E+00  0.0000E+00  0.0000E+00  0.0000E+00  0.0000E+00  0.0000E+00  0.0000E+00  0.0000E+00  0.0000E+00  0.0000E+00  0.0000E+00  0.0000E+00  0.0000E+00  0.0000E+00  0.0000E+00  0.0000E+00  0.0000E+00  0.0000E+00  0.0000E+00  0.0000E+00  0.0000E+00  0.0000E+00  0.0000E+00  0.0000E+00  0.0000E+00  0.0000E+00  0.0000E+00  0.0000E+00  0.0000E+00  0.0000E+00
  0.0000E+00  0.0000E+00  0.0000E+00  0.0000E+00  0.0000E+00  0.0000E+00  0.0000E+00  0.0000E+00  0.0000E+00  0.0000E+00  0.0000E+00  0.0000E+00  0.0000E+00  0.0000E+00  0.0000E+00  0.0000E+00  0.0000E+00  0.0000E+00  0.0000E+00  0.0000E+00  0.0000E+00  0.0000E+00  0.0000E+00  0.0000E+00  0.0000E+00  0.0000E+00  0.0000E+00  0.0000E+00  0.0000E+00  0.0000E+00  0.0000E+00  0.0000E+00  0.0000E+00  0.0000E+00  0.0000E+00  0.0000E+00  0.0000E+00  0.0000E+00  0.0000E+00  0.0000E+00  0.0000E+00  0.0000E+00  0.0000E+00  0.0000E+00  0.0000E+00  0.0000E+00  0.0000E+00  0.0000E+00  0.0000E+00  0.0000E+00  0.0000E+00  0.0000E+00  0.0000E+00  0.0000E+00  0.0000E+00  0.0000E+00  0.0000E+00  0.0000E+00  0.0000E+00  0.0000E+00  0.0000E+00  0.0000E+00  0.0000E+00  0.0000E+00  0.0000E+00  0.0000E+00  0.0000E+00  0.0000E+00  0.0000E+00  0.0000E+00  0.0000E+00  0.0000E+00  0.0000E+00  0.0000E+00  0.0000E+00  0.0000E+00  0.0000E+00  0.0000E+00  0.0000E+00
  0.0000E+00  0.0000E+00  0.0000E+00  0.0000E+00  0.0000E+00  0.0000E+00  0.0000E+00  0.0000E+00  0.0000E+00  0.0000E+00  0.0000E+00  0.0000E+00  0.0000E+00  0.0000E+00  0.0000E+00  0.0000E+00  0.0000E+00  0.0000E+00  0.0000E+00  0.0000E+00  0.0000E+00  0.0000E+00  0.0000E+00  0.0000E+00  0.0000E+00  0.0000E+00  0.0000E+00  0.0000E+00  0.0000E+00  0.0000E+00  0.0000E+00  0.0000E+00  0.0000E+00  0.0000E+00  0.0000E+00  0.0000E+00  0.0000E+00  0.0000E+00  0.0000E+00  0.0000E+00  0.0000E+00  0.0000E+00  0.0000E+00  0.0000E+00  0.0000E+00  0.0000E+00  0.0000E+00  0.0000E+00  0.0000E+00  0.0000E+00  0.0000E+00  0.0000E+00  0.0000E+00  0.0000E+00  0.0000E+00  0.0000E+00  0.0000E+00  0.0000E+00  0.0000E+00  0.0000E+00  0.0000E+00  0.0000E+00  0.0000E+00  0.0000E+00  0.0000E+00  0.0000E+00  0.0000E+00  0.2690E-09  0.8127E-09  0.8230E-09  0.8314E-09  0.8379E-09  0.8426E-09  0.8293E-09  0.2832E-09  0.0000E+00  0.0000E+00  0.0000E+00  0.0000E+00
  0.0000E+00  0.0000E+00  0.0000E+00  0.0000E+00  0.0000E+00  0.0000E+00  0.0000E+00  0.0000E+00  0.0000E+00  0.0000E+00  0.0000E+00  0.0000E+00  0.0000E+00  0.0000E+00  0.0000E+00  0.0000E+00  0.0000E+00  0.0000E+00  0.0000E+00  0.0000E+00  0.0000E+00  0.0000E+00  0.0000E+00  0.0000E+00  0.0000E+00  0.0000E+00  0.0000E+00  0.0000E+00  0.0000E+00  0.0000E+00  0.0000E+00  0.0000E+00  0.0000E+00  0.0000E+00  0.0000E+00  0.0000E+00  0.0000E+00  0.0000E+00  0.0000E+00  0.0000E+00  0.0000E+00  0.0000E+00  0.0000E+00  0.0000E+00  0.0000E+00  0.0000E+00  0.0000E+00  0.0000E+00  0.0000E+00  0.0000E+00  0.0000E+00  0.0000E+00  0.0000E+00  0.0000E+00  0.0000E+00  0.0000E+00  0.0000E+00  0.0000E+00  0.0000E+00  0.0000E+00  0.0000E+00  0.2846E-09  0.8624E-09  0.8856E-09  0.9065E-09  0.1504E-08  0.1821E-08  0.1849E-08  0.1873E-08  0.1892E-08  0.2772E-08  0.2789E-08  0.2508E-08  0.1909E-08  0.1303E-08  0.6598E-09  0.3297E-09  0.0000E+00  0.0000E+00
  0.0000E+00  0.0000E+00  0.0000E+00  0.0000E+00  0.0000E+00  0.0000E+00  0.0000E+00  0.0000E+00  0.0000E+00  0.0000E+00  0.0000E+00  0.0000E+00  0.0000E+00  0.0000E+00  0.0000E+00  0.0000E+00  0.0000E+00  0.0000E+00  0.0000E+00  0.0000E+00  0.0000E+00  0.0000E+00  0.0000E+00  0.0000E+00  0.0000E+00  0.0000E+00  0.0000E+00  0.0000E+00  0.0000E+00  0.0000E+00  0.0000E+00  0.0000E+00  0.0000E+00  0.0000E+00  0.0000E+00  0.0000E+00  0.0000E+00  0.0000E+00  0.0000E+00  0.0000E+00  0.0000E+00  0.0000E+00  0.0000E+00  0.0000E+00  0.0000E+00  0.0000E+00  0.0000E+00  0.0000E+00  0.0000E+00  0.0000E+00  0.0000E+00  0.0000E+00  0.0000E+00  0.0000E+00  0.0000E+00  0.0000E+00  0.0000E+00  0.5958E-09  0.9177E-09  0.9524E-09  0.1601E-08  0.1959E-08  0.2013E-08  0.2685E-08  0.3056E-08  0.3114E-08  0.3163E-08  0.3830E-08  0.4185E-08  0.4221E-08  0.4246E-08  0.4262E-08  0.3944E-08  0.3273E-08  0.2938E-08  0.2220E-08  0.1125E-08  0.7549E-09  0.3758E-09
  0.0000E+00  0.0000E+00  0.0000E+00  0.0000E+00  0.0000E+00  0.0000E+00  0.0000E+00  0.0000E+00  0.0000E+00  0.0000E+00  0.0000E+00  0.0000E+00  0.0000E+00  0.0000E+00  0.0000E+00  0.0000E+00  0.0000E+00  0.0000E+00  0.0000E+00  0.0000E+00  0.0000E+00  0.0000E+00  0.0000E+00  0.0000E+00  0.0000E+00  0.0000E+00  0.0000E+00  0.0000E+00  0.0000E+00  0.0000E+00  0.0000E+00  0.0000E+00  0.0000E+00  0.0000E+00  0.0000E+00  0.0000E+00  0.0000E+00  0.0000E+00  0.0000E+00  0.0000E+00  0.0000E+00  0.0000E+00  0.0000E+00  0.0000E+00  0.0000E+00  0.0000E+00  0.0000E+00  0.0000E+00  0.0000E+00  0.0000E+00  0.0000E+00  0.0000E+00  0.0000E+00  0.3082E-09  0.9395E-09  0.9878E-09  0.1681E-08  0.2077E-08  0.2488E-08  0.3235E-08  0.3341E-08  0.4104E-08  0.4544E-08  0.4648E-08  0.4739E-08  0.5833E-08  0.5916E-08  0.5983E-08  0.6035E-08  0.6071E-08  0.6764E-08  0.6776E-08  0.6074E-08  0.5356E-08  0.4586E-08  0.3776E-08  0.2964E-08  0.2127E-08  0.1271E-08
  0.0000E+00  0.0000E+00  0.0000E+00  0.0000E+00  0.0000E+00  0.0000E+00  0.0000E+00  0.0000E+00  0.0000E+00  0.0000E+00  0.0000E+00  0.0000E+00  0.0000E+00  0.0000E+00  0.0000E+00  0.0000E+00  0.0000E+00  0.0000E+00  0.0000E+00  0.0000E+00  0.0000E+00  0.0000E+00  0.0000E+00  0.0000E+00  0.0000E+00  0.0000E+00  0.0000E+00  0.0000E+00  0.0000E+00  0.0000E+00  0.0000E+00  0.0000E+00  0.0000E+00  0.0000E+00  0.0000E+00  0.0000E+00  0.0000E+00  0.0000E+00  0.0000E+00  0.0000E+00  0.0000E+00  0.0000E+00  0.0000E+00  0.0000E+00  0.0000E+00  0.0000E+00  0.0000E+00  0.0000E+00  0.0000E+00  0.0000E+00  0.3204E-09  0.9795E-09  0.1373E-08  0.2114E-08  0.2568E-08  0.3373E-08  0.3528E-08  0.4384E-08  0.4904E-08  0.5430E-08  0.6313E-08  0.6486E-08  0.7004E-08  0.7876E-08  0.8017E-08  0.8134E-08  0.8228E-08  0.9401E-08  0.9465E-08  0.9504E-08  0.9520E-08  0.9137E-08  0.8329E-08  0.7503E-08  0.6622E-08  0.5699E-08  0.4775E-08  0.3825E-08  0.2860E-08
  0.0000E+00  0.0000E+00  0.0000E+00  0.0000E+00  0.0000E+00  0.0000E+00  0.0000E+00  0.0000E+00  0.0000E+00  0.0000E+00  0.0000E+00  0.0000E+00  0.0000E+00  0.0000E+00  0.0000E+00  0.0000E+00  0.0000E+00  0.0000E+00  0.0000E+00  0.0000E+00  0.0000E+00  0.0000E+00  0.0000E+00  0.0000E+00  0.0000E+00  0.0000E+00  0.0000E+00  0.0000E+00  0.0000E+00  0.0000E+00  0.0000E+00  0.0000E+00  0.0000E+00  0.0000E+00  0.0000E+00  0.0000E+00  0.0000E+00  0.0000E+00  0.0000E+00  0.0000E+00  0.0000E+00  0.0000E+00  0.0000E+00  0.0000E+00  0.0000E+00  0.0000E+00  0.0000E+00  0.3239E-09  0.6805E-09  0.1411E-08  0.2191E-08  0.2693E-08  0.3568E-08  0.4139E-08  0.5089E-08  0.5710E-08  0.6710E-08  0.6979E-08  0.8008E-08  0.8655E-08  0.8903E-08  0.9923E-08  0.1054E-07  0.1073E-07  0.1130E-07  0.1224E-07  0.1236E-07  0.1244E-07  0.1249E-07  0.1251E-07  0.1289E-07  0.1243E-07  0.1155E-07  0.1059E-07  0.9568E-08  0.8055E-08  0.7481E-08  0.6395E-08  0.4809E-08
  0.0000E+00  0.0000E+00  0.0000E+00  0.0000E+00  0.0000E+00  0.0000E+00  0.0000E+00  0.0000E+00  0.0000E+00  0.0000E+00  0.0000E+00  0.0000E+00  0.0000E+00  0.0000E+00  0.0000E+00  0.0000E+00  0.0000E+00  0.0000E+00  0.0000E+00  0.0000E+00  0.0000E+00  0.0000E+00  0.0000E+00  0.0000E+00  0.0000E+00  0.0000E+00  0.0000E+00  0.0000E+00  0.0000E+00  0.0000E+00  0.0000E+00  0.0000E+00  0.0000E+00  0.0000E+00  0.0000E+00  0.0000E+00  0.0000E+00  0.0000E+00  0.0000E+00  0.0000E+00  0.3258E-09  0.9792E-09  0.9886E-09  0.9942E-09  0.9960E-09  0.1009E-08  0.1065E-08  0.1875E-08  0.2745E-08  0.3672E-08  0.4311E-08  0.5350E-08  0.6068E-08  0.7195E-08  0.7969E-08  0.9153E-08  0.9955E-08  0.1116E-07  0.1155E-07  0.1275E-07  0.1352E-07  0.1383E-07  0.1453E-07  0.1564E-07  0.1585E-07  0.1601E-07  0.1656E-07  0.1750E-07  0.1754E-07  0.1753E-07  0.1703E-07  0.1602E-07  0.1497E-07  0.1384E-07  0.1265E-07  0.1146E-07  0.1023E-07  0.8977E-08  0.7178E-08
  0.0000E+00  0.0000E+00  0.0000E+00  0.0000E+00  0.0000E+00  0.0000E+00  0.0000E+00  0.0000E+00  0.0000E+00  0.0000E+00  0.0000E+00  0.0000E+00  0.0000E+00  0.0000E+00  0.0000E+00  0.0000E+00  0.0000E+00  0.0000E+00  0.0000E+00  0.0000E+00  0.0000E+00  0.0000E+00  0.0000E+00  0.0000E+00  0.0000E+00  0.0000E+00  0.0000E+00  0.0000E+00  0.0000E+00  0.0000E+00  0.0000E+00  0.0000E+00  0.0000E+00  0.3257E-09  0.9890E-09  0.1026E-08  0.1060E-08  0.2121E-08  0.2178E-08  0.2227E-08  0.2269E-08  0.2302E-08  0.2326E-08  0.3430E-08  0.3442E-08  0.3137E-08  0.3683E-08  0.4359E-08  0.5094E-08  0.6278E-08  0.7519E-08  0.8423E-08  0.9767E-08  0.1116E-07  0.1215E-07  0.1314E-07  0.1458E-07  0.1557E-07  0.1653E-07  0.1747E-07  0.1837E-07  0.1970E-07  0.2005E-07  0.2033E-07  0.2150E-07  0.2215E-07  0.2226E-07  0.2231E-07  0.2229E-07  0.2222E-07  0.2159E-07  0.2037E-07  0.1912E-07  0.1832E-07  0.1638E-07  0.1498E-07  0.1354E-07  0.1209E-07  0.1004E-07
  0.0000E+00  0.0000E+00  0.0000E+00  0.0000E+00  0.0000E+00  0.0000E+00  0.0000E+00  0.0000E+00  0.0000E+00  0.0000E+00  0.0000E+00  0.0000E+00  0.0000E+00  0.0000E+00  0.0000E+00  0.0000E+00  0.0000E+00  0.0000E+00  0.0000E+00  0.0000E+00  0.0000E+00  0.0000E+00  0.0000E+00  0.0000E+00  0.0000E+00  0.0000E+00  0.0000E+00  0.0000E+00  0.0000E+00  0.3223E-09  0.9848E-09  0.1037E-08  0.1779E-08  0.2206E-08  0.2301E-08  0.3128E-08  0.3607E-08  0.3723E-08  0.4596E-08  0.5092E-08  0.5199E-08  0.5286E-08  0.5353E-08  0.5397E-08  0.5441E-08  0.5987E-08  0.6307E-08  0.7222E-08  0.8642E-08  0.1013E-07  0.1127E-07  0.1288E-07  0.1456E-07  0.1578E-07  0.1751E-07  0.1875E-07  0.1997E-07  0.2167E-07  0.2232E-07  0.2394E-07  0.2500E-07  0.2546E-07  0.2690E-07  0.2775E-07  0.2798E-07  0.2813E-07  0.3180E-07  0.3359E-07  0.3169E-07  0.3152E-07  0.2890E-07  0.2623E-07  0.2472E-07  0.2312E-07  0.2085E-07  0.1919E-07  0.1815E-07  0.1581E-07  0.1345E-07
  0.0000E+00  0.0000E+00  0.0000E+00  0.0000E+00  0.0000E+00  0.0000E+00  0.0000E+00  0.0000E+00  0.0000E+00  0.0000E+00  0.0000E+00  0.0000E+00  0.0000E+00  0.0000E+00  0.0000E+00  0.0000E+00  0.0000E+00  0.0000E+00  0.0000E+00  0.0000E+00  0.0000E+00  0.0000E+00  0.0000E+00  0.0000E+00  0.0000E+00  0.0000E+00  0.0000E+00  0.6690E-09  0.1047E-08  0.1815E-08  0.2273E-08  0.3133E-08  0.3664E-08  0.4231E-08  0.5195E-08  0.5416E-08  0.6438E-08  0.7069E-08  0.7289E-08  0.7915E-08  0.8953E-08  0.9125E-08  0.9261E-08  0.9358E-08  0.9498E-08  0.9787E-08  0.1029E-07  0.1147E-07  0.1280E-07  0.1468E-07  0.1662E-07  0.1865E-07  0.2018E-07  0.2227E-07  0.2381E-07  0.2589E-07  0.2738E-07  0.2883E-07  0.3077E-07  0.3150E-07  0.3629E-07  0.3898E-07  0.3952E-07  0.3992E-07  0.4017E-07  0.4028E-07  0.4573E-07  0.4560E-07  0.4351E-07  0.4132E-07  0.3685E-07  0.3417E-07  0.3078E-07  0.2886E-07  0.2692E-07  0.2494E-07  0.2294E-07  0.2022E-07  0.1751E-07
  0.0000E+00  0.0000E+00  0.0000E+00  0.0000E+00  0.0000E+00  0.0000E+00  0.0000E+00  0.0000E+00  0.0000E+00  0.0000E+00  0.0000E+00  0.0000E+00  0.0000E+00  0.0000E+00  0.0000E+00  0.0000E+00  0.0000E+00  0.0000E+00  0.0000E+00  0.0000E+00  0.0000E+00  0.0000E+00  0.0000E+00  0.0000E+00  0.3299E-09  0.1017E-08  0.1780E-08  0.2251E-08  0.3135E-08  0.3706E-08  0.4706E-08  0.5369E-08  0.6080E-08  0.7218E-08  0.7998E-08  0.9211E-08  0.9595E-08  0.1041E-07  0.1168E-07  0.1202E-07  0.1233E-07  0.1356E-07  0.1428E-07  0.1449E-07  0.1480E-07  0.1530E-07  0.1605E-07  0.1704E-07  0.1875E-07  0.2110E-07  0.2355E-07  0.2548E-07  0.2801E-07  0.2994E-07  0.3247E-07  0.3434E-07  0.4012E-07  0.4366E-07  0.4488E-07  0.4802E-07  0.5311E-07  0.5394E-07  0.5454E-07  0.5492E-07  0.5510E-07  0.5508E-07  0.6041E-07  0.5820E-07  0.5583E-07  0.5109E-07  0.4813E-07  0.4732E-07  0.4169E-07  0.3749E-07  0.3336E-07  0.3099E-07  0.2862E-07  0.2545E-07  0.2232E-07
  0.0000E+00  0.0000E+00  0.0000E+00  0.0000E+00  0.0000E+00  0.0000E+00  0.0000E+00  0.0000E+00  0.0000E+00  0.0000E+00  0.0000E+00  0.0000E+00  0.0000E+00  0.0000E+00  0.0000E+00  0.0000E+00  0.0000E+00  0.0000E+00  0.0000E+00  0.0000E+00  0.0000E+00  0.0000E+00  0.6499E-09  0.1032E-08  0.1819E-08  0.2673E-08  0.3248E-08  0.4250E-08  0.5322E-08  0.6097E-08  0.7312E-08  0.8200E-08  0.9546E-08  0.1053E-07  0.1198E-07  0.1256E-07  0.1410E-07  0.1516E-07  0.1571E-07  0.1726E-07  0.1827E-07  0.1870E-07  0.1961E-07  0.2110E-07  0.2168E-07  0.2248E-07  0.2354E-07  0.2486E-07  0.2643E-07  0.2879E-07  0.3179E-07  0.3488E-07  0.3731E-07  0.4412E-07  0.4855E-07  0.5283E-07  0.5929E-07  0.6113E-07  0.6268E-07  0.6826E-07  0.7151E-07  0.7237E-07  0.7293E-07  0.7319E-07  0.7317E-07  0.7662E-07  0.7611E-07  0.7352E-07  0.6846E-07  0.6740E-07  0.6398E-07  0.5787E-07  0.5401E-07  0.4718E-07  0.4306E-07  0.3813E-07  0.3530E-07  0.3160E-07  0.2796E-07
  0.0000E+00  0.0000E+00  0.0000E+00  0.0000E+00  0.0000E+00  0.0000E+00  0.0000E+00  0.0000E+00  0.0000E+00  0.0000E+00  0.0000E+00  0.0000E+00  0.0000E+00  0.0000E+00  0.0000E+00  0.0000E+00  0.0000E+00  0.0000E+00  0.0000E+00  0.0000E+00  0.3308E-09  0.1028E-08  0.1823E-08  0.2696E-08  0.3650E-08  0.4346E-08  0.5477E-08  0.6724E-08  0.7639E-08  0.9067E-08  0.1013E-07  0.1173E-07  0.1293E-07  0.1468E-07  0.1598E-07  0.1785E-07  0.1921E-07  0.2060E-07  0.2252E-07  0.2331E-07  0.2521E-07  0.2646E-07  0.2708E-07  0.2778E-07  0.2996E-07  0.3178E-07  0.3325E-07  0.3499E-07  0.3702E-07  0.3931E-07  0.4698E-07  0.5235E-07  0.5777E-07  0.6566E-07  0.6856E-07  0.7597E-07  0.8084E-07  0.8307E-07  0.8709E-07  0.9291E-07  0.9411E-07  0.9489E-07  0.9527E-07  0.9526E-07  0.9489E-07  0.9795E-07  0.9508E-07  0.9194E-07  0.8818E-07  0.8427E-07  0.7758E-07  0.7313E-07  0.6562E-07  0.6387E-07  0.5915E-07  0.5123E-07  0.4543E-07  0.3881E-07  0.3457E-07
  0.0000E+00  0.0000E+00  0.0000E+00  0.0000E+00  0.0000E+00  0.0000E+00  0.0000E+00  0.0000E+00  0.0000E+00  0.0000E+00  0.0000E+00  0.0000E+00  0.0000E+00  0.0000E+00  0.0000E+00  0.0000E+00  0.0000E+00  0.0000E+00  0.3216E-09  0.1004E-08  0.1791E-08  0.2311E-08  0.3284E-08  0.4352E-08  0.5520E-08  0.6823E-08  0.7810E-08  0.9338E-08  0.1097E-07  0.1272E-07  0.1413E-07  0.1609E-07  0.1818E-07  0.1982E-07  0.2208E-07  0.2384E-07  0.2564E-07  0.2802E-07  0.2984E-07  0.3222E-07  0.3332E-07  0.3690E-07  0.4313E-07  0.4459E-07  0.4623E-07  0.4810E-07  0.5020E-07  0.5253E-07  0.5514E-07  0.6102E-07  0.7015E-07  0.7695E-07  0.8367E-07  0.9026E-07  0.9642E-07  0.1046E-06  0.1077E-06  0.1103E-06  0.1167E-06  0.1205E-06  0.1216E-06  0.1221E-06  0.1221E-06  0.1216E-06  0.1207E-06  0.1213E-06  0.1177E-06  0.1134E-06  0.1089E-06  0.1015E-06  0.9632E-07  0.9111E-07  0.8551E-07  0.7997E-07  0.7116E-07  0.6554E-07  0.5641E-07  0.4976E-07  0.4225E-07
  0.0000E+00  0.0000E+00  0.0000E+00  0.0000E+00  0.0000E+00  0.0000E+00  0.0000E+00  0.0000E+00  0.0000E+00  0.0000E+00  0.0000E+00  0.0000E+00  0.0000E+00  0.0000E+00  0.0000E+00  0.0000E+00  0.0000E+00  0.6606E-09  0.1405E-08  0.2241E-08  0.3202E-08  0.4270E-08  0.5449E-08  0.6388E-08  0.7818E-08  0.9412E-08  0.1114E-07  0.1300E-07  0.1504E-07  0.1671E-07  0.1903E-07  0.2147E-07  0.2351E-07  0.2620E-07  0.2899E-07  0.3130E-07  0.3425E-07  0.3854E-07  0.4548E-07  0.4758E-07  0.4952E-07  0.5667E-07  0.6139E-07  0.6371E-07  0.6620E-07  0.6886E-07  0.7169E-07  0.7471E-07  0.7834E-07  0.8867E-07  0.9718E-07  0.1081E-06  0.1162E-06  0.1213E-06  0.1309E-06  0.1374E-06  0.1409E-06  0.1459E-06  0.1524E-06  0.1539E-06  0.1546E-06  0.1546E-06  0.1540E-06  0.1528E-06  0.1511E-06  0.1489E-06  0.1439E-06  0.1387E-06  0.1304E-06  0.1244E-06  0.1182E-06  0.1117E-06  0.1051E-06  0.9522E-07  0.8859E-07  0.7834E-07  0.7183E-07  0.6148E-07  0.5398E-07
  0.0000E+00  0.0000E+00  0.0000E+00  0.0000E+00  0.0000E+00  0.0000E+00  0.0000E+00  0.0000E+00  0.0000E+00  0.0000E+00  0.0000E+00  0.0000E+00  0.0000E+00  0.0000E+00  0.0000E+00  0.3210E-09  0.1008E-08  0.1816E-08  0.2726E-08  0.3747E-08  0.4920E-08  0.6223E-08  0.7663E-08  0.9285E-08  0.1062E-07  0.1257E-07  0.1468E-07  0.1696E-07  0.1946E-07  0.2214E-07  0.2498E-07  0.2747E-07  0.3065E-07  0.3403E-07  0.3688E-07  0.4446E-07  0.4981E-07  0.5803E-07  0.6387E-07  0.6710E-07  0.7284E-07  0.8125E-07  0.8458E-07  0.8798E-07  0.9149E-07  0.9508E-07  0.9876E-07  0.1027E-06  0.1112E-06  0.1241E-06  0.1345E-06  0.1471E-06  0.1541E-06  0.1628E-06  0.1732E-06  0.1778E-06  0.1815E-06  0.1888E-06  0.1929E-06  0.1939E-06  0.1940E-06  0.1932E-06  0.1917E-06  0.1895E-06  0.1867E-06  0.1809E-06  0.1748E-06  0.1654E-06  0.1611E-06  0.1538E-06  0.1432E-06  0.1355E-06  0.1243E-06  0.1164E-06  0.1048E-06  0.9702E-07  0.8533E-07  0.7791E-07  0.6636E-07
  0.0000E+00  0.0000E+00  0.0000E+00  0.0000E+00  0.0000E+00  0.0000E+00  0.0000E+00  0.0000E+00  0.0000E+00  0.0000E+00  0.0000E+00  0.0000E+00  0.0000E+00  0.0000E+00  0.3334E-09  0.1049E-08  0.1896E-08  0.3207E-08  0.4315E-08  0.5559E-08  0.6985E-08  0.8570E-08  0.1032E-07  0.1230E-07  0.1447E-07  0.1637E-07  0.1895E-07  0.2175E-07  0.2482E-07  0.2810E-07  0.3161E-07  0.3538E-07  0.3870E-07  0.4693E-07  0.5573E-07  0.6503E-07  0.7220E-07  0.8214E-07  0.8703E-07  0.9169E-07  0.1017E-06  0.1090E-06  0.1138E-06  0.1185E-06  0.1232E-06  0.1279E-06  0.1326E-06  0.1384E-06  0.1529E-06  0.1660E-06  0.1811E-06  0.1929E-06  0.2036E-06  0.2134E-06  0.2220E-06  0.2269E-06  0.2328E-06  0.2399E-06  0.2412E-06  0.2414E-06  0.2405E-06  0.2385E-06  0.2357E-06  0.2321E-06  0.2254E-06  0.2182E-06  0.2105E-06  0.2020E-06  0.1933E-06  0.1812E-06  0.1720E-06  0.1591E-06  0.1497E-06  0.1365E-06  0.1272E-06  0.1140E-06  0.1051E-06  0.9199E-07  0.8368E-07
  0.0000E+00  0.0000E+00  0.0000E+00  0.0000E+00  0.0000E+00  0.0000E+00  0.0000E+00  0.0000E+00  0.0000E+00  0.0000E+00  0.0000E+00  0.0000E+00  0.0000E+00  0.6641E-09  0.1428E-08  0.2303E-08  0.3333E-08  0.4501E-08  0.5817E-08  0.7337E-08  0.9035E-08  0.1092E-07  0.1307E-07  0.1543E-07  0.1853E-07  0.2093E-07  0.2408E-07  0.2750E-07  0.3126E-07  0.3529E-07  0.3960E-07  0.4825E-07  0.5770E-07  0.6794E-07  0.7901E-07  0.8788E-07  0.9983E-07  0.1093E-06  0.1161E-06  0.1254E-06  0.1374E-06  0.1439E-06  0.1503E-06  0.1566E-06  0.1628E-06  0.1687E-06  0.1750E-06  0.1875E-06  0.2060E-06  0.2215E-06  0.2388E-06  0.2496E-06  0.2641E-06  0.2747E-06  0.2812E-06  0.2860E-06  0.2939E-06  0.2980E-06  0.2983E-06  0.2973E-06  0.2949E-06  0.2914E-06  0.2868E-06  0.2790E-06  0.2704E-06  0.2612E-06  0.2511E-06  0.2407E-06  0.2268E-06  0.2157E-06  0.2010E-06  0.1897E-06  0.1745E-06  0.1675E-06  0.1566E-06  0.1420E-06  0.1269E-06  0.1173E-06  0.1028E-06
  0.0000E+00  0.0000E+00  0.0000E+00  0.0000E+00  0.0000E+00  0.0000E+00  0.0000E+00  0.0000E+00  0.0000E+00  0.0000E+00  0.0000E+00  0.0000E+00  0.6784E-09  0.1463E-08  0.2719E-08  0.3782E-08  0.5330E-08  0.6747E-08  0.8640E-08  0.1048E-07  0.1253E-07  0.1481E-07  0.1711E-07  0.1997E-07  0.2282E-07  0.2633E-07  0.3017E-07  0.3434E-07  0.3893E-07  0.4585E-07  0.5810E-07  0.6895E-07  0.8104E-07  0.9396E-07  0.1076E-06  0.1192E-06  0.1337E-06  0.1431E-06  0.1522E-06  0.1667E-06  0.1784E-06  0.1872E-06  0.1957E-06  0.2039E-06  0.2117E-06  0.2192E-06  0.2318E-06  0.2495E-06  0.2689E-06  0.2899E-06  0.3067E-06  0.3215E-06  0.3370E-06  0.3455E-06  0.3519E-06  0.3586E-06  0.3658E-06  0.3663E-06  0.3651E-06  0.3623E-06  0.3579E-06  0.3523E-06  0.3430E-06  0.3328E-06  0.3219E-06  0.3098E-06  0.2974E-06  0.2813E-06  0.2680E-06  0.2509E-06  0.2412E-06  0.2279E-06  0.2108E-06  0.1978E-06  0.1808E-06  0.1685E-06  0.1520E-06  0.1354E-06  0.1247E-06
  0.0000E+00  0.0000E+00  0.0000E+00  0.0000E+00  0.0000E+00  0.0000E+00  0.0000E+00  0.0000E+00  0.0000E+00  0.0000E+00  0.6100E-09  0.1626E-08  0.2790E-08  0.4417E-08  0.5872E-08  0.7206E-08  0.9051E-08  0.1108E-07  0.1304E-07  0.1566E-07  0.1813E-07  0.2088E-07  0.2398E-07  0.2739E-07  0.3083E-07  0.3503E-07  0.3900E-07  0.4371E-07  0.5300E-07  0.6621E-07  0.8101E-07  0.9459E-07  0.1096E-06  0.1258E-06  0.1399E-06  0.1575E-06  0.1726E-06  0.1849E-06  0.1998E-06  0.2174E-06  0.2292E-06  0.2406E-06  0.2516E-06  0.2620E-06  0.2718E-06  0.2820E-06  0.3036E-06  0.3271E-06  0.3497E-06  0.3734E-06  0.3892E-06  0.4079E-06  0.4216E-06  0.4300E-06  0.4357E-06  0.4439E-06  0.4472E-06  0.4459E-06  0.4426E-06  0.4373E-06  0.4304E-06  0.4195E-06  0.4074E-06  0.3968E-06  0.3799E-06  0.3650E-06  0.3463E-06  0.3304E-06  0.3145E-06  0.2982E-06  0.2822E-06  0.2623E-06  0.2467E-06  0.2271E-06  0.2122E-06  0.1932E-06  0.1794E-06  0.1612E-06  0.1430E-06
  0.0000E+00  0.0000E+00  0.0000E+00  0.0000E+00  0.0000E+00  0.0000E+00  0.6049E-09  0.9506E-09  0.1639E-08  0.2045E-08  0.3167E-08  0.5092E-08  0.6183E-08  0.8130E-08  0.9930E-08  0.1156E-07  0.1419E-07  0.1665E-07  0.1939E-07  0.2203E-07  0.2496E-07  0.2826E-07  0.3191E-07  0.3594E-07  0.4009E-07  0.4565E-07  0.5266E-07  0.6480E-07  0.7925E-07  0.9561E-07  0.1107E-06  0.1275E-06  0.1456E-06  0.1649E-06  0.1827E-06  0.2042E-06  0.2203E-06  0.2363E-06  0.2579E-06  0.2764E-06  0.2917E-06  0.3063E-06  0.3202E-06  0.3333E-06  0.3454E-06  0.3645E-06  0.3939E-06  0.4222E-06  0.4481E-06  0.4713E-06  0.4914E-06  0.5110E-06  0.5220E-06  0.5297E-06  0.5367E-06  0.5431E-06  0.5419E-06  0.5380E-06  0.5317E-06  0.5233E-06  0.5105E-06  0.4987E-06  0.4830E-06  0.4634E-06  0.4455E-06  0.4236E-06  0.4081E-06  0.3889E-06  0.3659E-06  0.3467E-06  0.3235E-06  0.3047E-06  0.2819E-06  0.2641E-06  0.2420E-06  0.2254E-06  0.2044E-06  0.1889E-06  0.1685E-06
  0.0000E+00  0.0000E+00  0.0000E+00  0.0000E+00  0.9578E-09  0.1982E-08  0.2110E-08  0.3259E-08  0.3446E-08  0.5399E-08  0.6775E-08  0.9103E-08  0.1050E-07  0.1288E-07  0.1507E-07  0.1749E-07  0.2059E-07  0.2357E-07  0.2643E-07  0.2957E-07  0.3355E-07  0.3798E-07  0.4234E-07  0.4713E-07  0.5247E-07  0.5986E-07  0.7557E-07  0.9116E-07  0.1086E-06  0.1286E-06  0.1480E-06  0.1687E-06  0.1911E-06  0.2117E-06  0.2366E-06  0.2589E-06  0.2789E-06  0.3021E-06  0.3284E-06  0.3484E-06  0.3678E-06  0.3863E-06  0.4037E-06  0.4197E-06  0.4365E-06  0.4676E-06  0.5019E-06  0.5371E-06  0.5661E-06  0.5884E-06  0.6123E-06  0.6295E-06  0.6398E-06  0.6460E-06  0.6535E-06  0.6549E-06  0.6505E-06  0.6431E-06  0.6331E-06  0.6207E-06  0.6037E-06  0.5851E-06  0.5622E-06  0.5408E-06  0.5189E-06  0.4960E-06  0.4730E-06  0.4460E-06  0.4229E-06  0.3958E-06  0.3733E-06  0.3467E-06  0.3253E-06  0.2996E-06  0.2797E-06  0.2554E-06  0.2368E-06  0.2134E-06  0.1898E-06
  0.0000E+00  0.9238E-09  0.9988E-09  0.2081E-08  0.3247E-08  0.3481E-08  0.4807E-08  0.5118E-08  0.7279E-08  0.8858E-08  0.1137E-07  0.1335E-07  0.1599E-07  0.1843E-07  0.2196E-07  0.2448E-07  0.2823E-07  0.3181E-07  0.3523E-07  0.3955E-07  0.4428E-07  0.4944E-07  0.5456E-07  0.6027E-07  0.6851E-07  0.8482E-07  0.1045E-06  0.1259E-06  0.1479E-06  0.1695E-06  0.1932E-06  0.2188E-06  0.2466E-06  0.2724E-06  0.3026E-06  0.3274E-06  0.3523E-06  0.3864E-06  0.4113E-06  0.4359E-06  0.4602E-06  0.4832E-06  0.5047E-06  0.5244E-06  0.5536E-06  0.5956E-06  0.6358E-06  0.6749E-06  0.7035E-06  0.7301E-06  0.7544E-06  0.7682E-06  0.7768E-06  0.7806E-06  0.7877E-06  0.7830E-06  0.7744E-06  0.7625E-06  0.7477E-06  0.7277E-06  0.7057E-06  0.6789E-06  0.6535E-06  0.6272E-06  0.5999E-06  0.5723E-06  0.5407E-06  0.5130E-06  0.4812E-06  0.4542E-06  0.4231E-06  0.3975E-06  0.3675E-06  0.3437E-06  0.3154E-06  0.2932E-06  0.2661E-06  0.2445E-06  0.2179E-06
  0.1332E-08  0.2137E-08  0.3357E-08  0.3632E-08  0.5054E-08  0.6581E-08  0.7056E-08  0.9454E-08  0.1207E-07  0.1366E-07  0.1713E-07  0.1919E-07  0.2287E-07  0.2540E-07  0.2971E-07  0.3328E-07  0.3726E-07  0.4209E-07  0.4629E-07  0.5142E-07  0.5756E-07  0.6308E-07  0.6973E-07  0.7838E-07  0.9785E-07  0.1184E-06  0.1423E-06  0.1661E-06  0.1923E-06  0.2192E-06  0.2481E-06  0.2800E-06  0.3105E-06  0.3454E-06  0.3791E-06  0.4100E-06  0.4475E-06  0.4819E-06  0.5130E-06  0.5433E-06  0.5720E-06  0.5997E-06  0.6257E-06  0.6563E-06  0.6981E-06  0.7471E-06  0.7952E-06  0.8348E-06  0.8653E-06  0.8954E-06  0.9164E-06  0.9284E-06  0.9343E-06  0.9397E-06  0.9375E-06  0.9279E-06  0.9140E-06  0.8965E-06  0.8732E-06  0.8472E-06  0.8159E-06  0.7858E-06  0.7577E-06  0.7219E-06  0.6890E-06  0.6519E-06  0.6188E-06  0.5815E-06  0.5492E-06  0.5128E-06  0.4821E-06  0.4472E-06  0.4186E-06  0.3857E-06  0.3593E-06  0.3279E-06  0.3024E-06  0.2717E-06  0.2416E-06
  0.4862E-07  0.4473E-07  0.3915E-07  0.3371E-07  0.2772E-07  0.2120E-07  0.1712E-07  0.1496E-07  0.1668E-07  0.2017E-07  0.2250E-07  0.2700E-07  0.2988E-07  0.3472E-07  0.3881E-07  0.4429E-07  0.4852E-07  0.6172E-07  0.6713E-07  0.7289E-07  0.7967E-07  0.8641E-07  0.9560E-07  0.1161E-06  0.1400E-06  0.1653E-06  0.1913E-06  0.2235E-06  0.2507E-06  0.2842E-06  0.3178E-06  0.3536E-06  0.3918E-06  0.4339E-06  0.4720E-06  0.5135E-06  0.5584E-06  0.5973E-06  0.6353E-06  0.6724E-06  0.7076E-06  0.7404E-06  0.7711E-06  0.8183E-06  0.8745E-06  0.9305E-06  0.9831E-06  0.1022E-05  0.1057E-05  0.1087E-05  0.1103E-05  0.1112E-05  0.1114E-05  0.1117E-05  0.1106E-05  0.1091E-05  0.1070E-05  0.1043E-05  0.1013E-05  0.9796E-06  0.9439E-06  0.9068E-06  0.8649E-06  0.8257E-06  0.7821E-06  0.7427E-06  0.6990E-06  0.6605E-06  0.6178E-06  0.5812E-06  0.5404E-06  0.5063E-06  0.4679E-06  0.4364E-06  0.4001E-06  0.3701E-06  0.3346E-06  0.2999E-06  0.2721E-06
  0.1186E-06  0.1133E-06  0.1089E-06  0.1009E-06  0.9471E-07  0.8867E-07  0.8087E-07  0.7338E-07  0.6656E-07  0.5598E-07  0.5049E-07  0.4341E-07  0.4637E-07  0.5329E-07  0.5803E-07  0.6339E-07  0.7531E-07  0.8449E-07  0.9126E-07  0.9843E-07  0.1060E-06  0.1165E-06  0.1374E-06  0.1621E-06  0.1885E-06  0.2187E-06  0.2532E-06  0.2859E-06  0.3253E-06  0.3628E-06  0.4040E-06  0.4452E-06  0.4951E-06  0.5414E-06  0.5857E-06  0.6370E-06  0.6878E-06  0.7354E-06  0.7822E-06  0.8269E-06  0.8693E-06  0.9086E-06  0.9541E-06  0.1014E-05  0.1082E-05  0.1146E-05  0.1199E-05  0.1240E-05  0.1277E-05  0.1303E-05  0.1316E-05  0.1320E-05  0.1319E-05  0.1313E-05  0.1295E-05  0.1272E-05  0.1241E-05  0.1205E-05  0.1167E-05  0.1125E-05  0.1081E-05  0.1032E-05  0.9854E-06  0.9343E-06  0.8875E-06  0.8362E-06  0.7953E-06  0.7452E-06  0.7022E-06  0.6544E-06  0.6086E-06  0.5693E-06  0.5264E-06  0.4842E-06  0.4488E-06  0.4080E-06  0.3737E-06  0.3351E-06  0.2983E-06
  0.1876E-06  0.1852E-06  0.1796E-06  0.1770E-06  0.1707E-06  0.1669E-06  0.1648E-06  0.1578E-06  0.1605E-06  0.1534E-06  0.1553E-06  0.1501E-06  0.1457E-06  0.1359E-06  0.1194E-06  0.1118E-06  0.1125E-06  0.1133E-06  0.1214E-06  0.1301E-06  0.1391E-06  0.1582E-06  0.1884E-06  0.2158E-06  0.2503E-06  0.2838E-06  0.3218E-06  0.3644E-06  0.4088E-06  0.4545E-06  0.5042E-06  0.5575E-06  0.6142E-06  0.6672E-06  0.7252E-06  0.7904E-06  0.8470E-06  0.8996E-06  0.9560E-06  0.1010E-05  0.1060E-05  0.1109E-05  0.1176E-05  0.1254E-05  0.1328E-05  0.1397E-05  0.1449E-05  0.1496E-05  0.1529E-05  0.1547E-05  0.1555E-05  0.1553E-05  0.1550E-05  0.1531E-05  0.1505E-05  0.1469E-05  0.1428E-05  0.1383E-05  0.1334E-05  0.1283E-05  0.1226E-05  0.1171E-05  0.1111E-05  0.1060E-05  0.1005E-05  0.9465E-06  0.8935E-06  0.8368E-06  0.7868E-06  0.7332E-06  0.6808E-06  0.6308E-06  0.5878E-06  0.5401E-06  0.4932E-06  0.4530E-06  0.4084E-06  0.3658E-06  0.3257E-06
  0.2581E-06  0.2691E-06  0.2769E-06  0.2861E-06  0.2893E-06  0.2951E-06  0.2955E-06  0.2985E-06  0.2919E-06  0.2930E-06  0.2884E-06  0.2776E-06  0.2657E-06  0.2488E-06  0.2349E-06  0.2207E-06  0.2102E-06  0.1976E-06  0.1912E-06  0.1863E-06  0.1908E-06  0.2159E-06  0.2484E-06  0.2870E-06  0.3252E-06  0.3657E-06  0.4113E-06  0.4594E-06  0.5094E-06  0.5646E-06  0.6241E-06  0.6911E-06  0.7558E-06  0.8172E-06  0.8931E-06  0.9642E-06  0.1030E-05  0.1100E-05  0.1166E-05  0.1226E-05  0.1286E-05  0.1354E-05  0.1443E-05  0.1534E-05  0.1615E-05  0.1683E-05  0.1738E-05  0.1783E-05  0.1809E-05  0.1822E-05  0.1823E-05  0.1813E-05  0.1801E-05  0.1772E-05  0.1732E-05  0.1685E-05  0.1633E-05  0.1576E-05  0.1516E-05  0.1450E-05  0.1386E-05  0.1321E-05  0.1255E-05  0.1190E-05  0.1122E-05  0.1059E-05  0.9928E-06  0.9337E-06  0.8711E-06  0.8164E-06  0.7581E-06  0.7010E-06  0.6459E-06  0.5917E-06  0.5449E-06  0.4936E-06  0.4443E-06  0.4034E-06  0.3597E-06
  0.3511E-06  0.3689E-06  0.3833E-06  0.3987E-06  0.4148E-06  0.4301E-06  0.4366E-06  0.4366E-06  0.4424E-06  0.4268E-06  0.4178E-06  0.4055E-06  0.3963E-06  0.3784E-06  0.3634E-06  0.3598E-06  0.3498E-06  0.3431E-06  0.3379E-06  0.3323E-06  0.3484E-06  0.3623E-06  0.3802E-06  0.4039E-06  0.4325E-06  0.4715E-06  0.5150E-06  0.5697E-06  0.6299E-06  0.6989E-06  0.7700E-06  0.8464E-06  0.9204E-06  0.1001E-05  0.1088E-05  0.1169E-05  0.1251E-05  0.1332E-05  0.1407E-05  0.1484E-05  0.1554E-05  0.1648E-05  0.1754E-05  0.1857E-05  0.1942E-05  0.2009E-05  0.2065E-05  0.2103E-05  0.2122E-05  0.2128E-05  0.2120E-05  0.2105E-05  0.2076E-05  0.2031E-05  0.1979E-05  0.1922E-05  0.1854E-05  0.1784E-05  0.1708E-05  0.1637E-05  0.1561E-05  0.1480E-05  0.1404E-05  0.1324E-05  0.1250E-05  0.1173E-05  0.1103E-05  0.1030E-05  0.9656E-06  0.8977E-06  0.8315E-06  0.7739E-06  0.7115E-06  0.6516E-06  0.5961E-06  0.5476E-06  0.4978E-06  0.4494E-06  0.4055E-06
  0.4637E-06  0.4874E-06  0.5136E-06  0.5372E-06  0.5522E-06  0.5613E-06  0.5658E-06  0.5630E-06  0.5668E-06  0.5698E-06  0.5606E-06  0.5622E-06  0.5507E-06  0.5369E-06  0.5286E-06  0.5236E-06  0.5150E-06  0.5081E-06  0.4981E-06  0.5030E-06  0.5265E-06  0.5443E-06  0.5629E-06  0.5858E-06  0.6123E-06  0.6467E-06  0.6877E-06  0.7355E-06  0.7923E-06  0.8606E-06  0.9398E-06  0.1026E-05  0.1115E-05  0.1217E-05  0.1313E-05  0.1410E-05  0.1509E-05  0.1602E-05  0.1694E-05  0.1781E-05  0.1877E-05  0.1999E-05  0.2116E-05  0.2225E-05  0.2309E-05  0.2378E-05  0.2431E-05  0.2460E-05  0.2470E-05  0.2464E-05  0.2444E-05  0.2419E-05  0.2371E-05  0.2315E-05  0.2248E-05  0.2171E-05  0.2091E-05  0.2007E-05  0.1920E-05  0.1831E-05  0.1738E-05  0.1649E-05  0.1556E-05  0.1469E-05  0.1379E-05  0.1298E-05  0.1213E-05  0.1137E-05  0.1059E-05  0.9923E-06  0.9224E-06  0.8546E-06  0.7893E-06  0.7256E-06  0.6700E-06  0.6122E-06  0.5578E-06  0.5058E-06  0.4589E-06
  0.6051E-06  0.6347E-06  0.6619E-06  0.6866E-06  0.7013E-06  0.7046E-06  0.7053E-06  0.7122E-06  0.7096E-06  0.7148E-06  0.7113E-06  0.7166E-06  0.7141E-06  0.7116E-06  0.7145E-06  0.7102E-06  0.7015E-06  0.6931E-06  0.6888E-06  0.7081E-06  0.7324E-06  0.7520E-06  0.7756E-06  0.8013E-06  0.8324E-06  0.8662E-06  0.9072E-06  0.9517E-06  0.1018E-05  0.1090E-05  0.1168E-05  0.1251E-05  0.1352E-05  0.1467E-05  0.1576E-05  0.1693E-05  0.1804E-05  0.1916E-05  0.2023E-05  0.2130E-05  0.2262E-05  0.2401E-05  0.2534E-05  0.2639E-05  0.2721E-05  0.2790E-05  0.2834E-05  0.2853E-05  0.2852E-05  0.2833E-05  0.2798E-05  0.2757E-05  0.2693E-05  0.2619E-05  0.2533E-05  0.2444E-05  0.2350E-05  0.2250E-05  0.2149E-05  0.2041E-05  0.1936E-05  0.1828E-05  0.1726E-05  0.1619E-05  0.1521E-05  0.1425E-05  0.1341E-05  0.1255E-05  0.1178E-05  0.1097E-05  0.1019E-05  0.9442E-06  0.8781E-06  0.8085E-06  0.7418E-06  0.6787E-06  0.6197E-06  0.5635E-06  0.5105E-06
  0.7699E-06  0.8022E-06  0.8290E-06  0.8484E-06  0.8583E-06  0.8666E-06  0.8723E-06  0.8833E-06  0.8926E-06  0.8917E-06  0.8942E-06  0.8951E-06  0.8925E-06  0.8932E-06  0.8973E-06  0.8941E-06  0.8906E-06  0.8854E-06  0.8996E-06  0.9276E-06  0.9526E-06  0.9854E-06  0.1021E-05  0.1052E-05  0.1088E-05  0.1124E-05  0.1168E-05  0.1229E-05  0.1293E-05  0.1366E-05  0.1452E-05  0.1548E-05  0.1655E-05  0.1768E-05  0.1888E-05  0.2019E-05  0.2148E-05  0.2281E-05  0.2402E-05  0.2547E-05  0.2704E-05  0.2861E-05  0.2996E-05  0.3102E-05  0.3184E-05  0.3244E-05  0.3275E-05  0.3282E-05  0.3267E-05  0.3233E-05  0.3194E-05  0.3129E-05  0.3049E-05  0.2954E-05  0.2854E-05  0.2750E-05  0.2632E-05  0.2515E-05  0.2392E-05  0.2272E-05  0.2147E-05  0.2029E-05  0.1907E-05  0.1794E-05  0.1679E-05  0.1577E-05  0.1477E-05  0.1388E-05  0.1295E-05  0.1213E-05  0.1127E-05  0.1044E-05  0.9637E-06  0.8859E-06  0.8119E-06  0.7486E-06  0.6833E-06  0.6223E-06  0.5654E-06
  0.9517E-06  0.9859E-06  0.1007E-05  0.1026E-05  0.1045E-05  0.1058E-05  0.1078E-05  0.1087E-05  0.1103E-05  0.1106E-05  0.1115E-05  0.1113E-05  0.1112E-05  0.1116E-05  0.1116E-05  0.1113E-05  0.1109E-05  0.1112E-05  0.1144E-05  0.1177E-05  0.1209E-05  0.1246E-05  0.1285E-05  0.1325E-05  0.1373E-05  0.1424E-05  0.1485E-05  0.1548E-05  0.1623E-05  0.1709E-05  0.1796E-05  0.1902E-05  0.2023E-05  0.2147E-05  0.2274E-05  0.2406E-05  0.2550E-05  0.2693E-05  0.2848E-05  0.3029E-05  0.3208E-05  0.3376E-05  0.3510E-05  0.3614E-05  0.3693E-05  0.3742E-05  0.3755E-05  0.3755E-05  0.3731E-05  0.3682E-05  0.3620E-05  0.3531E-05  0.3425E-05  0.3315E-05  0.3194E-05  0.3061E-05  0.2928E-05  0.2787E-05  0.2650E-05  0.2507E-05  0.2371E-05  0.2231E-05  0.2101E-05  0.1968E-05  0.1849E-05  0.1730E-05  0.1627E-05  0.1520E-05  0.1424E-05  0.1324E-05  0.1228E-05  0.1136E-05  0.1047E-05  0.9693E-06  0.8899E-06  0.8151E-06  0.7450E-06  0.6795E-06  0.6185E-06
  0.1188E-05  0.1213E-05  0.1236E-05  0.1260E-05  0.1279E-05  0.1299E-05  0.1318E-05  0.1337E-05  0.1352E-05  0.1362E-05  0.1376E-05  0.1379E-05  0.1382E-05  0.1388E-05  0.1384E-05  0.1378E-05  0.1374E-05  0.1392E-05  0.1431E-05  0.1466E-05  0.1508E-05  0.1554E-05  0.1600E-05  0.1647E-05  0.1696E-05  0.1755E-05  0.1828E-05  0.1910E-05  0.2003E-05  0.2101E-05  0.2209E-05  0.2329E-05  0.2456E-05  0.2599E-05  0.2740E-05  0.2880E-05  0.3029E-05  0.3176E-05  0.3366E-05  0.3574E-05  0.3776E-05  0.3944E-05  0.4078E-05  0.4174E-05  0.4249E-05  0.4292E-05  0.4301E-05  0.4274E-05  0.4225E-05  0.4150E-05  0.4060E-05  0.3947E-05  0.3820E-05  0.3682E-05  0.3533E-05  0.3382E-05  0.3222E-05  0.3066E-05  0.2904E-05  0.2755E-05  0.2596E-05  0.2447E-05  0.2296E-05  0.2151E-05  0.2022E-05  0.1894E-05  0.1772E-05  0.1660E-05  0.1546E-05  0.1436E-05  0.1331E-05  0.1238E-05  0.1142E-05  0.1052E-05  0.9665E-06  0.8864E-06  0.8113E-06  0.7412E-06  0.6758E-06
  0.1458E-05  0.1491E-05  0.1525E-05  0.1556E-05  0.1585E-05  0.1615E-05  0.1634E-05  0.1666E-05  0.1693E-05  0.1721E-05  0.1736E-05  0.1746E-05  0.1754E-05  0.1755E-05  0.1748E-05  0.1739E-05  0.1731E-05  0.1755E-05  0.1783E-05  0.1818E-05  0.1857E-05  0.1911E-05  0.1960E-05  0.2017E-05  0.2078E-05  0.2149E-05  0.2230E-05  0.2324E-05  0.2423E-05  0.2539E-05  0.2671E-05  0.2815E-05  0.2972E-05  0.3131E-05  0.3289E-05  0.3452E-05  0.3606E-05  0.3779E-05  0.3979E-05  0.4198E-05  0.4399E-05  0.4568E-05  0.4698E-05  0.4812E-05  0.4867E-05  0.4884E-05  0.4864E-05  0.4813E-05  0.4736E-05  0.4637E-05  0.4519E-05  0.4379E-05  0.4227E-05  0.4060E-05  0.3889E-05  0.3710E-05  0.3539E-05  0.3361E-05  0.3179E-05  0.3005E-05  0.2828E-05  0.2663E-05  0.2497E-05  0.2341E-05  0.2199E-05  0.2062E-05  0.1934E-05  0.1802E-05  0.1684E-05  0.1564E-05  0.1449E-05  0.1340E-05  0.1237E-05  0.1140E-05  0.1048E-05  0.9628E-06  0.8826E-06  0.8075E-06  0.7377E-06
  0.1759E-05  0.1808E-05  0.1852E-05  0.1897E-05  0.1939E-05  0.1981E-05  0.2023E-05  0.2068E-05  0.2103E-05  0.2144E-05  0.2166E-05  0.2183E-05  0.2201E-05  0.2203E-05  0.2201E-05  0.2189E-05  0.2192E-05  0.2221E-05  0.2252E-05  0.2284E-05  0.2328E-05  0.2369E-05  0.2416E-05  0.2474E-05  0.2545E-05  0.2626E-05  0.2698E-05  0.2802E-05  0.2917E-05  0.3044E-05  0.3199E-05  0.3366E-05  0.3545E-05  0.3726E-05  0.3916E-05  0.4100E-05  0.4283E-05  0.4496E-05  0.4719E-05  0.4923E-05  0.5105E-05  0.5269E-05  0.5395E-05  0.5476E-05  0.5511E-05  0.5500E-05  0.5458E-05  0.5382E-05  0.5276E-05  0.5147E-05  0.4997E-05  0.4830E-05  0.4646E-05  0.4456E-05  0.4260E-05  0.4060E-05  0.3860E-05  0.3654E-05  0.3457E-05  0.3256E-05  0.3067E-05  0.2880E-05  0.2707E-05  0.2553E-05  0.2398E-05  0.2247E-05  0.2100E-05  0.1965E-05  0.1829E-05  0.1699E-05  0.1574E-05  0.1456E-05  0.1344E-05  0.1239E-05  0.1145E-05  0.1046E-05  0.9590E-06  0.8850E-06  0.8043E-06
  0.2100E-05  0.2165E-05  0.2226E-05  0.2287E-05  0.2348E-05  0.2406E-05  0.2474E-05  0.2530E-05  0.2591E-05  0.2638E-05  0.2680E-05  0.2702E-05  0.2719E-05  0.2726E-05  0.2726E-05  0.2714E-05  0.2755E-05  0.2784E-05  0.2825E-05  0.2868E-05  0.2901E-05  0.2950E-05  0.2998E-05  0.3054E-05  0.3119E-05  0.3177E-05  0.3269E-05  0.3381E-05  0.3502E-05  0.3634E-05  0.3807E-05  0.3989E-05  0.4184E-05  0.4393E-05  0.4608E-05  0.4824E-05  0.5053E-05  0.5305E-05  0.5551E-05  0.5769E-05  0.5930E-05  0.6043E-05  0.6132E-05  0.6180E-05  0.6185E-05  0.6154E-05  0.6079E-05  0.5975E-05  0.5840E-05  0.5672E-05  0.5492E-05  0.5290E-05  0.5080E-05  0.4867E-05  0.4639E-05  0.4414E-05  0.4182E-05  0.3960E-05  0.3734E-05  0.3521E-05  0.3313E-05  0.3124E-05  0.2940E-05  0.2768E-05  0.2599E-05  0.2434E-05  0.2284E-05  0.2130E-05  0.1984E-05  0.1845E-05  0.1712E-05  0.1586E-05  0.1472E-05  0.1358E-05  0.1243E-05  0.1147E-05  0.1053E-05  0.9583E-06  0.8770E-06
  0.2472E-05  0.2557E-05  0.2645E-05  0.2728E-05  0.2814E-05  0.2893E-05  0.2979E-05  0.3051E-05  0.3128E-05  0.3187E-05  0.3240E-05  0.3291E-05  0.3330E-05  0.3353E-05  0.3358E-05  0.3381E-05  0.3441E-05  0.3500E-05  0.3511E-05  0.3559E-05  0.3599E-05  0.3635E-05  0.3683E-05  0.3749E-05  0.3799E-05  0.3872E-05  0.3962E-05  0.4062E-05  0.4177E-05  0.4334E-05  0.4515E-05  0.4697E-05  0.4912E-05  0.5142E-05  0.5379E-05  0.5637E-05  0.5913E-05  0.6214E-05  0.6476E-05  0.6679E-05  0.6811E-05  0.6897E-05  0.6943E-05  0.6943E-05  0.6911E-05  0.6833E-05  0.6728E-05  0.6589E-05  0.6415E-05  0.6221E-05  0.6001E-05  0.5771E-05  0.5531E-05  0.5279E-05  0.5027E-05  0.4769E-05  0.4517E-05  0.4265E-05  0.4030E-05  0.3796E-05  0.3581E-05  0.3373E-05  0.3181E-05  0.3002E-05  0.2818E-05  0.2642E-05  0.2472E-05  0.2308E-05  0.2159E-05  0.2010E-05  0.1869E-05  0.1735E-05  0.1607E-05  0.1484E-05  0.1369E-05  0.1259E-05  0.1150E-05  0.1050E-05  0.9682E-06
  0.2881E-05  0.2996E-05  0.3098E-05  0.3215E-05  0.3331E-05  0.3447E-05  0.3552E-05  0.3656E-05  0.3744E-05  0.3823E-05  0.3898E-05  0.3968E-05  0.4017E-05  0.4066E-05  0.4109E-05  0.4160E-05  0.4230E-05  0.4303E-05  0.4356E-05  0.4383E-05  0.4422E-05  0.4455E-05  0.4500E-05  0.4540E-05  0.4613E-05  0.4694E-05  0.4786E-05  0.4874E-05  0.5002E-05  0.5156E-05  0.5311E-05  0.5516E-05  0.5745E-05  0.5981E-05  0.6246E-05  0.6553E-05  0.6886E-05  0.7199E-05  0.7456E-05  0.7640E-05  0.7759E-05  0.7816E-05  0.7815E-05  0.7764E-05  0.7680E-05  0.7564E-05  0.7404E-05  0.7218E-05  0.7008E-05  0.6772E-05  0.6522E-05  0.6255E-05  0.5978E-05  0.5700E-05  0.5413E-05  0.5134E-05  0.4857E-05  0.4593E-05  0.4331E-05  0.4089E-05  0.3856E-05  0.3647E-05  0.3435E-05  0.3230E-05  0.3034E-05  0.2847E-05  0.2675E-05  0.2503E-05  0.2339E-05  0.2183E-05  0.2033E-05  0.1890E-05  0.1752E-05  0.1623E-05  0.1498E-05  0.1379E-05  0.1274E-05  0.1169E-05  0.1060E-05
  0.3342E-05  0.3488E-05  0.3625E-05  0.3780E-05  0.3932E-05  0.4078E-05  0.4211E-05  0.4340E-05  0.4457E-05  0.4556E-05  0.4657E-05  0.4745E-05  0.4820E-05  0.4899E-05  0.4967E-05  0.5084E-05  0.5186E-05  0.5242E-05  0.5288E-05  0.5305E-05  0.5348E-05  0.5395E-05  0.5439E-05  0.5509E-05  0.5585E-05  0.5664E-05  0.5735E-05  0.5836E-05  0.5973E-05  0.6103E-05  0.6273E-05  0.6465E-05  0.6677E-05  0.6941E-05  0.7247E-05  0.7605E-05  0.7937E-05  0.8246E-05  0.8487E-05  0.8656E-05  0.8757E-05  0.8793E-05  0.8745E-05  0.8637E-05  0.8492E-05  0.8317E-05  0.8113E-05  0.7873E-05  0.7610E-05  0.7336E-05  0.7047E-05  0.6738E-05  0.6433E-05  0.6117E-05  0.5814E-05  0.5506E-05  0.5214E-05  0.4922E-05  0.4650E-05  0.4388E-05  0.4146E-05  0.3907E-05  0.3680E-05  0.3462E-05  0.3262E-05  0.3063E-05  0.2874E-05  0.2700E-05  0.2532E-05  0.2370E-05  0.2215E-05  0.2066E-05  0.1923E-05  0.1783E-05  0.1650E-05  0.1526E-05  0.1404E-05  0.1282E-05  0.1171E-05
  0.3866E-05  0.4056E-05  0.4235E-05  0.4431E-05  0.4623E-05  0.4799E-05  0.4974E-05  0.5129E-05  0.5271E-05  0.5405E-05  0.5526E-05  0.5656E-05  0.5771E-05  0.5891E-05  0.6006E-05  0.6168E-05  0.6276E-05  0.6326E-05  0.6373E-05  0.6421E-05  0.6461E-05  0.6491E-05  0.6553E-05  0.6616E-05  0.6690E-05  0.6755E-05  0.6858E-05  0.6970E-05  0.7090E-05  0.7223E-05  0.7392E-05  0.7568E-05  0.7792E-05  0.8055E-05  0.8387E-05  0.8755E-05  0.9094E-05  0.9386E-05  0.9597E-05  0.9718E-05  0.9798E-05  0.9794E-05  0.9714E-05  0.9559E-05  0.9345E-05  0.9101E-05  0.8832E-05  0.8553E-05  0.8242E-05  0.7907E-05  0.7569E-05  0.7233E-05  0.6885E-05  0.6553E-05  0.6216E-05  0.5893E-05  0.5573E-05  0.5275E-05  0.4973E-05  0.4702E-05  0.4438E-05  0.4193E-05  0.3951E-05  0.3720E-05  0.3500E-05  0.3291E-05  0.3093E-05  0.2910E-05  0.2735E-05  0.2565E-05  0.2404E-05  0.2250E-05  0.2101E-05  0.1958E-05  0.1818E-05  0.1684E-05  0.1544E-05  0.1422E-05  0.1311E-05
  0.4461E-05  0.4701E-05  0.4932E-05  0.5176E-05  0.5401E-05  0.5609E-05  0.5832E-05  0.6022E-05  0.6191E-05  0.6343E-05  0.6527E-05  0.6700E-05  0.6895E-05  0.7060E-05  0.7237E-05  0.7422E-05  0.7517E-05  0.7602E-05  0.7657E-05  0.7708E-05  0.7733E-05  0.7786E-05  0.7833E-05  0.7890E-05  0.7950E-05  0.8043E-05  0.8131E-05  0.8236E-05  0.8364E-05  0.8504E-05  0.8663E-05  0.8856E-05  0.9084E-05  0.9348E-05  0.9682E-05  0.1003E-04  0.1035E-04  0.1060E-04  0.1075E-04  0.1085E-04  0.1088E-04  0.1082E-04  0.1069E-04  0.1050E-04  0.1024E-04  0.9914E-05  0.9580E-05  0.9231E-05  0.8872E-05  0.8493E-05  0.8107E-05  0.7721E-05  0.7359E-05  0.6993E-05  0.6647E-05  0.6293E-05  0.5946E-05  0.5614E-05  0.5314E-05  0.5021E-05  0.4751E-05  0.4484E-05  0.4228E-05  0.3984E-05  0.3755E-05  0.3538E-05  0.3331E-05  0.3145E-05  0.2956E-05  0.2778E-05  0.2614E-05  0.2442E-05  0.2285E-05  0.2136E-05  0.1990E-05  0.1843E-05  0.1707E-05  0.1577E-05  0.1444E-05
  0.5142E-05  0.5428E-05  0.5712E-05  0.6015E-05  0.6279E-05  0.6540E-05  0.6786E-05  0.7017E-05  0.7238E-05  0.7476E-05  0.7704E-05  0.7972E-05  0.8215E-05  0.8401E-05  0.8630E-05  0.8850E-05  0.8985E-05  0.9081E-05  0.9147E-05  0.9187E-05  0.9229E-05  0.9265E-05  0.9314E-05  0.9361E-05  0.9443E-05  0.9516E-05  0.9598E-05  0.9709E-05  0.9828E-05  0.9960E-05  0.1012E-04  0.1032E-04  0.1055E-04  0.1084E-04  0.1115E-04  0.1146E-04  0.1172E-04  0.1189E-04  0.1200E-04  0.1206E-04  0.1199E-04  0.1188E-04  0.1169E-04  0.1144E-04  0.1113E-04  0.1076E-04  0.1034E-04  0.9919E-05  0.9501E-05  0.9092E-05  0.8668E-05  0.8240E-05  0.7839E-05  0.7447E-05  0.7062E-05  0.6688E-05  0.6320E-05  0.5982E-05  0.5663E-05  0.5366E-05  0.5072E-05  0.4791E-05  0.4519E-05  0.4268E-05  0.4035E-05  0.3817E-05  0.3602E-05  0.3392E-05  0.3208E-05  0.3019E-05  0.2829E-05  0.2654E-05  0.2485E-05  0.2325E-05  0.2161E-05  0.2020E-05  0.1872E-05  0.1729E-05  0.1582E-05
  0.5902E-05  0.6245E-05  0.6580E-05  0.6945E-05  0.7264E-05  0.7584E-05  0.7885E-05  0.8169E-05  0.8459E-05  0.8769E-05  0.9084E-05  0.9421E-05  0.9700E-05  0.9942E-05  0.1023E-04  0.1049E-04  0.1066E-04  0.1079E-04  0.1085E-04  0.1090E-04  0.1094E-04  0.1099E-04  0.1102E-04  0.1108E-04  0.1115E-04  0.1120E-04  0.1129E-04  0.1139E-04  0.1149E-04  0.1161E-04  0.1177E-04  0.1196E-04  0.1221E-04  0.1249E-04  0.1278E-04  0.1303E-04  0.1318E-04  0.1329E-04  0.1332E-04  0.1328E-04  0.1316E-04  0.1296E-04  0.1270E-04  0.1238E-04  0.1201E-04  0.1159E-04  0.1112E-04  0.1063E-04  0.1014E-04  0.9682E-05  0.9225E-05  0.8778E-05  0.8324E-05  0.7891E-05  0.7482E-05  0.7081E-05  0.6705E-05  0.6366E-05  0.6036E-05  0.5720E-05  0.5413E-05  0.5120E-05  0.4843E-05  0.4594E-05  0.4353E-05  0.4119E-05  0.3895E-05  0.3678E-05  0.3476E-05  0.3268E-05  0.3073E-05  0.2892E-05  0.2703E-05  0.2519E-05  0.2357E-05  0.2193E-05  0.2034E-05  0.1878E-05  0.1737E-05
  0.6738E-05  0.7147E-05  0.7556E-05  0.7977E-05  0.8387E-05  0.8765E-05  0.9131E-05  0.9490E-05  0.9864E-05  0.1027E-04  0.1066E-04  0.1105E-04  0.1140E-04  0.1173E-04  0.1212E-04  0.1239E-04  0.1260E-04  0.1271E-04  0.1280E-04  0.1288E-04  0.1294E-04  0.1295E-04  0.1300E-04  0.1304E-04  0.1308E-04  0.1315E-04  0.1323E-04  0.1330E-04  0.1339E-04  0.1350E-04  0.1364E-04  0.1381E-04  0.1405E-04  0.1432E-04  0.1456E-04  0.1471E-04  0.1480E-04  0.1479E-04  0.1471E-04  0.1457E-04  0.1435E-04  0.1407E-04  0.1372E-04  0.1332E-04  0.1287E-04  0.1239E-04  0.1190E-04  0.1134E-04  0.1080E-04  0.1028E-04  0.9793E-05  0.9296E-05  0.8818E-05  0.8343E-05  0.7908E-05  0.7501E-05  0.7121E-05  0.6763E-05  0.6419E-05  0.6097E-05  0.5778E-05  0.5478E-05  0.5206E-05  0.4949E-05  0.4701E-05  0.4458E-05  0.4222E-05  0.3993E-05  0.3764E-05  0.3557E-05  0.3349E-05  0.3137E-05  0.2937E-05  0.2745E-05  0.2558E-05  0.2377E-05  0.2200E-05  0.2043E-05  0.1894E-05
  0.7674E-05  0.8166E-05  0.8668E-05  0.9146E-05  0.9623E-05  0.1009E-04  0.1053E-04  0.1101E-04  0.1147E-04  0.1198E-04  0.1248E-04  0.1298E-04  0.1340E-04  0.1378E-04  0.1425E-04  0.1456E-04  0.1477E-04  0.1496E-04  0.1509E-04  0.1518E-04  0.1520E-04  0.1524E-04  0.1526E-04  0.1530E-04  0.1532E-04  0.1538E-04  0.1542E-04  0.1548E-04  0.1556E-04  0.1566E-04  0.1576E-04  0.1591E-04  0.1614E-04  0.1634E-04  0.1646E-04  0.1652E-04  0.1651E-04  0.1640E-04  0.1621E-04  0.1591E-04  0.1558E-04  0.1520E-04  0.1475E-04  0.1427E-04  0.1374E-04  0.1320E-04  0.1263E-04  0.1206E-04  0.1146E-04  0.1088E-04  0.1033E-04  0.9820E-05  0.9314E-05  0.8824E-05  0.8355E-05  0.7935E-05  0.7554E-05  0.7190E-05  0.6848E-05  0.6508E-05  0.6184E-05  0.5886E-05  0.5614E-05  0.5352E-05  0.5095E-05  0.4840E-05  0.4590E-05  0.4343E-05  0.4101E-05  0.3865E-05  0.3627E-05  0.3403E-05  0.3190E-05  0.2980E-05  0.2772E-05  0.2570E-05  0.2396E-05  0.2219E-05  0.2051E-05
  0.8723E-05  0.9316E-05  0.9887E-05  0.1046E-04  0.1103E-04  0.1155E-04  0.1210E-04  0.1270E-04  0.1331E-04  0.1396E-04  0.1458E-04  0.1516E-04  0.1566E-04  0.1617E-04  0.1666E-04  0.1703E-04  0.1733E-04  0.1755E-04  0.1771E-04  0.1777E-04  0.1783E-04  0.1786E-04  0.1786E-04  0.1784E-04  0.1787E-04  0.1788E-04  0.1791E-04  0.1796E-04  0.1801E-04  0.1807E-04  0.1814E-04  0.1829E-04  0.1844E-04  0.1852E-04  0.1853E-04  0.1844E-04  0.1829E-04  0.1808E-04  0.1776E-04  0.1734E-04  0.1685E-04  0.1632E-04  0.1579E-04  0.1520E-04  0.1460E-04  0.1397E-04  0.1336E-04  0.1274E-04  0.1211E-04  0.1147E-04  0.1087E-04  0.1033E-04  0.9811E-05  0.9306E-05  0.8840E-05  0.8415E-05  0.8028E-05  0.7661E-05  0.7305E-05  0.6961E-05  0.6645E-05  0.6355E-05  0.6081E-05  0.5810E-05  0.5541E-05  0.5270E-05  0.4999E-05  0.4732E-05  0.4468E-05  0.4201E-05  0.3947E-05  0.3703E-05  0.3463E-05  0.3227E-05  0.2996E-05  0.2795E-05  0.2591E-05  0.2399E-05  0.2209E-05
  0.9885E-05  0.1057E-04  0.1123E-04  0.1192E-04  0.1258E-04  0.1323E-04  0.1393E-04  0.1468E-04  0.1547E-04  0.1624E-04  0.1695E-04  0.1763E-04  0.1821E-04  0.1886E-04  0.1945E-04  0.1989E-04  0.2025E-04  0.2051E-04  0.2065E-04  0.2076E-04  0.2084E-04  0.2085E-04  0.2081E-04  0.2079E-04  0.2076E-04  0.2074E-04  0.2074E-04  0.2075E-04  0.2077E-04  0.2075E-04  0.2084E-04  0.2093E-04  0.2096E-04  0.2091E-04  0.2075E-04  0.2050E-04  0.2020E-04  0.1981E-04  0.1937E-04  0.1882E-04  0.1820E-04  0.1752E-04  0.1683E-04  0.1615E-04  0.1545E-04  0.1475E-04  0.1407E-04  0.1339E-04  0.1273E-04  0.1208E-04  0.1143E-04  0.1084E-04  0.1031E-04  0.9823E-05  0.9374E-05  0.8943E-05  0.8536E-05  0.8168E-05  0.7813E-05  0.7480E-05  0.7189E-05  0.6896E-05  0.6615E-05  0.6339E-05  0.6044E-05  0.5750E-05  0.5456E-05  0.5161E-05  0.4862E-05  0.4574E-05  0.4303E-05  0.4021E-05  0.3750E-05  0.3486E-05  0.3253E-05  0.3020E-05  0.2799E-05  0.2581E-05  0.2384E-05
  0.1115E-04  0.1195E-04  0.1275E-04  0.1355E-04  0.1433E-04  0.1514E-04  0.1599E-04  0.1692E-04  0.1787E-04  0.1879E-04  0.1963E-04  0.2045E-04  0.2118E-04  0.2195E-04  0.2262E-04  0.2313E-04  0.2354E-04  0.2382E-04  0.2404E-04  0.2419E-04  0.2423E-04  0.2420E-04  0.2418E-04  0.2411E-04  0.2402E-04  0.2397E-04  0.2392E-04  0.2388E-04  0.2380E-04  0.2380E-04  0.2383E-04  0.2382E-04  0.2371E-04  0.2348E-04  0.2314E-04  0.2271E-04  0.2220E-04  0.2163E-04  0.2099E-04  0.2031E-04  0.1956E-04  0.1877E-04  0.1794E-04  0.1712E-04  0.1630E-04  0.1550E-04  0.1476E-04  0.1403E-04  0.1333E-04  0.1266E-04  0.1199E-04  0.1136E-04  0.1084E-04  0.1037E-04  0.9938E-05  0.9518E-05  0.9111E-05  0.8730E-05  0.8402E-05  0.8095E-05  0.7802E-05  0.7525E-05  0.7231E-05  0.6919E-05  0.6607E-05  0.6284E-05  0.5957E-05  0.5621E-05  0.5296E-05  0.4984E-05  0.4662E-05  0.4348E-05  0.4048E-05  0.3779E-05  0.3509E-05  0.3255E-05  0.3006E-05  0.2780E-05  0.2546E-05
  0.1255E-04  0.1348E-04  0.1442E-04  0.1535E-04  0.1628E-04  0.1728E-04  0.1834E-04  0.1946E-04  0.2059E-04  0.2165E-04  0.2268E-04  0.2365E-04  0.2456E-04  0.2545E-04  0.2620E-04  0.2680E-04  0.2725E-04  0.2764E-04  0.2790E-04  0.2803E-04  0.2806E-04  0.2804E-04  0.2797E-04  0.2783E-04  0.2772E-04  0.2760E-04  0.2749E-04  0.2735E-04  0.2725E-04  0.2718E-04  0.2711E-04  0.2694E-04  0.2666E-04  0.2622E-04  0.2569E-04  0.2504E-04  0.2430E-04  0.2351E-04  0.2270E-04  0.2183E-04  0.2094E-04  0.2001E-04  0.1908E-04  0.1812E-04  0.1717E-04  0.1628E-04  0.1542E-04  0.1464E-04  0.1391E-04  0.1321E-04  0.1254E-04  0.1193E-04  0.1138E-04  0.1094E-04  0.1055E-04  0.1016E-04  0.9775E-05  0.9400E-05  0.9078E-05  0.8803E-05  0.8526E-05  0.8230E-05  0.7903E-05  0.7576E-05  0.7239E-05  0.6869E-05  0.6494E-05  0.6134E-05  0.5769E-05  0.5397E-05  0.5041E-05  0.4703E-05  0.4377E-05  0.4073E-05  0.3777E-05  0.3491E-05  0.3221E-05  0.2964E-05  0.2739E-05
  0.1409E-04  0.1516E-04  0.1626E-04  0.1735E-04  0.1848E-04  0.1968E-04  0.2095E-04  0.2232E-04  0.2367E-04  0.2496E-04  0.2622E-04  0.2728E-04  0.2839E-04  0.2943E-04  0.3028E-04  0.3096E-04  0.3153E-04  0.3196E-04  0.3223E-04  0.3236E-04  0.3241E-04  0.3235E-04  0.3220E-04  0.3204E-04  0.3186E-04  0.3166E-04  0.3142E-04  0.3123E-04  0.3107E-04  0.3091E-04  0.3068E-04  0.3032E-04  0.2981E-04  0.2917E-04  0.2837E-04  0.2748E-04  0.2650E-04  0.2549E-04  0.2444E-04  0.2339E-04  0.2233E-04  0.2126E-04  0.2016E-04  0.1912E-04  0.1808E-04  0.1709E-04  0.1615E-04  0.1525E-04  0.1447E-04  0.1377E-04  0.1312E-04  0.1251E-04  0.1200E-04  0.1156E-04  0.1120E-04  0.1085E-04  0.1051E-04  0.1018E-04  0.9878E-05  0.9618E-05  0.9341E-05  0.9016E-05  0.8676E-05  0.8305E-05  0.7910E-05  0.7494E-05  0.7087E-05  0.6667E-05  0.6247E-05  0.5837E-05  0.5448E-05  0.5078E-05  0.4717E-05  0.4368E-05  0.4047E-05  0.3723E-05  0.3440E-05  0.3180E-05  0.2923E-05
  0.1575E-04  0.1701E-04  0.1828E-04  0.1953E-04  0.2091E-04  0.2237E-04  0.2390E-04  0.2558E-04  0.2716E-04  0.2868E-04  0.3012E-04  0.3144E-04  0.3275E-04  0.3394E-04  0.3490E-04  0.3571E-04  0.3635E-04  0.3682E-04  0.3709E-04  0.3725E-04  0.3727E-04  0.3714E-04  0.3696E-04  0.3673E-04  0.3644E-04  0.3610E-04  0.3580E-04  0.3551E-04  0.3522E-04  0.3494E-04  0.3451E-04  0.3391E-04  0.3315E-04  0.3223E-04  0.3119E-04  0.3001E-04  0.2879E-04  0.2749E-04  0.2623E-04  0.2496E-04  0.2371E-04  0.2248E-04  0.2128E-04  0.2009E-04  0.1896E-04  0.1792E-04  0.1691E-04  0.1594E-04  0.1506E-04  0.1430E-04  0.1368E-04  0.1315E-04  0.1267E-04  0.1225E-04  0.1192E-04  0.1163E-04  0.1135E-04  0.1109E-04  0.1082E-04  0.1054E-04  0.1025E-04  0.9904E-05  0.9512E-05  0.9076E-05  0.8635E-05  0.8175E-05  0.7698E-05  0.7219E-05  0.6749E-05  0.6292E-05  0.5871E-05  0.5453E-05  0.5050E-05  0.4667E-05  0.4307E-05  0.3980E-05  0.3678E-05  0.3384E-05  0.3092E-05
  0.1760E-04  0.1903E-04  0.2052E-04  0.2200E-04  0.2367E-04  0.2544E-04  0.2732E-04  0.2924E-04  0.3112E-04  0.3289E-04  0.3456E-04  0.3616E-04  0.3770E-04  0.3902E-04  0.4016E-04  0.4106E-04  0.4177E-04  0.4224E-04  0.4257E-04  0.4271E-04  0.4265E-04  0.4249E-04  0.4224E-04  0.4189E-04  0.4146E-04  0.4103E-04  0.4060E-04  0.4016E-04  0.3976E-04  0.3924E-04  0.3857E-04  0.3773E-04  0.3667E-04  0.3545E-04  0.3410E-04  0.3265E-04  0.3113E-04  0.2960E-04  0.2806E-04  0.2657E-04  0.2513E-04  0.2372E-04  0.2238E-04  0.2110E-04  0.1987E-04  0.1873E-04  0.1771E-04  0.1669E-04  0.1575E-04  0.1494E-04  0.1427E-04  0.1381E-04  0.1338E-04  0.1301E-04  0.1272E-04  0.1250E-04  0.1231E-04  0.1211E-04  0.1189E-04  0.1159E-04  0.1125E-04  0.1086E-04  0.1040E-04  0.9912E-05  0.9395E-05  0.8865E-05  0.8324E-05  0.7790E-05  0.7266E-05  0.6776E-05  0.6285E-05  0.5829E-05  0.5385E-05  0.4970E-05  0.4592E-05  0.4244E-05  0.3903E-05  0.3571E-05  0.3247E-05
  0.1964E-04  0.2129E-04  0.2300E-04  0.2479E-04  0.2673E-04  0.2888E-04  0.3110E-04  0.3335E-04  0.3556E-04  0.3768E-04  0.3964E-04  0.4151E-04  0.4324E-04  0.4478E-04  0.4605E-04  0.4709E-04  0.4781E-04  0.4833E-04  0.4866E-04  0.4870E-04  0.4862E-04  0.4839E-04  0.4801E-04  0.4751E-04  0.4695E-04  0.4637E-04  0.4574E-04  0.4517E-04  0.4454E-04  0.4378E-04  0.4282E-04  0.4166E-04  0.4032E-04  0.3879E-04  0.3712E-04  0.3535E-04  0.3354E-04  0.3170E-04  0.2991E-04  0.2820E-04  0.2655E-04  0.2497E-04  0.2346E-04  0.2208E-04  0.2079E-04  0.1956E-04  0.1845E-04  0.1746E-04  0.1647E-04  0.1567E-04  0.1499E-04  0.1450E-04  0.1417E-04  0.1389E-04  0.1365E-04  0.1351E-04  0.1341E-04  0.1327E-04  0.1308E-04  0.1276E-04  0.1234E-04  0.1188E-04  0.1139E-04  0.1084E-04  0.1024E-04  0.9613E-05  0.8980E-05  0.8381E-05  0.7803E-05  0.7237E-05  0.6697E-05  0.6200E-05  0.5721E-05  0.5283E-05  0.4879E-05  0.4489E-05  0.4096E-05  0.3738E-05  0.3421E-05
  0.2188E-04  0.2378E-04  0.2575E-04  0.2794E-04  0.3024E-04  0.3273E-04  0.3541E-04  0.3806E-04  0.4060E-04  0.4306E-04  0.4538E-04  0.4750E-04  0.4953E-04  0.5124E-04  0.5270E-04  0.5379E-04  0.5458E-04  0.5511E-04  0.5535E-04  0.5534E-04  0.5517E-04  0.5480E-04  0.5424E-04  0.5359E-04  0.5287E-04  0.5206E-04  0.5127E-04  0.5044E-04  0.4956E-04  0.4849E-04  0.4721E-04  0.4573E-04  0.4403E-04  0.4219E-04  0.4018E-04  0.3808E-04  0.3595E-04  0.3384E-04  0.3179E-04  0.2984E-04  0.2799E-04  0.2623E-04  0.2459E-04  0.2309E-04  0.2168E-04  0.2042E-04  0.1925E-04  0.1823E-04  0.1736E-04  0.1649E-04  0.1584E-04  0.1533E-04  0.1503E-04  0.1486E-04  0.1477E-04  0.1471E-04  0.1465E-04  0.1456E-04  0.1435E-04  0.1403E-04  0.1356E-04  0.1307E-04  0.1253E-04  0.1189E-04  0.1119E-04  0.1047E-04  0.9749E-05  0.9048E-05  0.8372E-05  0.7717E-05  0.7125E-05  0.6567E-05  0.6063E-05  0.5589E-05  0.5145E-05  0.4696E-05  0.4288E-05  0.3925E-05  0.3566E-05
  0.2434E-04  0.2655E-04  0.2881E-04  0.3139E-04  0.3413E-04  0.3710E-04  0.4025E-04  0.4331E-04  0.4637E-04  0.4918E-04  0.5176E-04  0.5432E-04  0.5662E-04  0.5857E-04  0.6009E-04  0.6129E-04  0.6213E-04  0.6258E-04  0.6272E-04  0.6263E-04  0.6229E-04  0.6169E-04  0.6096E-04  0.6009E-04  0.5909E-04  0.5809E-04  0.5704E-04  0.5595E-04  0.5470E-04  0.5328E-04  0.5165E-04  0.4980E-04  0.4776E-04  0.4556E-04  0.4324E-04  0.4085E-04  0.3841E-04  0.3602E-04  0.3371E-04  0.3152E-04  0.2947E-04  0.2756E-04  0.2576E-04  0.2413E-04  0.2265E-04  0.2129E-04  0.2010E-04  0.1906E-04  0.1822E-04  0.1756E-04  0.1686E-04  0.1633E-04  0.1602E-04  0.1596E-04  0.1600E-04  0.1604E-04  0.1606E-04  0.1600E-04  0.1580E-04  0.1546E-04  0.1498E-04  0.1444E-04  0.1384E-04  0.1312E-04  0.1232E-04  0.1148E-04  0.1066E-04  0.9841E-05  0.9035E-05  0.8290E-05  0.7606E-05  0.6979E-05  0.6398E-05  0.5866E-05  0.5367E-05  0.4903E-05  0.4486E-05  0.4080E-05  0.3718E-05
  0.2703E-04  0.2956E-04  0.3218E-04  0.3527E-04  0.3860E-04  0.4218E-04  0.4571E-04  0.4925E-04  0.5274E-04  0.5599E-04  0.5907E-04  0.6204E-04  0.6459E-04  0.6665E-04  0.6834E-04  0.6961E-04  0.7038E-04  0.7076E-04  0.7078E-04  0.7048E-04  0.6986E-04  0.6905E-04  0.6804E-04  0.6686E-04  0.6562E-04  0.6431E-04  0.6296E-04  0.6148E-04  0.5987E-04  0.5806E-04  0.5605E-04  0.5382E-04  0.5146E-04  0.4889E-04  0.4626E-04  0.4357E-04  0.4088E-04  0.3823E-04  0.3567E-04  0.3326E-04  0.3102E-04  0.2892E-04  0.2699E-04  0.2525E-04  0.2367E-04  0.2225E-04  0.2103E-04  0.1998E-04  0.1916E-04  0.1855E-04  0.1810E-04  0.1762E-04  0.1732E-04  0.1723E-04  0.1738E-04  0.1754E-04  0.1764E-04  0.1761E-04  0.1743E-04  0.1713E-04  0.1673E-04  0.1623E-04  0.1564E-04  0.1482E-04  0.1384E-04  0.1278E-04  0.1177E-04  0.1077E-04  0.9867E-05  0.8981E-05  0.8168E-05  0.7433E-05  0.6748E-05  0.6147E-05  0.5595E-05  0.5098E-05  0.4651E-05  0.4238E-05  0.3864E-05
  0.3004E-04  0.3296E-04  0.3611E-04  0.3965E-04  0.4358E-04  0.4778E-04  0.5193E-04  0.5606E-04  0.6000E-04  0.6383E-04  0.6739E-04  0.7068E-04  0.7345E-04  0.7573E-04  0.7754E-04  0.7874E-04  0.7946E-04  0.7969E-04  0.7948E-04  0.7883E-04  0.7791E-04  0.7674E-04  0.7536E-04  0.7385E-04  0.7224E-04  0.7059E-04  0.6884E-04  0.6697E-04  0.6491E-04  0.6271E-04  0.6029E-04  0.5774E-04  0.5502E-04  0.5217E-04  0.4925E-04  0.4628E-04  0.4334E-04  0.4047E-04  0.3770E-04  0.3508E-04  0.3267E-04  0.3041E-04  0.2834E-04  0.2646E-04  0.2481E-04  0.2333E-04  0.2209E-04  0.2105E-04  0.2023E-04  0.1967E-04  0.1936E-04  0.1920E-04  0.1897E-04  0.1891E-04  0.1895E-04  0.1926E-04  0.1943E-04  0.1946E-04  0.1941E-04  0.1936E-04  0.1955E-04  0.1918E-04  0.1851E-04  0.1735E-04  0.1599E-04  0.1472E-04  0.1329E-04  0.1197E-04  0.1080E-04  0.9763E-05  0.8807E-05  0.7926E-05  0.7153E-05  0.6453E-05  0.5834E-05  0.5300E-05  0.4815E-05  0.4390E-05  0.4000E-05
  0.3337E-04  0.3675E-04  0.4055E-04  0.4464E-04  0.4918E-04  0.5418E-04  0.5895E-04  0.6374E-04  0.6837E-04  0.7267E-04  0.7672E-04  0.8032E-04  0.8337E-04  0.8584E-04  0.8759E-04  0.8875E-04  0.8931E-04  0.8926E-04  0.8864E-04  0.8762E-04  0.8622E-04  0.8457E-04  0.8275E-04  0.8079E-04  0.7876E-04  0.7666E-04  0.7448E-04  0.7213E-04  0.6969E-04  0.6707E-04  0.6433E-04  0.6144E-04  0.5841E-04  0.5530E-04  0.5213E-04  0.4896E-04  0.4582E-04  0.4276E-04  0.3981E-04  0.3703E-04  0.3443E-04  0.3204E-04  0.2986E-04  0.2789E-04  0.2612E-04  0.2458E-04  0.2332E-04  0.2229E-04  0.2151E-04  0.2099E-04  0.2076E-04  0.2083E-04  0.2100E-04  0.2102E-04  0.2112E-04  0.2169E-04  0.2200E-04  0.2249E-04  0.2361E-04  0.2412E-04  0.2448E-04  0.2368E-04  0.2266E-04  0.2091E-04  0.1896E-04  0.1718E-04  0.1521E-04  0.1347E-04  0.1197E-04  0.1063E-04  0.9492E-05  0.8487E-05  0.7601E-05  0.6795E-05  0.6105E-05  0.5518E-05  0.4973E-05  0.4516E-05  0.4115E-05
  0.3708E-04  0.4098E-04  0.4545E-04  0.5038E-04  0.5561E-04  0.6150E-04  0.6703E-04  0.7254E-04  0.7781E-04  0.8271E-04  0.8726E-04  0.9119E-04  0.9449E-04  0.9702E-04  0.9867E-04  0.9966E-04  0.9986E-04  0.9933E-04  0.9821E-04  0.9659E-04  0.9457E-04  0.9233E-04  0.8989E-04  0.8742E-04  0.8488E-04  0.8232E-04  0.7966E-04  0.7692E-04  0.7404E-04  0.7106E-04  0.6801E-04  0.6482E-04  0.6158E-04  0.5827E-04  0.5493E-04  0.5159E-04  0.4829E-04  0.4510E-04  0.4204E-04  0.3912E-04  0.3642E-04  0.3530E-04  0.3358E-04  0.3238E-04  0.3109E-04  0.3023E-04  0.2933E-04  0.2879E-04  0.2829E-04  0.2824E-04  0.2828E-04  0.2862E-04  0.2932E-04  0.2949E-04  0.2967E-04  0.2998E-04  0.3028E-04  0.3083E-04  0.3272E-04  0.3366E-04  0.3307E-04  0.3118E-04  0.2883E-04  0.2581E-04  0.2278E-04  0.1991E-04  0.1751E-04  0.1524E-04  0.1328E-04  0.1159E-04  0.1026E-04  0.9087E-05  0.8056E-05  0.7205E-05  0.6421E-05  0.5731E-05  0.5163E-05  0.4662E-05  0.4233E-05
  0.4114E-04  0.4563E-04  0.5096E-04  0.5679E-04  0.6318E-04  0.6988E-04  0.7636E-04  0.8268E-04  0.8863E-04  0.9415E-04  0.9916E-04  0.1034E-03  0.1069E-03  0.1092E-03  0.1108E-03  0.1113E-03  0.1110E-03  0.1098E-03  0.1079E-03  0.1055E-03  0.1027E-03  0.9967E-04  0.9657E-04  0.9348E-04  0.9041E-04  0.8733E-04  0.8420E-04  0.8104E-04  0.7862E-04  0.7535E-04  0.7178E-04  0.6825E-04  0.6457E-04  0.6103E-04  0.5758E-04  0.5443E-04  0.5535E-04  0.5952E-04  0.6354E-04  0.6580E-04  0.6634E-04  0.6604E-04  0.6467E-04  0.6289E-04  0.6092E-04  0.5890E-04  0.5669E-04  0.5466E-04  0.5312E-04  0.5180E-04  0.5098E-04  0.5054E-04  0.5027E-04  0.5011E-04  0.4961E-04  0.4918E-04  0.4870E-04  0.4878E-04  0.5051E-04  0.4995E-04  0.4687E-04  0.4217E-04  0.3690E-04  0.3174E-04  0.2750E-04  0.2346E-04  0.1994E-04  0.1703E-04  0.1468E-04  0.1271E-04  0.1109E-04  0.9705E-05  0.8556E-05  0.7604E-05  0.6745E-05  0.6009E-05  0.5355E-05  0.4808E-05  0.4340E-05
  0.4584E-04  0.5119E-04  0.5734E-04  0.6437E-04  0.7197E-04  0.7959E-04  0.8704E-04  0.9441E-04  0.1011E-03  0.1072E-03  0.1127E-03  0.1172E-03  0.1204E-03  0.1227E-03  0.1237E-03  0.1235E-03  0.1229E-03  0.1215E-03  0.1190E-03  0.1161E-03  0.1135E-03  0.1107E-03  0.1082E-03  0.1063E-03  0.1055E-03  0.1054E-03  0.1064E-03  0.1086E-03  0.1179E-03  0.1329E-03  0.1621E-03  0.2198E-03  0.2444E-03  0.6701E-04  0.6068E-04  0.6566E-04  0.1591E-03  0.2090E-03  0.1982E-03  0.1805E-03  0.1664E-03  0.1549E-03  0.1454E-03  0.1369E-03  0.1288E-03  0.1202E-03  0.1142E-03  0.1089E-03  0.1041E-03  0.9979E-04  0.9621E-04  0.9339E-04  0.9082E-04  0.8843E-04  0.8653E-04  0.8473E-04  0.8291E-04  0.8152E-04  0.7892E-04  0.7342E-04  0.6516E-04  0.5589E-04  0.4699E-04  0.3920E-04  0.3257E-04  0.2706E-04  0.2288E-04  0.1918E-04  0.1619E-04  0.1384E-04  0.1191E-04  0.1039E-04  0.9122E-05  0.8050E-05  0.7076E-05  0.6282E-05  0.5605E-05  0.4990E-05  0.4478E-05
  0.5124E-04  0.5770E-04  0.6491E-04  0.7292E-04  0.8191E-04  0.9101E-04  0.9971E-04  0.1085E-03  0.1167E-03  0.1241E-03  0.1300E-03  0.1343E-03  0.1384E-03  0.1408E-03  0.1419E-03  0.1422E-03  0.1414E-03  0.1400E-03  0.1387E-03  0.1380E-03  0.1377E-03  0.1390E-03  0.1437E-03  0.1525E-03  0.1663E-03  0.1880E-03  0.2232E-03  0.2791E-03  0.3626E-03  0.4543E-03  0.4818E-03  0.2764E-03  0.7595E-04  0.6978E-04  0.6506E-04  0.1584E-03  0.1065E-03  0.1492E-03  0.2859E-03  0.3559E-03  0.3450E-03  0.3022E-03  0.2597E-03  0.2266E-03  0.2027E-03  0.1851E-03  0.1732E-03  0.1639E-03  0.1563E-03  0.1499E-03  0.1450E-03  0.1404E-03  0.1363E-03  0.1337E-03  0.1312E-03  0.1289E-03  0.1272E-03  0.1227E-03  0.1130E-03  0.9988E-04  0.8503E-04  0.7039E-04  0.5746E-04  0.4668E-04  0.3789E-04  0.3119E-04  0.2566E-04  0.2126E-04  0.1777E-04  0.1508E-04  0.1286E-04  0.1110E-04  0.9624E-05  0.8440E-05  0.7443E-05  0.6579E-05  0.5835E-05  0.5176E-05  0.4625E-05
  0.5746E-04  0.6517E-04  0.7368E-04  0.8302E-04  0.9354E-04  0.1042E-03  0.1147E-03  0.1255E-03  0.1359E-03  0.1454E-03  0.1530E-03  0.1585E-03  0.1635E-03  0.1670E-03  0.1693E-03  0.1708E-03  0.1724E-03  0.1741E-03  0.1795E-03  0.1867E-03  0.1978E-03  0.2145E-03  0.2395E-03  0.2751E-03  0.3251E-03  0.3891E-03  0.4571E-03  0.5100E-03  0.5140E-03  0.3961E-03  0.1648E-03  0.8054E-04  0.8462E-04  0.6993E-04  0.6795E-04  0.1204E-03  0.3776E-03  0.1428E-03  0.1230E-03  0.2117E-03  0.3166E-03  0.3844E-03  0.3963E-03  0.3689E-03  0.3264E-03  0.2833E-03  0.2476E-03  0.2200E-03  0.2003E-03  0.1872E-03  0.1790E-03  0.1734E-03  0.1697E-03  0.1669E-03  0.1648E-03  0.1639E-03  0.1639E-03  0.1566E-03  0.1417E-03  0.1232E-03  0.1033E-03  0.8476E-04  0.6845E-04  0.5502E-04  0.4451E-04  0.3592E-04  0.2909E-04  0.2351E-04  0.1924E-04  0.1625E-04  0.1375E-04  0.1182E-04  0.1022E-04  0.8879E-05  0.7776E-05  0.6845E-05  0.6064E-05  0.5387E-05  0.4801E-05
  0.6461E-04  0.7367E-04  0.8376E-04  0.9461E-04  0.1064E-03  0.1187E-03  0.1316E-03  0.1448E-03  0.1584E-03  0.1717E-03  0.1836E-03  0.1928E-03  0.2003E-03  0.2078E-03  0.2141E-03  0.2210E-03  0.2293E-03  0.2406E-03  0.2564E-03  0.2783E-03  0.3074E-03  0.3455E-03  0.3912E-03  0.4379E-03  0.4772E-03  0.4996E-03  0.4924E-03  0.4207E-03  0.2588E-03  0.1163E-03  0.8676E-04  0.9544E-04  0.8542E-04  0.6995E-04  0.6942E-04  0.1398E-03  0.2030E-03  0.4414E-03  0.1591E-03  0.1121E-03  0.1654E-03  0.2378E-03  0.3151E-03  0.3737E-03  0.3989E-03  0.3918E-03  0.3636E-03  0.3265E-03  0.2903E-03  0.2581E-03  0.2331E-03  0.2140E-03  0.2009E-03  0.1920E-03  0.1874E-03  0.1860E-03  0.1873E-03  0.1810E-03  0.1658E-03  0.1449E-03  0.1217E-03  0.9976E-04  0.8163E-04  0.6631E-04  0.5355E-04  0.4297E-04  0.3419E-04  0.2709E-04  0.2182E-04  0.1763E-04  0.1463E-04  0.1248E-04  0.1071E-04  0.9280E-05  0.8118E-05  0.7117E-05  0.6284E-05  0.5567E-05  0.4951E-05
  0.7336E-04  0.8370E-04  0.9526E-04  0.1079E-03  0.1210E-03  0.1348E-03  0.1492E-03  0.1649E-03  0.1819E-03  0.2014E-03  0.2215E-03  0.2402E-03  0.2563E-03  0.2691E-03  0.2815E-03  0.2955E-03  0.3130E-03  0.3350E-03  0.3621E-03  0.3935E-03  0.4247E-03  0.4510E-03  0.4679E-03  0.4733E-03  0.4624E-03  0.4143E-03  0.3064E-03  0.1720E-03  0.1001E-03  0.9108E-04  0.1018E-03  0.1006E-03  0.8057E-04  0.7036E-04  0.7033E-04  0.1360E-03  0.1547E-03  0.3434E-03  0.4255E-03  0.1656E-03  0.1123E-03  0.1433E-03  0.1902E-03  0.2468E-03  0.3054E-03  0.3549E-03  0.3851E-03  0.3926E-03  0.3819E-03  0.3590E-03  0.3305E-03  0.3008E-03  0.2735E-03  0.2502E-03  0.2324E-03  0.2219E-03  0.2167E-03  0.2087E-03  0.1935E-03  0.1723E-03  0.1466E-03  0.1217E-03  0.1001E-03  0.8138E-04  0.6542E-04  0.5212E-04  0.4120E-04  0.3232E-04  0.2521E-04  0.1993E-04  0.1592E-04  0.1313E-04  0.1128E-04  0.9733E-05  0.8441E-05  0.7374E-05  0.6512E-05  0.5760E-05  0.5111E-05
  0.8387E-04  0.9586E-04  0.1085E-03  0.1224E-03  0.1366E-03  0.1527E-03  0.1696E-03  0.1882E-03  0.2102E-03  0.2363E-03  0.2655E-03  0.2959E-03  0.3254E-03  0.3451E-03  0.3633E-03  0.3814E-03  0.4027E-03  0.4224E-03  0.4385E-03  0.4481E-03  0.4506E-03  0.4469E-03  0.4346E-03  0.3996E-03  0.3253E-03  0.2186E-03  0.1303E-03  0.9421E-04  0.9349E-04  0.1048E-03  0.1104E-03  0.9497E-04  0.7661E-04  0.7066E-04  0.7048E-04  0.1216E-03  0.1760E-03  0.1893E-03  0.4358E-03  0.3887E-03  0.1656E-03  0.1146E-03  0.1338E-03  0.1663E-03  0.2054E-03  0.2503E-03  0.2972E-03  0.3396E-03  0.3729E-03  0.3913E-03  0.3949E-03  0.3852E-03  0.3663E-03  0.3423E-03  0.3184E-03  0.2975E-03  0.2820E-03  0.2668E-03  0.2463E-03  0.2189E-03  0.1870E-03  0.1560E-03  0.1282E-03  0.1033E-03  0.8186E-04  0.6376E-04  0.4951E-04  0.3833E-04  0.2944E-04  0.2260E-04  0.1763E-04  0.1408E-04  0.1175E-04  0.1012E-04  0.8781E-05  0.7651E-05  0.6703E-05  0.5900E-05  0.5253E-05
  0.9805E-04  0.1120E-03  0.1266E-03  0.1426E-03  0.1593E-03  0.1768E-03  0.1962E-03  0.2182E-03  0.2455E-03  0.2786E-03  0.3167E-03  0.3565E-03  0.3931E-03  0.4167E-03  0.4311E-03  0.4401E-03  0.4433E-03  0.4409E-03  0.4342E-03  0.4249E-03  0.4117E-03  0.3849E-03  0.3305E-03  0.2474E-03  0.1623E-03  0.1101E-03  0.9116E-04  0.9438E-04  0.1055E-03  0.1151E-03  0.1074E-03  0.8657E-04  0.7397E-04  0.7060E-04  0.7011E-04  0.1073E-03  0.1854E-03  0.1567E-03  0.2676E-03  0.4681E-03  0.3507E-03  0.1650E-03  0.1178E-03  0.1312E-03  0.1549E-03  0.1847E-03  0.2187E-03  0.2575E-03  0.2992E-03  0.3396E-03  0.3734E-03  0.3977E-03  0.4089E-03  0.4081E-03  0.3994E-03  0.3867E-03  0.3716E-03  0.3535E-03  0.3242E-03  0.2876E-03  0.2468E-03  0.2051E-03  0.1660E-03  0.1317E-03  0.1020E-03  0.7794E-04  0.5892E-04  0.4455E-04  0.3381E-04  0.2532E-04  0.1936E-04  0.1513E-04  0.1218E-04  0.1045E-04  0.9079E-05  0.7906E-05  0.6897E-05  0.6065E-05  0.5368E-05
  0.1177E-03  0.1357E-03  0.1532E-03  0.1716E-03  0.1915E-03  0.2123E-03  0.2354E-03  0.2618E-03  0.2934E-03  0.3298E-03  0.3698E-03  0.4078E-03  0.4359E-03  0.4471E-03  0.4436E-03  0.4340E-03  0.4213E-03  0.4088E-03  0.3952E-03  0.3725E-03  0.3310E-03  0.2658E-03  0.1894E-03  0.1317E-03  0.9987E-04  0.8975E-04  0.9390E-04  0.1043E-03  0.1159E-03  0.1153E-03  0.9778E-04  0.7946E-04  0.7178E-04  0.6989E-04  0.6872E-04  0.9581E-04  0.1770E-03  0.1763E-03  0.1705E-03  0.3454E-03  0.4627E-03  0.3176E-03  0.1635E-03  0.1227E-03  0.1332E-03  0.1534E-03  0.1773E-03  0.2063E-03  0.2404E-03  0.2781E-03  0.3169E-03  0.3539E-03  0.3849E-03  0.4081E-03  0.4241E-03  0.4320E-03  0.4328E-03  0.4215E-03  0.3930E-03  0.3550E-03  0.3073E-03  0.2552E-03  0.2060E-03  0.1609E-03  0.1226E-03  0.9238E-04  0.6870E-04  0.5082E-04  0.3799E-04  0.2859E-04  0.2156E-04  0.1670E-04  0.1325E-04  0.1074E-04  0.9339E-05  0.8109E-05  0.7116E-05  0.6246E-05  0.5485E-05
  0.1443E-03  0.1684E-03  0.1917E-03  0.2147E-03  0.2386E-03  0.2628E-03  0.2876E-03  0.3146E-03  0.3452E-03  0.3758E-03  0.4038E-03  0.4240E-03  0.4311E-03  0.4249E-03  0.4118E-03  0.3983E-03  0.3838E-03  0.3643E-03  0.3303E-03  0.2781E-03  0.2128E-03  0.1538E-03  0.1135E-03  0.9396E-04  0.8882E-04  0.9240E-04  0.1020E-03  0.1143E-03  0.1189E-03  0.1071E-03  0.8714E-04  0.7404E-04  0.6954E-04  0.6858E-04  0.6782E-04  0.8699E-04  0.1592E-03  0.1929E-03  0.1506E-03  0.2181E-03  0.3964E-03  0.4402E-03  0.2909E-03  0.1623E-03  0.1287E-03  0.1387E-03  0.1585E-03  0.1813E-03  0.2091E-03  0.2408E-03  0.2731E-03  0.3062E-03  0.3390E-03  0.3699E-03  0.3940E-03  0.4138E-03  0.4300E-03  0.4313E-03  0.4166E-03  0.3889E-03  0.3429E-03  0.2891E-03  0.2346E-03  0.1831E-03  0.1392E-03  0.1037E-03  0.7672E-04  0.5637E-04  0.4170E-04  0.3112E-04  0.2305E-04  0.1762E-04  0.1375E-04  0.1099E-04  0.9559E-05  0.8296E-05  0.7295E-05  0.6388E-05  0.5645E-05
  0.1760E-03  0.2085E-03  0.2397E-03  0.2691E-03  0.2951E-03  0.3183E-03  0.3397E-03  0.3594E-03  0.3765E-03  0.3911E-03  0.4011E-03  0.4044E-03  0.4002E-03  0.3893E-03  0.3768E-03  0.3592E-03  0.3308E-03  0.2872E-03  0.2310E-03  0.1749E-03  0.1308E-03  0.1031E-03  0.8984E-04  0.8716E-04  0.9019E-04  0.9884E-04  0.1111E-03  0.1190E-03  0.1133E-03  0.9538E-04  0.7815E-04  0.6977E-04  0.6741E-04  0.6678E-04  0.6636E-04  0.7989E-04  0.1395E-03  0.1977E-03  0.1654E-03  0.1547E-03  0.2743E-03  0.4227E-03  0.4120E-03  0.2697E-03  0.1635E-03  0.1365E-03  0.1472E-03  0.1693E-03  0.1936E-03  0.2168E-03  0.2425E-03  0.2705E-03  0.2997E-03  0.3268E-03  0.3438E-03  0.3615E-03  0.3799E-03  0.3898E-03  0.3890E-03  0.3742E-03  0.3407E-03  0.2954E-03  0.2435E-03  0.1926E-03  0.1472E-03  0.1104E-03  0.8171E-04  0.5995E-04  0.4428E-04  0.3296E-04  0.2491E-04  0.1899E-04  0.1476E-04  0.1175E-04  0.9702E-05  0.8417E-05  0.7403E-05  0.6477E-05  0.5753E-05
  0.2065E-03  0.2467E-03  0.2845E-03  0.3182E-03  0.3441E-03  0.3587E-03  0.3681E-03  0.3737E-03  0.3777E-03  0.3797E-03  0.3807E-03  0.3789E-03  0.3718E-03  0.3571E-03  0.3326E-03  0.2963E-03  0.2476E-03  0.1953E-03  0.1504E-03  0.1176E-03  0.9794E-04  0.8813E-04  0.8635E-04  0.8826E-04  0.9542E-04  0.1069E-03  0.1169E-03  0.1163E-03  0.1025E-03  0.8377E-04  0.7114E-04  0.6599E-04  0.6494E-04  0.6459E-04  0.6451E-04  0.7445E-04  0.1216E-03  0.1892E-03  0.1834E-03  0.1412E-03  0.1847E-03  0.3229E-03  0.4293E-03  0.3837E-03  0.2536E-03  0.1672E-03  0.1462E-03  0.1594E-03  0.1804E-03  0.1975E-03  0.2161E-03  0.2396E-03  0.2658E-03  0.2865E-03  0.2988E-03  0.3088E-03  0.3212E-03  0.3320E-03  0.3358E-03  0.3301E-03  0.3100E-03  0.2759E-03  0.2330E-03  0.1878E-03  0.1458E-03  0.1108E-03  0.8289E-04  0.6159E-04  0.4562E-04  0.3405E-04  0.2577E-04  0.1979E-04  0.1533E-04  0.1215E-04  0.9912E-05  0.8559E-05  0.7522E-05  0.6579E-05  0.5831E-05
  0.2302E-03  0.2752E-03  0.3147E-03  0.3451E-03  0.3657E-03  0.3703E-03  0.3690E-03  0.3670E-03  0.3654E-03  0.3649E-03  0.3624E-03  0.3540E-03  0.3360E-03  0.3051E-03  0.2629E-03  0.2153E-03  0.1718E-03  0.1361E-03  0.1119E-03  0.9738E-04  0.8986E-04  0.8704E-04  0.8771E-04  0.9322E-04  0.1032E-03  0.1136E-03  0.1167E-03  0.1075E-03  0.8992E-04  0.7405E-04  0.6552E-04  0.6252E-04  0.6224E-04  0.6221E-04  0.6250E-04  0.6979E-04  0.1064E-03  0.1736E-03  0.1962E-03  0.1534E-03  0.1415E-03  0.2264E-03  0.3595E-03  0.4241E-03  0.3583E-03  0.2433E-03  0.1724E-03  0.1566E-03  0.1654E-03  0.1798E-03  0.1948E-03  0.2131E-03  0.2342E-03  0.2519E-03  0.2628E-03  0.2685E-03  0.2748E-03  0.2810E-03  0.2828E-03  0.2801E-03  0.2677E-03  0.2434E-03  0.2100E-03  0.1727E-03  0.1370E-03  0.1060E-03  0.8078E-04  0.6064E-04  0.4545E-04  0.3425E-04  0.2606E-04  0.2032E-04  0.1581E-04  0.1257E-04  0.1025E-04  0.8662E-05  0.7612E-05  0.6686E-05  0.5917E-05
  0.2428E-03  0.2882E-03  0.3257E-03  0.3504E-03  0.3631E-03  0.3642E-03  0.3603E-03  0.3574E-03  0.3540E-03  0.3483E-03  0.3349E-03  0.3108E-03  0.2761E-03  0.2339E-03  0.1923E-03  0.1564E-03  0.1294E-03  0.1119E-03  0.1001E-03  0.9534E-04  0.9208E-04  0.9085E-04  0.9356E-04  0.1013E-03  0.1108E-03  0.1158E-03  0.1106E-03  0.9561E-04  0.7844E-04  0.6637E-04  0.6098E-04  0.5956E-04  0.5955E-04  0.5983E-04  0.6043E-04  0.6594E-04  0.9418E-04  0.1556E-03  0.1977E-03  0.1708E-03  0.1334E-03  0.1631E-03  0.2685E-03  0.3827E-03  0.4120E-03  0.3372E-03  0.2363E-03  0.1776E-03  0.1603E-03  0.1651E-03  0.1769E-03  0.1912E-03  0.2084E-03  0.2237E-03  0.2333E-03  0.2373E-03  0.2406E-03  0.2423E-03  0.2414E-03  0.2371E-03  0.2267E-03  0.2083E-03  0.1825E-03  0.1532E-03  0.1241E-03  0.9807E-04  0.7573E-04  0.5789E-04  0.4408E-04  0.3363E-04  0.2601E-04  0.2036E-04  0.1603E-04  0.1283E-04  0.1052E-04  0.8822E-05  0.7672E-05  0.6740E-05  0.5965E-05
  0.2467E-03  0.2908E-03  0.3260E-03  0.3480E-03  0.3576E-03  0.3567E-03  0.3523E-03  0.3449E-03  0.3325E-03  0.3128E-03  0.2837E-03  0.2471E-03  0.2086E-03  0.1735E-03  0.1453E-03  0.1255E-03  0.1127E-03  0.1049E-03  0.1011E-03  0.9832E-04  0.9711E-04  0.9802E-04  0.1021E-03  0.1094E-03  0.1152E-03  0.1126E-03  0.1005E-03  0.8343E-04  0.6877E-04  0.6043E-04  0.5713E-04  0.5674E-04  0.5699E-04  0.5759E-04  0.5844E-04  0.6272E-04  0.8454E-04  0.1379E-03  0.1910E-03  0.1863E-03  0.1434E-03  0.1322E-03  0.1953E-03  0.3050E-03  0.3952E-03  0.3983E-03  0.3210E-03  0.2318E-03  0.1787E-03  0.1607E-03  0.1634E-03  0.1738E-03  0.1875E-03  0.2001E-03  0.2086E-03  0.2122E-03  0.2135E-03  0.2116E-03  0.2085E-03  0.2026E-03  0.1920E-03  0.1764E-03  0.1561E-03  0.1330E-03  0.1099E-03  0.8858E-04  0.6984E-04  0.5441E-04  0.4203E-04  0.3242E-04  0.2556E-04  0.2025E-04  0.1616E-04  0.1296E-04  0.1064E-04  0.8933E-05  0.7694E-05  0.6780E-05  0.6015E-05
  0.2445E-03  0.2877E-03  0.3221E-03  0.3435E-03  0.3531E-03  0.3467E-03  0.3339E-03  0.3139E-03  0.2876E-03  0.2553E-03  0.2199E-03  0.1863E-03  0.1576E-03  0.1360E-03  0.1213E-03  0.1119E-03  0.1065E-03  0.1034E-03  0.1011E-03  0.9999E-04  0.1003E-03  0.1022E-03  0.1057E-03  0.1098E-03  0.1112E-03  0.1046E-03  0.8868E-04  0.7243E-04  0.6108E-04  0.5573E-04  0.5387E-04  0.5409E-04  0.5464E-04  0.5549E-04  0.5663E-04  0.6020E-04  0.7735E-04  0.1220E-03  0.1790E-03  0.1951E-03  0.1595E-03  0.1277E-03  0.1490E-03  0.2305E-03  0.3345E-03  0.3999E-03  0.3841E-03  0.3063E-03  0.2251E-03  0.1772E-03  0.1597E-03  0.1611E-03  0.1701E-03  0.1797E-03  0.1869E-03  0.1900E-03  0.1902E-03  0.1874E-03  0.1821E-03  0.1746E-03  0.1641E-03  0.1502E-03  0.1332E-03  0.1148E-03  0.9643E-04  0.7896E-04  0.6345E-04  0.5026E-04  0.3955E-04  0.3108E-04  0.2479E-04  0.1985E-04  0.1601E-04  0.1300E-04  0.1076E-04  0.9040E-05  0.7766E-05  0.6830E-05  0.6031E-05
  0.2364E-03  0.2780E-03  0.3105E-03  0.3290E-03  0.3326E-03  0.3198E-03  0.2934E-03  0.2616E-03  0.2275E-03  0.1948E-03  0.1664E-03  0.1437E-03  0.1274E-03  0.1163E-03  0.1086E-03  0.1050E-03  0.1021E-03  0.1001E-03  0.9870E-04  0.9824E-04  0.9895E-04  0.1004E-03  0.1022E-03  0.1028E-03  0.9985E-04  0.9098E-04  0.7689E-04  0.6330E-04  0.5521E-04  0.5185E-04  0.5123E-04  0.5171E-04  0.5257E-04  0.5369E-04  0.5513E-04  0.5803E-04  0.7176E-04  0.1087E-03  0.1644E-03  0.1963E-03  0.1755E-03  0.1361E-03  0.1274E-03  0.1748E-03  0.2638E-03  0.3559E-03  0.3983E-03  0.3677E-03  0.2904E-03  0.2168E-03  0.1731E-03  0.1566E-03  0.1570E-03  0.1621E-03  0.1673E-03  0.1698E-03  0.1693E-03  0.1660E-03  0.1602E-03  0.1517E-03  0.1414E-03  0.1288E-03  0.1147E-03  0.9962E-04  0.8462E-04  0.7034E-04  0.5740E-04  0.4619E-04  0.3688E-04  0.2950E-04  0.2393E-04  0.1939E-04  0.1586E-04  0.1299E-04  0.1076E-04  0.9077E-05  0.7782E-05  0.6819E-05  0.6058E-05
  0.2203E-03  0.2575E-03  0.2847E-03  0.2963E-03  0.2907E-03  0.2700E-03  0.2361E-03  0.2033E-03  0.1732E-03  0.1486E-03  0.1305E-03  0.1179E-03  0.1096E-03  0.1044E-03  0.1013E-03  0.9849E-04  0.9635E-04  0.9468E-04  0.9361E-04  0.9324E-04  0.9351E-04  0.9383E-04  0.9368E-04  0.9190E-04  0.8697E-04  0.7820E-04  0.6687E-04  0.5665E-04  0.5068E-04  0.4866E-04  0.4888E-04  0.4969E-04  0.5074E-04  0.5211E-04  0.5383E-04  0.5633E-04  0.6756E-04  0.9771E-04  0.1493E-03  0.1912E-03  0.1879E-03  0.1502E-03  0.1239E-03  0.1399E-03  0.2036E-03  0.2927E-03  0.3688E-03  0.3911E-03  0.3496E-03  0.2744E-03  0.2071E-03  0.1674E-03  0.1515E-03  0.1490E-03  0.1505E-03  0.1519E-03  0.1506E-03  0.1470E-03  0.1407E-03  0.1329E-03  0.1225E-03  0.1116E-03  0.9929E-04  0.8710E-04  0.7466E-04  0.6264E-04  0.5174E-04  0.4234E-04  0.3435E-04  0.2807E-04  0.2286E-04  0.1880E-04  0.1551E-04  0.1289E-04  0.1077E-04  0.9117E-05  0.7821E-05  0.6815E-05  0.6058E-05
  0.1954E-03  0.2253E-03  0.2447E-03  0.2485E-03  0.2360E-03  0.2106E-03  0.1812E-03  0.1545E-03  0.1334E-03  0.1187E-03  0.1087E-03  0.1014E-03  0.9816E-04  0.9529E-04  0.9320E-04  0.9115E-04  0.8939E-04  0.8797E-04  0.8694E-04  0.8617E-04  0.8559E-04  0.8478E-04  0.8324E-04  0.8011E-04  0.7484E-04  0.6744E-04  0.5906E-04  0.5189E-04  0.4759E-04  0.4624E-04  0.4685E-04  0.4784E-04  0.4915E-04  0.5080E-04  0.5274E-04  0.5494E-04  0.6434E-04  0.8888E-04  0.1348E-03  0.1819E-03  0.1942E-03  0.1654E-03  0.1309E-03  0.1235E-03  0.1596E-03  0.2309E-03  0.3150E-03  0.3736E-03  0.3786E-03  0.3298E-03  0.2574E-03  0.1958E-03  0.1589E-03  0.1427E-03  0.1378E-03  0.1359E-03  0.1342E-03  0.1303E-03  0.1246E-03  0.1165E-03  0.1078E-03  0.9743E-04  0.8737E-04  0.7675E-04  0.6646E-04  0.5632E-04  0.4703E-04  0.3872E-04  0.3201E-04  0.2646E-04  0.2190E-04  0.1823E-04  0.1515E-04  0.1273E-04  0.1066E-04  0.9079E-05  0.7818E-05  0.6814E-05  0.6033E-05
  0.1644E-03  0.1860E-03  0.1976E-03  0.1961E-03  0.1816E-03  0.1600E-03  0.1375E-03  0.1204E-03  0.1081E-03  0.9978E-04  0.9417E-04  0.9144E-04  0.8887E-04  0.8683E-04  0.8493E-04  0.8332E-04  0.8188E-04  0.8054E-04  0.7937E-04  0.7818E-04  0.7698E-04  0.7524E-04  0.7284E-04  0.6935E-04  0.6460E-04  0.5875E-04  0.5279E-04  0.4782E-04  0.4497E-04  0.4418E-04  0.4503E-04  0.4627E-04  0.4776E-04  0.4957E-04  0.5167E-04  0.5405E-04  0.6171E-04  0.8156E-04  0.1215E-03  0.1699E-03  0.1945E-03  0.1784E-03  0.1418E-03  0.1204E-03  0.1311E-03  0.1816E-03  0.2562E-03  0.3295E-03  0.3713E-03  0.3620E-03  0.3088E-03  0.2398E-03  0.1829E-03  0.1481E-03  0.1312E-03  0.1240E-03  0.1197E-03  0.1154E-03  0.1100E-03  0.1029E-03  0.9477E-04  0.8624E-04  0.7735E-04  0.6841E-04  0.5954E-04  0.5075E-04  0.4286E-04  0.3571E-04  0.2992E-04  0.2496E-04  0.2101E-04  0.1759E-04  0.1475E-04  0.1249E-04  0.1057E-04  0.9005E-05  0.7764E-05  0.6779E-05  0.6032E-05
  0.1321E-03  0.1462E-03  0.1523E-03  0.1487E-03  0.1371E-03  0.1219E-03  0.1080E-03  0.9765E-04  0.9084E-04  0.8699E-04  0.8439E-04  0.8213E-04  0.8015E-04  0.7867E-04  0.7705E-04  0.7571E-04  0.7429E-04  0.7289E-04  0.7163E-04  0.7014E-04  0.6846E-04  0.6637E-04  0.6368E-04  0.6035E-04  0.5626E-04  0.5185E-04  0.4764E-04  0.4441E-04  0.4270E-04  0.4232E-04  0.4342E-04  0.4476E-04  0.4642E-04  0.4840E-04  0.5064E-04  0.5308E-04  0.5928E-04  0.7560E-04  0.1096E-03  0.1563E-03  0.1897E-03  0.1870E-03  0.1550E-03  0.1249E-03  0.1186E-03  0.1459E-03  0.2032E-03  0.2753E-03  0.3370E-03  0.3638E-03  0.3438E-03  0.2877E-03  0.2220E-03  0.1692E-03  0.1356E-03  0.1178E-03  0.1089E-03  0.1029E-03  0.9759E-04  0.9139E-04  0.8406E-04  0.7671E-04  0.6913E-04  0.6139E-04  0.5364E-04  0.4611E-04  0.3925E-04  0.3322E-04  0.2796E-04  0.2364E-04  0.1996E-04  0.1687E-04  0.1440E-04  0.1219E-04  0.1039E-04  0.8939E-05  0.7717E-05  0.6773E-05  0.6014E-05
  0.1026E-03  0.1114E-03  0.1144E-03  0.1114E-03  0.1040E-03  0.9524E-04  0.8737E-04  0.8158E-04  0.7914E-04  0.7717E-04  0.7551E-04  0.7394E-04  0.7255E-04  0.7119E-04  0.6974E-04  0.6851E-04  0.6710E-04  0.6571E-04  0.6430E-04  0.6271E-04  0.6084E-04  0.5866E-04  0.5598E-04  0.5303E-04  0.4978E-04  0.4653E-04  0.4365E-04  0.4161E-04  0.4056E-04  0.4075E-04  0.4183E-04  0.4334E-04  0.4516E-04  0.4721E-04  0.4950E-04  0.5196E-04  0.5713E-04  0.7042E-04  0.9905E-04  0.1426E-03  0.1814E-03  0.1906E-03  0.1673E-03  0.1335E-03  0.1150E-03  0.1230E-03  0.1622E-03  0.2234E-03  0.2899E-03  0.3392E-03  0.3527E-03  0.3243E-03  0.2669E-03  0.2041E-03  0.1550E-03  0.1234E-03  0.1051E-03  0.9441E-04  0.8725E-04  0.8146E-04  0.7538E-04  0.6883E-04  0.6217E-04  0.5544E-04  0.4853E-04  0.4202E-04  0.3596E-04  0.3081E-04  0.2620E-04  0.2237E-04  0.1904E-04  0.1624E-04  0.1388E-04  0.1185E-04  0.1022E-04  0.8789E-05  0.7667E-05  0.6747E-05  0.5982E-05
  0.7888E-04  0.8442E-04  0.8633E-04  0.8456E-04  0.8065E-04  0.7617E-04  0.7206E-04  0.7067E-04  0.6947E-04  0.6845E-04  0.6748E-04  0.6649E-04  0.6549E-04  0.6441E-04  0.6322E-04  0.6194E-04  0.6053E-04  0.5919E-04  0.5765E-04  0.5601E-04  0.5403E-04  0.5192E-04  0.4960E-04  0.4707E-04  0.4456E-04  0.4225E-04  0.4032E-04  0.3908E-04  0.3856E-04  0.3906E-04  0.4040E-04  0.4196E-04  0.4383E-04  0.4591E-04  0.4818E-04  0.5061E-04  0.5483E-04  0.6587E-04  0.8993E-04  0.1292E-03  0.1702E-03  0.1894E-03  0.1760E-03  0.1435E-03  0.1173E-03  0.1122E-03  0.1336E-03  0.1803E-03  0.2416E-03  0.3007E-03  0.3383E-03  0.3401E-03  0.3047E-03  0.2480E-03  0.1895E-03  0.1425E-03  0.1114E-03  0.9279E-04  0.8161E-04  0.7380E-04  0.6791E-04  0.6191E-04  0.5609E-04  0.5011E-04  0.4403E-04  0.3838E-04  0.3308E-04  0.2844E-04  0.2454E-04  0.2114E-04  0.1815E-04  0.1560E-04  0.1342E-04  0.1158E-04  0.1000E-04  0.8648E-05  0.7592E-05  0.6684E-05  0.5975E-05
  0.6142E-04  0.6511E-04  0.6672E-04  0.6632E-04  0.6474E-04  0.6300E-04  0.6194E-04  0.6148E-04  0.6110E-04  0.6072E-04  0.6029E-04  0.5977E-04  0.5906E-04  0.5822E-04  0.5723E-04  0.5609E-04  0.5482E-04  0.5332E-04  0.5184E-04  0.5017E-04  0.4836E-04  0.4642E-04  0.4436E-04  0.4228E-04  0.4033E-04  0.3876E-04  0.3748E-04  0.3675E-04  0.3661E-04  0.3748E-04  0.3889E-04  0.4052E-04  0.4238E-04  0.4446E-04  0.4667E-04  0.4905E-04  0.5254E-04  0.6168E-04  0.8169E-04  0.1162E-03  0.1569E-03  0.1829E-03  0.1781E-03  0.1504E-03  0.1224E-03  0.1094E-03  0.1170E-03  0.1484E-03  0.1997E-03  0.2590E-03  0.3098E-03  0.3324E-03  0.3235E-03  0.2857E-03  0.2300E-03  0.1741E-03  0.1292E-03  0.9960E-04  0.8122E-04  0.6981E-04  0.6181E-04  0.5618E-04  0.5079E-04  0.4559E-04  0.4029E-04  0.3521E-04  0.3063E-04  0.2652E-04  0.2300E-04  0.2001E-04  0.1726E-04  0.1497E-04  0.1293E-04  0.1122E-04  0.9805E-05  0.8528E-05  0.7503E-05  0.6637E-05  0.5913E-05
  0.4927E-04  0.5198E-04  0.5341E-04  0.5389E-04  0.5384E-04  0.5371E-04  0.5394E-04  0.5410E-04  0.5412E-04  0.5419E-04  0.5405E-04  0.5374E-04  0.5327E-04  0.5261E-04  0.5170E-04  0.5076E-04  0.4947E-04  0.4828E-04  0.4678E-04  0.4523E-04  0.4349E-04  0.4179E-04  0.4003E-04  0.3835E-04  0.3691E-04  0.3579E-04  0.3498E-04  0.3456E-04  0.3483E-04  0.3589E-04  0.3734E-04  0.3899E-04  0.4082E-04  0.4283E-04  0.4499E-04  0.4721E-04  0.4994E-04  0.5794E-04  0.7430E-04  0.1038E-03  0.1394E-03  0.1635E-03  0.1647E-03  0.1468E-03  0.1232E-03  0.1079E-03  0.1076E-03  0.1260E-03  0.1669E-03  0.2205E-03  0.2691E-03  0.3039E-03  0.3169E-03  0.3030E-03  0.2635E-03  0.2100E-03  0.1570E-03  0.1157E-03  0.8835E-04  0.7133E-04  0.6048E-04  0.5264E-04  0.4630E-04  0.4149E-04  0.3687E-04  0.3244E-04  0.2838E-04  0.2476E-04  0.2172E-04  0.1893E-04  0.1648E-04  0.1431E-04  0.1248E-04  0.1094E-04  0.9545E-05  0.8348E-05  0.7381E-05  0.6563E-05  0.5863E-05
  0.4078E-04  0.4312E-04  0.4464E-04  0.4551E-04  0.4629E-04  0.4689E-04  0.4749E-04  0.4802E-04  0.4839E-04  0.4855E-04  0.4865E-04  0.4845E-04  0.4812E-04  0.4751E-04  0.4685E-04  0.4588E-04  0.4482E-04  0.4367E-04  0.4228E-04  0.4096E-04  0.3944E-04  0.3793E-04  0.3646E-04  0.3513E-04  0.3407E-04  0.3325E-04  0.3262E-04  0.3258E-04  0.3318E-04  0.3434E-04  0.3577E-04  0.3740E-04  0.3915E-04  0.4105E-04  0.4305E-04  0.4518E-04  0.4745E-04  0.5488E-04  0.6892E-04  0.9235E-04  0.1198E-03  0.1399E-03  0.1445E-03  0.1345E-03  0.1179E-03  0.1042E-03  0.1011E-03  0.1131E-03  0.1434E-03  0.1870E-03  0.2303E-03  0.2660E-03  0.2892E-03  0.2945E-03  0.2769E-03  0.2378E-03  0.1877E-03  0.1393E-03  0.1030E-03  0.7865E-04  0.6247E-04  0.5186E-04  0.4426E-04  0.3848E-04  0.3379E-04  0.2990E-04  0.2639E-04  0.2312E-04  0.2045E-04  0.1789E-04  0.1570E-04  0.1372E-04  0.1207E-04  0.1056E-04  0.9290E-05  0.8208E-05  0.7253E-05  0.6445E-05  0.5775E-05
  0.3464E-04  0.3671E-04  0.3829E-04  0.3950E-04  0.4069E-04  0.4164E-04  0.4239E-04  0.4309E-04  0.4352E-04  0.4386E-04  0.4399E-04  0.4397E-04  0.4367E-04  0.4326E-04  0.4254E-04  0.4176E-04  0.4078E-04  0.3968E-04  0.3860E-04  0.3731E-04  0.3600E-04  0.3472E-04  0.3354E-04  0.3243E-04  0.3159E-04  0.3098E-04  0.3068E-04  0.3086E-04  0.3162E-04  0.3276E-04  0.3416E-04  0.3570E-04  0.3737E-04  0.3914E-04  0.4099E-04  0.4297E-04  0.4569E-04  0.5196E-04  0.6345E-04  0.8091E-04  0.1009E-03  0.1163E-03  0.1216E-03  0.1170E-03  0.1069E-03  0.9730E-04  0.9507E-04  0.1049E-03  0.1284E-03  0.1625E-03  0.1970E-03  0.2262E-03  0.2494E-03  0.2650E-03  0.2668E-03  0.2485E-03  0.2076E-03  0.1613E-03  0.1205E-03  0.8940E-04  0.6737E-04  0.5299E-04  0.4336E-04  0.3649E-04  0.3142E-04  0.2759E-04  0.2449E-04  0.2163E-04  0.1926E-04  0.1695E-04  0.1495E-04  0.1320E-04  0.1161E-04  0.1019E-04  0.9064E-05  0.7986E-05  0.7097E-05  0.6329E-05  0.5689E-05
  0.3024E-04  0.3194E-04  0.3358E-04  0.3493E-04  0.3622E-04  0.3727E-04  0.3814E-04  0.3889E-04  0.3947E-04  0.3980E-04  0.4004E-04  0.3998E-04  0.3983E-04  0.3939E-04  0.3878E-04  0.3808E-04  0.3718E-04  0.3623E-04  0.3530E-04  0.3418E-04  0.3307E-04  0.3200E-04  0.3101E-04  0.3016E-04  0.2949E-04  0.2900E-04  0.2889E-04  0.2928E-04  0.3006E-04  0.3116E-04  0.3248E-04  0.3389E-04  0.3545E-04  0.3707E-04  0.3877E-04  0.4054E-04  0.4333E-04  0.4841E-04  0.5729E-04  0.6990E-04  0.8365E-04  0.9464E-04  0.9973E-04  0.9854E-04  0.9368E-04  0.8874E-04  0.8887E-04  0.9848E-04  0.1172E-03  0.1418E-03  0.1678E-03  0.1889E-03  0.2067E-03  0.2241E-03  0.2373E-03  0.2326E-03  0.2090E-03  0.1723E-03  0.1329E-03  0.9869E-04  0.7265E-04  0.5491E-04  0.4326E-04  0.3529E-04  0.2979E-04  0.2576E-04  0.2275E-04  0.2039E-04  0.1811E-04  0.1605E-04  0.1421E-04  0.1259E-04  0.1112E-04  0.9909E-05  0.8753E-05  0.7765E-05  0.6939E-05  0.6198E-05  0.5565E-05
  0.2697E-04  0.2850E-04  0.2993E-04  0.3131E-04  0.3247E-04  0.3357E-04  0.3447E-04  0.3523E-04  0.3580E-04  0.3624E-04  0.3642E-04  0.3650E-04  0.3633E-04  0.3597E-04  0.3553E-04  0.3483E-04  0.3406E-04  0.3330E-04  0.3243E-04  0.3148E-04  0.3050E-04  0.2965E-04  0.2884E-04  0.2813E-04  0.2752E-04  0.2723E-04  0.2726E-04  0.2772E-04  0.2846E-04  0.2948E-04  0.3071E-04  0.3203E-04  0.3341E-04  0.3488E-04  0.3641E-04  0.3804E-04  0.4056E-04  0.4466E-04  0.5116E-04  0.5970E-04  0.6903E-04  0.7671E-04  0.8115E-04  0.8193E-04  0.8058E-04  0.7963E-04  0.8221E-04  0.9101E-04  0.1062E-03  0.1244E-03  0.1418E-03  0.1560E-03  0.1677E-03  0.1824E-03  0.1973E-03  0.2036E-03  0.1933E-03  0.1674E-03  0.1339E-03  0.1013E-03  0.7471E-04  0.5553E-04  0.4266E-04  0.3413E-04  0.2822E-04  0.2416E-04  0.2121E-04  0.1910E-04  0.1704E-04  0.1519E-04  0.1355E-04  0.1201E-04  0.1068E-04  0.9508E-05  0.8468E-05  0.7531E-05  0.6732E-05  0.6055E-05  0.5455E-05
