DSAA
          79         109
    318.3670    342.0670
   7336.5760   7369.2760
  0.0000E+00  0.3480E-03
  0.0000E+00  0.0000E+00  0.0000E+00  0.0000E+00  0.0000E+00  0.0000E+00  0.0000E+00  0.0000E+00  0.0000E+00  0.0000E+00  0.0000E+00  0.0000E+00  0.0000E+00  0.0000E+00  0.0000E+00  0.0000E+00  0.0000E+00  0.0000E+00  0.0000E+00  0.0000E+00  0.0000E+00  0.0000E+00  0.0000E+00  0.0000E+00  0.0000E+00  0.0000E+00  0.0000E+00  0.0000E+00  0.0000E+00  0.0000E+00  0.0000E+00  0.0000E+00  0.0000E+00  0.0000E+00  0.0000E+00  0.0000E+00  0.0000E+00  0.0000E+00  0.0000E+00  0.0000E+00  0.0000E+00  0.0000E+00  0.0000E+00  0.0000E+00  0.0000E+00  0.0000E+00  0.0000E+00  0.0000E+00  0.0000E+00  0.0000E+00  0.0000E+00  0.0000E+00  0.0000E+00  0.0000E+00  0.0000E+00  0.0000E+00  0.0000E+00  0.0000E+00  0.0000E+00  0.0000E+00  0.0000E+00  0.0000E+00  0.0000E+00  0.0000E+00  0.0000E+00  0.0000E+00  0.0000E+00  0.0000E+00  0.0000E+00  0.0000E+00  0.0000E+00  0.0000E+00  0.0000E+00  0.0000E+00  0.0000E+00  0.0000E+00  0.0000E+00  0.0000E+00  0.0000E+00
  0.0000E+00  0.0000E+00  0.0000E+00  0.0000E+00  0.0000E+00  0.0000E+00  0.0000E+00  0.0000E+00  0.0000E+00  0.0000E+00  0.0000E+00  0.0000E+00  0.0000E+00  0.0000E+00  0.0000E+00  0.0000E+00  0.0000E+00  0.0000E+00  0.0000E+00  0.0000E+00  0.0000E+00  0.0000E+00  0.0000E+00  0.0000E+00  0.0000E+00  0.0000E+00  0.0000E+00  0.0000E+00  0.0000E+00  0.0000E+00  0.0000E+00  0.0000E+00  0.0000E+00  0.0000E+00  0.0000E+00  0.0000E+00  0.0000E+00  0.0000E+00  0.0000E+00  0.0000E+00  0.0000E+00  0.0000E+00  0.0000E+00  0.0000E+00  0.0000E+00  0.0000E+00  0.0000E+00  0.0000E+00  0.0000E+00  0.0000E+00  0.0000E+00  0.0000E+00  0.0000E+00  0.0000E+00  0.0000E+00  0.0000E+00  0.0000E+00  0.0000E+00  0.0000E+00  0.0000E+00  0.0000E+00  0.0000E+00  0.0000E+00  0.0000E+00  0.0000E+00  0.0000E+00  0.0000E+00  0.0000E+00  0.0000E+00  0.0000E+00  0.0000E+00  0.0000E+00  0.0000E+00  0.0000E+00  0.0000E+00  0.0000E+00  0.0000E+00  0.0000E+00  0.0000E+00
  0.0000E+00  0.0000E+00  0.0000E+00  0.0000E+00  0.0000E+00  0.0000E+00  0.0000E+00  0.0000E+00  0.0000E+00  0.0000E+00  0.0000E+00  0.0000E+00  0.0000E+00  0.0000E+00  0.0000E+00  0.0000E+00  0.0000E+00  0.0000E+00  0.0000E+00  0.0000E+00  0.0000E+00  0.0000E+00  0.0000E+00  0.0000E+00  0.0000E+00  0.0000E+00  0.0000E+00  0.0000E+00  0.0000E+00  0.0000E+00  0.0000E+00  0.0000E+00  0.0000E+00  0.0000E+00  0.0000E+00  0.0000E+00  0.0000E+00  0.0000E+00  0.0000E+00  0.0000E+00  0.0000E+00  0.0000E+00  0.0000E+00  0.0000E+00  0.0000E+00  0.0000E+00  0.0000E+00  0.0000E+00  0.0000E+00  0.0000E+00  0.0000E+00  0.0000E+00  0.0000E+00  0.0000E+00  0.0000E+00  0.0000E+00  0.0000E+00  0.0000E+00  0.0000E+00  0.0000E+00  0.0000E+00  0.0000E+00  0.0000E+00  0.0000E+00  0.0000E+00  0.0000E+00  0.0000E+00  0.0000E+00  0.0000E+00  0.0000E+00  0.0000E+00  0.0000E+00  0.0000E+00  0.0000E+00  0.0000E+00  0.0000E+00  0.0000E+00  0.0000E+00  0.0000E+00
  0.0000E+00  0.0000E+00  0.0000E+00  0.0000E+00  0.0000E+00  0.0000E+00  0.0000E+00  0.0000E+00  0.0000E+00  0.0000E+00  0.0000E+00  0.0000E+00  0.0000E+00  0.0000E+00  0.0000E+00  0.0000E+00  0.0000E+00  0.0000E+00  0.0000E+00  0.0000E+00  0.0000E+00  0.0000E+00  0.0000E+00  0.0000E+00  0.0000E+00  0.0000E+00  0.0000E+00  0.0000E+00  0.0000E+00  0.0000E+00  0.0000E+00  0.0000E+00  0.0000E+00  0.0000E+00  0.0000E+00  0.0000E+00  0.0000E+00  0.0000E+00  0.0000E+00  0.0000E+00  0.0000E+00  0.0000E+00  0.0000E+00  0.0000E+00  0.0000E+00  0.0000E+00  0.0000E+00  0.0000E+00  0.0000E+00  0.0000E+00  0.0000E+00  0.0000E+00  0.0000E+00  0.0000E+00  0.0000E+00  0.0000E+00  0.0000E+00  0.0000E+00  0.0000E+00  0.0000E+00  0.0000E+00  0.0000E+00  0.0000E+00  0.0000E+00  0.0000E+00  0.0000E+00  0.0000E+00  0.0000E+00  0.0000E+00  0.0000E+00  0.0000E+00  0.0000E+00  0.0000E+00  0.0000E+00  0.0000E+00  0.0000E+00  0.0000E+00  0.0000E+00  0.0000E+00
  0.0000E+00  0.0000E+00  0.0000E+00  0.0000E+00  0.0000E+00  0.0000E+00  0.0000E+00  0.0000E+00  0.0000E+00  0.0000E+00  0.0000E+00  0.0000E+00  0.0000E+00  0.0000E+00  0.0000E+00  0.0000E+00  0.0000E+00  0.0000E+00  0.0000E+00  0.0000E+00  0.0000E+00  0.0000E+00  0.0000E+00  0.0000E+00  0.0000E+00  0.0000E+00  0.0000E+00  0.0000E+00  0.0000E+00  0.0000E+00  0.0000E+00  0.0000E+00  0.0000E+00  0.0000E+00  0.0000E+00  0.0000E+00  0.0000E+00  0.0000E+00  0.0000E+00  0.0000E+00  0.0000E+00  0.0000E+00  0.0000E+00  0.0000E+00  0.0000E+00  0.0000E+00  0.0000E+00  0.0000E+00  0.0000E+00  0.0000E+00  0.0000E+00  0.0000E+00  0.0000E+00  0.0000E+00  0.0000E+00  0.0000E+00  0.0000E+00  0.0000E+00  0.0000E+00  0.0000E+00  0.0000E+00  0.0000E+00  0.0000E+00  0.0000E+00  0.0000E+00  0.0000E+00  0.0000E+00  0.0000E+00  0.0000E+00  0.0000E+00  0.0000E+00  0.0000E+00  0.0000E+00  0.0000E+00  0.0000E+00  0.0000E+00  0.0000E+00  0.0000E+00  0.0000E+00
  0.0000E+00  0.0000E+00  0.0000E+00  0.0000E+00  0.0000E+00  0.0000E+00  0.0000E+00  0.0000E+00  0.0000E+00  0.0000E+00  0.0000E+00  0.0000E+00  0.0000E+00  0.0000E+00  0.0000E+00  0.0000E+00  0.0000E+00  0.0000E+00  0.0000E+00  0.0000E+00  0.0000E+00  0.0000E+00  0.0000E+00  0.0000E+00  0.0000E+00  0.0000E+00  0.0000E+00  0.0000E+00  0.0000E+00  0.0000E+00  0.0000E+00  0.0000E+00  0.0000E+00  0.0000E+00  0.0000E+00  0.0000E+00  0.0000E+00  0.0000E+00  0.0000E+00  0.0000E+00  0.0000E+00  0.0000E+00  0.0000E+00  0.0000E+00  0.0000E+00  0.0000E+00  0.0000E+00  0.0000E+00  0.0000E+00  0.0000E+00  0.0000E+00  0.0000E+00  0.0000E+00  0.0000E+00  0.0000E+00  0.0000E+00  0.0000E+00  0.0000E+00  0.0000E+00  0.0000E+00  0.0000E+00  0.0000E+00  0.0000E+00  0.0000E+00  0.0000E+00  0.0000E+00  0.0000E+00  0.0000E+00  0.0000E+00  0.0000E+00  0.0000E+00  0.0000E+00  0.0000E+00  0.0000E+00  0.0000E+00  0.0000E+00  0.0000E+00  0.0000E+00  0.0000E+00
  0.0000E+00  0.0000E+00  0.0000E+00  0.0000E+00  0.0000E+00  0.0000E+00  0.0000E+00  0.0000E+00  0.0000E+00  0.0000E+00  0.0000E+00  0.0000E+00  0.0000E+00  0.0000E+00  0.0000E+00  0.0000E+00  0.0000E+00  0.0000E+00  0.0000E+00  0.0000E+00  0.0000E+00  0.0000E+00  0.0000E+00  0.0000E+00  0.0000E+00  0.0000E+00  0.0000E+00  0.0000E+00  0.0000E+00  0.0000E+00  0.0000E+00  0.0000E+00  0.0000E+00  0.0000E+00  0.0000E+00  0.0000E+00  0.0000E+00  0.0000E+00  0.0000E+00  0.0000E+00  0.0000E+00  0.0000E+00  0.0000E+00  0.0000E+00  0.0000E+00  0.0000E+00  0.0000E+00  0.0000E+00  0.0000E+00  0.0000E+00  0.0000E+00  0.0000E+00  0.0000E+00  0.0000E+00  0.0000E+00  0.0000E+00  0.0000E+00  0.0000E+00  0.0000E+00  0.0000E+00  0.0000E+00  0.0000E+00  0.0000E+00  0.0000E+00  0.0000E+00  0.0000E+00  0.0000E+00  0.0000E+00  0.0000E+00  0.0000E+00  0.0000E+00  0.0000E+00  0.0000E+00  0.0000E+00  0.0000E+00  0.0000E+00  0.0000E+00  0.0000E+00  0.0000E+00
  0.0000E+00  0.0000E+00  0.0000E+00  0.0000E+00  0.0000E+00  0.0000E+00  0.0000E+00  0.0000E+00  0.0000E+00  0.0000E+00  0.0000E+00  0.0000E+00  0.0000E+00  0.0000E+00  0.0000E+00  0.0000E+00  0.0000E+00  0.0000E+00  0.0000E+00  0.0000E+00  0.0000E+00  0.0000E+00  0.0000E+00  0.0000E+00  0.0000E+00  0.0000E+00  0.0000E+00  0.0000E+00  0.0000E+00  0.0000E+00  0.0000E+00  0.0000E+00  0.0000E+00  0.0000E+00  0.0000E+00  0.0000E+00  0.0000E+00  0.0000E+00  0.0000E+00  0.0000E+00  0.0000E+00  0.0000E+00  0.0000E+00  0.0000E+00  0.0000E+00  0.0000E+00  0.0000E+00  0.0000E+00  0.0000E+00  0.0000E+00  0.0000E+00  0.0000E+00  0.0000E+00  0.0000E+00  0.0000E+00  0.0000E+00  0.0000E+00  0.0000E+00  0.0000E+00  0.0000E+00  0.0000E+00  0.0000E+00  0.0000E+00  0.0000E+00  0.0000E+00  0.0000E+00  0.0000E+00  0.0000E+00  0.0000E+00  0.0000E+00  0.0000E+00  0.0000E+00  0.0000E+00  0.0000E+00  0.0000E+00  0.0000E+00  0.0000E+00  0.0000E+00  0.0000E+00
  0.0000E+00  0.0000E+00  0.0000E+00  0.0000E+00  0.0000E+00  0.0000E+00  0.0000E+00  0.0000E+00  0.0000E+00  0.0000E+00  0.0000E+00  0.0000E+00  0.0000E+00  0.0000E+00  0.0000E+00  0.0000E+00  0.0000E+00  0.0000E+00  0.0000E+00  0.0000E+00  0.0000E+00  0.0000E+00  0.0000E+00  0.0000E+00  0.0000E+00  0.0000E+00  0.0000E+00  0.0000E+00  0.0000E+00  0.0000E+00  0.0000E+00  0.0000E+00  0.0000E+00  0.0000E+00  0.0000E+00  0.0000E+00  0.0000E+00  0.0000E+00  0.0000E+00  0.0000E+00  0.0000E+00  0.0000E+00  0.0000E+00  0.0000E+00  0.0000E+00  0.0000E+00  0.0000E+00  0.0000E+00  0.0000E+00  0.0000E+00  0.0000E+00  0.0000E+00  0.0000E+00  0.0000E+00  0.0000E+00  0.0000E+00  0.0000E+00  0.0000E+00  0.0000E+00  0.0000E+00  0.0000E+00  0.0000E+00  0.0000E+00  0.0000E+00  0.0000E+00  0.0000E+00  0.0000E+00  0.0000E+00  0.0000E+00  0.0000E+00  0.0000E+00  0.0000E+00  0.0000E+00  0.0000E+00  0.0000E+00  0.0000E+00  0.0000E+00  0.0000E+00  0.0000E+00
  0.0000E+00  0.0000E+00  0.0000E+00  0.0000E+00  0.0000E+00  0.0000E+00  0.0000E+00  0.0000E+00  0.0000E+00  0.0000E+00  0.0000E+00  0.0000E+00  0.0000E+00  0.0000E+00  0.0000E+00  0.0000E+00  0.0000E+00  0.0000E+00  0.0000E+00  0.0000E+00  0.0000E+00  0.0000E+00  0.0000E+00  0.0000E+00  0.0000E+00  0.0000E+00  0.0000E+00  0.0000E+00  0.0000E+00  0.0000E+00  0.0000E+00  0.0000E+00  0.0000E+00  0.0000E+00  0.0000E+00  0.0000E+00  0.0000E+00  0.0000E+00  0.0000E+00  0.0000E+00  0.0000E+00  0.0000E+00  0.0000E+00  0.0000E+00  0.0000E+00  0.0000E+00  0.0000E+00  0.0000E+00  0.0000E+00  0.0000E+00  0.0000E+00  0.0000E+00  0.0000E+00  0.0000E+00  0.0000E+00  0.0000E+00  0.0000E+00  0.0000E+00  0.0000E+00  0.0000E+00  0.0000E+00  0.0000E+00  0.0000E+00  0.0000E+00  0.0000E+00  0.0000E+00  0.0000E+00  0.0000E+00  0.0000E+00  0.0000E+00  0.0000E+00  0.0000E+00  0.0000E+00  0.0000E+00  0.0000E+00  0.0000E+00  0.0000E+00  0.0000E+00  0.0000E+00
  0.0000E+00  0.0000E+00  0.0000E+00  0.0000E+00  0.0000E+00  0.0000E+00  0.0000E+00  0.0000E+00  0.0000E+00  0.0000E+00  0.0000E+00  0.0000E+00  0.0000E+00  0.0000E+00  0.0000E+00  0.0000E+00  0.0000E+00  0.0000E+00  0.0000E+00  0.0000E+00  0.0000E+00  0.0000E+00  0.0000E+00  0.0000E+00  0.0000E+00  0.0000E+00  0.0000E+00  0.0000E+00  0.0000E+00  0.0000E+00  0.0000E+00  0.0000E+00  0.0000E+00  0.0000E+00  0.0000E+00  0.0000E+00  0.0000E+00  0.0000E+00  0.0000E+00  0.0000E+00  0.0000E+00  0.0000E+00  0.0000E+00  0.0000E+00  0.0000E+00  0.0000E+00  0.0000E+00  0.0000E+00  0.0000E+00  0.0000E+00  0.0000E+00  0.0000E+00  0.0000E+00  0.0000E+00  0.0000E+00  0.0000E+00  0.0000E+00  0.0000E+00  0.0000E+00  0.0000E+00  0.0000E+00  0.0000E+00  0.0000E+00  0.0000E+00  0.0000E+00  0.0000E+00  0.0000E+00  0.0000E+00  0.0000E+00  0.0000E+00  0.0000E+00  0.0000E+00  0.0000E+00  0.0000E+00  0.0000E+00  0.0000E+00  0.0000E+00  0.0000E+00  0.0000E+00
  0.0000E+00  0.0000E+00  0.0000E+00  0.0000E+00  0.0000E+00  0.0000E+00  0.0000E+00  0.0000E+00  0.0000E+00  0.0000E+00  0.0000E+00  0.0000E+00  0.0000E+00  0.0000E+00  0.0000E+00  0.0000E+00  0.0000E+00  0.0000E+00  0.0000E+00  0.0000E+00  0.0000E+00  0.0000E+00  0.0000E+00  0.0000E+00  0.0000E+00  0.0000E+00  0.0000E+00  0.0000E+00  0.0000E+00  0.0000E+00  0.0000E+00  0.0000E+00  0.0000E+00  0.0000E+00  0.0000E+00  0.0000E+00  0.0000E+00  0.0000E+00  0.0000E+00  0.0000E+00  0.0000E+00  0.0000E+00  0.0000E+00  0.0000E+00  0.0000E+00  0.0000E+00  0.0000E+00  0.0000E+00  0.0000E+00  0.0000E+00  0.0000E+00  0.0000E+00  0.0000E+00  0.0000E+00  0.0000E+00  0.0000E+00  0.0000E+00  0.0000E+00  0.0000E+00  0.0000E+00  0.0000E+00  0.0000E+00  0.0000E+00  0.0000E+00  0.0000E+00  0.0000E+00  0.0000E+00  0.0000E+00  0.0000E+00  0.0000E+00  0.0000E+00  0.0000E+00  0.0000E+00  0.0000E+00  0.0000E+00  0.0000E+00  0.0000E+00  0.0000E+00  0.0000E+00
  0.0000E+00  0.0000E+00  0.0000E+00  0.0000E+00  0.0000E+00  0.0000E+00  0.0000E+00  0.0000E+00  0.0000E+00  0.0000E+00  0.0000E+00  0.0000E+00  0.0000E+00  0.0000E+00  0.0000E+00  0.0000E+00  0.0000E+00  0.0000E+00  0.0000E+00  0.0000E+00  0.0000E+00  0.0000E+00  0.0000E+00  0.0000E+00  0.0000E+00  0.0000E+00  0.0000E+00  0.0000E+00  0.0000E+00  0.0000E+00  0.0000E+00  0.0000E+00  0.0000E+00  0.0000E+00  0.0000E+00  0.0000E+00  0.0000E+00  0.0000E+00  0.0000E+00  0.0000E+00  0.0000E+00  0.0000E+00  0.0000E+00  0.0000E+00  0.0000E+00  0.0000E+00  0.0000E+00  0.0000E+00  0.0000E+00  0.0000E+00  0.0000E+00  0.0000E+00  0.0000E+00  0.0000E+00  0.0000E+00  0.0000E+00  0.0000E+00  0.0000E+00  0.0000E+00  0.0000E+00  0.0000E+00  0.0000E+00  0.0000E+00  0.0000E+00  0.0000E+00  0.0000E+00  0.0000E+00  0.0000E+00  0.0000E+00  0.0000E+00  0.0000E+00  0.0000E+00  0.0000E+00  0.0000E+00  0.0000E+00  0.0000E+00  0.0000E+00  0.0000E+00  0.0000E+00
  0.0000E+00  0.0000E+00  0.0000E+00  0.0000E+00  0.0000E+00  0.0000E+00  0.0000E+00  0.0000E+00  0.0000E+00  0.0000E+00  0.0000E+00  0.0000E+00  0.0000E+00  0.0000E+00  0.0000E+00  0.0000E+00  0.0000E+00  0.0000E+00  0.0000E+00  0.0000E+00  0.0000E+00  0.0000E+00  0.0000E+00  0.0000E+00  0.0000E+00  0.0000E+00  0.0000E+00  0.0000E+00  0.0000E+00  0.0000E+00  0.0000E+00  0.0000E+00  0.0000E+00  0.0000E+00  0.0000E+00  0.0000E+00  0.0000E+00  0.0000E+00  0.0000E+00  0.0000E+00  0.0000E+00  0.0000E+00  0.0000E+00  0.0000E+00  0.0000E+00  0.0000E+00  0.0000E+00  0.0000E+00  0.0000E+00  0.0000E+00  0.0000E+00  0.0000E+00  0.0000E+00  0.0000E+00  0.0000E+00  0.0000E+00  0.0000E+00  0.0000E+00  0.0000E+00  0.0000E+00  0.0000E+00  0.0000E+00  0.0000E+00  0.0000E+00  0.0000E+00  0.0000E+00  0.0000E+00  0.0000E+00  0.0000E+00  0.0000E+00  0.0000E+00  0.0000E+00  0.0000E+00  0.0000E+00  0.0000E+00  0.0000E+00  0.0000E+00  0.0000E+00  0.0000E+00
  0.0000E+00  0.0000E+00  0.0000E+00  0.0000E+00  0.0000E+00  0.0000E+00  0.0000E+00  0.0000E+00  0.0000E+00  0.0000E+00  0.0000E+00  0.0000E+00  0.0000E+00  0.0000E+00  0.0000E+00  0.0000E+00  0.0000E+00  0.0000E+00  0.0000E+00  0.0000E+00  0.0000E+00  0.0000E+00  0.0000E+00  0.0000E+00  0.0000E+00  0.0000E+00  0.0000E+00  0.0000E+00  0.0000E+00  0.0000E+00  0.0000E+00  0.0000E+00  0.0000E+00  0.0000E+00  0.0000E+00  0.0000E+00  0.0000E+00  0.0000E+00  0.0000E+00  0.0000E+00  0.0000E+00  0.0000E+00  0.0000E+00  0.0000E+00  0.0000E+00  0.0000E+00  0.0000E+00  0.0000E+00  0.0000E+00  0.0000E+00  0.0000E+00  0.0000E+00  0.0000E+00  0.0000E+00  0.0000E+00  0.0000E+00  0.0000E+00  0.0000E+00  0.0000E+00  0.0000E+00  0.0000E+00  0.0000E+00  0.0000E+00  0.0000E+00  0.0000E+00  0.0000E+00  0.0000E+00  0.0000E+00  0.0000E+00  0.0000E+00  0.0000E+00  0.0000E+00  0.0000E+00  0.0000E+00  0.0000E+00  0.0000E+00  0.0000E+00  0.0000E+00  0.0000E+00
  0.0000E+00  0.0000E+00  0.0000E+00  0.0000E+00  0.0000E+00  0.0000E+00  0.0000E+00  0.0000E+00  0.0000E+00  0.0000E+00  0.0000E+00  0.0000E+00  0.0000E+00  0.0000E+00  0.0000E+00  0.0000E+00  0.0000E+00  0.0000E+00  0.0000E+00  0.0000E+00  0.0000E+00  0.0000E+00  0.0000E+00  0.0000E+00  0.0000E+00  0.0000E+00  0.0000E+00  0.0000E+00  0.0000E+00  0.0000E+00  0.0000E+00  0.0000E+00  0.0000E+00  0.0000E+00  0.0000E+00  0.0000E+00  0.0000E+00  0.0000E+00  0.0000E+00  0.0000E+00  0.0000E+00  0.0000E+00  0.0000E+00  0.0000E+00  0.0000E+00  0.0000E+00  0.0000E+00  0.0000E+00  0.0000E+00  0.0000E+00  0.0000E+00  0.0000E+00  0.0000E+00  0.0000E+00  0.0000E+00  0.0000E+00  0.0000E+00  0.0000E+00  0.0000E+00  0.0000E+00  0.0000E+00  0.0000E+00  0.0000E+00  0.0000E+00  0.0000E+00  0.0000E+00  0.0000E+00  0.0000E+00  0.0000E+00  0.0000E+00  0.0000E+00  0.0000E+00  0.0000E+00  0.0000E+00  0.0000E+00  0.0000E+00  0.0000E+00  0.0000E+00  0.0000E+00
  0.0000E+00  0.0000E+00  0.0000E+00  0.0000E+00  0.0000E+00  0.0000E+00  0.0000E+00  0.0000E+00  0.0000E+00  0.0000E+00  0.0000E+00  0.0000E+00  0.0000E+00  0.0000E+00  0.0000E+00  0.0000E+00  0.0000E+00  0.0000E+00  0.0000E+00  0.0000E+00  0.0000E+00  0.0000E+00  0.0000E+00  0.0000E+00  0.0000E+00  0.0000E+00  0.0000E+00  0.0000E+00  0.0000E+00  0.0000E+00  0.0000E+00  0.0000E+00  0.0000E+00  0.0000E+00  0.0000E+00  0.0000E+00  0.0000E+00  0.0000E+00  0.0000E+00  0.0000E+00  0.0000E+00  0.0000E+00  0.0000E+00  0.0000E+00  0.0000E+00  0.0000E+00  0.0000E+00  0.0000E+00  0.0000E+00  0.0000E+00  0.0000E+00  0.0000E+00  0.0000E+00  0.0000E+00  0.0000E+00  0.0000E+00  0.0000E+00  0.0000E+00  0.0000E+00  0.0000E+00  0.0000E+00  0.0000E+00  0.0000E+00  0.0000E+00  0.0000E+00  0.0000E+00  0.0000E+00  0.0000E+00  0.0000E+00  0.0000E+00  0.0000E+00  0.0000E+00  0.0000E+00  0.0000E+00  0.0000E+00  0.0000E+00  0.0000E+00  0.0000E+00  0.0000E+00
  0.0000E+00  0.0000E+00  0.0000E+00  0.0000E+00  0.0000E+00  0.0000E+00  0.0000E+00  0.0000E+00  0.0000E+00  0.0000E+00  0.0000E+00  0.0000E+00  0.0000E+00  0.0000E+00  0.0000E+00  0.0000E+00  0.0000E+00  0.0000E+00  0.0000E+00  0.0000E+00  0.0000E+00  0.0000E+00  0.0000E+00  0.0000E+00  0.0000E+00  0.0000E+00  0.0000E+00  0.0000E+00  0.0000E+00  0.0000E+00  0.0000E+00  0.0000E+00  0.0000E+00  0.0000E+00  0.0000E+00  0.0000E+00  0.0000E+00  0.0000E+00  0.0000E+00  0.0000E+00  0.0000E+00  0.0000E+00  0.0000E+00  0.0000E+00  0.0000E+00  0.0000E+00  0.0000E+00  0.0000E+00  0.0000E+00  0.0000E+00  0.0000E+00  0.0000E+00  0.0000E+00  0.0000E+00  0.0000E+00  0.0000E+00  0.0000E+00  0.0000E+00  0.0000E+00  0.0000E+00  0.0000E+00  0.0000E+00  0.0000E+00  0.0000E+00  0.0000E+00  0.0000E+00  0.0000E+00  0.0000E+00  0.0000E+00  0.0000E+00  0.0000E+00  0.0000E+00  0.0000E+00  0.0000E+00  0.0000E+00  0.0000E+00  0.0000E+00  0.0000E+00  0.0000E+00
  0.0000E+00  0.0000E+00  0.0000E+00  0.0000E+00  0.0000E+00  0.0000E+00  0.0000E+00  0.0000E+00  0.0000E+00  0.0000E+00  0.0000E+00  0.0000E+00  0.0000E+00  0.0000E+00  0.0000E+00  0.0000E+00  0.0000E+00  0.0000E+00  0.0000E+00  0.0000E+00  0.0000E+00  0.0000E+00  0.0000E+00  0.0000E+00  0.0000E+00  0.0000E+00  0.0000E+00  0.0000E+00  0.0000E+00  0.0000E+00  0.0000E+00  0.0000E+00  0.0000E+00  0.0000E+00  0.0000E+00  0.0000E+00  0.0000E+00  0.0000E+00  0.0000E+00  0.0000E+00  0.0000E+00  0.0000E+00  0.0000E+00  0.0000E+00  0.0000E+00  0.0000E+00  0.0000E+00  0.0000E+00  0.0000E+00  0.0000E+00  0.0000E+00  0.0000E+00  0.0000E+00  0.0000E+00  0.0000E+00  0.0000E+00  0.0000E+00  0.0000E+00  0.0000E+00  0.0000E+00  0.0000E+00  0.0000E+00  0.0000E+00  0.0000E+00  0.0000E+00  0.0000E+00  0.0000E+00  0.0000E+00  0.0000E+00  0.0000E+00  0.0000E+00  0.0000E+00  0.0000E+00  0.0000E+00  0.0000E+00  0.0000E+00  0.0000E+00  0.0000E+00  0.0000E+00
  0.0000E+00  0.0000E+00  0.0000E+00  0.0000E+00  0.0000E+00  0.0000E+00  0.0000E+00  0.0000E+00  0.0000E+00  0.0000E+00  0.0000E+00  0.0000E+00  0.0000E+00  0.0000E+00  0.0000E+00  0.0000E+00  0.0000E+00  0.0000E+00  0.0000E+00  0.0000E+00  0.0000E+00  0.0000E+00  0.0000E+00  0.0000E+00  0.0000E+00  0.0000E+00  0.0000E+00  0.0000E+00  0.0000E+00  0.0000E+00  0.0000E+00  0.0000E+00  0.0000E+00  0.0000E+00  0.0000E+00  0.0000E+00  0.0000E+00  0.0000E+00  0.0000E+00  0.0000E+00  0.0000E+00  0.0000E+00  0.0000E+00  0.0000E+00  0.0000E+00  0.0000E+00  0.0000E+00  0.0000E+00  0.0000E+00  0.0000E+00  0.0000E+00  0.0000E+00  0.0000E+00  0.0000E+00  0.0000E+00  0.0000E+00  0.0000E+00  0.0000E+00  0.0000E+00  0.0000E+00  0.0000E+00  0.0000E+00  0.0000E+00  0.0000E+00  0.0000E+00  0.0000E+00  0.0000E+00  0.0000E+00  0.0000E+00  0.0000E+00  0.0000E+00  0.0000E+00  0.0000E+00  0.0000E+00  0.0000E+00  0.0000E+00  0.0000E+00  0.0000E+00  0.0000E+00
  0.0000E+00  0.0000E+00  0.0000E+00  0.0000E+00  0.0000E+00  0.0000E+00  0.0000E+00  0.0000E+00  0.0000E+00  0.0000E+00  0.0000E+00  0.0000E+00  0.0000E+00  0.0000E+00  0.0000E+00  0.0000E+00  0.0000E+00  0.0000E+00  0.0000E+00  0.0000E+00  0.0000E+00  0.0000E+00  0.0000E+00  0.0000E+00  0.0000E+00  0.0000E+00  0.0000E+00  0.0000E+00  0.0000E+00  0.0000E+00  0.0000E+00  0.0000E+00  0.0000E+00  0.0000E+00  0.0000E+00  0.0000E+00  0.0000E+00  0.0000E+00  0.0000E+00  0.0000E+00  0.0000E+00  0.0000E+00  0.0000E+00  0.0000E+00  0.0000E+00  0.0000E+00  0.0000E+00  0.0000E+00  0.0000E+00  0.0000E+00  0.0000E+00  0.0000E+00  0.0000E+00  0.0000E+00  0.0000E+00  0.0000E+00  0.0000E+00  0.0000E+00  0.0000E+00  0.0000E+00  0.0000E+00  0.0000E+00  0.0000E+00  0.0000E+00  0.0000E+00  0.0000E+00  0.0000E+00  0.0000E+00  0.0000E+00  0.0000E+00  0.0000E+00  0.0000E+00  0.0000E+00  0.0000E+00  0.0000E+00  0.0000E+00  0.0000E+00  0.0000E+00  0.0000E+00
  0.0000E+00  0.0000E+00  0.0000E+00  0.0000E+00  0.0000E+00  0.0000E+00  0.0000E+00  0.0000E+00  0.0000E+00  0.0000E+00  0.0000E+00  0.0000E+00  0.0000E+00  0.0000E+00  0.0000E+00  0.0000E+00  0.0000E+00  0.0000E+00  0.0000E+00  0.0000E+00  0.0000E+00  0.0000E+00  0.0000E+00  0.0000E+00  0.0000E+00  0.0000E+00  0.0000E+00  0.0000E+00  0.0000E+00  0.0000E+00  0.0000E+00  0.0000E+00  0.0000E+00  0.0000E+00  0.0000E+00  0.0000E+00  0.0000E+00  0.0000E+00  0.0000E+00  0.0000E+00  0.0000E+00  0.0000E+00  0.0000E+00  0.0000E+00  0.0000E+00  0.0000E+00  0.0000E+00  0.0000E+00  0.0000E+00  0.0000E+00  0.0000E+00  0.0000E+00  0.0000E+00  0.0000E+00  0.0000E+00  0.0000E+00  0.0000E+00  0.0000E+00  0.0000E+00  0.0000E+00  0.0000E+00  0.0000E+00  0.0000E+00  0.0000E+00  0.0000E+00  0.0000E+00  0.0000E+00  0.0000E+00  0.0000E+00  0.0000E+00  0.0000E+00  0.0000E+00  0.0000E+00  0.0000E+00  0.0000E+00  0.0000E+00  0.0000E+00  0.0000E+00  0.0000E+00
  0.0000E+00  0.0000E+00  0.0000E+00  0.0000E+00  0.0000E+00  0.0000E+00  0.0000E+00  0.0000E+00  0.0000E+00  0.0000E+00  0.0000E+00  0.0000E+00  0.0000E+00  0.0000E+00  0.0000E+00  0.0000E+00  0.0000E+00  0.0000E+00  0.0000E+00  0.0000E+00  0.0000E+00  0.0000E+00  0.0000E+00  0.0000E+00  0.0000E+00  0.0000E+00  0.0000E+00  0.0000E+00  0.0000E+00  0.0000E+00  0.0000E+00  0.0000E+00  0.0000E+00  0.0000E+00  0.0000E+00  0.0000E+00  0.0000E+00  0.0000E+00  0.0000E+00  0.0000E+00  0.0000E+00  0.0000E+00  0.0000E+00  0.0000E+00  0.0000E+00  0.0000E+00  0.0000E+00  0.0000E+00  0.0000E+00  0.0000E+00  0.0000E+00  0.0000E+00  0.0000E+00  0.0000E+00  0.0000E+00  0.0000E+00  0.0000E+00  0.0000E+00  0.0000E+00  0.0000E+00  0.0000E+00  0.0000E+00  0.0000E+00  0.0000E+00  0.0000E+00  0.0000E+00  0.0000E+00  0.0000E+00  0.0000E+00  0.0000E+00  0.0000E+00  0.0000E+00  0.0000E+00  0.0000E+00  0.0000E+00  0.0000E+00  0.0000E+00  0.0000E+00  0.0000E+00
  0.0000E+00  0.0000E+00  0.0000E+00  0.0000E+00  0.0000E+00  0.0000E+00  0.0000E+00  0.0000E+00  0.0000E+00  0.0000E+00  0.0000E+00  0.0000E+00  0.0000E+00  0.0000E+00  0.0000E+00  0.0000E+00  0.0000E+00  0.0000E+00  0.0000E+00  0.0000E+00  0.0000E+00  0.0000E+00  0.0000E+00  0.0000E+00  0.0000E+00  0.0000E+00  0.0000E+00  0.0000E+00  0.0000E+00  0.0000E+00  0.0000E+00  0.0000E+00  0.0000E+00  0.0000E+00  0.0000E+00  0.0000E+00  0.0000E+00  0.0000E+00  0.0000E+00  0.0000E+00  0.0000E+00  0.0000E+00  0.0000E+00  0.0000E+00  0.0000E+00  0.0000E+00  0.0000E+00  0.0000E+00  0.0000E+00  0.0000E+00  0.0000E+00  0.0000E+00  0.0000E+00  0.0000E+00  0.0000E+00  0.0000E+00  0.0000E+00  0.0000E+00  0.0000E+00  0.0000E+00  0.0000E+00  0.0000E+00  0.0000E+00  0.0000E+00  0.0000E+00  0.0000E+00  0.0000E+00  0.0000E+00  0.0000E+00  0.0000E+00  0.0000E+00  0.0000E+00  0.0000E+00  0.0000E+00  0.0000E+00  0.0000E+00  0.0000E+00  0.0000E+00  0.0000E+00
  0.0000E+00  0.0000E+00  0.0000E+00  0.0000E+00  0.0000E+00  0.0000E+00  0.0000E+00  0.0000E+00  0.0000E+00  0.0000E+00  0.0000E+00  0.0000E+00  0.0000E+00  0.0000E+00  0.0000E+00  0.0000E+00  0.0000E+00  0.0000E+00  0.0000E+00  0.0000E+00  0.0000E+00  0.0000E+00  0.0000E+00  0.0000E+00  0.0000E+00  0.0000E+00  0.0000E+00  0.0000E+00  0.0000E+00  0.0000E+00  0.0000E+00  0.0000E+00  0.0000E+00  0.0000E+00  0.0000E+00  0.0000E+00  0.0000E+00  0.0000E+00  0.0000E+00  0.0000E+00  0.0000E+00  0.0000E+00  0.0000E+00  0.0000E+00  0.0000E+00  0.0000E+00  0.0000E+00  0.0000E+00  0.0000E+00  0.0000E+00  0.0000E+00  0.0000E+00  0.0000E+00  0.0000E+00  0.0000E+00  0.0000E+00  0.0000E+00  0.0000E+00  0.0000E+00  0.0000E+00  0.0000E+00  0.0000E+00  0.0000E+00  0.0000E+00  0.0000E+00  0.0000E+00  0.0000E+00  0.0000E+00  0.0000E+00  0.0000E+00  0.0000E+00  0.0000E+00  0.0000E+00  0.0000E+00  0.0000E+00  0.0000E+00  0.0000E+00  0.0000E+00  0.0000E+00
  0.0000E+00  0.0000E+00  0.0000E+00  0.0000E+00  0.0000E+00  0.0000E+00  0.0000E+00  0.0000E+00  0.0000E+00  0.0000E+00  0.0000E+00  0.0000E+00  0.0000E+00  0.0000E+00  0.0000E+00  0.0000E+00  0.0000E+00  0.0000E+00  0.0000E+00  0.0000E+00  0.0000E+00  0.0000E+00  0.0000E+00  0.0000E+00  0.0000E+00  0.0000E+00  0.0000E+00  0.0000E+00  0.0000E+00  0.0000E+00  0.0000E+00  0.0000E+00  0.0000E+00  0.0000E+00  0.0000E+00  0.0000E+00  0.0000E+00  0.0000E+00  0.0000E+00  0.0000E+00  0.0000E+00  0.0000E+00  0.0000E+00  0.0000E+00  0.0000E+00  0.0000E+00  0.0000E+00  0.0000E+00  0.0000E+00  0.0000E+00  0.0000E+00  0.0000E+00  0.0000E+00  0.0000E+00  0.0000E+00  0.0000E+00  0.0000E+00  0.0000E+00  0.0000E+00  0.0000E+00  0.0000E+00  0.0000E+00  0.0000E+00  0.0000E+00  0.0000E+00  0.0000E+00  0.0000E+00  0.0000E+00  0.0000E+00  0.0000E+00  0.0000E+00  0.0000E+00  0.0000E+00  0.0000E+00  0.0000E+00  0.0000E+00  0.0000E+00  0.0000E+00  0.0000E+00
  0.0000E+00  0.0000E+00  0.0000E+00  0.0000E+00  0.0000E+00  0.0000E+00  0.0000E+00  0.0000E+00  0.0000E+00  0.0000E+00  0.0000E+00  0.0000E+00  0.0000E+00  0.0000E+00  0.0000E+00  0.0000E+00  0.0000E+00  0.0000E+00  0.0000E+00  0.0000E+00  0.0000E+00  0.0000E+00  0.0000E+00  0.0000E+00  0.0000E+00  0.0000E+00  0.0000E+00  0.0000E+00  0.0000E+00  0.0000E+00  0.0000E+00  0.0000E+00  0.0000E+00  0.0000E+00  0.0000E+00  0.0000E+00  0.0000E+00  0.0000E+00  0.0000E+00  0.0000E+00  0.0000E+00  0.0000E+00  0.0000E+00  0.0000E+00  0.0000E+00  0.0000E+00  0.0000E+00  0.0000E+00  0.0000E+00  0.0000E+00  0.0000E+00  0.0000E+00  0.0000E+00  0.0000E+00  0.0000E+00  0.0000E+00  0.0000E+00  0.0000E+00  0.0000E+00  0.0000E+00  0.0000E+00  0.0000E+00  0.0000E+00  0.0000E+00  0.0000E+00  0.0000E+00  0.0000E+00  0.0000E+00  0.0000E+00  0.0000E+00  0.0000E+00  0.0000E+00  0.0000E+00  0.0000E+00  0.0000E+00  0.0000E+00  0.0000E+00  0.0000E+00  0.0000E+00
  0.0000E+00  0.0000E+00  0.0000E+00  0.0000E+00  0.0000E+00  0.0000E+00  0.0000E+00  0.0000E+00  0.0000E+00  0.0000E+00  0.0000E+00  0.0000E+00  0.0000E+00  0.0000E+00  0.0000E+00  0.0000E+00  0.0000E+00  0.0000E+00  0.0000E+00  0.0000E+00  0.0000E+00  0.0000E+00  0.0000E+00  0.0000E+00  0.0000E+00  0.0000E+00  0.0000E+00  0.0000E+00  0.0000E+00  0.0000E+00  0.0000E+00  0.0000E+00  0.0000E+00  0.0000E+00  0.0000E+00  0.0000E+00  0.0000E+00  0.0000E+00  0.0000E+00  0.0000E+00  0.0000E+00  0.0000E+00  0.0000E+00  0.0000E+00  0.0000E+00  0.0000E+00  0.0000E+00  0.0000E+00  0.0000E+00  0.0000E+00  0.0000E+00  0.0000E+00  0.0000E+00  0.0000E+00  0.0000E+00  0.0000E+00  0.0000E+00  0.0000E+00  0.0000E+00  0.0000E+00  0.0000E+00  0.0000E+00  0.0000E+00  0.0000E+00  0.0000E+00  0.0000E+00  0.0000E+00  0.0000E+00  0.0000E+00  0.0000E+00  0.0000E+00  0.0000E+00  0.0000E+00  0.0000E+00  0.0000E+00  0.0000E+00  0.0000E+00  0.0000E+00  0.0000E+00
  0.0000E+00  0.0000E+00  0.0000E+00  0.0000E+00  0.0000E+00  0.0000E+00  0.0000E+00  0.0000E+00  0.0000E+00  0.0000E+00  0.0000E+00  0.0000E+00  0.0000E+00  0.0000E+00  0.0000E+00  0.0000E+00  0.0000E+00  0.0000E+00  0.0000E+00  0.0000E+00  0.0000E+00  0.0000E+00  0.0000E+00  0.0000E+00  0.0000E+00  0.0000E+00  0.0000E+00  0.0000E+00  0.0000E+00  0.0000E+00  0.0000E+00  0.0000E+00  0.0000E+00  0.0000E+00  0.0000E+00  0.0000E+00  0.0000E+00  0.0000E+00  0.0000E+00  0.0000E+00  0.0000E+00  0.0000E+00  0.0000E+00  0.0000E+00  0.0000E+00  0.0000E+00  0.0000E+00  0.0000E+00  0.0000E+00  0.0000E+00  0.0000E+00  0.0000E+00  0.0000E+00  0.0000E+00  0.0000E+00  0.0000E+00  0.0000E+00  0.0000E+00  0.0000E+00  0.0000E+00  0.0000E+00  0.0000E+00  0.0000E+00  0.0000E+00  0.0000E+00  0.0000E+00  0.0000E+00  0.0000E+00  0.0000E+00  0.0000E+00  0.0000E+00  0.0000E+00  0.0000E+00  0.0000E+00  0.0000E+00  0.0000E+00  0.0000E+00  0.0000E+00  0.0000E+00
  0.0000E+00  0.0000E+00  0.0000E+00  0.0000E+00  0.0000E+00  0.0000E+00  0.0000E+00  0.0000E+00  0.0000E+00  0.0000E+00  0.0000E+00  0.0000E+00  0.0000E+00  0.0000E+00  0.0000E+00  0.0000E+00  0.0000E+00  0.0000E+00  0.0000E+00  0.0000E+00  0.0000E+00  0.0000E+00  0.0000E+00  0.0000E+00  0.0000E+00  0.0000E+00  0.0000E+00  0.0000E+00  0.0000E+00  0.0000E+00  0.0000E+00  0.0000E+00  0.0000E+00  0.0000E+00  0.0000E+00  0.0000E+00  0.0000E+00  0.0000E+00  0.0000E+00  0.0000E+00  0.0000E+00  0.0000E+00  0.0000E+00  0.0000E+00  0.0000E+00  0.0000E+00  0.0000E+00  0.0000E+00  0.0000E+00  0.0000E+00  0.0000E+00  0.0000E+00  0.0000E+00  0.0000E+00  0.0000E+00  0.0000E+00  0.0000E+00  0.0000E+00  0.0000E+00  0.0000E+00  0.0000E+00  0.0000E+00  0.0000E+00  0.0000E+00  0.0000E+00  0.0000E+00  0.0000E+00  0.0000E+00  0.0000E+00  0.0000E+00  0.0000E+00  0.0000E+00  0.0000E+00  0.0000E+00  0.0000E+00  0.0000E+00  0.0000E+00  0.0000E+00  0.0000E+00
  0.0000E+00  0.0000E+00  0.0000E+00  0.0000E+00  0.0000E+00  0.0000E+00  0.0000E+00  0.0000E+00  0.0000E+00  0.0000E+00  0.0000E+00  0.0000E+00  0.0000E+00  0.0000E+00  0.0000E+00  0.0000E+00  0.0000E+00  0.0000E+00  0.0000E+00  0.0000E+00  0.0000E+00  0.0000E+00  0.0000E+00  0.0000E+00  0.0000E+00  0.0000E+00  0.0000E+00  0.0000E+00  0.0000E+00  0.0000E+00  0.0000E+00  0.0000E+00  0.0000E+00  0.0000E+00  0.0000E+00  0.0000E+00  0.0000E+00  0.0000E+00  0.0000E+00  0.0000E+00  0.0000E+00  0.0000E+00  0.0000E+00  0.0000E+00  0.0000E+00  0.0000E+00  0.0000E+00  0.0000E+00  0.0000E+00  0.0000E+00  0.0000E+00  0.0000E+00  0.0000E+00  0.0000E+00  0.0000E+00  0.0000E+00  0.0000E+00  0.0000E+00  0.0000E+00  0.0000E+00  0.0000E+00  0.0000E+00  0.0000E+00  0.0000E+00  0.0000E+00  0.0000E+00  0.0000E+00  0.0000E+00  0.0000E+00  0.0000E+00  0.0000E+00  0.0000E+00  0.0000E+00  0.0000E+00  0.0000E+00  0.0000E+00  0.0000E+00  0.0000E+00  0.0000E+00
  0.0000E+00  0.0000E+00  0.0000E+00  0.0000E+00  0.0000E+00  0.0000E+00  0.0000E+00  0.0000E+00  0.0000E+00  0.0000E+00  0.0000E+00  0.0000E+00  0.0000E+00  0.0000E+00  0.0000E+00  0.0000E+00  0.0000E+00  0.0000E+00  0.1776E-08  0.2567E-08  0.1779E-08  0.9720E-09  0.0000E+00  0.0000E+00  0.0000E+00  0.0000E+00  0.0000E+00  0.0000E+00  0.0000E+00  0.0000E+00  0.0000E+00  0.0000E+00  0.0000E+00  0.0000E+00  0.0000E+00  0.0000E+00  0.0000E+00  0.0000E+00  0.0000E+00  0.0000E+00  0.0000E+00  0.0000E+00  0.0000E+00  0.0000E+00  0.0000E+00  0.0000E+00  0.0000E+00  0.0000E+00  0.0000E+00  0.0000E+00  0.0000E+00  0.2812E-09  0.2855E-09  0.5666E-09  0.5722E-09  0.5763E-09  0.5789E-09  0.5800E-09  0.5796E-09  0.5776E-09  0.5742E-09  0.5693E-09  0.2872E-09  0.2832E-09  0.0000E+00  0.0000E+00  0.0000E+00  0.0000E+00  0.0000E+00  0.0000E+00  0.0000E+00  0.0000E+00  0.0000E+00  0.0000E+00  0.0000E+00  0.0000E+00  0.0000E+00  0.0000E+00  0.0000E+00
  0.0000E+00  0.0000E+00  0.0000E+00  0.1713E-08  0.4175E-08  0.6192E-08  0.9509E-08  0.1504E-07  0.2027E-07  0.2438E-07  0.2698E-07  0.2988E-07  0.3312E-07  0.3800E-07  0.4193E-07  0.4485E-07  0.4440E-07  0.4329E-07  0.4143E-07  0.4006E-07  0.3788E-07  0.3626E-07  0.3376E-07  0.2936E-07  0.2624E-07  0.2398E-07  0.2018E-07  0.1457E-07  0.9429E-08  0.6415E-08  0.3377E-08  0.1501E-09  0.0000E+00  0.0000E+00  0.0000E+00  0.0000E+00  0.0000E+00  0.0000E+00  0.0000E+00  0.0000E+00  0.0000E+00  0.0000E+00  0.0000E+00  0.0000E+00  0.0000E+00  0.2829E-09  0.5724E-09  0.8661E-09  0.1186E-08  0.1507E-08  0.2128E-08  0.2168E-08  0.2504E-08  0.2538E-08  0.3176E-08  0.3204E-08  0.3223E-08  0.3233E-08  0.3234E-08  0.3227E-08  0.3211E-08  0.3186E-08  0.3153E-08  0.2507E-08  0.2467E-08  0.2127E-08  0.1498E-08  0.1462E-08  0.8708E-09  0.2870E-09  0.0000E+00  0.0000E+00  0.0000E+00  0.0000E+00  0.0000E+00  0.0000E+00  0.0000E+00  0.0000E+00  0.0000E+00
  0.8645E-08  0.1280E-07  0.1965E-07  0.2642E-07  0.3305E-07  0.3900E-07  0.4307E-07  0.4632E-07  0.4743E-07  0.4817E-07  0.4899E-07  0.4958E-07  0.5008E-07  0.5065E-07  0.5115E-07  0.5139E-07  0.5153E-07  0.5158E-07  0.5154E-07  0.5140E-07  0.5117E-07  0.5084E-07  0.5043E-07  0.4992E-07  0.4933E-07  0.4866E-07  0.4775E-07  0.4521E-07  0.4176E-07  0.3771E-07  0.3077E-07  0.2435E-07  0.1787E-07  0.1115E-07  0.5711E-08  0.2586E-08  0.0000E+00  0.0000E+00  0.0000E+00  0.0000E+00  0.0000E+00  0.2827E-09  0.5783E-09  0.1179E-08  0.1517E-08  0.2166E-08  0.2540E-08  0.3230E-08  0.3631E-08  0.4030E-08  0.4452E-08  0.4868E-08  0.4955E-08  0.5693E-08  0.5766E-08  0.6160E-08  0.6205E-08  0.6233E-08  0.6243E-08  0.6566E-08  0.6211E-08  0.6168E-08  0.6109E-08  0.6033E-08  0.5609E-08  0.5507E-08  0.4746E-08  0.4316E-08  0.3575E-08  0.3165E-08  0.2466E-08  0.2090E-08  0.1163E-08  0.5656E-09  0.0000E+00  0.0000E+00  0.0000E+00  0.0000E+00  0.0000E+00
  0.3417E-07  0.4075E-07  0.4522E-07  0.4823E-07  0.4958E-07  0.5088E-07  0.5195E-07  0.5312E-07  0.5422E-07  0.5507E-07  0.5600E-07  0.5668E-07  0.5743E-07  0.5809E-07  0.5847E-07  0.5875E-07  0.5910E-07  0.5916E-07  0.5912E-07  0.5897E-07  0.5871E-07  0.5834E-07  0.5787E-07  0.5729E-07  0.5662E-07  0.5568E-07  0.5482E-07  0.5387E-07  0.5268E-07  0.5140E-07  0.5024E-07  0.4884E-07  0.4525E-07  0.4135E-07  0.3489E-07  0.2686E-07  0.1804E-07  0.9641E-08  0.4470E-08  0.1015E-08  0.1494E-08  0.1853E-08  0.2549E-08  0.3271E-08  0.3715E-08  0.4493E-08  0.4976E-08  0.5800E-08  0.6311E-08  0.6818E-08  0.7348E-08  0.7867E-08  0.8737E-08  0.8888E-08  0.9383E-08  0.9849E-08  0.1032E-07  0.1038E-07  0.1042E-07  0.1080E-07  0.1077E-07  0.1071E-07  0.1024E-07  0.1012E-07  0.9976E-08  0.9069E-08  0.8882E-08  0.8320E-08  0.7403E-08  0.6845E-08  0.5958E-08  0.5110E-08  0.4276E-08  0.3491E-08  0.2450E-08  0.1476E-08  0.5716E-09  0.0000E+00  0.0000E+00
  0.5011E-07  0.5179E-07  0.5343E-07  0.5501E-07  0.5655E-07  0.5803E-07  0.5927E-07  0.6077E-07  0.6185E-07  0.6300E-07  0.6389E-07  0.6485E-07  0.6571E-07  0.6628E-07  0.6672E-07  0.6724E-07  0.6744E-07  0.6753E-07  0.6748E-07  0.6731E-07  0.6702E-07  0.6661E-07  0.6607E-07  0.6542E-07  0.6465E-07  0.6377E-07  0.6279E-07  0.6153E-07  0.6035E-07  0.5909E-07  0.5758E-07  0.5598E-07  0.5434E-07  0.5281E-07  0.5106E-07  0.4928E-07  0.4543E-07  0.4031E-07  0.3218E-07  0.2214E-07  0.1383E-07  0.8300E-08  0.4633E-08  0.5494E-08  0.6408E-08  0.6997E-08  0.7972E-08  0.8964E-08  0.9618E-08  0.1027E-07  0.1131E-07  0.1196E-07  0.1263E-07  0.1326E-07  0.1387E-07  0.1448E-07  0.1463E-07  0.1516E-07  0.1523E-07  0.1566E-07  0.1607E-07  0.1600E-07  0.1588E-07  0.1488E-07  0.1468E-07  0.1443E-07  0.1373E-07  0.1303E-07  0.1228E-07  0.1154E-07  0.1042E-07  0.9336E-08  0.8260E-08  0.7236E-08  0.5923E-08  0.4686E-08  0.3528E-08  0.2454E-08  0.1466E-08
  0.5702E-07  0.5893E-07  0.6080E-07  0.6260E-07  0.6435E-07  0.6603E-07  0.6763E-07  0.6915E-07  0.7039E-07  0.7171E-07  0.7291E-07  0.7401E-07  0.7480E-07  0.7565E-07  0.7617E-07  0.7656E-07  0.7680E-07  0.7730E-07  0.7732E-07  0.7714E-07  0.7682E-07  0.7641E-07  0.7580E-07  0.7506E-07  0.7406E-07  0.7306E-07  0.7174E-07  0.7050E-07  0.6916E-07  0.6753E-07  0.6599E-07  0.6420E-07  0.6225E-07  0.6060E-07  0.5933E-07  0.5806E-07  0.5641E-07  0.5503E-07  0.5373E-07  0.5019E-07  0.4476E-07  0.3597E-07  0.2563E-07  0.1665E-07  0.1191E-07  0.1045E-07  0.1163E-07  0.1243E-07  0.1367E-07  0.1450E-07  0.1576E-07  0.1659E-07  0.1743E-07  0.1823E-07  0.2054E-07  0.2088E-07  0.2270E-07  0.2444E-07  0.2464E-07  0.2475E-07  0.2477E-07  0.2471E-07  0.2457E-07  0.2435E-07  0.2405E-07  0.2367E-07  0.2322E-07  0.2123E-07  0.1917E-07  0.1819E-07  0.1568E-07  0.1429E-07  0.1335E-07  0.1163E-07  0.1036E-07  0.8790E-08  0.7310E-08  0.5928E-08  0.4647E-08
  0.6476E-07  0.6693E-07  0.6904E-07  0.7110E-07  0.7309E-07  0.7500E-07  0.7681E-07  0.7854E-07  0.8016E-07  0.8147E-07  0.8304E-07  0.8409E-07  0.8526E-07  0.8602E-07  0.8669E-07  0.8735E-07  0.8799E-07  0.8812E-07  0.8822E-07  0.8809E-07  0.8780E-07  0.8729E-07  0.8661E-07  0.8584E-07  0.8485E-07  0.8378E-07  0.8258E-07  0.8097E-07  0.7922E-07  0.7758E-07  0.7562E-07  0.7420E-07  0.7240E-07  0.7115E-07  0.6955E-07  0.6804E-07  0.6646E-07  0.6488E-07  0.6341E-07  0.6197E-07  0.6046E-07  0.5918E-07  0.5454E-07  0.4783E-07  0.3602E-07  0.2691E-07  0.1983E-07  0.1710E-07  0.1818E-07  0.1967E-07  0.2188E-07  0.2562E-07  0.2635E-07  0.2701E-07  0.2919E-07  0.3131E-07  0.3332E-07  0.3373E-07  0.3404E-07  0.3422E-07  0.3428E-07  0.3423E-07  0.3405E-07  0.3376E-07  0.3335E-07  0.3283E-07  0.3220E-07  0.2999E-07  0.2769E-07  0.2533E-07  0.2451E-07  0.2364E-07  0.2271E-07  0.1880E-07  0.1603E-07  0.1403E-07  0.1214E-07  0.1036E-07  0.8708E-08
  0.7337E-07  0.7583E-07  0.7823E-07  0.8056E-07  0.8282E-07  0.8499E-07  0.8705E-07  0.8902E-07  0.9086E-07  0.9262E-07  0.9426E-07  0.9559E-07  0.9693E-07  0.9788E-07  0.9894E-07  0.9972E-07  0.1002E-06  0.1005E-06  0.1008E-06  0.1006E-06  0.1003E-06  0.9981E-07  0.9913E-07  0.9819E-07  0.9708E-07  0.9587E-07  0.9420E-07  0.9260E-07  0.9086E-07  0.8905E-07  0.8743E-07  0.8628E-07  0.8460E-07  0.8284E-07  0.8113E-07  0.7970E-07  0.7807E-07  0.7597E-07  0.7470E-07  0.7297E-07  0.7145E-07  0.7007E-07  0.6863E-07  0.6735E-07  0.6440E-07  0.5916E-07  0.4762E-07  0.3876E-07  0.3206E-07  0.2976E-07  0.3242E-07  0.3507E-07  0.3614E-07  0.3872E-07  0.4121E-07  0.4358E-07  0.4431E-07  0.4489E-07  0.4531E-07  0.4557E-07  0.4567E-07  0.4560E-07  0.4537E-07  0.4498E-07  0.4443E-07  0.4372E-07  0.4134E-07  0.4040E-07  0.3781E-07  0.3514E-07  0.3398E-07  0.3275E-07  0.2994E-07  0.2716E-07  0.2441E-07  0.2322E-07  0.2053E-07  0.1601E-07  0.1388E-07
  0.8296E-07  0.8574E-07  0.8865E-07  0.9131E-07  0.9387E-07  0.9639E-07  0.9881E-07  0.1008E-06  0.1030E-06  0.1051E-06  0.1071E-06  0.1088E-06  0.1101E-06  0.1115E-06  0.1127E-06  0.1135E-06  0.1142E-06  0.1146E-06  0.1147E-06  0.1148E-06  0.1144E-06  0.1138E-06  0.1131E-06  0.1121E-06  0.1109E-06  0.1095E-06  0.1079E-06  0.1058E-06  0.1045E-06  0.1034E-06  0.1016E-06  0.9938E-07  0.9806E-07  0.9651E-07  0.9458E-07  0.9238E-07  0.9076E-07  0.8902E-07  0.8704E-07  0.8537E-07  0.8410E-07  0.8247E-07  0.8062E-07  0.7959E-07  0.8071E-07  0.8027E-07  0.8186E-07  0.7647E-07  0.6723E-07  0.5659E-07  0.4905E-07  0.4644E-07  0.4953E-07  0.5251E-07  0.5535E-07  0.5649E-07  0.5745E-07  0.5822E-07  0.5877E-07  0.5912E-07  0.5924E-07  0.5915E-07  0.5884E-07  0.5832E-07  0.5759E-07  0.5665E-07  0.5399E-07  0.5273E-07  0.4978E-07  0.4673E-07  0.4516E-07  0.4348E-07  0.4022E-07  0.3542E-07  0.3377E-07  0.3208E-07  0.2739E-07  0.2437E-07  0.2294E-07
  0.9362E-07  0.9677E-07  0.1001E-06  0.1031E-06  0.1061E-06  0.1091E-06  0.1118E-06  0.1145E-06  0.1168E-06  0.1194E-06  0.1214E-06  0.1234E-06  0.1254E-06  0.1267E-06  0.1281E-06  0.1291E-06  0.1296E-06  0.1306E-06  0.1307E-06  0.1306E-06  0.1304E-06  0.1297E-06  0.1289E-06  0.1278E-06  0.1265E-06  0.1248E-06  0.1239E-06  0.1225E-06  0.1205E-06  0.1189E-06  0.1175E-06  0.1152E-06  0.1135E-06  0.1111E-06  0.1096E-06  0.1076E-06  0.1052E-06  0.1032E-06  0.1018E-06  0.9996E-07  0.9799E-07  0.9644E-07  0.9713E-07  0.9809E-07  0.9934E-07  0.9935E-07  0.1010E-06  0.9975E-07  0.1019E-06  0.9709E-07  0.8512E-07  0.7435E-07  0.6795E-07  0.6873E-07  0.7043E-07  0.7190E-07  0.7312E-07  0.7410E-07  0.7480E-07  0.7523E-07  0.7538E-07  0.7524E-07  0.7483E-07  0.7414E-07  0.7317E-07  0.7195E-07  0.6893E-07  0.6570E-07  0.6230E-07  0.6038E-07  0.5831E-07  0.5455E-07  0.5075E-07  0.4695E-07  0.4471E-07  0.4091E-07  0.3564E-07  0.3361E-07  0.3159E-07
  0.1055E-06  0.1091E-06  0.1129E-06  0.1165E-06  0.1199E-06  0.1232E-06  0.1264E-06  0.1295E-06  0.1324E-06  0.1351E-06  0.1376E-06  0.1399E-06  0.1419E-06  0.1435E-06  0.1451E-06  0.1462E-06  0.1489E-06  0.1495E-06  0.1498E-06  0.1497E-06  0.1512E-06  0.1506E-06  0.1497E-06  0.1484E-06  0.1472E-06  0.1460E-06  0.1433E-06  0.1420E-06  0.1403E-06  0.1380E-06  0.1347E-06  0.1331E-06  0.1311E-06  0.1285E-06  0.1262E-06  0.1240E-06  0.1224E-06  0.1200E-06  0.1176E-06  0.1158E-06  0.1178E-06  0.1170E-06  0.1179E-06  0.1195E-06  0.1194E-06  0.1212E-06  0.1218E-06  0.1225E-06  0.1248E-06  0.1241E-06  0.1249E-06  0.1198E-06  0.1068E-06  0.9563E-07  0.8836E-07  0.9015E-07  0.9168E-07  0.9289E-07  0.9376E-07  0.9427E-07  0.9443E-07  0.9423E-07  0.9367E-07  0.9276E-07  0.9151E-07  0.8994E-07  0.8649E-07  0.8279E-07  0.7886E-07  0.7638E-07  0.7370E-07  0.6931E-07  0.6325E-07  0.6040E-07  0.5746E-07  0.5141E-07  0.4705E-07  0.4432E-07  0.3856E-07
  0.1188E-06  0.1230E-06  0.1274E-06  0.1311E-06  0.1353E-06  0.1391E-06  0.1427E-06  0.1462E-06  0.1497E-06  0.1526E-06  0.1555E-06  0.1580E-06  0.1619E-06  0.1656E-06  0.1673E-06  0.1705E-06  0.1734E-06  0.1741E-06  0.1747E-06  0.1747E-06  0.1745E-06  0.1738E-06  0.1728E-06  0.1724E-06  0.1713E-06  0.1697E-06  0.1685E-06  0.1671E-06  0.1636E-06  0.1622E-06  0.1580E-06  0.1561E-06  0.1541E-06  0.1505E-06  0.1468E-06  0.1429E-06  0.1408E-06  0.1390E-06  0.1385E-06  0.1391E-06  0.1397E-06  0.1423E-06  0.1422E-06  0.1440E-06  0.1443E-06  0.1468E-06  0.1476E-06  0.1486E-06  0.1497E-06  0.1493E-06  0.1507E-06  0.1519E-06  0.1523E-06  0.1431E-06  0.1302E-06  0.1169E-06  0.1137E-06  0.1151E-06  0.1161E-06  0.1167E-06  0.1169E-06  0.1166E-06  0.1159E-06  0.1147E-06  0.1131E-06  0.1111E-06  0.1071E-06  0.1028E-06  0.9827E-07  0.9511E-07  0.9170E-07  0.8495E-07  0.7974E-07  0.7607E-07  0.7073E-07  0.6386E-07  0.6030E-07  0.5673E-07  0.4864E-07
  0.1336E-06  0.1383E-06  0.1429E-06  0.1478E-06  0.1522E-06  0.1565E-06  0.1607E-06  0.1649E-06  0.1701E-06  0.1753E-06  0.1801E-06  0.1849E-06  0.1877E-06  0.1920E-06  0.1942E-06  0.1979E-06  0.1993E-06  0.2022E-06  0.2029E-06  0.2031E-06  0.2029E-06  0.2029E-06  0.2026E-06  0.2028E-06  0.2018E-06  0.2007E-06  0.1970E-06  0.1953E-06  0.1934E-06  0.1896E-06  0.1874E-06  0.1836E-06  0.1800E-06  0.1777E-06  0.1736E-06  0.1690E-06  0.1665E-06  0.1662E-06  0.1660E-06  0.1683E-06  0.1688E-06  0.1687E-06  0.1715E-06  0.1724E-06  0.1748E-06  0.1744E-06  0.1773E-06  0.1790E-06  0.1788E-06  0.1805E-06  0.1821E-06  0.1836E-06  0.1833E-06  0.1829E-06  0.1793E-06  0.1651E-06  0.1529E-06  0.1432E-06  0.1442E-06  0.1431E-06  0.1432E-06  0.1428E-06  0.1418E-06  0.1403E-06  0.1382E-06  0.1341E-06  0.1295E-06  0.1245E-06  0.1209E-06  0.1169E-06  0.1110E-06  0.1033E-06  0.9885E-07  0.9421E-07  0.8632E-07  0.8013E-07  0.7557E-07  0.6791E-07  0.6209E-07
  0.1499E-06  0.1553E-06  0.1608E-06  0.1660E-06  0.1710E-06  0.1759E-06  0.1821E-06  0.1901E-06  0.1963E-06  0.2023E-06  0.2081E-06  0.2137E-06  0.2172E-06  0.2221E-06  0.2249E-06  0.2291E-06  0.2308E-06  0.2347E-06  0.2362E-06  0.2372E-06  0.2376E-06  0.2384E-06  0.2389E-06  0.2382E-06  0.2353E-06  0.2343E-06  0.2319E-06  0.2281E-06  0.2259E-06  0.2235E-06  0.2187E-06  0.2156E-06  0.2107E-06  0.2062E-06  0.2035E-06  0.2024E-06  0.2031E-06  0.2017E-06  0.2025E-06  0.2000E-06  0.2034E-06  0.2034E-06  0.2039E-06  0.2059E-06  0.2074E-06  0.2089E-06  0.2117E-06  0.2121E-06  0.2142E-06  0.2162E-06  0.2183E-06  0.2186E-06  0.2186E-06  0.2184E-06  0.2197E-06  0.2188E-06  0.2100E-06  0.1943E-06  0.1787E-06  0.1741E-06  0.1740E-06  0.1733E-06  0.1720E-06  0.1701E-06  0.1675E-06  0.1627E-06  0.1574E-06  0.1516E-06  0.1471E-06  0.1421E-06  0.1336E-06  0.1265E-06  0.1210E-06  0.1136E-06  0.1046E-06  0.9888E-07  0.9316E-07  0.8282E-07  0.7752E-07
  0.1679E-06  0.1740E-06  0.1802E-06  0.1857E-06  0.1949E-06  0.2041E-06  0.2115E-06  0.2187E-06  0.2261E-06  0.2331E-06  0.2399E-06  0.2464E-06  0.2507E-06  0.2570E-06  0.2610E-06  0.2662E-06  0.2691E-06  0.2721E-06  0.2732E-06  0.2750E-06  0.2759E-06  0.2769E-06  0.2773E-06  0.2767E-06  0.2755E-06  0.2731E-06  0.2704E-06  0.2681E-06  0.2636E-06  0.2607E-06  0.2558E-06  0.2522E-06  0.2463E-06  0.2431E-06  0.2408E-06  0.2392E-06  0.2407E-06  0.2412E-06  0.2416E-06  0.2417E-06  0.2435E-06  0.2442E-06  0.2441E-06  0.2458E-06  0.2474E-06  0.2490E-06  0.2511E-06  0.2533E-06  0.2555E-06  0.2575E-06  0.2585E-06  0.2592E-06  0.2596E-06  0.2613E-06  0.2610E-06  0.2603E-06  0.2589E-06  0.2548E-06  0.2388E-06  0.2210E-06  0.2102E-06  0.2091E-06  0.2073E-06  0.2048E-06  0.2016E-06  0.1960E-06  0.1881E-06  0.1831E-06  0.1775E-06  0.1697E-06  0.1617E-06  0.1534E-06  0.1465E-06  0.1361E-06  0.1275E-06  0.1205E-06  0.1102E-06  0.1018E-06  0.9521E-07
  0.1876E-06  0.1942E-06  0.2044E-06  0.2147E-06  0.2253E-06  0.2340E-06  0.2427E-06  0.2532E-06  0.2616E-06  0.2680E-06  0.2759E-06  0.2841E-06  0.2904E-06  0.2982E-06  0.3029E-06  0.3070E-06  0.3132E-06  0.3160E-06  0.3190E-06  0.3211E-06  0.3222E-06  0.3227E-06  0.3232E-06  0.3205E-06  0.3192E-06  0.3184E-06  0.3134E-06  0.3107E-06  0.3076E-06  0.3022E-06  0.2967E-06  0.2926E-06  0.2859E-06  0.2881E-06  0.2875E-06  0.2869E-06  0.2888E-06  0.2873E-06  0.2871E-06  0.2876E-06  0.2881E-06  0.2893E-06  0.2926E-06  0.2915E-06  0.2939E-06  0.2950E-06  0.2964E-06  0.3008E-06  0.3038E-06  0.3050E-06  0.3058E-06  0.3065E-06  0.3084E-06  0.3089E-06  0.3088E-06  0.3081E-06  0.3067E-06  0.3047E-06  0.3022E-06  0.2835E-06  0.2672E-06  0.2508E-06  0.2484E-06  0.2450E-06  0.2392E-06  0.2327E-06  0.2255E-06  0.2193E-06  0.2125E-06  0.2034E-06  0.1923E-06  0.1842E-06  0.1741E-06  0.1623E-06  0.1537E-06  0.1435E-06  0.1317E-06  0.1235E-06  0.1138E-06
  0.2124E-06  0.2237E-06  0.2355E-06  0.2475E-06  0.2576E-06  0.2699E-06  0.2801E-06  0.2903E-06  0.3007E-06  0.3108E-06  0.3192E-06  0.3293E-06  0.3361E-06  0.3451E-06  0.3514E-06  0.3564E-06  0.3606E-06  0.3648E-06  0.3690E-06  0.3702E-06  0.3729E-06  0.3735E-06  0.3733E-06  0.3725E-06  0.3709E-06  0.3674E-06  0.3643E-06  0.3590E-06  0.3553E-06  0.3494E-06  0.3451E-06  0.3404E-06  0.3405E-06  0.3378E-06  0.3383E-06  0.3378E-06  0.3383E-06  0.3394E-06  0.3406E-06  0.3392E-06  0.3402E-06  0.3419E-06  0.3442E-06  0.3461E-06  0.3494E-06  0.3497E-06  0.3518E-06  0.3542E-06  0.3573E-06  0.3592E-06  0.3606E-06  0.3636E-06  0.3645E-06  0.3648E-06  0.3656E-06  0.3651E-06  0.3635E-06  0.3596E-06  0.3566E-06  0.3508E-06  0.3399E-06  0.3141E-06  0.2959E-06  0.2918E-06  0.2849E-06  0.2771E-06  0.2685E-06  0.2610E-06  0.2510E-06  0.2404E-06  0.2293E-06  0.2195E-06  0.2060E-06  0.1941E-06  0.1838E-06  0.1701E-06  0.1583E-06  0.1482E-06  0.1336E-06
  0.2436E-06  0.2568E-06  0.2705E-06  0.2824E-06  0.2963E-06  0.3084E-06  0.3209E-06  0.3332E-06  0.3466E-06  0.3583E-06  0.3711E-06  0.3805E-06  0.3888E-06  0.3990E-06  0.4064E-06  0.4123E-06  0.4182E-06  0.4225E-06  0.4266E-06  0.4288E-06  0.4318E-06  0.4325E-06  0.4330E-06  0.4299E-06  0.4277E-06  0.4244E-06  0.4203E-06  0.4145E-06  0.4101E-06  0.4033E-06  0.4008E-06  0.3968E-06  0.3974E-06  0.3992E-06  0.3981E-06  0.3972E-06  0.3979E-06  0.3973E-06  0.3972E-06  0.3997E-06  0.3996E-06  0.4026E-06  0.4045E-06  0.4057E-06  0.4081E-06  0.4109E-06  0.4141E-06  0.4181E-06  0.4188E-06  0.4209E-06  0.4249E-06  0.4267E-06  0.4300E-06  0.4302E-06  0.4303E-06  0.4292E-06  0.4267E-06  0.4226E-06  0.4190E-06  0.4127E-06  0.4071E-06  0.4004E-06  0.3775E-06  0.3453E-06  0.3355E-06  0.3264E-06  0.3180E-06  0.3087E-06  0.2969E-06  0.2828E-06  0.2716E-06  0.2581E-06  0.2426E-06  0.2304E-06  0.2162E-06  0.2005E-06  0.1884E-06  0.1730E-06  0.1597E-06
  0.2789E-06  0.2943E-06  0.3080E-06  0.3238E-06  0.3378E-06  0.3531E-06  0.3709E-06  0.3839E-06  0.3993E-06  0.4136E-06  0.4269E-06  0.4387E-06  0.4491E-06  0.4595E-06  0.4681E-06  0.4766E-06  0.4834E-06  0.4883E-06  0.4930E-06  0.4966E-06  0.4964E-06  0.4972E-06  0.4976E-06  0.4964E-06  0.4909E-06  0.4878E-06  0.4819E-06  0.4773E-06  0.4700E-06  0.4676E-06  0.4666E-06  0.4650E-06  0.4645E-06  0.4644E-06  0.4629E-06  0.4629E-06  0.4615E-06  0.4654E-06  0.4658E-06  0.4655E-06  0.4677E-06  0.4696E-06  0.4735E-06  0.4755E-06  0.4788E-06  0.4832E-06  0.4872E-06  0.4890E-06  0.4914E-06  0.4953E-06  0.4965E-06  0.5011E-06  0.5027E-06  0.5034E-06  0.5038E-06  0.5022E-06  0.5004E-06  0.4955E-06  0.4903E-06  0.4833E-06  0.4766E-06  0.4688E-06  0.4596E-06  0.4346E-06  0.4068E-06  0.3847E-06  0.3746E-06  0.3634E-06  0.3476E-06  0.3331E-06  0.3197E-06  0.3022E-06  0.2861E-06  0.2715E-06  0.2533E-06  0.2370E-06  0.2224E-06  0.2031E-06  0.1893E-06
  0.3185E-06  0.3342E-06  0.3523E-06  0.3718E-06  0.3901E-06  0.4077E-06  0.4260E-06  0.4435E-06  0.4584E-06  0.4756E-06  0.4910E-06  0.5041E-06  0.5163E-06  0.5274E-06  0.5375E-06  0.5489E-06  0.5559E-06  0.5603E-06  0.5657E-06  0.5698E-06  0.5720E-06  0.5729E-06  0.5706E-06  0.5683E-06  0.5634E-06  0.5597E-06  0.5529E-06  0.5474E-06  0.5423E-06  0.5444E-06  0.5405E-06  0.5420E-06  0.5416E-06  0.5394E-06  0.5388E-06  0.5385E-06  0.5381E-06  0.5381E-06  0.5411E-06  0.5437E-06  0.5449E-06  0.5471E-06  0.5518E-06  0.5536E-06  0.5598E-06  0.5645E-06  0.5671E-06  0.5687E-06  0.5746E-06  0.5772E-06  0.5813E-06  0.5831E-06  0.5866E-06  0.5871E-06  0.5873E-06  0.5867E-06  0.5841E-06  0.5781E-06  0.5733E-06  0.5642E-06  0.5561E-06  0.5470E-06  0.5362E-06  0.5221E-06  0.4920E-06  0.4641E-06  0.4391E-06  0.4239E-06  0.4058E-06  0.3904E-06  0.3725E-06  0.3524E-06  0.3355E-06  0.3164E-06  0.2955E-06  0.2781E-06  0.2575E-06  0.2390E-06  0.2208E-06
  0.3609E-06  0.3819E-06  0.4039E-06  0.4248E-06  0.4466E-06  0.4671E-06  0.4883E-06  0.5092E-06  0.5267E-06  0.5458E-06  0.5619E-06  0.5794E-06  0.5929E-06  0.6060E-06  0.6176E-06  0.6275E-06  0.6366E-06  0.6449E-06  0.6504E-06  0.6549E-06  0.6550E-06  0.6549E-06  0.6527E-06  0.6508E-06  0.6475E-06  0.6408E-06  0.6351E-06  0.6296E-06  0.6289E-06  0.6279E-06  0.6271E-06  0.6231E-06  0.6224E-06  0.6247E-06  0.6219E-06  0.6207E-06  0.6219E-06  0.6224E-06  0.6247E-06  0.6275E-06  0.6296E-06  0.6344E-06  0.6366E-06  0.6414E-06  0.6468E-06  0.6528E-06  0.6572E-06  0.6635E-06  0.6680E-06  0.6735E-06  0.6772E-06  0.6786E-06  0.6818E-06  0.6835E-06  0.6824E-06  0.6810E-06  0.6787E-06  0.6724E-06  0.6661E-06  0.6568E-06  0.6468E-06  0.6351E-06  0.6209E-06  0.6048E-06  0.5871E-06  0.5568E-06  0.5249E-06  0.4925E-06  0.4736E-06  0.4553E-06  0.4326E-06  0.4111E-06  0.3910E-06  0.3671E-06  0.3449E-06  0.3227E-06  0.2990E-06  0.2792E-06  0.2548E-06
  0.4120E-06  0.4381E-06  0.4619E-06  0.4862E-06  0.5106E-06  0.5351E-06  0.5588E-06  0.5828E-06  0.6033E-06  0.6253E-06  0.6441E-06  0.6634E-06  0.6791E-06  0.6950E-06  0.7087E-06  0.7208E-06  0.7305E-06  0.7399E-06  0.7437E-06  0.7478E-06  0.7504E-06  0.7490E-06  0.7488E-06  0.7440E-06  0.7399E-06  0.7321E-06  0.7240E-06  0.7273E-06  0.7251E-06  0.7240E-06  0.7241E-06  0.7209E-06  0.7184E-06  0.7185E-06  0.7182E-06  0.7186E-06  0.7166E-06  0.7183E-06  0.7207E-06  0.7224E-06  0.7279E-06  0.7314E-06  0.7366E-06  0.7432E-06  0.7493E-06  0.7547E-06  0.7623E-06  0.7681E-06  0.7739E-06  0.7786E-06  0.7852E-06  0.7885E-06  0.7913E-06  0.7910E-06  0.7917E-06  0.7885E-06  0.7860E-06  0.7790E-06  0.7698E-06  0.7614E-06  0.7499E-06  0.7370E-06  0.7189E-06  0.7001E-06  0.6798E-06  0.6597E-06  0.6231E-06  0.5816E-06  0.5501E-06  0.5267E-06  0.5006E-06  0.4773E-06  0.4517E-06  0.4243E-06  0.4003E-06  0.3710E-06  0.3475E-06  0.3226E-06  0.2966E-06
  0.4712E-06  0.4989E-06  0.5289E-06  0.5576E-06  0.5851E-06  0.6134E-06  0.6391E-06  0.6660E-06  0.6898E-06  0.7144E-06  0.7362E-06  0.7559E-06  0.7781E-06  0.7956E-06  0.8114E-06  0.8228E-06  0.8347E-06  0.8435E-06  0.8506E-06  0.8538E-06  0.8566E-06  0.8573E-06  0.8543E-06  0.8511E-06  0.8425E-06  0.8335E-06  0.8354E-06  0.8372E-06  0.8354E-06  0.8330E-06  0.8304E-06  0.8287E-06  0.8255E-06  0.8242E-06  0.8239E-06  0.8227E-06  0.8254E-06  0.8253E-06  0.8284E-06  0.8317E-06  0.8371E-06  0.8412E-06  0.8495E-06  0.8570E-06  0.8626E-06  0.8695E-06  0.8767E-06  0.8859E-06  0.8930E-06  0.9008E-06  0.9049E-06  0.9097E-06  0.9126E-06  0.9140E-06  0.9141E-06  0.9094E-06  0.9059E-06  0.8988E-06  0.8887E-06  0.8780E-06  0.8656E-06  0.8499E-06  0.8281E-06  0.8062E-06  0.7837E-06  0.7604E-06  0.7314E-06  0.6897E-06  0.6463E-06  0.6068E-06  0.5787E-06  0.5515E-06  0.5182E-06  0.4902E-06  0.4603E-06  0.4290E-06  0.4015E-06  0.3693E-06  0.3431E-06
  0.5362E-06  0.5705E-06  0.6025E-06  0.6349E-06  0.6674E-06  0.6999E-06  0.7283E-06  0.7607E-06  0.7876E-06  0.8148E-06  0.8445E-06  0.8682E-06  0.8903E-06  0.9110E-06  0.9264E-06  0.9405E-06  0.9539E-06  0.9617E-06  0.9697E-06  0.9757E-06  0.9762E-06  0.9767E-06  0.9711E-06  0.9677E-06  0.9591E-06  0.9592E-06  0.9605E-06  0.9583E-06  0.9540E-06  0.9561E-06  0.9515E-06  0.9471E-06  0.9446E-06  0.9433E-06  0.9420E-06  0.9419E-06  0.9408E-06  0.9478E-06  0.9460E-06  0.9517E-06  0.9569E-06  0.9637E-06  0.9736E-06  0.9807E-06  0.9887E-06  0.9985E-06  0.1009E-05  0.1018E-05  0.1027E-05  0.1034E-05  0.1041E-05  0.1046E-05  0.1049E-05  0.1051E-05  0.1051E-05  0.1047E-05  0.1042E-05  0.1033E-05  0.1022E-05  0.1010E-05  0.9944E-06  0.9743E-06  0.9525E-06  0.9265E-06  0.9014E-06  0.8708E-06  0.8380E-06  0.8071E-06  0.7580E-06  0.7056E-06  0.6659E-06  0.6324E-06  0.5964E-06  0.5637E-06  0.5256E-06  0.4933E-06  0.4579E-06  0.4250E-06  0.3928E-06
  0.6118E-06  0.6493E-06  0.6898E-06  0.7353E-06  0.7764E-06  0.8189E-06  0.8569E-06  0.8955E-06  0.9279E-06  0.9606E-06  0.9898E-06  0.1020E-05  0.1043E-05  0.1066E-05  0.1083E-05  0.1097E-05  0.1109E-05  0.1119E-05  0.1120E-05  0.1121E-05  0.1121E-05  0.1113E-05  0.1105E-05  0.1099E-05  0.1094E-05  0.1097E-05  0.1097E-05  0.1093E-05  0.1092E-05  0.1090E-05  0.1087E-05  0.1083E-05  0.1080E-05  0.1075E-05  0.1074E-05  0.1075E-05  0.1077E-05  0.1078E-05  0.1083E-05  0.1088E-05  0.1095E-05  0.1103E-05  0.1113E-05  0.1122E-05  0.1134E-05  0.1143E-05  0.1154E-05  0.1167E-05  0.1177E-05  0.1184E-05  0.1192E-05  0.1199E-05  0.1204E-05  0.1204E-05  0.1205E-05  0.1200E-05  0.1191E-05  0.1183E-05  0.1171E-05  0.1157E-05  0.1139E-05  0.1116E-05  0.1089E-05  0.1062E-05  0.1032E-05  0.9965E-06  0.9592E-06  0.9231E-06  0.8818E-06  0.8257E-06  0.7704E-06  0.7206E-06  0.6834E-06  0.6419E-06  0.6023E-06  0.5647E-06  0.5225E-06  0.4866E-06  0.4463E-06
  0.7240E-06  0.7765E-06  0.8258E-06  0.8710E-06  0.9215E-06  0.9658E-06  0.1009E-05  0.1053E-05  0.1089E-05  0.1126E-05  0.1160E-05  0.1191E-05  0.1218E-05  0.1241E-05  0.1263E-05  0.1280E-05  0.1292E-05  0.1299E-05  0.1305E-05  0.1301E-05  0.1300E-05  0.1291E-05  0.1280E-05  0.1263E-05  0.1261E-05  0.1256E-05  0.1253E-05  0.1248E-05  0.1246E-05  0.1239E-05  0.1236E-05  0.1232E-05  0.1227E-05  0.1226E-05  0.1224E-05  0.1224E-05  0.1226E-05  0.1228E-05  0.1234E-05  0.1239E-05  0.1249E-05  0.1257E-05  0.1267E-05  0.1280E-05  0.1294E-05  0.1306E-05  0.1321E-05  0.1332E-05  0.1344E-05  0.1354E-05  0.1364E-05  0.1370E-05  0.1376E-05  0.1378E-05  0.1377E-05  0.1372E-05  0.1363E-05  0.1348E-05  0.1336E-05  0.1320E-05  0.1298E-05  0.1271E-05  0.1242E-05  0.1211E-05  0.1175E-05  0.1134E-05  0.1095E-05  0.1050E-05  0.1003E-05  0.9564E-06  0.8905E-06  0.8285E-06  0.7792E-06  0.7302E-06  0.6868E-06  0.6381E-06  0.5957E-06  0.5507E-06  0.5090E-06
  0.8626E-06  0.9132E-06  0.9644E-06  0.1017E-05  0.1066E-05  0.1117E-05  0.1163E-05  0.1211E-05  0.1255E-05  0.1297E-05  0.1336E-05  0.1372E-05  0.1405E-05  0.1433E-05  0.1455E-05  0.1475E-05  0.1493E-05  0.1504E-05  0.1509E-05  0.1505E-05  0.1499E-05  0.1488E-05  0.1476E-05  0.1470E-05  0.1464E-05  0.1455E-05  0.1443E-05  0.1430E-05  0.1418E-05  0.1409E-05  0.1407E-05  0.1398E-05  0.1395E-05  0.1391E-05  0.1390E-05  0.1390E-05  0.1390E-05  0.1394E-05  0.1400E-05  0.1408E-05  0.1420E-05  0.1430E-05  0.1443E-05  0.1459E-05  0.1471E-05  0.1487E-05  0.1502E-05  0.1517E-05  0.1529E-05  0.1542E-05  0.1553E-05  0.1562E-05  0.1566E-05  0.1570E-05  0.1568E-05  0.1563E-05  0.1553E-05  0.1539E-05  0.1522E-05  0.1502E-05  0.1477E-05  0.1445E-05  0.1412E-05  0.1377E-05  0.1333E-05  0.1289E-05  0.1243E-05  0.1191E-05  0.1139E-05  0.1087E-05  0.1025E-05  0.9558E-06  0.8853E-06  0.8295E-06  0.7778E-06  0.7248E-06  0.6762E-06  0.6234E-06  0.5775E-06
  0.9820E-06  0.1040E-05  0.1101E-05  0.1161E-05  0.1217E-05  0.1275E-05  0.1330E-05  0.1382E-05  0.1436E-05  0.1483E-05  0.1527E-05  0.1568E-05  0.1602E-05  0.1634E-05  0.1662E-05  0.1686E-05  0.1702E-05  0.1714E-05  0.1718E-05  0.1722E-05  0.1717E-05  0.1710E-05  0.1701E-05  0.1696E-05  0.1688E-05  0.1678E-05  0.1664E-05  0.1651E-05  0.1632E-05  0.1612E-05  0.1595E-05  0.1582E-05  0.1576E-05  0.1575E-05  0.1572E-05  0.1573E-05  0.1576E-05  0.1580E-05  0.1588E-05  0.1599E-05  0.1608E-05  0.1620E-05  0.1636E-05  0.1652E-05  0.1670E-05  0.1687E-05  0.1703E-05  0.1720E-05  0.1736E-05  0.1749E-05  0.1761E-05  0.1771E-05  0.1777E-05  0.1780E-05  0.1779E-05  0.1772E-05  0.1759E-05  0.1747E-05  0.1726E-05  0.1703E-05  0.1672E-05  0.1638E-05  0.1602E-05  0.1558E-05  0.1509E-05  0.1460E-05  0.1404E-05  0.1346E-05  0.1289E-05  0.1226E-05  0.1163E-05  0.1097E-05  0.1012E-05  0.9409E-06  0.8755E-06  0.8194E-06  0.7585E-06  0.7046E-06  0.6468E-06
  0.1121E-05  0.1186E-05  0.1255E-05  0.1323E-05  0.1387E-05  0.1455E-05  0.1517E-05  0.1578E-05  0.1635E-05  0.1690E-05  0.1740E-05  0.1787E-05  0.1828E-05  0.1865E-05  0.1892E-05  0.1918E-05  0.1936E-05  0.1949E-05  0.1954E-05  0.1957E-05  0.1949E-05  0.1936E-05  0.1944E-05  0.1944E-05  0.1933E-05  0.1923E-05  0.1912E-05  0.1889E-05  0.1872E-05  0.1852E-05  0.1829E-05  0.1811E-05  0.1791E-05  0.1779E-05  0.1778E-05  0.1777E-05  0.1781E-05  0.1784E-05  0.1792E-05  0.1803E-05  0.1814E-05  0.1831E-05  0.1849E-05  0.1868E-05  0.1887E-05  0.1907E-05  0.1927E-05  0.1944E-05  0.1963E-05  0.1980E-05  0.1992E-05  0.2004E-05  0.2012E-05  0.2014E-05  0.2012E-05  0.2004E-05  0.1990E-05  0.1974E-05  0.1952E-05  0.1923E-05  0.1887E-05  0.1849E-05  0.1807E-05  0.1756E-05  0.1703E-05  0.1647E-05  0.1583E-05  0.1518E-05  0.1453E-05  0.1379E-05  0.1310E-05  0.1234E-05  0.1156E-05  0.1065E-05  0.9878E-06  0.9204E-06  0.8541E-06  0.7910E-06  0.7282E-06
  0.1275E-05  0.1353E-05  0.1428E-05  0.1508E-05  0.1582E-05  0.1658E-05  0.1729E-05  0.1799E-05  0.1865E-05  0.1926E-05  0.1984E-05  0.2036E-05  0.2079E-05  0.2121E-05  0.2152E-05  0.2180E-05  0.2202E-05  0.2213E-05  0.2221E-05  0.2220E-05  0.2214E-05  0.2211E-05  0.2214E-05  0.2209E-05  0.2196E-05  0.2183E-05  0.2174E-05  0.2151E-05  0.2135E-05  0.2113E-05  0.2091E-05  0.2066E-05  0.2048E-05  0.2031E-05  0.2009E-05  0.2003E-05  0.2005E-05  0.2014E-05  0.2023E-05  0.2034E-05  0.2051E-05  0.2067E-05  0.2088E-05  0.2109E-05  0.2132E-05  0.2152E-05  0.2175E-05  0.2197E-05  0.2216E-05  0.2235E-05  0.2251E-05  0.2261E-05  0.2270E-05  0.2274E-05  0.2269E-05  0.2261E-05  0.2244E-05  0.2226E-05  0.2199E-05  0.2164E-05  0.2123E-05  0.2081E-05  0.2031E-05  0.1974E-05  0.1915E-05  0.1850E-05  0.1778E-05  0.1707E-05  0.1628E-05  0.1551E-05  0.1470E-05  0.1387E-05  0.1306E-05  0.1211E-05  0.1118E-05  0.1030E-05  0.9597E-06  0.8854E-06  0.8187E-06
  0.1449E-05  0.1537E-05  0.1626E-05  0.1715E-05  0.1800E-05  0.1889E-05  0.1970E-05  0.2048E-05  0.2123E-05  0.2194E-05  0.2257E-05  0.2316E-05  0.2367E-05  0.2410E-05  0.2448E-05  0.2476E-05  0.2499E-05  0.2511E-05  0.2517E-05  0.2520E-05  0.2513E-05  0.2515E-05  0.2512E-05  0.2506E-05  0.2492E-05  0.2477E-05  0.2458E-05  0.2439E-05  0.2417E-05  0.2396E-05  0.2376E-05  0.2354E-05  0.2331E-05  0.2309E-05  0.2293E-05  0.2281E-05  0.2270E-05  0.2272E-05  0.2278E-05  0.2293E-05  0.2312E-05  0.2333E-05  0.2353E-05  0.2377E-05  0.2402E-05  0.2427E-05  0.2451E-05  0.2475E-05  0.2498E-05  0.2516E-05  0.2534E-05  0.2547E-05  0.2554E-05  0.2554E-05  0.2548E-05  0.2537E-05  0.2520E-05  0.2498E-05  0.2465E-05  0.2426E-05  0.2383E-05  0.2332E-05  0.2273E-05  0.2211E-05  0.2144E-05  0.2066E-05  0.1990E-05  0.1907E-05  0.1821E-05  0.1735E-05  0.1642E-05  0.1553E-05  0.1458E-05  0.1366E-05  0.1260E-05  0.1162E-05  0.1071E-05  0.9946E-06  0.9146E-06
  0.1644E-05  0.1748E-05  0.1847E-05  0.1948E-05  0.2049E-05  0.2144E-05  0.2237E-05  0.2328E-05  0.2413E-05  0.2492E-05  0.2566E-05  0.2629E-05  0.2691E-05  0.2741E-05  0.2780E-05  0.2814E-05  0.2832E-05  0.2847E-05  0.2859E-05  0.2858E-05  0.2849E-05  0.2852E-05  0.2852E-05  0.2839E-05  0.2824E-05  0.2805E-05  0.2779E-05  0.2756E-05  0.2731E-05  0.2706E-05  0.2680E-05  0.2662E-05  0.2643E-05  0.2625E-05  0.2607E-05  0.2586E-05  0.2576E-05  0.2569E-05  0.2569E-05  0.2583E-05  0.2601E-05  0.2622E-05  0.2649E-05  0.2673E-05  0.2701E-05  0.2729E-05  0.2755E-05  0.2781E-05  0.2805E-05  0.2825E-05  0.2841E-05  0.2854E-05  0.2860E-05  0.2860E-05  0.2851E-05  0.2837E-05  0.2819E-05  0.2791E-05  0.2753E-05  0.2707E-05  0.2659E-05  0.2598E-05  0.2531E-05  0.2462E-05  0.2385E-05  0.2300E-05  0.2215E-05  0.2120E-05  0.2027E-05  0.1928E-05  0.1828E-05  0.1728E-05  0.1626E-05  0.1527E-05  0.1417E-05  0.1308E-05  0.1201E-05  0.1111E-05  0.1025E-05
  0.1864E-05  0.1983E-05  0.2095E-05  0.2212E-05  0.2327E-05  0.2435E-05  0.2548E-05  0.2654E-05  0.2746E-05  0.2836E-05  0.2918E-05  0.2992E-05  0.3053E-05  0.3109E-05  0.3151E-05  0.3188E-05  0.3215E-05  0.3231E-05  0.3243E-05  0.3242E-05  0.3238E-05  0.3237E-05  0.3230E-05  0.3210E-05  0.3189E-05  0.3163E-05  0.3138E-05  0.3108E-05  0.3078E-05  0.3051E-05  0.3023E-05  0.2995E-05  0.2972E-05  0.2956E-05  0.2941E-05  0.2929E-05  0.2917E-05  0.2906E-05  0.2900E-05  0.2905E-05  0.2917E-05  0.2940E-05  0.2967E-05  0.2998E-05  0.3026E-05  0.3056E-05  0.3085E-05  0.3112E-05  0.3135E-05  0.3157E-05  0.3171E-05  0.3183E-05  0.3188E-05  0.3186E-05  0.3174E-05  0.3159E-05  0.3132E-05  0.3099E-05  0.3052E-05  0.3005E-05  0.2946E-05  0.2879E-05  0.2802E-05  0.2726E-05  0.2635E-05  0.2545E-05  0.2448E-05  0.2345E-05  0.2242E-05  0.2130E-05  0.2024E-05  0.1909E-05  0.1800E-05  0.1688E-05  0.1578E-05  0.1458E-05  0.1343E-05  0.1234E-05  0.1141E-05
  0.2115E-05  0.2247E-05  0.2380E-05  0.2517E-05  0.2645E-05  0.2773E-05  0.2901E-05  0.3016E-05  0.3124E-05  0.3225E-05  0.3313E-05  0.3396E-05  0.3467E-05  0.3524E-05  0.3573E-05  0.3616E-05  0.3643E-05  0.3663E-05  0.3670E-05  0.3664E-05  0.3665E-05  0.3657E-05  0.3643E-05  0.3622E-05  0.3597E-05  0.3560E-05  0.3525E-05  0.3492E-05  0.3456E-05  0.3424E-05  0.3391E-05  0.3365E-05  0.3338E-05  0.3318E-05  0.3298E-05  0.3289E-05  0.3283E-05  0.3278E-05  0.3272E-05  0.3268E-05  0.3276E-05  0.3286E-05  0.3314E-05  0.3344E-05  0.3376E-05  0.3406E-05  0.3437E-05  0.3464E-05  0.3488E-05  0.3509E-05  0.3523E-05  0.3533E-05  0.3533E-05  0.3530E-05  0.3518E-05  0.3493E-05  0.3463E-05  0.3421E-05  0.3373E-05  0.3315E-05  0.3247E-05  0.3170E-05  0.3088E-05  0.2996E-05  0.2900E-05  0.2799E-05  0.2688E-05  0.2578E-05  0.2461E-05  0.2343E-05  0.2220E-05  0.2100E-05  0.1978E-05  0.1857E-05  0.1739E-05  0.1617E-05  0.1489E-05  0.1370E-05  0.1257E-05
  0.2404E-05  0.2555E-05  0.2714E-05  0.2863E-05  0.3008E-05  0.3153E-05  0.3297E-05  0.3427E-05  0.3545E-05  0.3657E-05  0.3759E-05  0.3847E-05  0.3926E-05  0.3991E-05  0.4049E-05  0.4090E-05  0.4120E-05  0.4137E-05  0.4142E-05  0.4134E-05  0.4131E-05  0.4122E-05  0.4106E-05  0.4077E-05  0.4040E-05  0.4003E-05  0.3964E-05  0.3921E-05  0.3879E-05  0.3838E-05  0.3800E-05  0.3764E-05  0.3735E-05  0.3712E-05  0.3690E-05  0.3679E-05  0.3670E-05  0.3667E-05  0.3669E-05  0.3671E-05  0.3668E-05  0.3681E-05  0.3690E-05  0.3720E-05  0.3753E-05  0.3783E-05  0.3813E-05  0.3840E-05  0.3863E-05  0.3884E-05  0.3895E-05  0.3904E-05  0.3903E-05  0.3894E-05  0.3874E-05  0.3846E-05  0.3807E-05  0.3762E-05  0.3702E-05  0.3638E-05  0.3559E-05  0.3475E-05  0.3382E-05  0.3276E-05  0.3171E-05  0.3057E-05  0.2938E-05  0.2818E-05  0.2688E-05  0.2560E-05  0.2426E-05  0.2296E-05  0.2161E-05  0.2034E-05  0.1901E-05  0.1777E-05  0.1642E-05  0.1508E-05  0.1388E-05
  0.2734E-05  0.2904E-05  0.3084E-05  0.3251E-05  0.3416E-05  0.3580E-05  0.3738E-05  0.3883E-05  0.4019E-05  0.4144E-05  0.4253E-05  0.4350E-05  0.4440E-05  0.4513E-05  0.4575E-05  0.4618E-05  0.4649E-05  0.4662E-05  0.4664E-05  0.4657E-05  0.4657E-05  0.4642E-05  0.4612E-05  0.4574E-05  0.4530E-05  0.4488E-05  0.4439E-05  0.4385E-05  0.4335E-05  0.4292E-05  0.4245E-05  0.4202E-05  0.4167E-05  0.4137E-05  0.4112E-05  0.4098E-05  0.4089E-05  0.4080E-05  0.4083E-05  0.4092E-05  0.4099E-05  0.4102E-05  0.4117E-05  0.4127E-05  0.4153E-05  0.4183E-05  0.4213E-05  0.4241E-05  0.4261E-05  0.4277E-05  0.4287E-05  0.4292E-05  0.4287E-05  0.4272E-05  0.4244E-05  0.4213E-05  0.4168E-05  0.4111E-05  0.4043E-05  0.3968E-05  0.3881E-05  0.3784E-05  0.3679E-05  0.3565E-05  0.3449E-05  0.3320E-05  0.3194E-05  0.3055E-05  0.2920E-05  0.2776E-05  0.2635E-05  0.2489E-05  0.2350E-05  0.2205E-05  0.2071E-05  0.1931E-05  0.1796E-05  0.1655E-05  0.1517E-05
  0.3108E-05  0.3300E-05  0.3497E-05  0.3685E-05  0.3870E-05  0.4059E-05  0.4236E-05  0.4399E-05  0.4547E-05  0.4686E-05  0.4808E-05  0.4922E-05  0.5016E-05  0.5096E-05  0.5162E-05  0.5205E-05  0.5230E-05  0.5243E-05  0.5238E-05  0.5238E-05  0.5231E-05  0.5202E-05  0.5168E-05  0.5118E-05  0.5071E-05  0.5013E-05  0.4950E-05  0.4897E-05  0.4840E-05  0.4777E-05  0.4730E-05  0.4678E-05  0.4633E-05  0.4599E-05  0.4570E-05  0.4550E-05  0.4535E-05  0.4530E-05  0.4526E-05  0.4534E-05  0.4548E-05  0.4562E-05  0.4568E-05  0.4574E-05  0.4586E-05  0.4611E-05  0.4636E-05  0.4663E-05  0.4681E-05  0.4694E-05  0.4701E-05  0.4701E-05  0.4690E-05  0.4666E-05  0.4633E-05  0.4592E-05  0.4537E-05  0.4470E-05  0.4395E-05  0.4308E-05  0.4208E-05  0.4102E-05  0.3985E-05  0.3861E-05  0.3726E-05  0.3591E-05  0.3449E-05  0.3302E-05  0.3152E-05  0.2999E-05  0.2846E-05  0.2691E-05  0.2538E-05  0.2387E-05  0.2234E-05  0.2091E-05  0.1946E-05  0.1803E-05  0.1658E-05
  0.3527E-05  0.3748E-05  0.3966E-05  0.4180E-05  0.4384E-05  0.4595E-05  0.4784E-05  0.4971E-05  0.5136E-05  0.5293E-05  0.5430E-05  0.5556E-05  0.5658E-05  0.5737E-05  0.5807E-05  0.5850E-05  0.5873E-05  0.5884E-05  0.5879E-05  0.5876E-05  0.5852E-05  0.5815E-05  0.5771E-05  0.5717E-05  0.5654E-05  0.5584E-05  0.5519E-05  0.5449E-05  0.5377E-05  0.5313E-05  0.5252E-05  0.5192E-05  0.5143E-05  0.5096E-05  0.5063E-05  0.5036E-05  0.5014E-05  0.5005E-05  0.5000E-05  0.5007E-05  0.5017E-05  0.5030E-05  0.5048E-05  0.5056E-05  0.5064E-05  0.5064E-05  0.5083E-05  0.5106E-05  0.5120E-05  0.5129E-05  0.5129E-05  0.5124E-05  0.5104E-05  0.5071E-05  0.5032E-05  0.4982E-05  0.4915E-05  0.4839E-05  0.4753E-05  0.4653E-05  0.4543E-05  0.4425E-05  0.4290E-05  0.4155E-05  0.4009E-05  0.3860E-05  0.3706E-05  0.3548E-05  0.3383E-05  0.3222E-05  0.3053E-05  0.2892E-05  0.2725E-05  0.2566E-05  0.2405E-05  0.2249E-05  0.2098E-05  0.1946E-05  0.1798E-05
  0.4016E-05  0.4270E-05  0.4514E-05  0.4755E-05  0.4987E-05  0.5213E-05  0.5427E-05  0.5633E-05  0.5815E-05  0.5981E-05  0.6125E-05  0.6252E-05  0.6363E-05  0.6448E-05  0.6518E-05  0.6561E-05  0.6587E-05  0.6592E-05  0.6586E-05  0.6570E-05  0.6532E-05  0.6491E-05  0.6433E-05  0.6364E-05  0.6289E-05  0.6212E-05  0.6130E-05  0.6042E-05  0.5965E-05  0.5890E-05  0.5810E-05  0.5749E-05  0.5683E-05  0.5632E-05  0.5594E-05  0.5552E-05  0.5527E-05  0.5515E-05  0.5512E-05  0.5509E-05  0.5515E-05  0.5525E-05  0.5540E-05  0.5558E-05  0.5562E-05  0.5566E-05  0.5558E-05  0.5566E-05  0.5578E-05  0.5581E-05  0.5576E-05  0.5562E-05  0.5530E-05  0.5490E-05  0.5443E-05  0.5377E-05  0.5301E-05  0.5214E-05  0.5115E-05  0.5000E-05  0.4882E-05  0.4745E-05  0.4604E-05  0.4452E-05  0.4293E-05  0.4129E-05  0.3960E-05  0.3789E-05  0.3616E-05  0.3438E-05  0.3265E-05  0.3085E-05  0.2914E-05  0.2740E-05  0.2574E-05  0.2405E-05  0.2246E-05  0.2091E-05  0.1930E-05
  0.4569E-05  0.4863E-05  0.5136E-05  0.5414E-05  0.5679E-05  0.5934E-05  0.6181E-05  0.6409E-05  0.6613E-05  0.6791E-05  0.6943E-05  0.7071E-05  0.7169E-05  0.7232E-05  0.7300E-05  0.7346E-05  0.7371E-05  0.7365E-05  0.7355E-05  0.7328E-05  0.7280E-05  0.7225E-05  0.7147E-05  0.7064E-05  0.6981E-05  0.6886E-05  0.6785E-05  0.6691E-05  0.6597E-05  0.6501E-05  0.6421E-05  0.6336E-05  0.6269E-05  0.6209E-05  0.6150E-05  0.6117E-05  0.6083E-05  0.6059E-05  0.6048E-05  0.6043E-05  0.6046E-05  0.6056E-05  0.6065E-05  0.6077E-05  0.6085E-05  0.6087E-05  0.6074E-05  0.6058E-05  0.6050E-05  0.6049E-05  0.6035E-05  0.6010E-05  0.5969E-05  0.5920E-05  0.5861E-05  0.5783E-05  0.5694E-05  0.5595E-05  0.5476E-05  0.5355E-05  0.5216E-05  0.5069E-05  0.4915E-05  0.4745E-05  0.4578E-05  0.4396E-05  0.4219E-05  0.4030E-05  0.3847E-05  0.3657E-05  0.3472E-05  0.3283E-05  0.3095E-05  0.2916E-05  0.2734E-05  0.2565E-05  0.2392E-05  0.2226E-05  0.2070E-05
  0.5199E-05  0.5526E-05  0.5840E-05  0.6151E-05  0.6449E-05  0.6743E-05  0.7013E-05  0.7278E-05  0.7506E-05  0.7707E-05  0.7882E-05  0.8025E-05  0.8133E-05  0.8191E-05  0.8236E-05  0.8244E-05  0.8219E-05  0.8206E-05  0.8188E-05  0.8152E-05  0.8094E-05  0.8014E-05  0.7927E-05  0.7834E-05  0.7724E-05  0.7606E-05  0.7497E-05  0.7381E-05  0.7266E-05  0.7164E-05  0.7062E-05  0.6972E-05  0.6890E-05  0.6818E-05  0.6760E-05  0.6707E-05  0.6674E-05  0.6641E-05  0.6624E-05  0.6613E-05  0.6609E-05  0.6612E-05  0.6618E-05  0.6623E-05  0.6628E-05  0.6630E-05  0.6625E-05  0.6596E-05  0.6564E-05  0.6537E-05  0.6510E-05  0.6466E-05  0.6418E-05  0.6358E-05  0.6281E-05  0.6191E-05  0.6090E-05  0.5975E-05  0.5844E-05  0.5707E-05  0.5552E-05  0.5391E-05  0.5218E-05  0.5040E-05  0.4855E-05  0.4664E-05  0.4468E-05  0.4271E-05  0.4070E-05  0.3871E-05  0.3670E-05  0.3475E-05  0.3277E-05  0.3085E-05  0.2899E-05  0.2713E-05  0.2539E-05  0.2366E-05  0.2196E-05
  0.5912E-05  0.6271E-05  0.6631E-05  0.6983E-05  0.7323E-05  0.7653E-05  0.7963E-05  0.8244E-05  0.8508E-05  0.8730E-05  0.8921E-05  0.9082E-05  0.9201E-05  0.9284E-05  0.9333E-05  0.9326E-05  0.9274E-05  0.9190E-05  0.9136E-05  0.9047E-05  0.8968E-05  0.8879E-05  0.8770E-05  0.8644E-05  0.8517E-05  0.8390E-05  0.8250E-05  0.8118E-05  0.7992E-05  0.7866E-05  0.7751E-05  0.7651E-05  0.7550E-05  0.7474E-05  0.7396E-05  0.7345E-05  0.7295E-05  0.7259E-05  0.7233E-05  0.7212E-05  0.7204E-05  0.7200E-05  0.7199E-05  0.7200E-05  0.7201E-05  0.7194E-05  0.7186E-05  0.7162E-05  0.7118E-05  0.7058E-05  0.7018E-05  0.6963E-05  0.6896E-05  0.6808E-05  0.6708E-05  0.6603E-05  0.6489E-05  0.6352E-05  0.6212E-05  0.6056E-05  0.5885E-05  0.5713E-05  0.5521E-05  0.5332E-05  0.5128E-05  0.4924E-05  0.4712E-05  0.4505E-05  0.4290E-05  0.4081E-05  0.3869E-05  0.3656E-05  0.3456E-05  0.3251E-05  0.3051E-05  0.2866E-05  0.2677E-05  0.2500E-05  0.2325E-05
  0.6703E-05  0.7112E-05  0.7518E-05  0.7918E-05  0.8305E-05  0.8671E-05  0.9020E-05  0.9340E-05  0.9620E-05  0.9873E-05  0.1009E-04  0.1026E-04  0.1039E-04  0.1047E-04  0.1051E-04  0.1051E-04  0.1048E-04  0.1041E-04  0.1029E-04  0.1014E-04  0.9972E-05  0.9818E-05  0.9666E-05  0.9525E-05  0.9376E-05  0.9217E-05  0.9061E-05  0.8909E-05  0.8752E-05  0.8615E-05  0.8483E-05  0.8361E-05  0.8256E-05  0.8156E-05  0.8081E-05  0.8008E-05  0.7956E-05  0.7905E-05  0.7874E-05  0.7848E-05  0.7827E-05  0.7817E-05  0.7809E-05  0.7799E-05  0.7792E-05  0.7776E-05  0.7759E-05  0.7730E-05  0.7681E-05  0.7613E-05  0.7535E-05  0.7470E-05  0.7384E-05  0.7289E-05  0.7174E-05  0.7040E-05  0.6887E-05  0.6734E-05  0.6577E-05  0.6396E-05  0.6217E-05  0.6018E-05  0.5822E-05  0.5610E-05  0.5395E-05  0.5174E-05  0.4953E-05  0.4727E-05  0.4507E-05  0.4280E-05  0.4060E-05  0.3841E-05  0.3621E-05  0.3415E-05  0.3207E-05  0.3004E-05  0.2814E-05  0.2627E-05  0.2444E-05
  0.7607E-05  0.8066E-05  0.8523E-05  0.8973E-05  0.9409E-05  0.9830E-05  0.1022E-04  0.1057E-04  0.1089E-04  0.1117E-04  0.1139E-04  0.1158E-04  0.1171E-04  0.1179E-04  0.1182E-04  0.1182E-04  0.1177E-04  0.1170E-04  0.1157E-04  0.1141E-04  0.1122E-04  0.1096E-04  0.1074E-04  0.1051E-04  0.1028E-04  0.1010E-04  0.9923E-05  0.9737E-05  0.9572E-05  0.9404E-05  0.9255E-05  0.9123E-05  0.8992E-05  0.8889E-05  0.8786E-05  0.8712E-05  0.8643E-05  0.8586E-05  0.8545E-05  0.8511E-05  0.8482E-05  0.8457E-05  0.8443E-05  0.8426E-05  0.8405E-05  0.8381E-05  0.8350E-05  0.8310E-05  0.8258E-05  0.8185E-05  0.8083E-05  0.7984E-05  0.7889E-05  0.7773E-05  0.7641E-05  0.7495E-05  0.7330E-05  0.7148E-05  0.6936E-05  0.6740E-05  0.6540E-05  0.6330E-05  0.6113E-05  0.5884E-05  0.5658E-05  0.5420E-05  0.5186E-05  0.4948E-05  0.4708E-05  0.4478E-05  0.4243E-05  0.4014E-05  0.3790E-05  0.3567E-05  0.3355E-05  0.3145E-05  0.2943E-05  0.2752E-05  0.2564E-05
  0.8626E-05  0.9153E-05  0.9671E-05  0.1018E-04  0.1066E-04  0.1113E-04  0.1157E-04  0.1196E-04  0.1232E-04  0.1262E-04  0.1287E-04  0.1307E-04  0.1320E-04  0.1329E-04  0.1332E-04  0.1330E-04  0.1323E-04  0.1312E-04  0.1298E-04  0.1280E-04  0.1256E-04  0.1231E-04  0.1202E-04  0.1173E-04  0.1142E-04  0.1113E-04  0.1087E-04  0.1063E-04  0.1043E-04  0.1025E-04  0.1008E-04  0.9916E-05  0.9777E-05  0.9648E-05  0.9543E-05  0.9443E-05  0.9370E-05  0.9301E-05  0.9251E-05  0.9205E-05  0.9171E-05  0.9130E-05  0.9105E-05  0.9078E-05  0.9050E-05  0.9013E-05  0.8967E-05  0.8911E-05  0.8848E-05  0.8770E-05  0.8663E-05  0.8527E-05  0.8399E-05  0.8271E-05  0.8116E-05  0.7953E-05  0.7768E-05  0.7572E-05  0.7352E-05  0.7122E-05  0.6857E-05  0.6630E-05  0.6394E-05  0.6155E-05  0.5906E-05  0.5661E-05  0.5408E-05  0.5160E-05  0.4911E-05  0.4664E-05  0.4421E-05  0.4181E-05  0.3948E-05  0.3717E-05  0.3494E-05  0.3280E-05  0.3070E-05  0.2867E-05  0.2676E-05
  0.9769E-05  0.1037E-04  0.1096E-04  0.1153E-04  0.1208E-04  0.1260E-04  0.1309E-04  0.1353E-04  0.1392E-04  0.1425E-04  0.1453E-04  0.1474E-04  0.1489E-04  0.1498E-04  0.1501E-04  0.1496E-04  0.1487E-04  0.1474E-04  0.1455E-04  0.1432E-04  0.1406E-04  0.1375E-04  0.1342E-04  0.1307E-04  0.1271E-04  0.1236E-04  0.1202E-04  0.1168E-04  0.1139E-04  0.1115E-04  0.1093E-04  0.1076E-04  0.1059E-04  0.1046E-04  0.1032E-04  0.1022E-04  0.1012E-04  0.1005E-04  0.9980E-05  0.9930E-05  0.9878E-05  0.9839E-05  0.9793E-05  0.9756E-05  0.9714E-05  0.9665E-05  0.9606E-05  0.9536E-05  0.9456E-05  0.9358E-05  0.9250E-05  0.9102E-05  0.8926E-05  0.8772E-05  0.8606E-05  0.8416E-05  0.8217E-05  0.7996E-05  0.7764E-05  0.7520E-05  0.7253E-05  0.6962E-05  0.6671E-05  0.6412E-05  0.6155E-05  0.5887E-05  0.5629E-05  0.5361E-05  0.5104E-05  0.4844E-05  0.4589E-05  0.4343E-05  0.4096E-05  0.3862E-05  0.3631E-05  0.3405E-05  0.3187E-05  0.2985E-05  0.2784E-05
  0.1107E-04  0.1175E-04  0.1241E-04  0.1306E-04  0.1368E-04  0.1427E-04  0.1481E-04  0.1530E-04  0.1573E-04  0.1610E-04  0.1640E-04  0.1664E-04  0.1680E-04  0.1689E-04  0.1690E-04  0.1685E-04  0.1675E-04  0.1658E-04  0.1635E-04  0.1607E-04  0.1575E-04  0.1537E-04  0.1498E-04  0.1457E-04  0.1412E-04  0.1371E-04  0.1329E-04  0.1290E-04  0.1253E-04  0.1219E-04  0.1190E-04  0.1165E-04  0.1146E-04  0.1129E-04  0.1116E-04  0.1102E-04  0.1094E-04  0.1086E-04  0.1082E-04  0.1078E-04  0.1072E-04  0.1067E-04  0.1062E-04  0.1055E-04  0.1048E-04  0.1038E-04  0.1030E-04  0.1018E-04  0.1008E-04  0.9970E-05  0.9838E-05  0.9688E-05  0.9493E-05  0.9292E-05  0.9104E-05  0.8893E-05  0.8666E-05  0.8427E-05  0.8172E-05  0.7905E-05  0.7629E-05  0.7343E-05  0.7040E-05  0.6667E-05  0.6393E-05  0.6113E-05  0.5835E-05  0.5560E-05  0.5286E-05  0.5020E-05  0.4753E-05  0.4494E-05  0.4246E-05  0.3997E-05  0.3756E-05  0.3531E-05  0.3306E-05  0.3089E-05  0.2885E-05
  0.1255E-04  0.1333E-04  0.1409E-04  0.1483E-04  0.1554E-04  0.1619E-04  0.1680E-04  0.1736E-04  0.1784E-04  0.1825E-04  0.1859E-04  0.1885E-04  0.1902E-04  0.1911E-04  0.1911E-04  0.1905E-04  0.1892E-04  0.1870E-04  0.1843E-04  0.1809E-04  0.1768E-04  0.1724E-04  0.1677E-04  0.1626E-04  0.1573E-04  0.1521E-04  0.1470E-04  0.1421E-04  0.1376E-04  0.1335E-04  0.1297E-04  0.1266E-04  0.1241E-04  0.1225E-04  0.1215E-04  0.1204E-04  0.1194E-04  0.1185E-04  0.1177E-04  0.1170E-04  0.1162E-04  0.1155E-04  0.1148E-04  0.1140E-04  0.1131E-04  0.1122E-04  0.1112E-04  0.1100E-04  0.1083E-04  0.1066E-04  0.1047E-04  0.1028E-04  0.1008E-04  0.9841E-05  0.9613E-05  0.9382E-05  0.9134E-05  0.8866E-05  0.8592E-05  0.8301E-05  0.7999E-05  0.7695E-05  0.7377E-05  0.7061E-05  0.6692E-05  0.6330E-05  0.6034E-05  0.5746E-05  0.5462E-05  0.5180E-05  0.4913E-05  0.4642E-05  0.4377E-05  0.4128E-05  0.3882E-05  0.3642E-05  0.3410E-05  0.3196E-05  0.2984E-05
  0.1416E-04  0.1505E-04  0.1592E-04  0.1675E-04  0.1755E-04  0.1831E-04  0.1900E-04  0.1964E-04  0.2019E-04  0.2066E-04  0.2105E-04  0.2134E-04  0.2153E-04  0.2163E-04  0.2163E-04  0.2157E-04  0.2140E-04  0.2116E-04  0.2083E-04  0.2041E-04  0.1994E-04  0.1941E-04  0.1883E-04  0.1822E-04  0.1758E-04  0.1694E-04  0.1630E-04  0.1569E-04  0.1513E-04  0.1463E-04  0.1420E-04  0.1386E-04  0.1364E-04  0.1340E-04  0.1321E-04  0.1305E-04  0.1293E-04  0.1283E-04  0.1273E-04  0.1263E-04  0.1255E-04  0.1245E-04  0.1236E-04  0.1226E-04  0.1216E-04  0.1204E-04  0.1191E-04  0.1177E-04  0.1161E-04  0.1143E-04  0.1123E-04  0.1099E-04  0.1073E-04  0.1043E-04  0.1014E-04  0.9886E-05  0.9609E-05  0.9322E-05  0.9020E-05  0.8702E-05  0.8383E-05  0.8051E-05  0.7712E-05  0.7375E-05  0.7032E-05  0.6669E-05  0.6246E-05  0.5925E-05  0.5624E-05  0.5340E-05  0.5054E-05  0.4776E-05  0.4511E-05  0.4248E-05  0.3992E-05  0.3752E-05  0.3518E-05  0.3290E-05  0.3074E-05
  0.1597E-04  0.1703E-04  0.1807E-04  0.1908E-04  0.2001E-04  0.2084E-04  0.2159E-04  0.2224E-04  0.2281E-04  0.2336E-04  0.2381E-04  0.2413E-04  0.2437E-04  0.2451E-04  0.2452E-04  0.2445E-04  0.2427E-04  0.2399E-04  0.2361E-04  0.2313E-04  0.2257E-04  0.2195E-04  0.2126E-04  0.2051E-04  0.1974E-04  0.1895E-04  0.1817E-04  0.1745E-04  0.1678E-04  0.1629E-04  0.1575E-04  0.1531E-04  0.1491E-04  0.1459E-04  0.1433E-04  0.1414E-04  0.1399E-04  0.1386E-04  0.1374E-04  0.1363E-04  0.1353E-04  0.1342E-04  0.1331E-04  0.1319E-04  0.1306E-04  0.1291E-04  0.1275E-04  0.1258E-04  0.1239E-04  0.1218E-04  0.1195E-04  0.1171E-04  0.1144E-04  0.1114E-04  0.1077E-04  0.1042E-04  0.1011E-04  0.9791E-05  0.9462E-05  0.9124E-05  0.8776E-05  0.8416E-05  0.8059E-05  0.7700E-05  0.7337E-05  0.6978E-05  0.6601E-05  0.6201E-05  0.5786E-05  0.5483E-05  0.5194E-05  0.4908E-05  0.4629E-05  0.4364E-05  0.4103E-05  0.3852E-05  0.3611E-05  0.3386E-05  0.3163E-05
  0.1817E-04  0.1949E-04  0.2079E-04  0.2204E-04  0.2319E-04  0.2421E-04  0.2508E-04  0.2578E-04  0.2621E-04  0.2657E-04  0.2690E-04  0.2726E-04  0.2755E-04  0.2770E-04  0.2777E-04  0.2772E-04  0.2753E-04  0.2721E-04  0.2679E-04  0.2626E-04  0.2564E-04  0.2497E-04  0.2421E-04  0.2337E-04  0.2246E-04  0.2150E-04  0.2063E-04  0.1974E-04  0.1888E-04  0.1809E-04  0.1739E-04  0.1680E-04  0.1631E-04  0.1852E-04  0.1877E-04  0.1532E-04  0.1513E-04  0.1498E-04  0.1484E-04  0.1472E-04  0.1459E-04  0.1447E-04  0.1432E-04  0.1418E-04  0.1402E-04  0.1385E-04  0.1365E-04  0.1346E-04  0.1323E-04  0.1298E-04  0.1273E-04  0.1244E-04  0.1214E-04  0.1182E-04  0.1148E-04  0.1107E-04  0.1067E-04  0.1029E-04  0.9928E-05  0.9560E-05  0.9190E-05  0.8805E-05  0.8421E-05  0.8036E-05  0.7652E-05  0.7268E-05  0.6891E-05  0.6504E-05  0.6105E-05  0.5670E-05  0.5320E-05  0.5031E-05  0.4743E-05  0.4468E-05  0.4200E-05  0.3950E-05  0.3703E-05  0.3466E-05  0.3243E-05
  0.2080E-04  0.2254E-04  0.2429E-04  0.2593E-04  0.2739E-04  0.2867E-04  0.2966E-04  0.3043E-04  0.3098E-04  0.3135E-04  0.3140E-04  0.3129E-04  0.3125E-04  0.3129E-04  0.3133E-04  0.3129E-04  0.3113E-04  0.3086E-04  0.3045E-04  0.2994E-04  0.2929E-04  0.2851E-04  0.2764E-04  0.2666E-04  0.2570E-04  0.2459E-04  0.2342E-04  0.2227E-04  0.2117E-04  0.2019E-04  0.1935E-04  0.1955E-04  0.3630E-04  0.6947E-04  0.4141E-04  0.1675E-04  0.1638E-04  0.1620E-04  0.1605E-04  0.1590E-04  0.1576E-04  0.1559E-04  0.1543E-04  0.1526E-04  0.1506E-04  0.1486E-04  0.1463E-04  0.1439E-04  0.1413E-04  0.1385E-04  0.1355E-04  0.1322E-04  0.1289E-04  0.1253E-04  0.1216E-04  0.1174E-04  0.1132E-04  0.1089E-04  0.1045E-04  0.1003E-04  0.9629E-05  0.9217E-05  0.8809E-05  0.8393E-05  0.7984E-05  0.7579E-05  0.7177E-05  0.6784E-05  0.6380E-05  0.5971E-05  0.5572E-05  0.5138E-05  0.4846E-05  0.4568E-05  0.4297E-05  0.4034E-05  0.3783E-05  0.3548E-05  0.3317E-05
  0.2433E-04  0.2676E-04  0.2925E-04  0.3166E-04  0.3373E-04  0.3545E-04  0.3670E-04  0.3748E-04  0.3785E-04  0.3795E-04  0.3786E-04  0.3758E-04  0.3717E-04  0.3694E-04  0.3662E-04  0.3645E-04  0.3643E-04  0.3624E-04  0.3583E-04  0.3529E-04  0.3454E-04  0.3386E-04  0.3284E-04  0.3167E-04  0.3041E-04  0.2901E-04  0.2750E-04  0.2602E-04  0.2455E-04  0.2345E-04  0.2545E-04  0.5408E-04  0.1446E-03  0.9019E-04  0.7971E-04  0.1899E-04  0.1782E-04  0.1755E-04  0.1735E-04  0.1718E-04  0.1701E-04  0.1682E-04  0.1664E-04  0.1642E-04  0.1620E-04  0.1596E-04  0.1569E-04  0.1540E-04  0.1510E-04  0.1479E-04  0.1444E-04  0.1408E-04  0.1369E-04  0.1330E-04  0.1289E-04  0.1246E-04  0.1197E-04  0.1153E-04  0.1106E-04  0.1057E-04  0.1011E-04  0.9664E-05  0.9225E-05  0.8781E-05  0.8346E-05  0.7912E-05  0.7488E-05  0.7069E-05  0.6663E-05  0.6251E-05  0.5837E-05  0.5436E-05  0.5029E-05  0.4658E-05  0.4377E-05  0.4118E-05  0.3861E-05  0.3619E-05  0.3388E-05
  0.2916E-04  0.3268E-04  0.3632E-04  0.3984E-04  0.4300E-04  0.4562E-04  0.4757E-04  0.4878E-04  0.4927E-04  0.4916E-04  0.4866E-04  0.4814E-04  0.4740E-04  0.4680E-04  0.4661E-04  0.4672E-04  0.4688E-04  0.4697E-04  0.4731E-04  0.4733E-04  0.4723E-04  0.4686E-04  0.4646E-04  0.4598E-04  0.4528E-04  0.4447E-04  0.4376E-04  0.4345E-04  0.4510E-04  0.5176E-04  0.8336E-04  0.1805E-03  0.2180E-03  0.1186E-03  0.1194E-03  0.2837E-04  0.2027E-04  0.1935E-04  0.1891E-04  0.1864E-04  0.1840E-04  0.1818E-04  0.1795E-04  0.1770E-04  0.1743E-04  0.1715E-04  0.1685E-04  0.1651E-04  0.1616E-04  0.1579E-04  0.1540E-04  0.1499E-04  0.1457E-04  0.1412E-04  0.1368E-04  0.1320E-04  0.1270E-04  0.1219E-04  0.1170E-04  0.1119E-04  0.1067E-04  0.1016E-04  0.9682E-05  0.9209E-05  0.8743E-05  0.8284E-05  0.7829E-05  0.7385E-05  0.6950E-05  0.6531E-05  0.6108E-05  0.5688E-05  0.5292E-05  0.4904E-05  0.4475E-05  0.4186E-05  0.3934E-05  0.3684E-05  0.3452E-05
  0.3616E-04  0.4135E-04  0.4679E-04  0.5222E-04  0.5723E-04  0.6137E-04  0.6451E-04  0.6666E-04  0.6789E-04  0.6820E-04  0.6793E-04  0.6760E-04  0.6768E-04  0.6793E-04  0.6830E-04  0.6941E-04  0.7106E-04  0.7314E-04  0.7552E-04  0.7805E-04  0.8072E-04  0.8378E-04  0.8696E-04  0.9049E-04  0.9500E-04  0.1009E-03  0.1089E-03  0.1217E-03  0.1410E-03  0.1760E-03  0.2453E-03  0.3146E-03  0.2264E-03  0.1535E-03  0.1554E-03  0.4603E-04  0.2536E-04  0.2260E-04  0.2122E-04  0.2051E-04  0.2006E-04  0.1972E-04  0.1941E-04  0.1913E-04  0.1881E-04  0.1849E-04  0.1816E-04  0.1778E-04  0.1740E-04  0.1701E-04  0.1657E-04  0.1613E-04  0.1566E-04  0.1518E-04  0.1467E-04  0.1417E-04  0.1365E-04  0.1305E-04  0.1253E-04  0.1199E-04  0.1144E-04  0.1086E-04  0.1032E-04  0.9783E-05  0.9285E-05  0.8788E-05  0.8293E-05  0.7810E-05  0.7332E-05  0.6871E-05  0.6411E-05  0.5969E-05  0.5542E-05  0.5146E-05  0.4753E-05  0.4369E-05  0.3993E-05  0.3745E-05  0.3505E-05
  0.4543E-04  0.5285E-04  0.6082E-04  0.6898E-04  0.7661E-04  0.8323E-04  0.8856E-04  0.9265E-04  0.9551E-04  0.9753E-04  0.9888E-04  0.1005E-03  0.1028E-03  0.1060E-03  0.1094E-03  0.1134E-03  0.1180E-03  0.1237E-03  0.1303E-03  0.1374E-03  0.1455E-03  0.1543E-03  0.1639E-03  0.1749E-03  0.1877E-03  0.2033E-03  0.2226E-03  0.2446E-03  0.2712E-03  0.3062E-03  0.3480E-03  0.3139E-03  0.1994E-03  0.1762E-03  0.1852E-03  0.7453E-04  0.3437E-04  0.2826E-04  0.2514E-04  0.2333E-04  0.2230E-04  0.2165E-04  0.2119E-04  0.2078E-04  0.2041E-04  0.2005E-04  0.1968E-04  0.1928E-04  0.1886E-04  0.1843E-04  0.1796E-04  0.1749E-04  0.1699E-04  0.1645E-04  0.1592E-04  0.1536E-04  0.1479E-04  0.1416E-04  0.1358E-04  0.1301E-04  0.1242E-04  0.1183E-04  0.1121E-04  0.1063E-04  0.1003E-04  0.9466E-05  0.8910E-05  0.8365E-05  0.7831E-05  0.7321E-05  0.6827E-05  0.6337E-05  0.5862E-05  0.5422E-05  0.5002E-05  0.4611E-05  0.4238E-05  0.3838E-05  0.3554E-05
  0.5632E-04  0.6637E-04  0.7725E-04  0.8837E-04  0.9914E-04  0.1088E-03  0.1170E-03  0.1238E-03  0.1293E-03  0.1339E-03  0.1381E-03  0.1427E-03  0.1484E-03  0.1557E-03  0.1648E-03  0.1741E-03  0.1826E-03  0.1907E-03  0.1996E-03  0.2096E-03  0.2199E-03  0.2303E-03  0.2408E-03  0.2521E-03  0.2640E-03  0.2761E-03  0.2841E-03  0.2876E-03  0.2943E-03  0.3135E-03  0.3105E-03  0.2378E-03  0.1731E-03  0.1850E-03  0.1949E-03  0.1115E-03  0.5529E-04  0.3806E-04  0.3132E-04  0.2780E-04  0.2558E-04  0.2425E-04  0.2340E-04  0.2278E-04  0.2231E-04  0.2187E-04  0.2144E-04  0.2103E-04  0.2058E-04  0.2011E-04  0.1961E-04  0.1909E-04  0.1854E-04  0.1796E-04  0.1737E-04  0.1677E-04  0.1614E-04  0.1552E-04  0.1482E-04  0.1420E-04  0.1355E-04  0.1288E-04  0.1220E-04  0.1152E-04  0.1085E-04  0.1021E-04  0.9590E-05  0.8984E-05  0.8391E-05  0.7819E-05  0.7277E-05  0.6744E-05  0.6228E-05  0.5739E-05  0.5280E-05  0.4851E-05  0.4456E-05  0.4082E-05  0.3733E-05
  0.6776E-04  0.8038E-04  0.9396E-04  0.1081E-03  0.1217E-03  0.1345E-03  0.1455E-03  0.1549E-03  0.1628E-03  0.1697E-03  0.1764E-03  0.1837E-03  0.1923E-03  0.2028E-03  0.2138E-03  0.2256E-03  0.2370E-03  0.2451E-03  0.2504E-03  0.2550E-03  0.2593E-03  0.2633E-03  0.2667E-03  0.2691E-03  0.2686E-03  0.2611E-03  0.2479E-03  0.2387E-03  0.2515E-03  0.2706E-03  0.2445E-03  0.1875E-03  0.1683E-03  0.1852E-03  0.1846E-03  0.1365E-03  0.8635E-04  0.5649E-04  0.4147E-04  0.3439E-04  0.3043E-04  0.2797E-04  0.2635E-04  0.2531E-04  0.2459E-04  0.2404E-04  0.2355E-04  0.2310E-04  0.2262E-04  0.2213E-04  0.2159E-04  0.2103E-04  0.2044E-04  0.1980E-04  0.1916E-04  0.1849E-04  0.1780E-04  0.1711E-04  0.1634E-04  0.1562E-04  0.1488E-04  0.1415E-04  0.1339E-04  0.1262E-04  0.1187E-04  0.1114E-04  0.1043E-04  0.9741E-05  0.9076E-05  0.8438E-05  0.7817E-05  0.7221E-05  0.6664E-05  0.6107E-05  0.5596E-05  0.5116E-05  0.4687E-05  0.4284E-05  0.3913E-05
  0.7846E-04  0.9318E-04  0.1092E-03  0.1257E-03  0.1418E-03  0.1567E-03  0.1698E-03  0.1808E-03  0.1898E-03  0.1978E-03  0.2049E-03  0.2127E-03  0.2211E-03  0.2308E-03  0.2417E-03  0.2492E-03  0.2538E-03  0.2570E-03  0.2565E-03  0.2534E-03  0.2492E-03  0.2454E-03  0.2408E-03  0.2330E-03  0.2184E-03  0.1999E-03  0.1880E-03  0.2025E-03  0.2346E-03  0.2431E-03  0.2080E-03  0.1746E-03  0.1755E-03  0.1840E-03  0.1668E-03  0.1383E-03  0.1106E-03  0.8169E-04  0.5832E-04  0.4470E-04  0.3751E-04  0.3331E-04  0.3061E-04  0.2882E-04  0.2765E-04  0.2681E-04  0.2618E-04  0.2562E-04  0.2509E-04  0.2457E-04  0.2401E-04  0.2342E-04  0.2276E-04  0.2208E-04  0.2137E-04  0.2063E-04  0.1987E-04  0.1907E-04  0.1822E-04  0.1736E-04  0.1653E-04  0.1570E-04  0.1486E-04  0.1400E-04  0.1313E-04  0.1230E-04  0.1148E-04  0.1070E-04  0.9932E-05  0.9189E-05  0.8486E-05  0.7814E-05  0.7175E-05  0.6573E-05  0.5993E-05  0.5442E-05  0.4953E-05  0.4505E-05  0.4096E-05
  0.8730E-04  0.1035E-03  0.1210E-03  0.1389E-03  0.1564E-03  0.1726E-03  0.1864E-03  0.1975E-03  0.2065E-03  0.2135E-03  0.2192E-03  0.2241E-03  0.2288E-03  0.2338E-03  0.2386E-03  0.2427E-03  0.2412E-03  0.2355E-03  0.2296E-03  0.2232E-03  0.2162E-03  0.2086E-03  0.1987E-03  0.1834E-03  0.1650E-03  0.1558E-03  0.1718E-03  0.2116E-03  0.2401E-03  0.2274E-03  0.1938E-03  0.1771E-03  0.1850E-03  0.1859E-03  0.1555E-03  0.1279E-03  0.1172E-03  0.1024E-03  0.7972E-04  0.5974E-04  0.4707E-04  0.3993E-04  0.3583E-04  0.3330E-04  0.3165E-04  0.3050E-04  0.2959E-04  0.2886E-04  0.2821E-04  0.2760E-04  0.2698E-04  0.2632E-04  0.2562E-04  0.2487E-04  0.2408E-04  0.2324E-04  0.2237E-04  0.2146E-04  0.2053E-04  0.1954E-04  0.1858E-04  0.1763E-04  0.1667E-04  0.1570E-04  0.1472E-04  0.1375E-04  0.1280E-04  0.1188E-04  0.1100E-04  0.1014E-04  0.9318E-05  0.8541E-05  0.7806E-05  0.7119E-05  0.6474E-05  0.5874E-05  0.5292E-05  0.4768E-05  0.4318E-05
  0.9372E-04  0.1105E-03  0.1286E-03  0.1470E-03  0.1649E-03  0.1810E-03  0.1947E-03  0.2054E-03  0.2132E-03  0.2183E-03  0.2213E-03  0.2229E-03  0.2234E-03  0.2228E-03  0.2214E-03  0.2188E-03  0.2146E-03  0.2074E-03  0.1998E-03  0.1949E-03  0.1879E-03  0.1773E-03  0.1625E-03  0.1463E-03  0.1391E-03  0.1544E-03  0.1959E-03  0.2358E-03  0.2407E-03  0.2156E-03  0.1901E-03  0.1836E-03  0.1931E-03  0.1898E-03  0.1519E-03  0.1173E-03  0.1116E-03  0.1108E-03  0.9788E-04  0.7751E-04  0.5997E-04  0.4857E-04  0.4209E-04  0.3853E-04  0.3631E-04  0.3483E-04  0.3372E-04  0.3284E-04  0.3209E-04  0.3137E-04  0.3065E-04  0.2992E-04  0.2915E-04  0.2832E-04  0.2741E-04  0.2644E-04  0.2542E-04  0.2438E-04  0.2331E-04  0.2217E-04  0.2108E-04  0.1999E-04  0.1888E-04  0.1776E-04  0.1664E-04  0.1552E-04  0.1442E-04  0.1335E-04  0.1231E-04  0.1130E-04  0.1035E-04  0.9440E-05  0.8584E-05  0.7782E-05  0.7039E-05  0.6344E-05  0.5724E-05  0.5144E-05  0.4590E-05
  0.9768E-04  0.1145E-03  0.1323E-03  0.1505E-03  0.1680E-03  0.1836E-03  0.1967E-03  0.2066E-03  0.2131E-03  0.2164E-03  0.2173E-03  0.2163E-03  0.2138E-03  0.2099E-03  0.2047E-03  0.1985E-03  0.1918E-03  0.1848E-03  0.1783E-03  0.1734E-03  0.1677E-03  0.1543E-03  0.1392E-03  0.1322E-03  0.1463E-03  0.1857E-03  0.2298E-03  0.2485E-03  0.2336E-03  0.2078E-03  0.1911E-03  0.1902E-03  0.2004E-03  0.1934E-03  0.1522E-03  0.1111E-03  0.1023E-03  0.1087E-03  0.1079E-03  0.9417E-04  0.7587E-04  0.6061E-04  0.5059E-04  0.4485E-04  0.4157E-04  0.3958E-04  0.3821E-04  0.3717E-04  0.3631E-04  0.3553E-04  0.3479E-04  0.3403E-04  0.3322E-04  0.3233E-04  0.3136E-04  0.3028E-04  0.2915E-04  0.2796E-04  0.2673E-04  0.2544E-04  0.2415E-04  0.2286E-04  0.2157E-04  0.2027E-04  0.1897E-04  0.1766E-04  0.1638E-04  0.1513E-04  0.1390E-04  0.1273E-04  0.1161E-04  0.1054E-04  0.9537E-05  0.8599E-05  0.7719E-05  0.6919E-05  0.6201E-05  0.5554E-05  0.4972E-05
  0.9947E-04  0.1157E-03  0.1330E-03  0.1503E-03  0.1670E-03  0.1819E-03  0.1943E-03  0.2034E-03  0.2092E-03  0.2116E-03  0.2114E-03  0.2090E-03  0.2047E-03  0.1996E-03  0.1933E-03  0.1864E-03  0.1793E-03  0.1721E-03  0.1653E-03  0.1580E-03  0.1491E-03  0.1389E-03  0.1324E-03  0.1435E-03  0.1790E-03  0.2249E-03  0.2518E-03  0.2474E-03  0.2252E-03  0.2052E-03  0.1952E-03  0.1970E-03  0.2069E-03  0.1970E-03  0.1546E-03  0.1094E-03  0.9459E-04  0.1019E-03  0.1094E-03  0.1047E-03  0.9041E-04  0.7412E-04  0.6116E-04  0.5272E-04  0.4771E-04  0.4473E-04  0.4288E-04  0.4150E-04  0.4048E-04  0.3964E-04  0.3888E-04  0.3812E-04  0.3732E-04  0.3645E-04  0.3548E-04  0.3441E-04  0.3323E-04  0.3198E-04  0.3065E-04  0.2926E-04  0.2777E-04  0.2631E-04  0.2482E-04  0.2331E-04  0.2180E-04  0.2028E-04  0.1876E-04  0.1728E-04  0.1583E-04  0.1445E-04  0.1313E-04  0.1187E-04  0.1068E-04  0.9568E-05  0.8552E-05  0.7623E-05  0.6781E-05  0.6030E-05  0.5360E-05
  0.9956E-04  0.1152E-03  0.1315E-03  0.1478E-03  0.1634E-03  0.1774E-03  0.1892E-03  0.1978E-03  0.2033E-03  0.2059E-03  0.2052E-03  0.2027E-03  0.1986E-03  0.1933E-03  0.1871E-03  0.1804E-03  0.1735E-03  0.1659E-03  0.1573E-03  0.1480E-03  0.1393E-03  0.1361E-03  0.1457E-03  0.1753E-03  0.2191E-03  0.2519E-03  0.2570E-03  0.2408E-03  0.2202E-03  0.2061E-03  0.1999E-03  0.2036E-03  0.2126E-03  0.2008E-03  0.1589E-03  0.1118E-03  0.9098E-04  0.9416E-04  0.1040E-03  0.1058E-03  0.9745E-04  0.8418E-04  0.7142E-04  0.6173E-04  0.5509E-04  0.5071E-04  0.4783E-04  0.4588E-04  0.4446E-04  0.4344E-04  0.4260E-04  0.4187E-04  0.4109E-04  0.4024E-04  0.3935E-04  0.3834E-04  0.3722E-04  0.3599E-04  0.3465E-04  0.3322E-04  0.3166E-04  0.3009E-04  0.2846E-04  0.2678E-04  0.2507E-04  0.2334E-04  0.2159E-04  0.1987E-04  0.1818E-04  0.1654E-04  0.1497E-04  0.1349E-04  0.1209E-04  0.1078E-04  0.9574E-05  0.8476E-05  0.7487E-05  0.6608E-05  0.5823E-05
  0.9856E-04  0.1132E-03  0.1285E-03  0.1437E-03  0.1583E-03  0.1717E-03  0.1827E-03  0.1913E-03  0.1970E-03  0.1996E-03  0.2000E-03  0.1978E-03  0.1943E-03  0.1897E-03  0.1843E-03  0.1781E-03  0.1710E-03  0.1627E-03  0.1532E-03  0.1448E-03  0.1434E-03  0.1515E-03  0.1768E-03  0.2158E-03  0.2508E-03  0.2639E-03  0.2532E-03  0.2337E-03  0.2186E-03  0.2081E-03  0.2033E-03  0.2092E-03  0.2166E-03  0.2042E-03  0.1636E-03  0.1166E-03  0.9069E-04  0.8764E-04  0.9479E-04  0.9916E-04  0.9624E-04  0.8825E-04  0.7868E-04  0.6982E-04  0.6256E-04  0.5705E-04  0.5314E-04  0.5032E-04  0.4837E-04  0.4696E-04  0.4592E-04  0.4507E-04  0.4429E-04  0.4350E-04  0.4268E-04  0.4177E-04  0.4074E-04  0.3960E-04  0.3832E-04  0.3693E-04  0.3539E-04  0.3378E-04  0.3209E-04  0.3032E-04  0.2849E-04  0.2661E-04  0.2469E-04  0.2276E-04  0.2084E-04  0.1897E-04  0.1716E-04  0.1543E-04  0.1380E-04  0.1227E-04  0.1085E-04  0.9558E-05  0.8391E-05  0.7352E-05  0.6433E-05
  0.9680E-04  0.1105E-03  0.1245E-03  0.1389E-03  0.1527E-03  0.1649E-03  0.1759E-03  0.1841E-03  0.1904E-03  0.1937E-03  0.1948E-03  0.1940E-03  0.1914E-03  0.1878E-03  0.1829E-03  0.1770E-03  0.1697E-03  0.1616E-03  0.1537E-03  0.1521E-03  0.1592E-03  0.1815E-03  0.2164E-03  0.2503E-03  0.2666E-03  0.2632E-03  0.2457E-03  0.2291E-03  0.2179E-03  0.2090E-03  0.2053E-03  0.2122E-03  0.2194E-03  0.2068E-03  0.1675E-03  0.1217E-03  0.9238E-04  0.8381E-04  0.8717E-04  0.9177E-04  0.9215E-04  0.8850E-04  0.8234E-04  0.7540E-04  0.6858E-04  0.6286E-04  0.5820E-04  0.5470E-04  0.5208E-04  0.5020E-04  0.4879E-04  0.4776E-04  0.4690E-04  0.4613E-04  0.4534E-04  0.4452E-04  0.4361E-04  0.4258E-04  0.4141E-04  0.4010E-04  0.3863E-04  0.3703E-04  0.3535E-04  0.3356E-04  0.3167E-04  0.2971E-04  0.2767E-04  0.2561E-04  0.2354E-04  0.2148E-04  0.1947E-04  0.1754E-04  0.1570E-04  0.1396E-04  0.1234E-04  0.1086E-04  0.9513E-05  0.8301E-05  0.7230E-05
  0.9453E-04  0.1071E-03  0.1204E-03  0.1334E-03  0.1464E-03  0.1584E-03  0.1686E-03  0.1773E-03  0.1836E-03  0.1879E-03  0.1900E-03  0.1903E-03  0.1888E-03  0.1860E-03  0.1819E-03  0.1763E-03  0.1693E-03  0.1626E-03  0.1613E-03  0.1677E-03  0.1861E-03  0.2170E-03  0.2491E-03  0.2662E-03  0.2634E-03  0.2511E-03  0.2381E-03  0.2276E-03  0.2168E-03  0.2067E-03  0.2048E-03  0.2124E-03  0.2203E-03  0.2080E-03  0.1709E-03  0.1268E-03  0.9547E-04  0.8266E-04  0.8308E-04  0.8662E-04  0.8827E-04  0.8705E-04  0.8349E-04  0.7838E-04  0.7274E-04  0.6730E-04  0.6251E-04  0.5851E-04  0.5540E-04  0.5302E-04  0.5128E-04  0.4996E-04  0.4895E-04  0.4809E-04  0.4732E-04  0.4653E-04  0.4572E-04  0.4480E-04  0.4375E-04  0.4254E-04  0.4116E-04  0.3962E-04  0.3798E-04  0.3621E-04  0.3432E-04  0.3232E-04  0.3024E-04  0.2810E-04  0.2594E-04  0.2377E-04  0.2162E-04  0.1954E-04  0.1755E-04  0.1566E-04  0.1388E-04  0.1223E-04  0.1072E-04  0.9364E-05  0.8150E-05
  0.9184E-04  0.1037E-03  0.1157E-03  0.1282E-03  0.1401E-03  0.1514E-03  0.1614E-03  0.1701E-03  0.1769E-03  0.1819E-03  0.1850E-03  0.1862E-03  0.1858E-03  0.1839E-03  0.1804E-03  0.1752E-03  0.1703E-03  0.1695E-03  0.1752E-03  0.1910E-03  0.2173E-03  0.2474E-03  0.2651E-03  0.2641E-03  0.2499E-03  0.2362E-03  0.2287E-03  0.2242E-03  0.2141E-03  0.2025E-03  0.2020E-03  0.2114E-03  0.2190E-03  0.2076E-03  0.1731E-03  0.1314E-03  0.9914E-04  0.8329E-04  0.8110E-04  0.8329E-04  0.8523E-04  0.8514E-04  0.8309E-04  0.7944E-04  0.7502E-04  0.7019E-04  0.6555E-04  0.6148E-04  0.5803E-04  0.5529E-04  0.5319E-04  0.5161E-04  0.5039E-04  0.4943E-04  0.4860E-04  0.4784E-04  0.4704E-04  0.4621E-04  0.4525E-04  0.4414E-04  0.4285E-04  0.4140E-04  0.3983E-04  0.3812E-04  0.3626E-04  0.3428E-04  0.3220E-04  0.3004E-04  0.2784E-04  0.2562E-04  0.2341E-04  0.2125E-04  0.1915E-04  0.1716E-04  0.1526E-04  0.1350E-04  0.1186E-04  0.1038E-04  0.9050E-05
  0.8890E-04  0.9984E-04  0.1112E-03  0.1226E-03  0.1339E-03  0.1445E-03  0.1544E-03  0.1630E-03  0.1701E-03  0.1756E-03  0.1794E-03  0.1817E-03  0.1822E-03  0.1810E-03  0.1781E-03  0.1756E-03  0.1755E-03  0.1804E-03  0.1943E-03  0.2177E-03  0.2443E-03  0.2633E-03  0.2644E-03  0.2514E-03  0.2352E-03  0.2256E-03  0.2235E-03  0.2193E-03  0.2076E-03  0.1979E-03  0.1986E-03  0.2086E-03  0.2158E-03  0.2061E-03  0.1748E-03  0.1358E-03  0.1031E-03  0.8467E-04  0.8012E-04  0.8105E-04  0.8281E-04  0.8315E-04  0.8195E-04  0.7938E-04  0.7573E-04  0.7166E-04  0.6738E-04  0.6336E-04  0.5986E-04  0.5690E-04  0.5456E-04  0.5273E-04  0.5131E-04  0.5022E-04  0.4929E-04  0.4848E-04  0.4769E-04  0.4687E-04  0.4599E-04  0.4496E-04  0.4377E-04  0.4241E-04  0.4092E-04  0.3926E-04  0.3748E-04  0.3556E-04  0.3352E-04  0.3139E-04  0.2921E-04  0.2700E-04  0.2477E-04  0.2257E-04  0.2044E-04  0.1839E-04  0.1644E-04  0.1460E-04  0.1289E-04  0.1131E-04  0.9888E-05
  0.8584E-04  0.9589E-04  0.1064E-03  0.1170E-03  0.1276E-03  0.1377E-03  0.1472E-03  0.1556E-03  0.1629E-03  0.1688E-03  0.1733E-03  0.1762E-03  0.1774E-03  0.1775E-03  0.1769E-03  0.1789E-03  0.1844E-03  0.1963E-03  0.2161E-03  0.2400E-03  0.2586E-03  0.2629E-03  0.2521E-03  0.2359E-03  0.2241E-03  0.2199E-03  0.2194E-03  0.2128E-03  0.2008E-03  0.1939E-03  0.1961E-03  0.2040E-03  0.2082E-03  0.1989E-03  0.1735E-03  0.1391E-03  0.1075E-03  0.8727E-04  0.8013E-04  0.7921E-04  0.8075E-04  0.8123E-04  0.8041E-04  0.7837E-04  0.7545E-04  0.7186E-04  0.6806E-04  0.6427E-04  0.6081E-04  0.5782E-04  0.5533E-04  0.5333E-04  0.5174E-04  0.5048E-04  0.4946E-04  0.4858E-04  0.4776E-04  0.4691E-04  0.4606E-04  0.4511E-04  0.4401E-04  0.4272E-04  0.4131E-04  0.3974E-04  0.3803E-04  0.3620E-04  0.3423E-04  0.3217E-04  0.3004E-04  0.2787E-04  0.2569E-04  0.2351E-04  0.2138E-04  0.1932E-04  0.1735E-04  0.1548E-04  0.1373E-04  0.1211E-04  0.1063E-04
  0.8246E-04  0.9184E-04  0.1015E-03  0.1114E-03  0.1213E-03  0.1309E-03  0.1399E-03  0.1481E-03  0.1554E-03  0.1615E-03  0.1664E-03  0.1700E-03  0.1724E-03  0.1744E-03  0.1775E-03  0.1847E-03  0.1960E-03  0.2128E-03  0.2340E-03  0.2521E-03  0.2588E-03  0.2520E-03  0.2372E-03  0.2240E-03  0.2171E-03  0.2159E-03  0.2139E-03  0.2042E-03  0.1947E-03  0.1901E-03  0.1930E-03  0.1987E-03  0.1997E-03  0.1897E-03  0.1688E-03  0.1397E-03  0.1120E-03  0.9168E-04  0.8153E-04  0.7847E-04  0.7885E-04  0.7920E-04  0.7852E-04  0.7686E-04  0.7430E-04  0.7123E-04  0.6775E-04  0.6431E-04  0.6100E-04  0.5803E-04  0.5553E-04  0.5344E-04  0.5170E-04  0.5032E-04  0.4917E-04  0.4822E-04  0.4734E-04  0.4646E-04  0.4559E-04  0.4468E-04  0.4366E-04  0.4245E-04  0.4111E-04  0.3964E-04  0.3802E-04  0.3628E-04  0.3440E-04  0.3243E-04  0.3039E-04  0.2829E-04  0.2618E-04  0.2406E-04  0.2197E-04  0.1994E-04  0.1798E-04  0.1613E-04  0.1437E-04  0.1274E-04  0.1123E-04
  0.7889E-04  0.8756E-04  0.9656E-04  0.1057E-03  0.1148E-03  0.1238E-03  0.1324E-03  0.1402E-03  0.1475E-03  0.1537E-03  0.1590E-03  0.1639E-03  0.1679E-03  0.1728E-03  0.1802E-03  0.1912E-03  0.2071E-03  0.2260E-03  0.2431E-03  0.2514E-03  0.2487E-03  0.2373E-03  0.2241E-03  0.2149E-03  0.2120E-03  0.2122E-03  0.2066E-03  0.1975E-03  0.1899E-03  0.1869E-03  0.1896E-03  0.1927E-03  0.1918E-03  0.1822E-03  0.1640E-03  0.1393E-03  0.1149E-03  0.9546E-04  0.8362E-04  0.7847E-04  0.7686E-04  0.7705E-04  0.7635E-04  0.7487E-04  0.7264E-04  0.6986E-04  0.6679E-04  0.6357E-04  0.6051E-04  0.5767E-04  0.5516E-04  0.5304E-04  0.5128E-04  0.4978E-04  0.4854E-04  0.4748E-04  0.4655E-04  0.4561E-04  0.4468E-04  0.4382E-04  0.4283E-04  0.4172E-04  0.4043E-04  0.3906E-04  0.3754E-04  0.3588E-04  0.3413E-04  0.3225E-04  0.3031E-04  0.2831E-04  0.2628E-04  0.2426E-04  0.2224E-04  0.2027E-04  0.1837E-04  0.1655E-04  0.1482E-04  0.1320E-04  0.1169E-04
  0.7517E-04  0.8310E-04  0.9142E-04  0.9986E-04  0.1083E-03  0.1167E-03  0.1247E-03  0.1322E-03  0.1393E-03  0.1459E-03  0.1521E-03  0.1582E-03  0.1647E-03  0.1729E-03  0.1840E-03  0.1988E-03  0.2162E-03  0.2314E-03  0.2415E-03  0.2423E-03  0.2339E-03  0.2227E-03  0.2131E-03  0.2092E-03  0.2093E-03  0.2068E-03  0.2007E-03  0.1925E-03  0.1859E-03  0.1842E-03  0.1859E-03  0.1869E-03  0.1846E-03  0.1752E-03  0.1591E-03  0.1378E-03  0.1168E-03  0.9864E-04  0.8561E-04  0.7853E-04  0.7587E-04  0.7465E-04  0.7394E-04  0.7253E-04  0.7053E-04  0.6803E-04  0.6522E-04  0.6233E-04  0.5944E-04  0.5678E-04  0.5434E-04  0.5223E-04  0.5044E-04  0.4893E-04  0.4760E-04  0.4649E-04  0.4546E-04  0.4447E-04  0.4349E-04  0.4260E-04  0.4165E-04  0.4060E-04  0.3939E-04  0.3809E-04  0.3667E-04  0.3513E-04  0.3346E-04  0.3172E-04  0.2989E-04  0.2800E-04  0.2608E-04  0.2416E-04  0.2223E-04  0.2034E-04  0.1851E-04  0.1675E-04  0.1508E-04  0.1349E-04  0.1201E-04
  0.7133E-04  0.7863E-04  0.8629E-04  0.9404E-04  0.1018E-03  0.1095E-03  0.1169E-03  0.1243E-03  0.1315E-03  0.1386E-03  0.1459E-03  0.1540E-03  0.1628E-03  0.1741E-03  0.1881E-03  0.2034E-03  0.2188E-03  0.2297E-03  0.2318E-03  0.2276E-03  0.2182E-03  0.2102E-03  0.2051E-03  0.2039E-03  0.2035E-03  0.2014E-03  0.1948E-03  0.1875E-03  0.1824E-03  0.1810E-03  0.1816E-03  0.1818E-03  0.1773E-03  0.1681E-03  0.1539E-03  0.1357E-03  0.1166E-03  0.9988E-04  0.8685E-04  0.7850E-04  0.7446E-04  0.7218E-04  0.7122E-04  0.6991E-04  0.6803E-04  0.6578E-04  0.6324E-04  0.6059E-04  0.5797E-04  0.5542E-04  0.5315E-04  0.5106E-04  0.4928E-04  0.4776E-04  0.4643E-04  0.4523E-04  0.4417E-04  0.4313E-04  0.4208E-04  0.4117E-04  0.4024E-04  0.3922E-04  0.3809E-04  0.3685E-04  0.3552E-04  0.3408E-04  0.3254E-04  0.3089E-04  0.2920E-04  0.2742E-04  0.2562E-04  0.2380E-04  0.2199E-04  0.2020E-04  0.1846E-04  0.1677E-04  0.1515E-04  0.1363E-04  0.1219E-04
  0.6743E-04  0.7404E-04  0.8108E-04  0.8814E-04  0.9521E-04  0.1022E-03  0.1095E-03  0.1169E-03  0.1244E-03  0.1324E-03  0.1407E-03  0.1500E-03  0.1613E-03  0.1746E-03  0.1897E-03  0.2046E-03  0.2159E-03  0.2205E-03  0.2190E-03  0.2123E-03  0.2044E-03  0.2001E-03  0.1970E-03  0.1976E-03  0.1974E-03  0.1953E-03  0.1891E-03  0.1823E-03  0.1787E-03  0.1768E-03  0.1759E-03  0.1750E-03  0.1696E-03  0.1604E-03  0.1476E-03  0.1317E-03  0.1146E-03  0.9937E-04  0.8682E-04  0.7821E-04  0.7298E-04  0.7018E-04  0.6824E-04  0.6698E-04  0.6527E-04  0.6320E-04  0.6090E-04  0.5851E-04  0.5608E-04  0.5378E-04  0.5158E-04  0.4965E-04  0.4788E-04  0.4634E-04  0.4501E-04  0.4381E-04  0.4267E-04  0.4161E-04  0.4055E-04  0.3959E-04  0.3867E-04  0.3768E-04  0.3660E-04  0.3542E-04  0.3417E-04  0.3282E-04  0.3140E-04  0.2986E-04  0.2828E-04  0.2663E-04  0.2496E-04  0.2326E-04  0.2155E-04  0.1988E-04  0.1823E-04  0.1663E-04  0.1509E-04  0.1364E-04  0.1225E-04
  0.6348E-04  0.6950E-04  0.7586E-04  0.8233E-04  0.8901E-04  0.9570E-04  0.1028E-03  0.1102E-03  0.1181E-03  0.1267E-03  0.1360E-03  0.1468E-03  0.1593E-03  0.1733E-03  0.1875E-03  0.1988E-03  0.2065E-03  0.2076E-03  0.2040E-03  0.1977E-03  0.1924E-03  0.1897E-03  0.1888E-03  0.1889E-03  0.1890E-03  0.1851E-03  0.1802E-03  0.1757E-03  0.1726E-03  0.1696E-03  0.1680E-03  0.1656E-03  0.1596E-03  0.1514E-03  0.1395E-03  0.1259E-03  0.1111E-03  0.9765E-04  0.8618E-04  0.7719E-04  0.7126E-04  0.6773E-04  0.6555E-04  0.6387E-04  0.6223E-04  0.6037E-04  0.5834E-04  0.5618E-04  0.5397E-04  0.5183E-04  0.4982E-04  0.4795E-04  0.4627E-04  0.4475E-04  0.4341E-04  0.4222E-04  0.4106E-04  0.3999E-04  0.3894E-04  0.3793E-04  0.3701E-04  0.3604E-04  0.3501E-04  0.3388E-04  0.3270E-04  0.3145E-04  0.3011E-04  0.2870E-04  0.2722E-04  0.2570E-04  0.2414E-04  0.2257E-04  0.2098E-04  0.1940E-04  0.1787E-04  0.1636E-04  0.1491E-04  0.1352E-04  0.1221E-04
  0.5959E-04  0.6503E-04  0.7070E-04  0.7675E-04  0.8297E-04  0.8932E-04  0.9635E-04  0.1036E-03  0.1115E-03  0.1200E-03  0.1295E-03  0.1399E-03  0.1517E-03  0.1637E-03  0.1759E-03  0.1863E-03  0.1917E-03  0.1925E-03  0.1885E-03  0.1830E-03  0.1797E-03  0.1773E-03  0.1756E-03  0.1751E-03  0.1736E-03  0.1707E-03  0.1668E-03  0.1637E-03  0.1609E-03  0.1586E-03  0.1555E-03  0.1522E-03  0.1469E-03  0.1396E-03  0.1297E-03  0.1182E-03  0.1060E-03  0.9404E-04  0.8369E-04  0.7532E-04  0.6921E-04  0.6516E-04  0.6269E-04  0.6054E-04  0.5907E-04  0.5744E-04  0.5561E-04  0.5367E-04  0.5167E-04  0.4970E-04  0.4783E-04  0.4611E-04  0.4448E-04  0.4304E-04  0.4172E-04  0.4050E-04  0.3941E-04  0.3828E-04  0.3724E-04  0.3623E-04  0.3531E-04  0.3437E-04  0.3337E-04  0.3230E-04  0.3116E-04  0.2997E-04  0.2873E-04  0.2743E-04  0.2607E-04  0.2466E-04  0.2322E-04  0.2176E-04  0.2029E-04  0.1883E-04  0.1738E-04  0.1599E-04  0.1462E-04  0.1332E-04  0.1206E-04
  0.5573E-04  0.6065E-04  0.6584E-04  0.7136E-04  0.7718E-04  0.8316E-04  0.8979E-04  0.9663E-04  0.1041E-03  0.1120E-03  0.1204E-03  0.1289E-03  0.1388E-03  0.1487E-03  0.1579E-03  0.1663E-03  0.1720E-03  0.1734E-03  0.1716E-03  0.1682E-03  0.1646E-03  0.1613E-03  0.1597E-03  0.1576E-03  0.1556E-03  0.1534E-03  0.1500E-03  0.1474E-03  0.1455E-03  0.1429E-03  0.1403E-03  0.1365E-03  0.1324E-03  0.1261E-03  0.1181E-03  0.1084E-03  0.9857E-04  0.8864E-04  0.7979E-04  0.7246E-04  0.6671E-04  0.6254E-04  0.5965E-04  0.5764E-04  0.5585E-04  0.5442E-04  0.5277E-04  0.5102E-04  0.4923E-04  0.4745E-04  0.4572E-04  0.4410E-04  0.4262E-04  0.4120E-04  0.3994E-04  0.3874E-04  0.3763E-04  0.3657E-04  0.3555E-04  0.3455E-04  0.3361E-04  0.3268E-04  0.3173E-04  0.3071E-04  0.2963E-04  0.2849E-04  0.2733E-04  0.2612E-04  0.2486E-04  0.2356E-04  0.2224E-04  0.2089E-04  0.1953E-04  0.1817E-04  0.1684E-04  0.1552E-04  0.1427E-04  0.1303E-04  0.1186E-04
