DSAA
          79         109
    318.3670    342.0670
   7336.5760   7369.2760
  0.0000E+00  0.9528E-03
  0.0000E+00  0.0000E+00  0.0000E+00  0.0000E+00  0.0000E+00  0.0000E+00  0.0000E+00  0.0000E+00  0.0000E+00  0.0000E+00  0.0000E+00  0.0000E+00  0.0000E+00  0.0000E+00  0.0000E+00  0.0000E+00  0.0000E+00  0.0000E+00  0.0000E+00  0.0000E+00  0.0000E+00  0.0000E+00  0.0000E+00  0.0000E+00  0.0000E+00  0.0000E+00  0.0000E+00  0.0000E+00  0.0000E+00  0.0000E+00  0.0000E+00  0.0000E+00  0.0000E+00  0.0000E+00  0.0000E+00  0.0000E+00  0.0000E+00  0.0000E+00  0.0000E+00  0.0000E+00  0.0000E+00  0.0000E+00  0.0000E+00  0.0000E+00  0.0000E+00  0.0000E+00  0.0000E+00  0.0000E+00  0.0000E+00  0.0000E+00  0.0000E+00  0.0000E+00  0.0000E+00  0.0000E+00  0.0000E+00  0.0000E+00  0.0000E+00  0.0000E+00  0.0000E+00  0.0000E+00  0.0000E+00  0.0000E+00  0.0000E+00  0.0000E+00  0.0000E+00  0.0000E+00  0.0000E+00  0.0000E+00  0.0000E+00  0.0000E+00  0.0000E+00  0.0000E+00  0.0000E+00  0.0000E+00  0.0000E+00  0.0000E+00  0.0000E+00  0.0000E+00  0.0000E+00
  0.0000E+00  0.0000E+00  0.0000E+00  0.0000E+00  0.0000E+00  0.0000E+00  0.0000E+00  0.0000E+00  0.0000E+00  0.0000E+00  0.0000E+00  0.0000E+00  0.0000E+00  0.0000E+00  0.0000E+00  0.0000E+00  0.0000E+00  0.0000E+00  0.0000E+00  0.0000E+00  0.0000E+00  0.0000E+00  0.0000E+00  0.0000E+00  0.0000E+00  0.0000E+00  0.0000E+00  0.0000E+00  0.0000E+00  0.0000E+00  0.0000E+00  0.0000E+00  0.0000E+00  0.0000E+00  0.0000E+00  0.0000E+00  0.0000E+00  0.0000E+00  0.0000E+00  0.0000E+00  0.0000E+00  0.0000E+00  0.0000E+00  0.0000E+00  0.0000E+00  0.0000E+00  0.0000E+00  0.0000E+00  0.0000E+00  0.0000E+00  0.0000E+00  0.0000E+00  0.0000E+00  0.0000E+00  0.0000E+00  0.0000E+00  0.0000E+00  0.0000E+00  0.0000E+00  0.0000E+00  0.0000E+00  0.0000E+00  0.0000E+00  0.0000E+00  0.0000E+00  0.0000E+00  0.0000E+00  0.0000E+00  0.0000E+00  0.0000E+00  0.0000E+00  0.0000E+00  0.0000E+00  0.0000E+00  0.0000E+00  0.0000E+00  0.0000E+00  0.0000E+00  0.0000E+00
  0.0000E+00  0.0000E+00  0.0000E+00  0.0000E+00  0.0000E+00  0.0000E+00  0.0000E+00  0.0000E+00  0.0000E+00  0.0000E+00  0.0000E+00  0.0000E+00  0.0000E+00  0.0000E+00  0.0000E+00  0.0000E+00  0.0000E+00  0.0000E+00  0.0000E+00  0.0000E+00  0.0000E+00  0.0000E+00  0.0000E+00  0.0000E+00  0.0000E+00  0.0000E+00  0.0000E+00  0.0000E+00  0.0000E+00  0.0000E+00  0.0000E+00  0.0000E+00  0.0000E+00  0.0000E+00  0.0000E+00  0.0000E+00  0.0000E+00  0.0000E+00  0.0000E+00  0.0000E+00  0.0000E+00  0.0000E+00  0.0000E+00  0.0000E+00  0.0000E+00  0.0000E+00  0.0000E+00  0.0000E+00  0.0000E+00  0.0000E+00  0.0000E+00  0.0000E+00  0.0000E+00  0.0000E+00  0.0000E+00  0.0000E+00  0.0000E+00  0.0000E+00  0.0000E+00  0.0000E+00  0.0000E+00  0.0000E+00  0.0000E+00  0.0000E+00  0.0000E+00  0.0000E+00  0.0000E+00  0.0000E+00  0.0000E+00  0.0000E+00  0.0000E+00  0.0000E+00  0.0000E+00  0.0000E+00  0.0000E+00  0.0000E+00  0.0000E+00  0.0000E+00  0.0000E+00
  0.0000E+00  0.0000E+00  0.0000E+00  0.0000E+00  0.0000E+00  0.0000E+00  0.0000E+00  0.0000E+00  0.0000E+00  0.0000E+00  0.0000E+00  0.0000E+00  0.0000E+00  0.0000E+00  0.0000E+00  0.0000E+00  0.0000E+00  0.0000E+00  0.0000E+00  0.0000E+00  0.0000E+00  0.0000E+00  0.0000E+00  0.0000E+00  0.0000E+00  0.0000E+00  0.0000E+00  0.0000E+00  0.0000E+00  0.0000E+00  0.0000E+00  0.0000E+00  0.0000E+00  0.0000E+00  0.0000E+00  0.0000E+00  0.0000E+00  0.0000E+00  0.0000E+00  0.0000E+00  0.0000E+00  0.0000E+00  0.0000E+00  0.0000E+00  0.0000E+00  0.0000E+00  0.0000E+00  0.0000E+00  0.0000E+00  0.0000E+00  0.0000E+00  0.0000E+00  0.0000E+00  0.0000E+00  0.0000E+00  0.0000E+00  0.0000E+00  0.0000E+00  0.0000E+00  0.0000E+00  0.0000E+00  0.0000E+00  0.0000E+00  0.0000E+00  0.0000E+00  0.0000E+00  0.0000E+00  0.0000E+00  0.0000E+00  0.0000E+00  0.0000E+00  0.0000E+00  0.0000E+00  0.0000E+00  0.0000E+00  0.0000E+00  0.0000E+00  0.0000E+00  0.0000E+00
  0.0000E+00  0.0000E+00  0.0000E+00  0.0000E+00  0.0000E+00  0.0000E+00  0.0000E+00  0.0000E+00  0.0000E+00  0.0000E+00  0.0000E+00  0.0000E+00  0.0000E+00  0.0000E+00  0.0000E+00  0.0000E+00  0.0000E+00  0.0000E+00  0.0000E+00  0.0000E+00  0.0000E+00  0.0000E+00  0.0000E+00  0.0000E+00  0.0000E+00  0.0000E+00  0.0000E+00  0.0000E+00  0.0000E+00  0.0000E+00  0.0000E+00  0.0000E+00  0.0000E+00  0.0000E+00  0.0000E+00  0.0000E+00  0.0000E+00  0.0000E+00  0.0000E+00  0.0000E+00  0.0000E+00  0.0000E+00  0.0000E+00  0.0000E+00  0.0000E+00  0.0000E+00  0.0000E+00  0.0000E+00  0.0000E+00  0.0000E+00  0.0000E+00  0.0000E+00  0.0000E+00  0.0000E+00  0.0000E+00  0.0000E+00  0.0000E+00  0.0000E+00  0.0000E+00  0.0000E+00  0.0000E+00  0.0000E+00  0.0000E+00  0.0000E+00  0.0000E+00  0.0000E+00  0.0000E+00  0.0000E+00  0.0000E+00  0.0000E+00  0.0000E+00  0.0000E+00  0.0000E+00  0.0000E+00  0.0000E+00  0.0000E+00  0.0000E+00  0.0000E+00  0.0000E+00
  0.0000E+00  0.0000E+00  0.0000E+00  0.0000E+00  0.0000E+00  0.0000E+00  0.0000E+00  0.0000E+00  0.0000E+00  0.0000E+00  0.0000E+00  0.0000E+00  0.0000E+00  0.0000E+00  0.0000E+00  0.0000E+00  0.0000E+00  0.0000E+00  0.0000E+00  0.0000E+00  0.0000E+00  0.0000E+00  0.0000E+00  0.0000E+00  0.0000E+00  0.0000E+00  0.0000E+00  0.0000E+00  0.0000E+00  0.0000E+00  0.0000E+00  0.0000E+00  0.0000E+00  0.0000E+00  0.0000E+00  0.0000E+00  0.0000E+00  0.0000E+00  0.0000E+00  0.0000E+00  0.0000E+00  0.0000E+00  0.0000E+00  0.0000E+00  0.0000E+00  0.0000E+00  0.0000E+00  0.0000E+00  0.0000E+00  0.0000E+00  0.0000E+00  0.0000E+00  0.0000E+00  0.0000E+00  0.0000E+00  0.0000E+00  0.0000E+00  0.0000E+00  0.0000E+00  0.0000E+00  0.0000E+00  0.0000E+00  0.0000E+00  0.0000E+00  0.0000E+00  0.0000E+00  0.0000E+00  0.0000E+00  0.0000E+00  0.0000E+00  0.0000E+00  0.0000E+00  0.0000E+00  0.0000E+00  0.0000E+00  0.0000E+00  0.0000E+00  0.0000E+00  0.0000E+00
  0.0000E+00  0.0000E+00  0.0000E+00  0.0000E+00  0.0000E+00  0.0000E+00  0.0000E+00  0.0000E+00  0.0000E+00  0.0000E+00  0.0000E+00  0.0000E+00  0.0000E+00  0.0000E+00  0.0000E+00  0.0000E+00  0.0000E+00  0.0000E+00  0.0000E+00  0.0000E+00  0.0000E+00  0.0000E+00  0.0000E+00  0.0000E+00  0.0000E+00  0.0000E+00  0.0000E+00  0.0000E+00  0.0000E+00  0.0000E+00  0.0000E+00  0.0000E+00  0.0000E+00  0.0000E+00  0.0000E+00  0.0000E+00  0.0000E+00  0.0000E+00  0.0000E+00  0.0000E+00  0.0000E+00  0.0000E+00  0.0000E+00  0.0000E+00  0.0000E+00  0.0000E+00  0.0000E+00  0.0000E+00  0.0000E+00  0.0000E+00  0.0000E+00  0.0000E+00  0.0000E+00  0.0000E+00  0.0000E+00  0.0000E+00  0.0000E+00  0.0000E+00  0.0000E+00  0.0000E+00  0.0000E+00  0.0000E+00  0.0000E+00  0.0000E+00  0.0000E+00  0.0000E+00  0.0000E+00  0.0000E+00  0.0000E+00  0.0000E+00  0.0000E+00  0.0000E+00  0.0000E+00  0.0000E+00  0.0000E+00  0.0000E+00  0.0000E+00  0.0000E+00  0.0000E+00
  0.0000E+00  0.0000E+00  0.0000E+00  0.0000E+00  0.0000E+00  0.0000E+00  0.0000E+00  0.0000E+00  0.0000E+00  0.0000E+00  0.0000E+00  0.0000E+00  0.0000E+00  0.0000E+00  0.0000E+00  0.0000E+00  0.0000E+00  0.0000E+00  0.0000E+00  0.0000E+00  0.0000E+00  0.0000E+00  0.0000E+00  0.0000E+00  0.0000E+00  0.0000E+00  0.0000E+00  0.0000E+00  0.0000E+00  0.0000E+00  0.0000E+00  0.0000E+00  0.0000E+00  0.0000E+00  0.0000E+00  0.0000E+00  0.0000E+00  0.0000E+00  0.0000E+00  0.0000E+00  0.0000E+00  0.0000E+00  0.0000E+00  0.0000E+00  0.0000E+00  0.0000E+00  0.0000E+00  0.0000E+00  0.0000E+00  0.0000E+00  0.0000E+00  0.0000E+00  0.0000E+00  0.0000E+00  0.0000E+00  0.0000E+00  0.0000E+00  0.0000E+00  0.0000E+00  0.0000E+00  0.0000E+00  0.0000E+00  0.0000E+00  0.0000E+00  0.0000E+00  0.0000E+00  0.0000E+00  0.0000E+00  0.0000E+00  0.0000E+00  0.0000E+00  0.0000E+00  0.0000E+00  0.0000E+00  0.0000E+00  0.0000E+00  0.0000E+00  0.0000E+00  0.0000E+00
  0.0000E+00  0.0000E+00  0.0000E+00  0.0000E+00  0.0000E+00  0.0000E+00  0.0000E+00  0.0000E+00  0.0000E+00  0.0000E+00  0.0000E+00  0.0000E+00  0.0000E+00  0.0000E+00  0.0000E+00  0.0000E+00  0.0000E+00  0.0000E+00  0.0000E+00  0.0000E+00  0.0000E+00  0.0000E+00  0.0000E+00  0.0000E+00  0.0000E+00  0.0000E+00  0.0000E+00  0.0000E+00  0.0000E+00  0.0000E+00  0.0000E+00  0.0000E+00  0.0000E+00  0.0000E+00  0.0000E+00  0.0000E+00  0.0000E+00  0.0000E+00  0.0000E+00  0.0000E+00  0.0000E+00  0.0000E+00  0.0000E+00  0.0000E+00  0.0000E+00  0.0000E+00  0.0000E+00  0.0000E+00  0.0000E+00  0.0000E+00  0.0000E+00  0.0000E+00  0.0000E+00  0.0000E+00  0.0000E+00  0.0000E+00  0.0000E+00  0.0000E+00  0.0000E+00  0.0000E+00  0.0000E+00  0.0000E+00  0.0000E+00  0.0000E+00  0.0000E+00  0.0000E+00  0.0000E+00  0.0000E+00  0.0000E+00  0.0000E+00  0.0000E+00  0.0000E+00  0.0000E+00  0.0000E+00  0.0000E+00  0.0000E+00  0.0000E+00  0.0000E+00  0.0000E+00
  0.0000E+00  0.0000E+00  0.0000E+00  0.0000E+00  0.0000E+00  0.0000E+00  0.0000E+00  0.0000E+00  0.0000E+00  0.0000E+00  0.0000E+00  0.0000E+00  0.0000E+00  0.0000E+00  0.0000E+00  0.0000E+00  0.0000E+00  0.0000E+00  0.0000E+00  0.0000E+00  0.0000E+00  0.0000E+00  0.0000E+00  0.0000E+00  0.0000E+00  0.0000E+00  0.0000E+00  0.0000E+00  0.0000E+00  0.0000E+00  0.0000E+00  0.0000E+00  0.0000E+00  0.0000E+00  0.0000E+00  0.0000E+00  0.0000E+00  0.0000E+00  0.0000E+00  0.0000E+00  0.0000E+00  0.0000E+00  0.0000E+00  0.0000E+00  0.0000E+00  0.0000E+00  0.0000E+00  0.0000E+00  0.0000E+00  0.0000E+00  0.0000E+00  0.0000E+00  0.0000E+00  0.0000E+00  0.0000E+00  0.0000E+00  0.0000E+00  0.0000E+00  0.0000E+00  0.0000E+00  0.0000E+00  0.0000E+00  0.0000E+00  0.0000E+00  0.0000E+00  0.0000E+00  0.0000E+00  0.0000E+00  0.0000E+00  0.0000E+00  0.0000E+00  0.0000E+00  0.0000E+00  0.0000E+00  0.0000E+00  0.0000E+00  0.0000E+00  0.0000E+00  0.0000E+00
  0.0000E+00  0.0000E+00  0.0000E+00  0.0000E+00  0.0000E+00  0.0000E+00  0.0000E+00  0.0000E+00  0.0000E+00  0.0000E+00  0.0000E+00  0.0000E+00  0.0000E+00  0.0000E+00  0.0000E+00  0.0000E+00  0.0000E+00  0.0000E+00  0.0000E+00  0.0000E+00  0.0000E+00  0.0000E+00  0.0000E+00  0.0000E+00  0.0000E+00  0.0000E+00  0.0000E+00  0.0000E+00  0.0000E+00  0.0000E+00  0.0000E+00  0.0000E+00  0.0000E+00  0.0000E+00  0.0000E+00  0.0000E+00  0.0000E+00  0.0000E+00  0.0000E+00  0.0000E+00  0.0000E+00  0.0000E+00  0.0000E+00  0.0000E+00  0.0000E+00  0.0000E+00  0.0000E+00  0.0000E+00  0.0000E+00  0.0000E+00  0.0000E+00  0.0000E+00  0.0000E+00  0.0000E+00  0.0000E+00  0.0000E+00  0.0000E+00  0.0000E+00  0.0000E+00  0.0000E+00  0.0000E+00  0.0000E+00  0.0000E+00  0.0000E+00  0.0000E+00  0.0000E+00  0.0000E+00  0.0000E+00  0.0000E+00  0.0000E+00  0.0000E+00  0.0000E+00  0.0000E+00  0.0000E+00  0.0000E+00  0.0000E+00  0.0000E+00  0.0000E+00  0.0000E+00
  0.0000E+00  0.0000E+00  0.0000E+00  0.0000E+00  0.0000E+00  0.0000E+00  0.0000E+00  0.0000E+00  0.0000E+00  0.0000E+00  0.0000E+00  0.0000E+00  0.0000E+00  0.0000E+00  0.0000E+00  0.0000E+00  0.0000E+00  0.0000E+00  0.0000E+00  0.0000E+00  0.0000E+00  0.0000E+00  0.0000E+00  0.0000E+00  0.0000E+00  0.0000E+00  0.0000E+00  0.0000E+00  0.0000E+00  0.0000E+00  0.0000E+00  0.0000E+00  0.0000E+00  0.0000E+00  0.0000E+00  0.0000E+00  0.0000E+00  0.0000E+00  0.0000E+00  0.0000E+00  0.0000E+00  0.0000E+00  0.0000E+00  0.0000E+00  0.0000E+00  0.0000E+00  0.0000E+00  0.0000E+00  0.0000E+00  0.0000E+00  0.0000E+00  0.0000E+00  0.0000E+00  0.0000E+00  0.0000E+00  0.0000E+00  0.0000E+00  0.0000E+00  0.0000E+00  0.0000E+00  0.0000E+00  0.0000E+00  0.0000E+00  0.0000E+00  0.0000E+00  0.0000E+00  0.0000E+00  0.0000E+00  0.0000E+00  0.0000E+00  0.0000E+00  0.0000E+00  0.0000E+00  0.0000E+00  0.0000E+00  0.0000E+00  0.0000E+00  0.0000E+00  0.0000E+00
  0.0000E+00  0.0000E+00  0.0000E+00  0.0000E+00  0.0000E+00  0.0000E+00  0.0000E+00  0.0000E+00  0.0000E+00  0.0000E+00  0.0000E+00  0.0000E+00  0.0000E+00  0.0000E+00  0.0000E+00  0.0000E+00  0.0000E+00  0.0000E+00  0.0000E+00  0.0000E+00  0.0000E+00  0.0000E+00  0.0000E+00  0.0000E+00  0.0000E+00  0.0000E+00  0.0000E+00  0.0000E+00  0.0000E+00  0.0000E+00  0.0000E+00  0.0000E+00  0.0000E+00  0.0000E+00  0.0000E+00  0.0000E+00  0.0000E+00  0.0000E+00  0.0000E+00  0.0000E+00  0.0000E+00  0.0000E+00  0.0000E+00  0.0000E+00  0.0000E+00  0.0000E+00  0.0000E+00  0.0000E+00  0.0000E+00  0.0000E+00  0.0000E+00  0.0000E+00  0.0000E+00  0.0000E+00  0.0000E+00  0.0000E+00  0.0000E+00  0.0000E+00  0.0000E+00  0.0000E+00  0.0000E+00  0.0000E+00  0.0000E+00  0.0000E+00  0.0000E+00  0.0000E+00  0.0000E+00  0.0000E+00  0.0000E+00  0.0000E+00  0.0000E+00  0.0000E+00  0.0000E+00  0.0000E+00  0.0000E+00  0.0000E+00  0.0000E+00  0.0000E+00  0.0000E+00
  0.0000E+00  0.0000E+00  0.0000E+00  0.0000E+00  0.0000E+00  0.0000E+00  0.0000E+00  0.0000E+00  0.0000E+00  0.0000E+00  0.0000E+00  0.0000E+00  0.0000E+00  0.0000E+00  0.0000E+00  0.0000E+00  0.0000E+00  0.0000E+00  0.0000E+00  0.0000E+00  0.0000E+00  0.0000E+00  0.0000E+00  0.0000E+00  0.0000E+00  0.0000E+00  0.0000E+00  0.0000E+00  0.0000E+00  0.0000E+00  0.0000E+00  0.0000E+00  0.0000E+00  0.0000E+00  0.0000E+00  0.0000E+00  0.0000E+00  0.0000E+00  0.0000E+00  0.0000E+00  0.0000E+00  0.0000E+00  0.0000E+00  0.0000E+00  0.0000E+00  0.0000E+00  0.0000E+00  0.0000E+00  0.0000E+00  0.0000E+00  0.0000E+00  0.0000E+00  0.0000E+00  0.0000E+00  0.0000E+00  0.0000E+00  0.0000E+00  0.0000E+00  0.0000E+00  0.0000E+00  0.0000E+00  0.0000E+00  0.0000E+00  0.0000E+00  0.0000E+00  0.0000E+00  0.0000E+00  0.0000E+00  0.0000E+00  0.0000E+00  0.0000E+00  0.0000E+00  0.0000E+00  0.0000E+00  0.0000E+00  0.0000E+00  0.0000E+00  0.0000E+00  0.0000E+00
  0.0000E+00  0.0000E+00  0.0000E+00  0.0000E+00  0.0000E+00  0.0000E+00  0.0000E+00  0.0000E+00  0.0000E+00  0.0000E+00  0.0000E+00  0.0000E+00  0.0000E+00  0.0000E+00  0.0000E+00  0.0000E+00  0.0000E+00  0.0000E+00  0.0000E+00  0.0000E+00  0.0000E+00  0.0000E+00  0.0000E+00  0.0000E+00  0.0000E+00  0.0000E+00  0.0000E+00  0.0000E+00  0.0000E+00  0.0000E+00  0.0000E+00  0.0000E+00  0.0000E+00  0.0000E+00  0.0000E+00  0.0000E+00  0.0000E+00  0.0000E+00  0.0000E+00  0.0000E+00  0.0000E+00  0.0000E+00  0.0000E+00  0.0000E+00  0.0000E+00  0.0000E+00  0.0000E+00  0.0000E+00  0.0000E+00  0.0000E+00  0.0000E+00  0.0000E+00  0.0000E+00  0.0000E+00  0.0000E+00  0.0000E+00  0.0000E+00  0.0000E+00  0.0000E+00  0.0000E+00  0.0000E+00  0.0000E+00  0.0000E+00  0.0000E+00  0.0000E+00  0.0000E+00  0.0000E+00  0.0000E+00  0.0000E+00  0.0000E+00  0.0000E+00  0.0000E+00  0.0000E+00  0.0000E+00  0.0000E+00  0.0000E+00  0.0000E+00  0.0000E+00  0.0000E+00
  0.0000E+00  0.0000E+00  0.0000E+00  0.0000E+00  0.0000E+00  0.0000E+00  0.0000E+00  0.0000E+00  0.0000E+00  0.0000E+00  0.0000E+00  0.0000E+00  0.0000E+00  0.0000E+00  0.0000E+00  0.0000E+00  0.0000E+00  0.0000E+00  0.0000E+00  0.0000E+00  0.0000E+00  0.0000E+00  0.0000E+00  0.0000E+00  0.0000E+00  0.0000E+00  0.0000E+00  0.0000E+00  0.0000E+00  0.0000E+00  0.0000E+00  0.0000E+00  0.0000E+00  0.0000E+00  0.0000E+00  0.0000E+00  0.0000E+00  0.0000E+00  0.0000E+00  0.0000E+00  0.0000E+00  0.0000E+00  0.0000E+00  0.0000E+00  0.0000E+00  0.0000E+00  0.0000E+00  0.0000E+00  0.0000E+00  0.0000E+00  0.0000E+00  0.0000E+00  0.0000E+00  0.0000E+00  0.0000E+00  0.0000E+00  0.0000E+00  0.0000E+00  0.0000E+00  0.0000E+00  0.0000E+00  0.0000E+00  0.0000E+00  0.0000E+00  0.0000E+00  0.0000E+00  0.0000E+00  0.0000E+00  0.0000E+00  0.0000E+00  0.0000E+00  0.0000E+00  0.0000E+00  0.0000E+00  0.0000E+00  0.0000E+00  0.0000E+00  0.0000E+00  0.0000E+00
  0.0000E+00  0.0000E+00  0.0000E+00  0.0000E+00  0.0000E+00  0.0000E+00  0.0000E+00  0.0000E+00  0.0000E+00  0.0000E+00  0.0000E+00  0.0000E+00  0.0000E+00  0.0000E+00  0.0000E+00  0.0000E+00  0.0000E+00  0.0000E+00  0.0000E+00  0.0000E+00  0.0000E+00  0.0000E+00  0.0000E+00  0.0000E+00  0.0000E+00  0.0000E+00  0.0000E+00  0.0000E+00  0.0000E+00  0.0000E+00  0.0000E+00  0.0000E+00  0.0000E+00  0.0000E+00  0.0000E+00  0.0000E+00  0.0000E+00  0.0000E+00  0.0000E+00  0.0000E+00  0.0000E+00  0.0000E+00  0.0000E+00  0.0000E+00  0.0000E+00  0.0000E+00  0.0000E+00  0.0000E+00  0.0000E+00  0.0000E+00  0.0000E+00  0.0000E+00  0.0000E+00  0.0000E+00  0.0000E+00  0.0000E+00  0.0000E+00  0.0000E+00  0.0000E+00  0.0000E+00  0.0000E+00  0.0000E+00  0.0000E+00  0.0000E+00  0.0000E+00  0.0000E+00  0.0000E+00  0.0000E+00  0.0000E+00  0.0000E+00  0.0000E+00  0.0000E+00  0.0000E+00  0.0000E+00  0.0000E+00  0.0000E+00  0.0000E+00  0.0000E+00  0.0000E+00
  0.0000E+00  0.0000E+00  0.0000E+00  0.0000E+00  0.0000E+00  0.0000E+00  0.0000E+00  0.0000E+00  0.0000E+00  0.0000E+00  0.0000E+00  0.0000E+00  0.0000E+00  0.0000E+00  0.0000E+00  0.0000E+00  0.0000E+00  0.0000E+00  0.0000E+00  0.0000E+00  0.0000E+00  0.0000E+00  0.0000E+00  0.0000E+00  0.0000E+00  0.0000E+00  0.0000E+00  0.0000E+00  0.0000E+00  0.0000E+00  0.0000E+00  0.0000E+00  0.0000E+00  0.0000E+00  0.0000E+00  0.0000E+00  0.0000E+00  0.0000E+00  0.0000E+00  0.0000E+00  0.0000E+00  0.0000E+00  0.0000E+00  0.0000E+00  0.0000E+00  0.0000E+00  0.0000E+00  0.0000E+00  0.0000E+00  0.0000E+00  0.0000E+00  0.0000E+00  0.0000E+00  0.0000E+00  0.0000E+00  0.0000E+00  0.0000E+00  0.0000E+00  0.0000E+00  0.0000E+00  0.0000E+00  0.0000E+00  0.0000E+00  0.0000E+00  0.0000E+00  0.0000E+00  0.0000E+00  0.0000E+00  0.0000E+00  0.0000E+00  0.0000E+00  0.0000E+00  0.0000E+00  0.0000E+00  0.0000E+00  0.0000E+00  0.0000E+00  0.0000E+00  0.0000E+00
  0.0000E+00  0.0000E+00  0.0000E+00  0.0000E+00  0.0000E+00  0.0000E+00  0.0000E+00  0.0000E+00  0.0000E+00  0.0000E+00  0.0000E+00  0.0000E+00  0.0000E+00  0.0000E+00  0.0000E+00  0.9893E-09  0.9461E-09  0.9003E-09  0.8521E-09  0.8018E-09  0.1484E-08  0.1381E-08  0.1275E-08  0.1169E-08  0.1064E-08  0.9598E-09  0.8581E-09  0.3802E-09  0.0000E+00  0.0000E+00  0.0000E+00  0.0000E+00  0.0000E+00  0.0000E+00  0.0000E+00  0.0000E+00  0.0000E+00  0.0000E+00  0.0000E+00  0.0000E+00  0.0000E+00  0.0000E+00  0.0000E+00  0.0000E+00  0.0000E+00  0.0000E+00  0.0000E+00  0.0000E+00  0.0000E+00  0.0000E+00  0.0000E+00  0.0000E+00  0.0000E+00  0.0000E+00  0.0000E+00  0.0000E+00  0.0000E+00  0.0000E+00  0.0000E+00  0.0000E+00  0.0000E+00  0.0000E+00  0.0000E+00  0.0000E+00  0.0000E+00  0.0000E+00  0.0000E+00  0.0000E+00  0.0000E+00  0.0000E+00  0.0000E+00  0.0000E+00  0.0000E+00  0.0000E+00  0.0000E+00  0.0000E+00  0.0000E+00  0.0000E+00  0.0000E+00
  0.0000E+00  0.0000E+00  0.0000E+00  0.0000E+00  0.0000E+00  0.0000E+00  0.0000E+00  0.0000E+00  0.0000E+00  0.0000E+00  0.1211E-08  0.1254E-08  0.1248E-08  0.2385E-08  0.3456E-08  0.3332E-08  0.3198E-08  0.4034E-08  0.3836E-08  0.4505E-08  0.4233E-08  0.3951E-08  0.3663E-08  0.3371E-08  0.3078E-08  0.2787E-08  0.2501E-08  0.2222E-08  0.1204E-08  0.0000E+00  0.0000E+00  0.0000E+00  0.0000E+00  0.0000E+00  0.0000E+00  0.0000E+00  0.0000E+00  0.0000E+00  0.0000E+00  0.0000E+00  0.0000E+00  0.0000E+00  0.0000E+00  0.0000E+00  0.0000E+00  0.0000E+00  0.0000E+00  0.0000E+00  0.0000E+00  0.0000E+00  0.0000E+00  0.0000E+00  0.0000E+00  0.0000E+00  0.0000E+00  0.0000E+00  0.0000E+00  0.0000E+00  0.0000E+00  0.0000E+00  0.0000E+00  0.0000E+00  0.0000E+00  0.0000E+00  0.0000E+00  0.0000E+00  0.0000E+00  0.0000E+00  0.0000E+00  0.0000E+00  0.0000E+00  0.0000E+00  0.0000E+00  0.0000E+00  0.0000E+00  0.0000E+00  0.0000E+00  0.0000E+00  0.0000E+00
  0.0000E+00  0.0000E+00  0.0000E+00  0.0000E+00  0.0000E+00  0.0000E+00  0.0000E+00  0.1217E-08  0.1272E-08  0.1324E-08  0.3911E-08  0.4058E-08  0.5369E-08  0.6628E-08  0.7730E-08  0.7480E-08  0.7204E-08  0.8000E-08  0.8675E-08  0.8225E-08  0.8670E-08  0.8112E-08  0.7537E-08  0.6950E-08  0.6358E-08  0.5766E-08  0.5181E-08  0.4154E-08  0.3663E-08  0.2457E-08  0.0000E+00  0.0000E+00  0.0000E+00  0.0000E+00  0.0000E+00  0.0000E+00  0.0000E+00  0.0000E+00  0.0000E+00  0.0000E+00  0.0000E+00  0.0000E+00  0.0000E+00  0.0000E+00  0.0000E+00  0.0000E+00  0.0000E+00  0.0000E+00  0.0000E+00  0.0000E+00  0.0000E+00  0.0000E+00  0.0000E+00  0.0000E+00  0.0000E+00  0.0000E+00  0.0000E+00  0.0000E+00  0.0000E+00  0.0000E+00  0.0000E+00  0.0000E+00  0.0000E+00  0.0000E+00  0.0000E+00  0.0000E+00  0.0000E+00  0.8153E-09  0.8231E-09  0.8290E-09  0.8314E-09  0.8379E-09  0.8426E-09  0.1639E-08  0.1650E-08  0.1390E-08  0.8410E-09  0.2866E-09  0.0000E+00
  0.0000E+00  0.0000E+00  0.0000E+00  0.0000E+00  0.0000E+00  0.1252E-08  0.1316E-08  0.3905E-08  0.4089E-08  0.5506E-08  0.8420E-08  0.8756E-08  0.9000E-08  0.1177E-07  0.1302E-07  0.1264E-07  0.1221E-07  0.1297E-07  0.1359E-07  0.1403E-07  0.1326E-07  0.1245E-07  0.1160E-07  0.1073E-07  0.9844E-08  0.8955E-08  0.8070E-08  0.7200E-08  0.5904E-08  0.4322E-08  0.2579E-08  0.1175E-08  0.0000E+00  0.0000E+00  0.0000E+00  0.0000E+00  0.0000E+00  0.0000E+00  0.0000E+00  0.0000E+00  0.0000E+00  0.0000E+00  0.0000E+00  0.0000E+00  0.0000E+00  0.0000E+00  0.0000E+00  0.0000E+00  0.0000E+00  0.0000E+00  0.0000E+00  0.0000E+00  0.0000E+00  0.0000E+00  0.0000E+00  0.0000E+00  0.3040E-09  0.9170E-09  0.9167E-09  0.9279E-09  0.9365E-09  0.9427E-09  0.9465E-09  0.1546E-08  0.1846E-08  0.1862E-08  0.1874E-08  0.1879E-08  0.1892E-08  0.1901E-08  0.2772E-08  0.2789E-08  0.2792E-08  0.2811E-08  0.2824E-08  0.2536E-08  0.1927E-08  0.1627E-08  0.9789E-09
  0.0000E+00  0.0000E+00  0.1198E-08  0.1270E-08  0.2548E-08  0.3998E-08  0.4211E-08  0.7007E-08  0.8763E-08  0.1047E-07  0.1233E-07  0.1435E-07  0.1480E-07  0.1792E-07  0.1944E-07  0.1902E-07  0.1987E-07  0.2056E-07  0.1973E-07  0.2009E-07  0.1904E-07  0.1793E-07  0.1725E-07  0.1695E-07  0.1560E-07  0.1460E-07  0.1319E-07  0.1119E-07  0.9347E-08  0.6775E-08  0.4549E-08  0.2763E-08  0.1233E-08  0.0000E+00  0.0000E+00  0.0000E+00  0.0000E+00  0.0000E+00  0.0000E+00  0.0000E+00  0.0000E+00  0.0000E+00  0.0000E+00  0.0000E+00  0.0000E+00  0.0000E+00  0.1030E-08  0.1029E-08  0.1044E-08  0.1056E-08  0.1064E-08  0.1069E-08  0.1079E-08  0.2080E-08  0.2103E-08  0.2100E-08  0.2125E-08  0.2143E-08  0.2154E-08  0.2162E-08  0.3123E-08  0.3158E-08  0.3183E-08  0.3200E-08  0.3207E-08  0.3227E-08  0.3554E-08  0.4196E-08  0.4218E-08  0.4221E-08  0.4246E-08  0.4262E-08  0.4268E-08  0.4897E-08  0.4911E-08  0.4279E-08  0.3635E-08  0.2947E-08  0.2224E-08
  0.1190E-08  0.1269E-08  0.2556E-08  0.4032E-08  0.5492E-08  0.8501E-08  0.8978E-08  0.1216E-07  0.1427E-07  0.1496E-07  0.1857E-07  0.2097E-07  0.2169E-07  0.2524E-07  0.2708E-07  0.2683E-07  0.2772E-07  0.2841E-07  0.2958E-07  0.2831E-07  0.2757E-07  0.2665E-07  0.2674E-07  0.2489E-07  0.2346E-07  0.2146E-07  0.1945E-07  0.1745E-07  0.1485E-07  0.1164E-07  0.8678E-08  0.6313E-08  0.2942E-08  0.1321E-08  0.0000E+00  0.0000E+00  0.0000E+00  0.0000E+00  0.7583E-09  0.1161E-08  0.1191E-08  0.1216E-08  0.1236E-08  0.2399E-08  0.2394E-08  0.2428E-08  0.2453E-08  0.2452E-08  0.2480E-08  0.2499E-08  0.3611E-08  0.3646E-08  0.3638E-08  0.3677E-08  0.3704E-08  0.3720E-08  0.4804E-08  0.4787E-08  0.4836E-08  0.4871E-08  0.4892E-08  0.4899E-08  0.4924E-08  0.5952E-08  0.5994E-08  0.6019E-08  0.6019E-08  0.6050E-08  0.6066E-08  0.6071E-08  0.7038E-08  0.7091E-08  0.7127E-08  0.7147E-08  0.6809E-08  0.6092E-08  0.5361E-08  0.4949E-08  0.3769E-08
  0.1336E-08  0.4005E-08  0.4270E-08  0.8525E-08  0.9059E-08  0.1232E-07  0.1455E-07  0.1675E-07  0.2072E-07  0.2178E-07  0.2590E-07  0.2877E-07  0.2985E-07  0.3223E-07  0.3616E-07  0.3706E-07  0.3816E-07  0.3977E-07  0.4097E-07  0.4013E-07  0.3905E-07  0.3915E-07  0.3752E-07  0.3628E-07  0.3416E-07  0.3135E-07  0.2894E-07  0.2644E-07  0.2316E-07  0.1716E-07  0.1233E-07  0.9346E-08  0.6671E-08  0.4534E-08  0.2259E-08  0.1291E-08  0.1764E-08  0.2666E-08  0.2752E-08  0.2825E-08  0.3733E-08  0.4223E-08  0.4279E-08  0.4317E-08  0.4310E-08  0.4354E-08  0.5208E-08  0.5623E-08  0.5672E-08  0.5653E-08  0.5708E-08  0.5743E-08  0.5759E-08  0.6969E-08  0.6937E-08  0.7002E-08  0.7044E-08  0.7065E-08  0.7070E-08  0.7099E-08  0.8232E-08  0.8281E-08  0.8243E-08  0.8301E-08  0.8335E-08  0.8347E-08  0.9086E-08  0.9401E-08  0.9465E-08  0.9504E-08  0.9520E-08  0.9511E-08  0.9536E-08  0.9894E-08  0.9498E-08  0.8723E-08  0.7885E-08  0.6998E-08  0.6106E-08
  0.4204E-08  0.8419E-08  0.9001E-08  0.1230E-07  0.1460E-07  0.1691E-07  0.2103E-07  0.2225E-07  0.2660E-07  0.2976E-07  0.3285E-07  0.3793E-07  0.4055E-07  0.4343E-07  0.4901E-07  0.5032E-07  0.5276E-07  0.5468E-07  0.5602E-07  0.5490E-07  0.5346E-07  0.5335E-07  0.5272E-07  0.5013E-07  0.4662E-07  0.4353E-07  0.4026E-07  0.3634E-07  0.3242E-07  0.2706E-07  0.2131E-07  0.1332E-07  0.9909E-08  0.7187E-08  0.4795E-08  0.4563E-08  0.4747E-08  0.4907E-08  0.5987E-08  0.6599E-08  0.6721E-08  0.6811E-08  0.6872E-08  0.7839E-08  0.8300E-08  0.8359E-08  0.8320E-08  0.8392E-08  0.8431E-08  0.8440E-08  0.9800E-08  0.9741E-08  0.9822E-08  0.9869E-08  0.9883E-08  0.9883E-08  0.1077E-07  0.1116E-07  0.1122E-07  0.1115E-07  0.1122E-07  0.1125E-07  0.1125E-07  0.1248E-07  0.1240E-07  0.1247E-07  0.1251E-07  0.1251E-07  0.1249E-07  0.1251E-07  0.1363E-07  0.1368E-07  0.1369E-07  0.1327E-07  0.1239E-07  0.1149E-07  0.1052E-07  0.9493E-08  0.8466E-08
  0.8806E-08  0.1075E-07  0.1443E-07  0.1542E-07  0.2098E-07  0.2235E-07  0.2850E-07  0.3024E-07  0.3359E-07  0.3905E-07  0.4228E-07  0.4795E-07  0.5315E-07  0.5902E-07  0.6544E-07  0.6731E-07  0.7035E-07  0.7282E-07  0.7459E-07  0.7323E-07  0.7343E-07  0.7113E-07  0.7018E-07  0.6854E-07  0.6396E-07  0.5983E-07  0.5540E-07  0.5017E-07  0.4538E-07  0.3848E-07  0.3102E-07  0.2261E-07  0.1723E-07  0.1187E-07  0.7622E-08  0.7529E-08  0.8839E-08  0.9628E-08  0.9868E-08  0.1006E-07  0.1177E-07  0.1189E-07  0.1196E-07  0.1188E-07  0.1197E-07  0.1200E-07  0.1296E-07  0.1353E-07  0.1343E-07  0.1353E-07  0.1357E-07  0.1349E-07  0.1355E-07  0.1454E-07  0.1496E-07  0.1501E-07  0.1491E-07  0.1498E-07  0.1500E-07  0.1498E-07  0.1635E-07  0.1622E-07  0.1630E-07  0.1633E-07  0.1631E-07  0.1627E-07  0.1715E-07  0.1750E-07  0.1754E-07  0.1753E-07  0.1747E-07  0.1748E-07  0.1745E-07  0.1693E-07  0.1589E-07  0.1531E-07  0.1417E-07  0.1250E-07  0.1131E-07
  0.1403E-07  0.1509E-07  0.1909E-07  0.2209E-07  0.2668E-07  0.3021E-07  0.3376E-07  0.3947E-07  0.4301E-07  0.5105E-07  0.5511E-07  0.6425E-07  0.7054E-07  0.7427E-07  0.8277E-07  0.8761E-07  0.8934E-07  0.9469E-07  0.9712E-07  0.9590E-07  0.9610E-07  0.9557E-07  0.9211E-07  0.9001E-07  0.8438E-07  0.7917E-07  0.7354E-07  0.6754E-07  0.6069E-07  0.5383E-07  0.4545E-07  0.3314E-07  0.2619E-07  0.1929E-07  0.1327E-07  0.1341E-07  0.1385E-07  0.1480E-07  0.1628E-07  0.1654E-07  0.1671E-07  0.1681E-07  0.1682E-07  0.1845E-07  0.1852E-07  0.1835E-07  0.1845E-07  0.1848E-07  0.1835E-07  0.1950E-07  0.1983E-07  0.1995E-07  0.1998E-07  0.1982E-07  0.1988E-07  0.1988E-07  0.2078E-07  0.2134E-07  0.2115E-07  0.2122E-07  0.2123E-07  0.2117E-07  0.2111E-07  0.2207E-07  0.2243E-07  0.2245E-07  0.2241E-07  0.2231E-07  0.2229E-07  0.2222E-07  0.2355E-07  0.2305E-07  0.2296E-07  0.2183E-07  0.2066E-07  0.1940E-07  0.1806E-07  0.1671E-07  0.1531E-07
  0.1705E-07  0.2148E-07  0.2310E-07  0.2967E-07  0.3180E-07  0.3919E-07  0.4184E-07  0.5126E-07  0.5571E-07  0.6414E-07  0.7257E-07  0.7982E-07  0.9076E-07  0.9571E-07  0.1043E-06  0.1103E-06  0.1144E-06  0.1209E-06  0.1243E-06  0.1236E-06  0.1241E-06  0.1236E-06  0.1291E-06  0.1237E-06  0.1174E-06  0.1104E-06  0.1036E-06  0.9525E-07  0.8575E-07  0.7674E-07  0.6261E-07  0.4970E-07  0.3976E-07  0.3002E-07  0.2145E-07  0.2007E-07  0.2195E-07  0.2245E-07  0.2283E-07  0.2375E-07  0.2522E-07  0.2527E-07  0.2498E-07  0.2508E-07  0.2506E-07  0.2484E-07  0.2676E-07  0.2643E-07  0.2655E-07  0.2655E-07  0.2628E-07  0.2633E-07  0.2628E-07  0.2784E-07  0.2786E-07  0.2755E-07  0.2762E-07  0.2758E-07  0.2746E-07  0.2790E-07  0.2868E-07  0.2875E-07  0.2873E-07  0.2846E-07  0.2848E-07  0.2842E-07  0.3180E-07  0.3359E-07  0.3323E-07  0.3328E-07  0.3324E-07  0.3310E-07  0.3110E-07  0.2847E-07  0.2580E-07  0.2429E-07  0.2270E-07  0.2109E-07  0.1945E-07
  0.2224E-07  0.2706E-07  0.3092E-07  0.3653E-07  0.4111E-07  0.4695E-07  0.5531E-07  0.6212E-07  0.7158E-07  0.7874E-07  0.9133E-07  0.9937E-07  0.1103E-06  0.1191E-06  0.1285E-06  0.1386E-06  0.1426E-06  0.1478E-06  0.1653E-06  0.1661E-06  0.1678E-06  0.1761E-06  0.1803E-06  0.1733E-06  0.1650E-06  0.1645E-06  0.1522E-06  0.1400E-06  0.1262E-06  0.1089E-06  0.9623E-07  0.6871E-07  0.5697E-07  0.4520E-07  0.3493E-07  0.2983E-07  0.3057E-07  0.3264E-07  0.3382E-07  0.3407E-07  0.3413E-07  0.3402E-07  0.3366E-07  0.3584E-07  0.3532E-07  0.3541E-07  0.3534E-07  0.3492E-07  0.3492E-07  0.3615E-07  0.3650E-07  0.3645E-07  0.3599E-07  0.3602E-07  0.3591E-07  0.3567E-07  0.4249E-07  0.4191E-07  0.4199E-07  0.4191E-07  0.4143E-07  0.4142E-07  0.4127E-07  0.4099E-07  0.4079E-07  0.4058E-07  0.4573E-07  0.4560E-07  0.4513E-07  0.4507E-07  0.4487E-07  0.4275E-07  0.4054E-07  0.3610E-07  0.3560E-07  0.3225E-07  0.2822E-07  0.2631E-07  0.2436E-07
  0.2956E-07  0.3200E-07  0.3969E-07  0.4282E-07  0.5282E-07  0.5797E-07  0.7058E-07  0.7684E-07  0.8884E-07  0.9843E-07  0.1119E-06  0.1226E-06  0.1331E-06  0.1478E-06  0.1552E-06  0.1687E-06  0.1865E-06  0.1943E-06  0.2222E-06  0.2275E-06  0.2399E-06  0.2493E-06  0.2434E-06  0.2434E-06  0.2324E-06  0.2284E-06  0.2131E-06  0.1952E-06  0.1773E-06  0.1553E-06  0.1319E-06  0.1064E-06  0.8259E-07  0.6348E-07  0.5038E-07  0.4212E-07  0.4472E-07  0.4537E-07  0.4574E-07  0.4758E-07  0.4832E-07  0.4750E-07  0.4752E-07  0.4730E-07  0.4664E-07  0.4655E-07  0.5254E-07  0.5508E-07  0.5494E-07  0.5411E-07  0.5410E-07  0.5384E-07  0.5317E-07  0.5303E-07  0.5267E-07  0.5214E-07  0.5662E-07  0.5822E-07  0.5812E-07  0.5780E-07  0.5717E-07  0.5696E-07  0.5656E-07  0.5605E-07  0.5575E-07  0.5528E-07  0.6041E-07  0.5955E-07  0.5947E-07  0.5920E-07  0.5693E-07  0.5452E-07  0.5201E-07  0.4906E-07  0.4608E-07  0.4059E-07  0.3650E-07  0.3327E-07  0.3095E-07
  0.3402E-07  0.4176E-07  0.5014E-07  0.5478E-07  0.6338E-07  0.7364E-07  0.8374E-07  0.9564E-07  0.1052E-06  0.1209E-06  0.1319E-06  0.1493E-06  0.1611E-06  0.1763E-06  0.1997E-06  0.2238E-06  0.2460E-06  0.2570E-06  0.3025E-06  0.3102E-06  0.3256E-06  0.3377E-06  0.3307E-06  0.3284E-06  0.3145E-06  0.2980E-06  0.2866E-06  0.2586E-06  0.2303E-06  0.2072E-06  0.1749E-06  0.1528E-06  0.1194E-06  0.1030E-06  0.7323E-07  0.5959E-07  0.6055E-07  0.7389E-07  0.7438E-07  0.7436E-07  0.7387E-07  0.7264E-07  0.7238E-07  0.7173E-07  0.7077E-07  0.7033E-07  0.7850E-07  0.7834E-07  0.7665E-07  0.7667E-07  0.7631E-07  0.7560E-07  0.7474E-07  0.7423E-07  0.7341E-07  0.7274E-07  0.7845E-07  0.7832E-07  0.7787E-07  0.7666E-07  0.7637E-07  0.7580E-07  0.7480E-07  0.7438E-07  0.7372E-07  0.7662E-07  0.7704E-07  0.7692E-07  0.7655E-07  0.7410E-07  0.7147E-07  0.6866E-07  0.6537E-07  0.6201E-07  0.5605E-07  0.5230E-07  0.4858E-07  0.4458E-07  0.3979E-07
  0.5609E-07  0.5794E-07  0.5974E-07  0.6737E-07  0.7755E-07  0.8910E-07  0.1011E-06  0.1145E-06  0.1284E-06  0.1453E-06  0.1597E-06  0.1758E-06  0.2029E-06  0.2326E-06  0.2593E-06  0.2984E-06  0.3289E-06  0.3691E-06  0.3995E-06  0.4122E-06  0.4311E-06  0.4419E-06  0.4359E-06  0.4235E-06  0.4075E-06  0.3879E-06  0.3649E-06  0.3372E-06  0.3145E-06  0.2755E-06  0.2499E-06  0.2050E-06  0.1761E-06  0.1349E-06  0.1120E-06  0.9398E-07  0.9971E-07  0.1091E-06  0.1092E-06  0.1085E-06  0.1058E-06  0.1055E-06  0.1046E-06  0.1030E-06  0.1018E-06  0.1039E-06  0.1086E-06  0.1055E-06  0.1056E-06  0.1051E-06  0.1040E-06  0.1023E-06  0.1015E-06  0.1004E-06  0.9895E-07  0.1029E-06  0.1035E-06  0.1029E-06  0.1008E-06  0.1004E-06  0.9960E-07  0.9783E-07  0.9727E-07  0.9637E-07  0.9489E-07  0.9795E-07  0.9809E-07  0.9759E-07  0.9493E-07  0.9199E-07  0.8884E-07  0.8512E-07  0.8128E-07  0.7477E-07  0.7047E-07  0.6617E-07  0.6156E-07  0.5704E-07  0.4945E-07
  0.6357E-07  0.6568E-07  0.6904E-07  0.7971E-07  0.9315E-07  0.1045E-06  0.1227E-06  0.1352E-06  0.1545E-06  0.1691E-06  0.1993E-06  0.2169E-06  0.2605E-06  0.3058E-06  0.3396E-06  0.4018E-06  0.4262E-06  0.4773E-06  0.5136E-06  0.5316E-06  0.5570E-06  0.5685E-06  0.5594E-06  0.5452E-06  0.5376E-06  0.5136E-06  0.4931E-06  0.4577E-06  0.4259E-06  0.3851E-06  0.3342E-06  0.2931E-06  0.2312E-06  0.1973E-06  0.1507E-06  0.1409E-06  0.1554E-06  0.1557E-06  0.1548E-06  0.1496E-06  0.1492E-06  0.1478E-06  0.1455E-06  0.1428E-06  0.1411E-06  0.1474E-06  0.1463E-06  0.1423E-06  0.1417E-06  0.1402E-06  0.1370E-06  0.1360E-06  0.1344E-06  0.1317E-06  0.1305E-06  0.1347E-06  0.1339E-06  0.1304E-06  0.1299E-06  0.1289E-06  0.1260E-06  0.1252E-06  0.1240E-06  0.1216E-06  0.1207E-06  0.1236E-06  0.1230E-06  0.1201E-06  0.1168E-06  0.1132E-06  0.1089E-06  0.1045E-06  0.9733E-07  0.9235E-07  0.8994E-07  0.8200E-07  0.7672E-07  0.6830E-07  0.6297E-07
  0.7191E-07  0.7431E-07  0.8133E-07  0.9752E-07  0.1087E-06  0.1263E-06  0.1397E-06  0.1616E-06  0.1759E-06  0.2097E-06  0.2423E-06  0.2888E-06  0.3373E-06  0.3921E-06  0.4355E-06  0.5088E-06  0.5425E-06  0.6175E-06  0.6493E-06  0.6760E-06  0.7034E-06  0.7185E-06  0.7205E-06  0.7050E-06  0.7050E-06  0.6735E-06  0.6586E-06  0.6145E-06  0.5728E-06  0.5152E-06  0.4528E-06  0.3797E-06  0.3300E-06  0.2724E-06  0.2293E-06  0.2101E-06  0.2195E-06  0.2172E-06  0.2138E-06  0.2065E-06  0.2046E-06  0.2013E-06  0.1960E-06  0.1936E-06  0.1901E-06  0.1958E-06  0.1898E-06  0.1882E-06  0.1862E-06  0.1807E-06  0.1794E-06  0.1772E-06  0.1726E-06  0.1710E-06  0.1686E-06  0.1723E-06  0.1680E-06  0.1663E-06  0.1649E-06  0.1604E-06  0.1594E-06  0.1578E-06  0.1557E-06  0.1528E-06  0.1511E-06  0.1536E-06  0.1503E-06  0.1466E-06  0.1444E-06  0.1376E-06  0.1325E-06  0.1272E-06  0.1213E-06  0.1155E-06  0.1066E-06  0.1004E-06  0.9093E-07  0.8466E-07  0.7494E-07
  0.8118E-07  0.8391E-07  0.9901E-07  0.1108E-06  0.1290E-06  0.1432E-06  0.1662E-06  0.1840E-06  0.2170E-06  0.2534E-06  0.3017E-06  0.3691E-06  0.4303E-06  0.5075E-06  0.5648E-06  0.6360E-06  0.6832E-06  0.7689E-06  0.8125E-06  0.8437E-06  0.8893E-06  0.9046E-06  0.9236E-06  0.9204E-06  0.9184E-06  0.8945E-06  0.8592E-06  0.7970E-06  0.7443E-06  0.6737E-06  0.6062E-06  0.5197E-06  0.4589E-06  0.3837E-06  0.3244E-06  0.3019E-06  0.3045E-06  0.2995E-06  0.2872E-06  0.2794E-06  0.2743E-06  0.2648E-06  0.2615E-06  0.2566E-06  0.2491E-06  0.2521E-06  0.2471E-06  0.2445E-06  0.2373E-06  0.2339E-06  0.2309E-06  0.2236E-06  0.2214E-06  0.2182E-06  0.2142E-06  0.2148E-06  0.2108E-06  0.2090E-06  0.2039E-06  0.2010E-06  0.1990E-06  0.1962E-06  0.1917E-06  0.1895E-06  0.1885E-06  0.1868E-06  0.1845E-06  0.1797E-06  0.1721E-06  0.1661E-06  0.1599E-06  0.1530E-06  0.1461E-06  0.1360E-06  0.1287E-06  0.1181E-06  0.1107E-06  0.9972E-07  0.9243E-07
  0.9090E-07  0.9975E-07  0.1120E-06  0.1321E-06  0.1456E-06  0.1694E-06  0.1883E-06  0.2225E-06  0.2721E-06  0.3257E-06  0.3960E-06  0.4765E-06  0.5491E-06  0.6296E-06  0.7140E-06  0.7862E-06  0.8466E-06  0.9471E-06  0.1001E-05  0.1052E-05  0.1119E-05  0.1126E-05  0.1176E-05  0.1176E-05  0.1173E-05  0.1138E-05  0.1091E-05  0.1030E-05  0.9498E-06  0.8798E-06  0.7776E-06  0.6926E-06  0.6011E-06  0.5299E-06  0.4355E-06  0.4202E-06  0.4125E-06  0.3983E-06  0.3812E-06  0.3735E-06  0.3583E-06  0.3489E-06  0.3422E-06  0.3295E-06  0.3313E-06  0.3213E-06  0.3179E-06  0.3093E-06  0.3019E-06  0.2980E-06  0.2893E-06  0.2839E-06  0.2797E-06  0.2743E-06  0.2723E-06  0.2655E-06  0.2629E-06  0.2570E-06  0.2526E-06  0.2488E-06  0.2453E-06  0.2385E-06  0.2357E-06  0.2321E-06  0.2323E-06  0.2275E-06  0.2219E-06  0.2134E-06  0.2064E-06  0.1990E-06  0.1909E-06  0.1827E-06  0.1713E-06  0.1626E-06  0.1505E-06  0.1417E-06  0.1293E-06  0.1244E-06  0.1159E-06
  0.1023E-06  0.1124E-06  0.1314E-06  0.1469E-06  0.1713E-06  0.1926E-06  0.2262E-06  0.2777E-06  0.3455E-06  0.4199E-06  0.4931E-06  0.5886E-06  0.6900E-06  0.7730E-06  0.8884E-06  0.9628E-06  0.1054E-05  0.1169E-05  0.1234E-05  0.1310E-05  0.1399E-05  0.1431E-05  0.1466E-05  0.1486E-05  0.1469E-05  0.1432E-05  0.1383E-05  0.1296E-05  0.1214E-05  0.1113E-05  0.1013E-05  0.8856E-06  0.8063E-06  0.6828E-06  0.6096E-06  0.5644E-06  0.5455E-06  0.5230E-06  0.5041E-06  0.4853E-06  0.4642E-06  0.4536E-06  0.4359E-06  0.4250E-06  0.4193E-06  0.4101E-06  0.3998E-06  0.3875E-06  0.3815E-06  0.3745E-06  0.3625E-06  0.3556E-06  0.3487E-06  0.3378E-06  0.3348E-06  0.3284E-06  0.3241E-06  0.3160E-06  0.3091E-06  0.3047E-06  0.2966E-06  0.2914E-06  0.2868E-06  0.2790E-06  0.2789E-06  0.2724E-06  0.2628E-06  0.2545E-06  0.2482E-06  0.2362E-06  0.2265E-06  0.2134E-06  0.2030E-06  0.1892E-06  0.1823E-06  0.1719E-06  0.1581E-06  0.1480E-06  0.1343E-06
  0.1148E-06  0.1288E-06  0.1471E-06  0.1719E-06  0.1899E-06  0.2280E-06  0.2805E-06  0.3499E-06  0.4270E-06  0.5179E-06  0.6332E-06  0.7308E-06  0.8395E-06  0.9406E-06  0.1077E-05  0.1169E-05  0.1306E-05  0.1425E-05  0.1531E-05  0.1624E-05  0.1728E-05  0.1788E-05  0.1818E-05  0.1843E-05  0.1827E-05  0.1787E-05  0.1731E-05  0.1636E-05  0.1529E-05  0.1422E-05  0.1270E-05  0.1163E-05  0.1038E-05  0.9222E-06  0.8166E-06  0.7409E-06  0.7107E-06  0.6784E-06  0.6509E-06  0.6231E-06  0.5994E-06  0.5821E-06  0.5569E-06  0.5394E-06  0.5250E-06  0.5127E-06  0.4976E-06  0.4848E-06  0.4758E-06  0.4612E-06  0.4489E-06  0.4399E-06  0.4259E-06  0.4166E-06  0.4105E-06  0.4024E-06  0.3928E-06  0.3818E-06  0.3761E-06  0.3667E-06  0.3579E-06  0.3523E-06  0.3430E-06  0.3362E-06  0.3326E-06  0.3240E-06  0.3142E-06  0.3038E-06  0.2901E-06  0.2785E-06  0.2634E-06  0.2511E-06  0.2420E-06  0.2263E-06  0.2140E-06  0.1981E-06  0.1861E-06  0.1703E-06  0.1589E-06
  0.1286E-06  0.1461E-06  0.1685E-06  0.1897E-06  0.2278E-06  0.2779E-06  0.3507E-06  0.4295E-06  0.5237E-06  0.6582E-06  0.7646E-06  0.8837E-06  0.1028E-05  0.1136E-05  0.1292E-05  0.1420E-05  0.1596E-05  0.1749E-05  0.1891E-05  0.1987E-05  0.2110E-05  0.2202E-05  0.2229E-05  0.2262E-05  0.2244E-05  0.2208E-05  0.2123E-05  0.2042E-05  0.1917E-05  0.1785E-05  0.1626E-05  0.1502E-05  0.1347E-05  0.1223E-05  0.1080E-05  0.9733E-06  0.9306E-06  0.8756E-06  0.8293E-06  0.7942E-06  0.7628E-06  0.7303E-06  0.6990E-06  0.6776E-06  0.6527E-06  0.6378E-06  0.6164E-06  0.6005E-06  0.5827E-06  0.5628E-06  0.5515E-06  0.5345E-06  0.5192E-06  0.5108E-06  0.4968E-06  0.4855E-06  0.4723E-06  0.4618E-06  0.4507E-06  0.4380E-06  0.4304E-06  0.4195E-06  0.4088E-06  0.4039E-06  0.3938E-06  0.3823E-06  0.3699E-06  0.3541E-06  0.3402E-06  0.3261E-06  0.3114E-06  0.2967E-06  0.2785E-06  0.2638E-06  0.2454E-06  0.2311E-06  0.2129E-06  0.1993E-06  0.1817E-06
  0.1439E-06  0.1627E-06  0.1880E-06  0.2154E-06  0.2628E-06  0.3348E-06  0.4160E-06  0.5365E-06  0.6603E-06  0.7897E-06  0.9337E-06  0.1076E-05  0.1231E-05  0.1359E-05  0.1557E-05  0.1726E-05  0.1929E-05  0.2138E-05  0.2306E-05  0.2456E-05  0.2554E-05  0.2666E-05  0.2708E-05  0.2747E-05  0.2739E-05  0.2687E-05  0.2616E-05  0.2509E-05  0.2388E-05  0.2217E-05  0.2054E-05  0.1891E-05  0.1741E-05  0.1568E-05  0.1433E-05  0.1265E-05  0.1193E-05  0.1118E-05  0.1064E-05  0.9971E-06  0.9518E-06  0.9069E-06  0.8722E-06  0.8361E-06  0.8081E-06  0.7808E-06  0.7535E-06  0.7319E-06  0.7072E-06  0.6875E-06  0.6669E-06  0.6439E-06  0.6296E-06  0.6103E-06  0.5969E-06  0.5812E-06  0.5644E-06  0.5512E-06  0.5362E-06  0.5233E-06  0.5105E-06  0.4987E-06  0.4864E-06  0.4765E-06  0.4629E-06  0.4482E-06  0.4298E-06  0.4133E-06  0.3965E-06  0.3790E-06  0.3614E-06  0.3403E-06  0.3227E-06  0.3014E-06  0.2843E-06  0.2633E-06  0.2470E-06  0.2266E-06  0.2114E-06
  0.1606E-06  0.1848E-06  0.2081E-06  0.2587E-06  0.3294E-06  0.4101E-06  0.5289E-06  0.6705E-06  0.8055E-06  0.9429E-06  0.1110E-05  0.1294E-05  0.1461E-05  0.1680E-05  0.1861E-05  0.2075E-05  0.2342E-05  0.2556E-05  0.2766E-05  0.2944E-05  0.3054E-05  0.3202E-05  0.3274E-05  0.3315E-05  0.3298E-05  0.3269E-05  0.3178E-05  0.3082E-05  0.2919E-05  0.2759E-05  0.2550E-05  0.2400E-05  0.2204E-05  0.2036E-05  0.1852E-05  0.1676E-05  0.1506E-05  0.1406E-05  0.1321E-05  0.1246E-05  0.1179E-05  0.1116E-05  0.1069E-05  0.1021E-05  0.9867E-06  0.9427E-06  0.9135E-06  0.8833E-06  0.8517E-06  0.8270E-06  0.7991E-06  0.7754E-06  0.7521E-06  0.7300E-06  0.7114E-06  0.6902E-06  0.6706E-06  0.6528E-06  0.6356E-06  0.6207E-06  0.6037E-06  0.5858E-06  0.5739E-06  0.5578E-06  0.5405E-06  0.5191E-06  0.4995E-06  0.4823E-06  0.4585E-06  0.4376E-06  0.4129E-06  0.3920E-06  0.3672E-06  0.3468E-06  0.3224E-06  0.3030E-06  0.2795E-06  0.2613E-06  0.2389E-06
  0.1790E-06  0.2013E-06  0.2421E-06  0.2947E-06  0.3868E-06  0.5057E-06  0.6463E-06  0.7970E-06  0.9533E-06  0.1147E-05  0.1330E-05  0.1530E-05  0.1725E-05  0.1994E-05  0.2253E-05  0.2522E-05  0.2816E-05  0.3050E-05  0.3282E-05  0.3504E-05  0.3653E-05  0.3804E-05  0.3907E-05  0.3967E-05  0.3970E-05  0.3941E-05  0.3859E-05  0.3731E-05  0.3594E-05  0.3399E-05  0.3186E-05  0.2993E-05  0.2775E-05  0.2588E-05  0.2381E-05  0.2186E-05  0.1983E-05  0.1779E-05  0.1631E-05  0.1534E-05  0.1444E-05  0.1361E-05  0.1297E-05  0.1240E-05  0.1187E-05  0.1138E-05  0.1098E-05  0.1056E-05  0.1020E-05  0.9862E-06  0.9527E-06  0.9258E-06  0.8947E-06  0.8665E-06  0.8412E-06  0.8126E-06  0.7938E-06  0.7702E-06  0.7477E-06  0.7277E-06  0.7057E-06  0.6883E-06  0.6694E-06  0.6489E-06  0.6272E-06  0.6039E-06  0.5799E-06  0.5521E-06  0.5272E-06  0.4984E-06  0.4734E-06  0.4445E-06  0.4202E-06  0.3919E-06  0.3687E-06  0.3414E-06  0.3198E-06  0.2939E-06  0.2739E-06
  0.1990E-06  0.2208E-06  0.2745E-06  0.3629E-06  0.4633E-06  0.6256E-06  0.7762E-06  0.9382E-06  0.1155E-05  0.1347E-05  0.1562E-05  0.1814E-05  0.2055E-05  0.2380E-05  0.2685E-05  0.3019E-05  0.3355E-05  0.3645E-05  0.3882E-05  0.4133E-05  0.4328E-05  0.4511E-05  0.4641E-05  0.4712E-05  0.4739E-05  0.4722E-05  0.4655E-05  0.4537E-05  0.4373E-05  0.4173E-05  0.3929E-05  0.3711E-05  0.3493E-05  0.3271E-05  0.3037E-05  0.2834E-05  0.2599E-05  0.2361E-05  0.2156E-05  0.1916E-05  0.1753E-05  0.1652E-05  0.1570E-05  0.1490E-05  0.1423E-05  0.1360E-05  0.1308E-05  0.1251E-05  0.1214E-05  0.1169E-05  0.1128E-05  0.1091E-05  0.1051E-05  0.1020E-05  0.9859E-06  0.9568E-06  0.9289E-06  0.8965E-06  0.8732E-06  0.8472E-06  0.8218E-06  0.7998E-06  0.7757E-06  0.7500E-06  0.7225E-06  0.6941E-06  0.6616E-06  0.6320E-06  0.5984E-06  0.5686E-06  0.5350E-06  0.5060E-06  0.4730E-06  0.4455E-06  0.4138E-06  0.3881E-06  0.3581E-06  0.3343E-06  0.3058E-06
  0.2210E-06  0.2522E-06  0.3244E-06  0.4327E-06  0.5761E-06  0.7336E-06  0.9237E-06  0.1129E-05  0.1348E-05  0.1594E-05  0.1843E-05  0.2129E-05  0.2428E-05  0.2834E-05  0.3191E-05  0.3580E-05  0.3948E-05  0.4299E-05  0.4561E-05  0.4858E-05  0.5114E-05  0.5317E-05  0.5470E-05  0.5589E-05  0.5622E-05  0.5646E-05  0.5580E-05  0.5477E-05  0.5302E-05  0.5082E-05  0.4821E-05  0.4588E-05  0.4336E-05  0.4110E-05  0.3848E-05  0.3621E-05  0.3360E-05  0.3099E-05  0.2851E-05  0.2566E-05  0.2333E-05  0.2063E-05  0.1861E-05  0.1771E-05  0.1683E-05  0.1612E-05  0.1543E-05  0.1482E-05  0.1427E-05  0.1368E-05  0.1324E-05  0.1275E-05  0.1233E-05  0.1190E-05  0.1148E-05  0.1115E-05  0.1076E-05  0.1043E-05  0.1013E-05  0.9796E-06  0.9516E-06  0.9234E-06  0.8932E-06  0.8608E-06  0.8272E-06  0.7893E-06  0.7542E-06  0.7150E-06  0.6798E-06  0.6405E-06  0.6106E-06  0.5770E-06  0.5398E-06  0.5029E-06  0.4727E-06  0.4379E-06  0.4046E-06  0.3718E-06  0.3448E-06
  0.2440E-06  0.2830E-06  0.3750E-06  0.5113E-06  0.6867E-06  0.8845E-06  0.1106E-05  0.1330E-05  0.1567E-05  0.1852E-05  0.2143E-05  0.2503E-05  0.2900E-05  0.3333E-05  0.3766E-05  0.4213E-05  0.4634E-05  0.5020E-05  0.5368E-05  0.5680E-05  0.5988E-05  0.6229E-05  0.6439E-05  0.6576E-05  0.6670E-05  0.6689E-05  0.6665E-05  0.6537E-05  0.6384E-05  0.6152E-05  0.5882E-05  0.5650E-05  0.5350E-05  0.5111E-05  0.4813E-05  0.4583E-05  0.4292E-05  0.4013E-05  0.3731E-05  0.3411E-05  0.3173E-05  0.2823E-05  0.2577E-05  0.2243E-05  0.1993E-05  0.1893E-05  0.1803E-05  0.1736E-05  0.1660E-05  0.1598E-05  0.1541E-05  0.1477E-05  0.1430E-05  0.1379E-05  0.1333E-05  0.1287E-05  0.1244E-05  0.1205E-05  0.1167E-05  0.1128E-05  0.1095E-05  0.1060E-05  0.1022E-05  0.9821E-06  0.9379E-06  0.8965E-06  0.8508E-06  0.8133E-06  0.7721E-06  0.7272E-06  0.6874E-06  0.6441E-06  0.6065E-06  0.5653E-06  0.5249E-06  0.4918E-06  0.4537E-06  0.4167E-06  0.3799E-06
  0.2810E-06  0.3282E-06  0.4556E-06  0.6091E-06  0.8246E-06  0.1039E-05  0.1277E-05  0.1537E-05  0.1849E-05  0.2161E-05  0.2525E-05  0.2937E-05  0.3416E-05  0.3929E-05  0.4413E-05  0.4906E-05  0.5368E-05  0.5826E-05  0.6255E-05  0.6611E-05  0.6982E-05  0.7282E-05  0.7536E-05  0.7722E-05  0.7830E-05  0.7894E-05  0.7871E-05  0.7782E-05  0.7617E-05  0.7359E-05  0.7120E-05  0.6870E-05  0.6559E-05  0.6308E-05  0.5990E-05  0.5750E-05  0.5427E-05  0.5176E-05  0.4833E-05  0.4521E-05  0.4183E-05  0.3842E-05  0.3508E-05  0.3177E-05  0.2818E-05  0.2502E-05  0.2160E-05  0.2011E-05  0.1920E-05  0.1851E-05  0.1778E-05  0.1710E-05  0.1649E-05  0.1585E-05  0.1536E-05  0.1481E-05  0.1428E-05  0.1383E-05  0.1334E-05  0.1295E-05  0.1254E-05  0.1207E-05  0.1161E-05  0.1110E-05  0.1061E-05  0.1016E-05  0.9631E-06  0.9145E-06  0.8621E-06  0.8152E-06  0.7647E-06  0.7204E-06  0.6724E-06  0.6313E-06  0.5864E-06  0.5424E-06  0.4997E-06  0.4575E-06  0.4217E-06
  0.3164E-06  0.3799E-06  0.5178E-06  0.7158E-06  0.9612E-06  0.1209E-05  0.1486E-05  0.1805E-05  0.2128E-05  0.2499E-05  0.2958E-05  0.3426E-05  0.3992E-05  0.4582E-05  0.5137E-05  0.5699E-05  0.6206E-05  0.6722E-05  0.7224E-05  0.7657E-05  0.8095E-05  0.8466E-05  0.8765E-05  0.9015E-05  0.9162E-05  0.9242E-05  0.9253E-05  0.9175E-05  0.9010E-05  0.8769E-05  0.8549E-05  0.8296E-05  0.8007E-05  0.7735E-05  0.7427E-05  0.7148E-05  0.6824E-05  0.6546E-05  0.6226E-05  0.5863E-05  0.5545E-05  0.5111E-05  0.4794E-05  0.4351E-05  0.3990E-05  0.3608E-05  0.3162E-05  0.2824E-05  0.2351E-05  0.2130E-05  0.2036E-05  0.1967E-05  0.1892E-05  0.1820E-05  0.1757E-05  0.1689E-05  0.1633E-05  0.1576E-05  0.1523E-05  0.1475E-05  0.1421E-05  0.1368E-05  0.1312E-05  0.1255E-05  0.1198E-05  0.1136E-05  0.1079E-05  0.1018E-05  0.9629E-06  0.9040E-06  0.8519E-06  0.7961E-06  0.7477E-06  0.6956E-06  0.6505E-06  0.6012E-06  0.5527E-06  0.5053E-06  0.4591E-06
  0.3983E-06  0.4422E-06  0.6142E-06  0.8653E-06  0.1114E-05  0.1418E-05  0.1718E-05  0.2067E-05  0.2460E-05  0.2878E-05  0.3432E-05  0.4002E-05  0.4678E-05  0.5293E-05  0.5943E-05  0.6581E-05  0.7184E-05  0.7738E-05  0.8328E-05  0.8850E-05  0.9345E-05  0.9763E-05  0.1015E-04  0.1043E-04  0.1065E-04  0.1076E-04  0.1081E-04  0.1075E-04  0.1060E-04  0.1036E-04  0.1018E-04  0.9926E-05  0.9671E-05  0.9432E-05  0.9082E-05  0.8843E-05  0.8481E-05  0.8247E-05  0.7852E-05  0.7554E-05  0.7191E-05  0.6754E-05  0.6445E-05  0.5925E-05  0.5568E-05  0.5051E-05  0.4619E-05  0.4105E-05  0.3634E-05  0.3127E-05  0.2662E-05  0.2258E-05  0.2145E-05  0.2073E-05  0.1995E-05  0.1922E-05  0.1854E-05  0.1784E-05  0.1728E-05  0.1666E-05  0.1604E-05  0.1540E-05  0.1473E-05  0.1406E-05  0.1335E-05  0.1268E-05  0.1197E-05  0.1132E-05  0.1064E-05  0.1003E-05  0.9383E-06  0.8814E-06  0.8210E-06  0.7683E-06  0.7115E-06  0.6565E-06  0.6058E-06  0.5558E-06  0.5233E-06
  0.5235E-06  0.5327E-06  0.7254E-06  0.9957E-06  0.1285E-05  0.1630E-05  0.1978E-05  0.2358E-05  0.2806E-05  0.3340E-05  0.3978E-05  0.4615E-05  0.5400E-05  0.6120E-05  0.6822E-05  0.7560E-05  0.8253E-05  0.8872E-05  0.9539E-05  0.1015E-04  0.1071E-04  0.1122E-04  0.1165E-04  0.1202E-04  0.1227E-04  0.1247E-04  0.1257E-04  0.1253E-04  0.1241E-04  0.1219E-04  0.1206E-04  0.1178E-04  0.1161E-04  0.1131E-04  0.1106E-04  0.1078E-04  0.1047E-04  0.1025E-04  0.9855E-05  0.9632E-05  0.9223E-05  0.8849E-05  0.8448E-05  0.7934E-05  0.7530E-05  0.7048E-05  0.6477E-05  0.6017E-05  0.5394E-05  0.4880E-05  0.4200E-05  0.3691E-05  0.3035E-05  0.2489E-05  0.2248E-05  0.2171E-05  0.2091E-05  0.2016E-05  0.1945E-05  0.1874E-05  0.1800E-05  0.1723E-05  0.1645E-05  0.1562E-05  0.1484E-05  0.1403E-05  0.1327E-05  0.1248E-05  0.1176E-05  0.1101E-05  0.1035E-05  0.9691E-06  0.9116E-06  0.8504E-06  0.7908E-06  0.7384E-06  0.6813E-06  0.6272E-06  0.5999E-06
  0.6576E-06  0.6632E-06  0.8516E-06  0.1162E-05  0.1491E-05  0.1847E-05  0.2243E-05  0.2722E-05  0.3240E-05  0.3867E-05  0.4568E-05  0.5375E-05  0.6202E-05  0.7001E-05  0.7814E-05  0.8627E-05  0.9411E-05  0.1014E-04  0.1089E-04  0.1159E-04  0.1224E-04  0.1283E-04  0.1335E-04  0.1377E-04  0.1413E-04  0.1436E-04  0.1449E-04  0.1453E-04  0.1440E-04  0.1428E-04  0.1417E-04  0.1398E-04  0.1377E-04  0.1353E-04  0.1335E-04  0.1311E-04  0.1284E-04  0.1259E-04  0.1225E-04  0.1205E-04  0.1170E-04  0.1133E-04  0.1103E-04  0.1047E-04  0.1017E-04  0.9540E-05  0.9116E-05  0.8529E-05  0.7876E-05  0.7314E-05  0.6482E-05  0.5947E-05  0.5032E-05  0.4463E-05  0.3582E-05  0.3256E-05  0.2938E-05  0.2428E-05  0.2191E-05  0.2106E-05  0.2014E-05  0.1924E-05  0.1829E-05  0.1737E-05  0.1641E-05  0.1551E-05  0.1458E-05  0.1377E-05  0.1295E-05  0.1223E-05  0.1148E-05  0.1081E-05  0.1010E-05  0.9482E-06  0.8819E-06  0.8172E-06  0.7553E-06  0.7111E-06  0.6825E-06
  0.7952E-06  0.8037E-06  0.9884E-06  0.1323E-05  0.1695E-05  0.2104E-05  0.2582E-05  0.3083E-05  0.3703E-05  0.4451E-05  0.5256E-05  0.6164E-05  0.7091E-05  0.8016E-05  0.8908E-05  0.9795E-05  0.1068E-04  0.1153E-04  0.1236E-04  0.1316E-04  0.1393E-04  0.1460E-04  0.1522E-04  0.1573E-04  0.1613E-04  0.1643E-04  0.1660E-04  0.1662E-04  0.1652E-04  0.1660E-04  0.1659E-04  0.1634E-04  0.1626E-04  0.1602E-04  0.1593E-04  0.1570E-04  0.1552E-04  0.1536E-04  0.1507E-04  0.1499E-04  0.1456E-04  0.1445E-04  0.1409E-04  0.1369E-04  0.1342E-04  0.1278E-04  0.1250E-04  0.1185E-04  0.1132E-04  0.1064E-04  0.9859E-05  0.9183E-05  0.8158E-05  0.7536E-05  0.6418E-05  0.5396E-05  0.4645E-05  0.3970E-05  0.3242E-05  0.2394E-05  0.2250E-05  0.2141E-05  0.2036E-05  0.1926E-05  0.1823E-05  0.1715E-05  0.1617E-05  0.1520E-05  0.1436E-05  0.1349E-05  0.1272E-05  0.1191E-05  0.1119E-05  0.1043E-05  0.9687E-06  0.8962E-06  0.8389E-06  0.8038E-06  0.7706E-06
  0.9578E-06  0.9859E-06  0.1155E-05  0.1517E-05  0.1946E-05  0.2413E-05  0.2912E-05  0.3506E-05  0.4214E-05  0.5092E-05  0.6022E-05  0.7071E-05  0.8056E-05  0.9107E-05  0.1010E-04  0.1106E-04  0.1205E-04  0.1303E-04  0.1397E-04  0.1491E-04  0.1576E-04  0.1656E-04  0.1726E-04  0.1785E-04  0.1830E-04  0.1863E-04  0.1882E-04  0.1887E-04  0.1906E-04  0.1917E-04  0.1911E-04  0.1911E-04  0.1916E-04  0.1891E-04  0.1888E-04  0.1864E-04  0.1869E-04  0.1849E-04  0.1842E-04  0.1834E-04  0.1804E-04  0.1811E-04  0.1780E-04  0.1764E-04  0.1739E-04  0.1689E-04  0.1671E-04  0.1612E-04  0.1574E-04  0.1520E-04  0.1447E-04  0.1392E-04  0.1279E-04  0.1221E-04  0.1086E-04  0.8717E-05  0.7475E-05  0.6277E-05  0.4791E-05  0.3651E-05  0.2559E-05  0.2371E-05  0.2246E-05  0.2133E-05  0.2016E-05  0.1897E-05  0.1783E-05  0.1677E-05  0.1583E-05  0.1488E-05  0.1394E-05  0.1310E-05  0.1221E-05  0.1136E-05  0.1060E-05  0.9846E-06  0.9416E-06  0.9013E-06  0.8677E-06
  0.1188E-05  0.1213E-05  0.1302E-05  0.1715E-05  0.2177E-05  0.2706E-05  0.3274E-05  0.3961E-05  0.4762E-05  0.5784E-05  0.6869E-05  0.8029E-05  0.9152E-05  0.1026E-04  0.1137E-04  0.1249E-04  0.1357E-04  0.1467E-04  0.1576E-04  0.1679E-04  0.1793E-04  0.1916E-04  0.2005E-04  0.2065E-04  0.2098E-04  0.2107E-04  0.2119E-04  0.2137E-04  0.2167E-04  0.2185E-04  0.2188E-04  0.2221E-04  0.2222E-04  0.2208E-04  0.2213E-04  0.2201E-04  0.2220E-04  0.2207E-04  0.2224E-04  0.2222E-04  0.2223E-04  0.2235E-04  0.2209E-04  0.2227E-04  0.2220E-04  0.2196E-04  0.2205E-04  0.2140E-04  0.2156E-04  0.2103E-04  0.2067E-04  0.2029E-04  0.1933E-04  0.1905E-04  0.1750E-04  0.1469E-04  0.1147E-04  0.9184E-05  0.7168E-05  0.5346E-05  0.3723E-05  0.2609E-05  0.2468E-05  0.2335E-05  0.2200E-05  0.2077E-05  0.1957E-05  0.1843E-05  0.1734E-05  0.1625E-05  0.1528E-05  0.1426E-05  0.1334E-05  0.1240E-05  0.1151E-05  0.1099E-05  0.1050E-05  0.1009E-05  0.9665E-06
  0.1458E-05  0.1496E-05  0.1560E-05  0.1949E-05  0.2453E-05  0.3027E-05  0.3724E-05  0.4519E-05  0.5486E-05  0.6597E-05  0.7786E-05  0.9059E-05  0.1031E-04  0.1156E-04  0.1279E-04  0.1405E-04  0.1525E-04  0.1651E-04  0.1770E-04  0.1936E-04  0.2094E-04  0.2215E-04  0.2300E-04  0.2356E-04  0.2382E-04  0.2384E-04  0.2372E-04  0.2410E-04  0.2449E-04  0.2462E-04  0.2512E-04  0.2538E-04  0.2544E-04  0.2580E-04  0.2593E-04  0.2586E-04  0.2611E-04  0.2607E-04  0.2650E-04  0.2656E-04  0.2691E-04  0.2725E-04  0.2719E-04  0.2782E-04  0.2773E-04  0.2814E-04  0.2836E-04  0.2813E-04  0.2875E-04  0.2835E-04  0.2880E-04  0.2863E-04  0.2845E-04  0.2857E-04  0.2687E-04  0.2311E-04  0.1778E-04  0.1330E-04  0.1017E-04  0.7296E-05  0.4963E-05  0.3394E-05  0.2692E-05  0.2538E-05  0.2399E-05  0.2265E-05  0.2146E-05  0.2022E-05  0.1900E-05  0.1781E-05  0.1666E-05  0.1562E-05  0.1455E-05  0.1350E-05  0.1276E-05  0.1222E-05  0.1167E-05  0.1117E-05  0.1068E-05
  0.1759E-05  0.1816E-05  0.1892E-05  0.2162E-05  0.2756E-05  0.3437E-05  0.4173E-05  0.5098E-05  0.6259E-05  0.7477E-05  0.8813E-05  0.1023E-04  0.1159E-04  0.1294E-04  0.1432E-04  0.1572E-04  0.1708E-04  0.1849E-04  0.2053E-04  0.2247E-04  0.2407E-04  0.2524E-04  0.2605E-04  0.2652E-04  0.2670E-04  0.2664E-04  0.2641E-04  0.2704E-04  0.2741E-04  0.2787E-04  0.2846E-04  0.2876E-04  0.2924E-04  0.2974E-04  0.2988E-04  0.3011E-04  0.3047E-04  0.3070E-04  0.3133E-04  0.3139E-04  0.3233E-04  0.3266E-04  0.3331E-04  0.3410E-04  0.3412E-04  0.3541E-04  0.3581E-04  0.3651E-04  0.3744E-04  0.3732E-04  0.3898E-04  0.3913E-04  0.4038E-04  0.4115E-04  0.3918E-04  0.3418E-04  0.2682E-04  0.1840E-04  0.1355E-04  0.9748E-05  0.6639E-05  0.4292E-05  0.2921E-05  0.2765E-05  0.2612E-05  0.2477E-05  0.2339E-05  0.2203E-05  0.2070E-05  0.1947E-05  0.1823E-05  0.1703E-05  0.1586E-05  0.1477E-05  0.1413E-05  0.1349E-05  0.1288E-05  0.1232E-05  0.1179E-05
  0.2100E-05  0.2165E-05  0.2252E-05  0.2469E-05  0.3116E-05  0.3832E-05  0.4694E-05  0.5736E-05  0.7051E-05  0.8467E-05  0.9950E-05  0.1148E-04  0.1298E-04  0.1448E-04  0.1598E-04  0.1753E-04  0.1907E-04  0.2136E-04  0.2373E-04  0.2573E-04  0.2728E-04  0.2838E-04  0.2911E-04  0.2950E-04  0.2960E-04  0.2948E-04  0.2946E-04  0.3013E-04  0.3050E-04  0.3136E-04  0.3193E-04  0.3242E-04  0.3324E-04  0.3379E-04  0.3412E-04  0.3496E-04  0.3526E-04  0.3585E-04  0.3645E-04  0.3714E-04  0.3823E-04  0.3865E-04  0.4018E-04  0.4110E-04  0.4205E-04  0.4365E-04  0.4418E-04  0.4629E-04  0.4761E-04  0.4896E-04  0.5136E-04  0.5149E-04  0.5549E-04  0.5676E-04  0.5400E-04  0.4716E-04  0.3667E-04  0.2494E-04  0.1744E-04  0.1214E-04  0.8049E-05  0.5347E-05  0.3370E-05  0.3001E-05  0.2847E-05  0.2693E-05  0.2550E-05  0.2402E-05  0.2258E-05  0.2118E-05  0.1982E-05  0.1860E-05  0.1735E-05  0.1628E-05  0.1552E-05  0.1480E-05  0.1414E-05  0.1351E-05  0.1293E-05
  0.2472E-05  0.2557E-05  0.2646E-05  0.2757E-05  0.3462E-05  0.4272E-05  0.5242E-05  0.6443E-05  0.7946E-05  0.9535E-05  0.1118E-04  0.1281E-04  0.1449E-04  0.1615E-04  0.1777E-04  0.1952E-04  0.2180E-04  0.2464E-04  0.2706E-04  0.2905E-04  0.3053E-04  0.3154E-04  0.3219E-04  0.3248E-04  0.3252E-04  0.3230E-04  0.3266E-04  0.3326E-04  0.3407E-04  0.3494E-04  0.3560E-04  0.3653E-04  0.3747E-04  0.3791E-04  0.3914E-04  0.3994E-04  0.4025E-04  0.4143E-04  0.4207E-04  0.4349E-04  0.4464E-04  0.4582E-04  0.4770E-04  0.4868E-04  0.5105E-04  0.5291E-04  0.5445E-04  0.5760E-04  0.5892E-04  0.6278E-04  0.6566E-04  0.6868E-04  0.7382E-04  0.7486E-04  0.7021E-04  0.6009E-04  0.4593E-04  0.3048E-04  0.2102E-04  0.1425E-04  0.9550E-05  0.6112E-05  0.3814E-05  0.3260E-05  0.3086E-05  0.2922E-05  0.2757E-05  0.2598E-05  0.2445E-05  0.2296E-05  0.2160E-05  0.2022E-05  0.1890E-05  0.1792E-05  0.1712E-05  0.1637E-05  0.1556E-05  0.1476E-05  0.1415E-05
  0.2886E-05  0.2996E-05  0.3098E-05  0.3228E-05  0.3840E-05  0.4818E-05  0.5881E-05  0.7224E-05  0.8911E-05  0.1071E-04  0.1250E-04  0.1430E-04  0.1609E-04  0.1795E-04  0.1980E-04  0.2183E-04  0.2516E-04  0.2806E-04  0.3048E-04  0.3239E-04  0.3375E-04  0.3468E-04  0.3522E-04  0.3545E-04  0.3540E-04  0.3512E-04  0.3587E-04  0.3656E-04  0.3777E-04  0.3871E-04  0.3961E-04  0.4089E-04  0.4174E-04  0.4290E-04  0.4417E-04  0.4494E-04  0.4622E-04  0.4744E-04  0.4835E-04  0.5024E-04  0.5141E-04  0.5382E-04  0.5587E-04  0.5767E-04  0.6097E-04  0.6273E-04  0.6660E-04  0.7003E-04  0.7277E-04  0.7854E-04  0.8122E-04  0.9039E-04  0.9645E-04  0.9378E-04  0.8536E-04  0.7035E-04  0.5164E-04  0.3455E-04  0.2380E-04  0.1611E-04  0.1047E-04  0.6641E-05  0.4068E-05  0.3514E-05  0.3330E-05  0.3146E-05  0.2968E-05  0.2805E-05  0.2640E-05  0.2482E-05  0.2331E-05  0.2187E-05  0.2067E-05  0.1971E-05  0.1882E-05  0.1792E-05  0.1711E-05  0.1626E-05  0.1539E-05
  0.3388E-05  0.3500E-05  0.3625E-05  0.3780E-05  0.4322E-05  0.5361E-05  0.6559E-05  0.8129E-05  0.9998E-05  0.1199E-04  0.1395E-04  0.1588E-04  0.1788E-04  0.1989E-04  0.2198E-04  0.2525E-04  0.2866E-04  0.3154E-04  0.3390E-04  0.3569E-04  0.3693E-04  0.3775E-04  0.3820E-04  0.3832E-04  0.3818E-04  0.3833E-04  0.3921E-04  0.4041E-04  0.4162E-04  0.4252E-04  0.4404E-04  0.4536E-04  0.4630E-04  0.4814E-04  0.4931E-04  0.5072E-04  0.5253E-04  0.5369E-04  0.5543E-04  0.5741E-04  0.5932E-04  0.6239E-04  0.6418E-04  0.6816E-04  0.7146E-04  0.7440E-04  0.7995E-04  0.8293E-04  0.8993E-04  0.9586E-04  0.1034E-03  0.1223E-03  0.1252E-03  0.1146E-03  0.9550E-04  0.7453E-04  0.5391E-04  0.3786E-04  0.2559E-04  0.1683E-04  0.1075E-04  0.6777E-05  0.4155E-05  0.3782E-05  0.3577E-05  0.3386E-05  0.3196E-05  0.3013E-05  0.2837E-05  0.2674E-05  0.2529E-05  0.2386E-05  0.2259E-05  0.2145E-05  0.2042E-05  0.1948E-05  0.1867E-05  0.1774E-05  0.1679E-05
  0.3962E-05  0.4098E-05  0.4242E-05  0.4431E-05  0.4794E-05  0.6003E-05  0.7412E-05  0.9140E-05  0.1116E-04  0.1338E-04  0.1555E-04  0.1767E-04  0.1979E-04  0.2203E-04  0.2492E-04  0.2884E-04  0.3225E-04  0.3510E-04  0.3731E-04  0.3892E-04  0.4004E-04  0.4072E-04  0.4105E-04  0.4107E-04  0.4086E-04  0.4172E-04  0.4279E-04  0.4430E-04  0.4552E-04  0.4690E-04  0.4864E-04  0.4976E-04  0.5173E-04  0.5340E-04  0.5463E-04  0.5710E-04  0.5882E-04  0.6042E-04  0.6313E-04  0.6469E-04  0.6832E-04  0.7119E-04  0.7452E-04  0.7929E-04  0.8204E-04  0.8878E-04  0.9400E-04  0.1001E-03  0.1091E-03  0.1140E-03  0.1397E-03  0.1564E-03  0.1522E-03  0.1328E-03  0.1060E-03  0.7886E-04  0.5602E-04  0.3813E-04  0.2524E-04  0.1629E-04  0.1033E-04  0.6540E-05  0.4342E-05  0.4082E-05  0.3848E-05  0.3636E-05  0.3434E-05  0.3240E-05  0.3054E-05  0.2889E-05  0.2733E-05  0.2593E-05  0.2456E-05  0.2318E-05  0.2208E-05  0.2108E-05  0.2015E-05  0.1921E-05  0.1820E-05
  0.4601E-05  0.4776E-05  0.4953E-05  0.5176E-05  0.5401E-05  0.6684E-05  0.8298E-05  0.1033E-04  0.1255E-04  0.1496E-04  0.1724E-04  0.1957E-04  0.2195E-04  0.2430E-04  0.2859E-04  0.3254E-04  0.3587E-04  0.3857E-04  0.4060E-04  0.4203E-04  0.4299E-04  0.4354E-04  0.4374E-04  0.4368E-04  0.4402E-04  0.4506E-04  0.4673E-04  0.4826E-04  0.4948E-04  0.5161E-04  0.5313E-04  0.5493E-04  0.5715E-04  0.5869E-04  0.6114E-04  0.6348E-04  0.6492E-04  0.6844E-04  0.7078E-04  0.7363E-04  0.7763E-04  0.7996E-04  0.8639E-04  0.9051E-04  0.9651E-04  0.1040E-03  0.1084E-03  0.1215E-03  0.1288E-03  0.1462E-03  0.1792E-03  0.1859E-03  0.1694E-03  0.1396E-03  0.1064E-03  0.7650E-04  0.5256E-04  0.3486E-04  0.2271E-04  0.1457E-04  0.9266E-05  0.5887E-05  0.4655E-05  0.4381E-05  0.4124E-05  0.3900E-05  0.3688E-05  0.3492E-05  0.3295E-05  0.3114E-05  0.2938E-05  0.2783E-05  0.2641E-05  0.2509E-05  0.2377E-05  0.2266E-05  0.2163E-05  0.2063E-05  0.1957E-05
  0.5330E-05  0.5543E-05  0.5741E-05  0.6015E-05  0.6279E-05  0.7493E-05  0.9315E-05  0.1158E-04  0.1405E-04  0.1661E-04  0.1911E-04  0.2164E-04  0.2427E-04  0.2794E-04  0.3242E-04  0.3630E-04  0.3948E-04  0.4195E-04  0.4375E-04  0.4498E-04  0.4577E-04  0.4616E-04  0.4628E-04  0.4626E-04  0.4742E-04  0.4896E-04  0.5077E-04  0.5204E-04  0.5429E-04  0.5626E-04  0.5775E-04  0.6059E-04  0.6255E-04  0.6485E-04  0.6774E-04  0.6974E-04  0.7318E-04  0.7641E-04  0.7845E-04  0.8356E-04  0.8670E-04  0.9254E-04  0.9829E-04  0.1031E-03  0.1132E-03  0.1191E-03  0.1330E-03  0.1443E-03  0.1582E-03  0.1918E-03  0.2143E-03  0.2015E-03  0.1693E-03  0.1307E-03  0.9483E-04  0.6551E-04  0.4378E-04  0.2859E-04  0.1844E-04  0.1186E-04  0.7678E-05  0.5290E-05  0.4974E-05  0.4674E-05  0.4417E-05  0.4190E-05  0.3971E-05  0.3757E-05  0.3552E-05  0.3358E-05  0.3175E-05  0.2995E-05  0.2829E-05  0.2688E-05  0.2553E-05  0.2423E-05  0.2310E-05  0.2201E-05  0.2094E-05
  0.6143E-05  0.6404E-05  0.6649E-05  0.6945E-05  0.7264E-05  0.8366E-05  0.1044E-04  0.1298E-04  0.1569E-04  0.1842E-04  0.2113E-04  0.2393E-04  0.2688E-04  0.3188E-04  0.3632E-04  0.4002E-04  0.4297E-04  0.4515E-04  0.4669E-04  0.4772E-04  0.4831E-04  0.4861E-04  0.4889E-04  0.4960E-04  0.5099E-04  0.5304E-04  0.5465E-04  0.5664E-04  0.5903E-04  0.6061E-04  0.6359E-04  0.6603E-04  0.6799E-04  0.7162E-04  0.7417E-04  0.7733E-04  0.8135E-04  0.8368E-04  0.8902E-04  0.9325E-04  0.9793E-04  0.1055E-03  0.1096E-03  0.1221E-03  0.1302E-03  0.1435E-03  0.1595E-03  0.1682E-03  0.1944E-03  0.2283E-03  0.2269E-03  0.1938E-03  0.1478E-03  0.1061E-03  0.7299E-04  0.4880E-04  0.3199E-04  0.2087E-04  0.1353E-04  0.8907E-05  0.5984E-05  0.5622E-05  0.5287E-05  0.4989E-05  0.4738E-05  0.4501E-05  0.4272E-05  0.4049E-05  0.3834E-05  0.3629E-05  0.3433E-05  0.3242E-05  0.3056E-05  0.2876E-05  0.2723E-05  0.2584E-05  0.2456E-05  0.2336E-05  0.2220E-05
  0.7063E-05  0.7370E-05  0.7679E-05  0.7977E-05  0.8387E-05  0.9356E-05  0.1174E-04  0.1449E-04  0.1750E-04  0.2050E-04  0.2344E-04  0.2641E-04  0.3094E-04  0.3596E-04  0.4022E-04  0.4364E-04  0.4625E-04  0.4812E-04  0.4940E-04  0.5020E-04  0.5068E-04  0.5123E-04  0.5174E-04  0.5282E-04  0.5509E-04  0.5697E-04  0.5870E-04  0.6149E-04  0.6338E-04  0.6622E-04  0.6915E-04  0.7121E-04  0.7510E-04  0.7828E-04  0.8096E-04  0.8583E-04  0.8892E-04  0.9398E-04  0.9946E-04  0.1029E-03  0.1124E-03  0.1180E-03  0.1304E-03  0.1418E-03  0.1527E-03  0.1741E-03  0.1811E-03  0.2073E-03  0.2291E-03  0.2377E-03  0.2090E-03  0.1578E-03  0.1090E-03  0.7263E-04  0.4752E-04  0.3105E-04  0.2036E-04  0.1348E-04  0.9104E-05  0.7293E-05  0.6403E-05  0.5958E-05  0.5621E-05  0.5344E-05  0.5088E-05  0.4843E-05  0.4606E-05  0.4372E-05  0.4145E-05  0.3933E-05  0.3715E-05  0.3515E-05  0.3314E-05  0.3120E-05  0.2922E-05  0.2754E-05  0.2612E-05  0.2470E-05  0.2344E-05
  0.8102E-05  0.8470E-05  0.8840E-05  0.9212E-05  0.9623E-05  0.1049E-04  0.1322E-04  0.1623E-04  0.1946E-04  0.2271E-04  0.2590E-04  0.2962E-04  0.3521E-04  0.4008E-04  0.4402E-04  0.4707E-04  0.4928E-04  0.5082E-04  0.5184E-04  0.5251E-04  0.5330E-04  0.5403E-04  0.5484E-04  0.5694E-04  0.5911E-04  0.6060E-04  0.6371E-04  0.6594E-04  0.6849E-04  0.7201E-04  0.7434E-04  0.7829E-04  0.8199E-04  0.8425E-04  0.8991E-04  0.9380E-04  0.9850E-04  0.1052E-03  0.1087E-03  0.1193E-03  0.1265E-03  0.1384E-03  0.1535E-03  0.1591E-03  0.1868E-03  0.1975E-03  0.2143E-03  0.2299E-03  0.2412E-03  0.2137E-03  0.1618E-03  0.1075E-03  0.6665E-04  0.4072E-04  0.2586E-04  0.1683E-04  0.1318E-04  0.1119E-04  0.9476E-05  0.8211E-05  0.7149E-05  0.6317E-05  0.6016E-05  0.5739E-05  0.5478E-05  0.5233E-05  0.4977E-05  0.4739E-05  0.4499E-05  0.4256E-05  0.4028E-05  0.3811E-05  0.3590E-05  0.3382E-05  0.3175E-05  0.2976E-05  0.2773E-05  0.2619E-05  0.2474E-05
  0.9249E-05  0.9705E-05  0.1015E-04  0.1060E-04  0.1109E-04  0.1179E-04  0.1482E-04  0.1812E-04  0.2172E-04  0.2523E-04  0.2872E-04  0.3408E-04  0.3958E-04  0.4409E-04  0.4759E-04  0.5020E-04  0.5204E-04  0.5327E-04  0.5404E-04  0.5504E-04  0.5605E-04  0.5671E-04  0.5872E-04  0.6106E-04  0.6268E-04  0.6571E-04  0.6832E-04  0.7044E-04  0.7453E-04  0.7716E-04  0.8097E-04  0.8524E-04  0.8799E-04  0.9383E-04  0.9847E-04  0.1027E-03  0.1107E-03  0.1151E-03  0.1264E-03  0.1358E-03  0.1453E-03  0.1648E-03  0.1720E-03  0.1954E-03  0.2099E-03  0.2138E-03  0.2356E-03  0.2461E-03  0.2185E-03  0.1626E-03  0.1059E-03  0.6178E-04  0.3395E-04  0.2523E-04  0.2154E-04  0.1819E-04  0.1523E-04  0.1284E-04  0.1083E-04  0.9217E-05  0.7889E-05  0.6897E-05  0.6468E-05  0.6192E-05  0.5924E-05  0.5660E-05  0.5400E-05  0.5139E-05  0.4874E-05  0.4629E-05  0.4381E-05  0.4130E-05  0.3892E-05  0.3661E-05  0.3434E-05  0.3210E-05  0.3002E-05  0.2797E-05  0.2609E-05
  0.1053E-04  0.1105E-04  0.1161E-04  0.1220E-04  0.1284E-04  0.1352E-04  0.1660E-04  0.2028E-04  0.2414E-04  0.2796E-04  0.3257E-04  0.3873E-04  0.4388E-04  0.4791E-04  0.5092E-04  0.5302E-04  0.5443E-04  0.5533E-04  0.5652E-04  0.5779E-04  0.5848E-04  0.6025E-04  0.6285E-04  0.6470E-04  0.6751E-04  0.7048E-04  0.7218E-04  0.7678E-04  0.7974E-04  0.8327E-04  0.8832E-04  0.9138E-04  0.9751E-04  0.1029E-03  0.1066E-03  0.1165E-03  0.1217E-03  0.1334E-03  0.1453E-03  0.1494E-03  0.1740E-03  0.1840E-03  0.1982E-03  0.2173E-03  0.2070E-03  0.2350E-03  0.2502E-03  0.2220E-03  0.1646E-03  0.1045E-03  0.5893E-04  0.4048E-04  0.3567E-04  0.3041E-04  0.2545E-04  0.2126E-04  0.1759E-04  0.1459E-04  0.1211E-04  0.1021E-04  0.8668E-05  0.7524E-05  0.6973E-05  0.6693E-05  0.6418E-05  0.6141E-05  0.5864E-05  0.5575E-05  0.5305E-05  0.5030E-05  0.4750E-05  0.4483E-05  0.4221E-05  0.3964E-05  0.3710E-05  0.3471E-05  0.3238E-05  0.3022E-05  0.2803E-05
  0.1197E-04  0.1259E-04  0.1327E-04  0.1404E-04  0.1484E-04  0.1562E-04  0.1873E-04  0.2261E-04  0.2690E-04  0.3108E-04  0.3750E-04  0.4337E-04  0.4798E-04  0.5140E-04  0.5380E-04  0.5541E-04  0.5641E-04  0.5773E-04  0.5927E-04  0.6019E-04  0.6157E-04  0.6452E-04  0.6655E-04  0.6912E-04  0.7247E-04  0.7429E-04  0.7885E-04  0.8220E-04  0.8527E-04  0.9119E-04  0.9446E-04  0.1010E-03  0.1073E-03  0.1104E-03  0.1224E-03  0.1289E-03  0.1389E-03  0.1539E-03  0.1589E-03  0.1791E-03  0.1922E-03  0.1942E-03  0.2185E-03  0.2093E-03  0.2313E-03  0.2517E-03  0.2279E-03  0.1661E-03  0.1015E-03  0.5775E-04  0.5444E-04  0.4914E-04  0.4258E-04  0.3585E-04  0.2968E-04  0.2422E-04  0.1981E-04  0.1626E-04  0.1340E-04  0.1121E-04  0.9456E-05  0.8162E-05  0.7547E-05  0.7261E-05  0.6973E-05  0.6678E-05  0.6378E-05  0.6073E-05  0.5768E-05  0.5457E-05  0.5157E-05  0.4868E-05  0.4570E-05  0.4280E-05  0.4003E-05  0.3742E-05  0.3487E-05  0.3244E-05  0.3006E-05
  0.1355E-04  0.1434E-04  0.1519E-04  0.1609E-04  0.1704E-04  0.1797E-04  0.2140E-04  0.2567E-04  0.3022E-04  0.3588E-04  0.4253E-04  0.4784E-04  0.5179E-04  0.5451E-04  0.5626E-04  0.5734E-04  0.5875E-04  0.6052E-04  0.6164E-04  0.6287E-04  0.6614E-04  0.6830E-04  0.7076E-04  0.7433E-04  0.7637E-04  0.8076E-04  0.8457E-04  0.8723E-04  0.9396E-04  0.9749E-04  0.1044E-03  0.1117E-03  0.1145E-03  0.1283E-03  0.1358E-03  0.1416E-03  0.1598E-03  0.1663E-03  0.1788E-03  0.1955E-03  0.1891E-03  0.2144E-03  0.2076E-03  0.2271E-03  0.2551E-03  0.2331E-03  0.1654E-03  0.9834E-04  0.7145E-04  0.6815E-04  0.6356E-04  0.5700E-04  0.4911E-04  0.4089E-04  0.3345E-04  0.2710E-04  0.2186E-04  0.1782E-04  0.1460E-04  0.1216E-04  0.1021E-04  0.8722E-05  0.8197E-05  0.7899E-05  0.7590E-05  0.7272E-05  0.6945E-05  0.6608E-05  0.6263E-05  0.5926E-05  0.5599E-05  0.5261E-05  0.4931E-05  0.4615E-05  0.4323E-05  0.4024E-05  0.3746E-05  0.3475E-05  0.3231E-05
  0.1531E-04  0.1628E-04  0.1732E-04  0.1842E-04  0.1951E-04  0.2065E-04  0.2452E-04  0.2930E-04  0.3440E-04  0.4139E-04  0.4759E-04  0.5213E-04  0.5521E-04  0.5723E-04  0.5836E-04  0.5974E-04  0.6181E-04  0.6318E-04  0.6441E-04  0.6771E-04  0.7000E-04  0.7208E-04  0.7614E-04  0.7830E-04  0.8269E-04  0.8689E-04  0.8890E-04  0.9697E-04  0.1006E-03  0.1077E-03  0.1162E-03  0.1190E-03  0.1322E-03  0.1414E-03  0.1427E-03  0.1618E-03  0.1701E-03  0.1727E-03  0.1927E-03  0.1884E-03  0.2074E-03  0.2033E-03  0.2227E-03  0.2560E-03  0.2347E-03  0.1658E-03  0.1024E-03  0.9274E-04  0.8069E-04  0.7507E-04  0.6984E-04  0.6291E-04  0.5436E-04  0.4518E-04  0.3653E-04  0.2938E-04  0.2354E-04  0.1909E-04  0.1560E-04  0.1291E-04  0.1083E-04  0.9299E-05  0.8936E-05  0.8612E-05  0.8272E-05  0.7926E-05  0.7562E-05  0.7180E-05  0.6810E-05  0.6433E-05  0.6050E-05  0.5675E-05  0.5315E-05  0.4978E-05  0.4636E-05  0.4318E-05  0.4007E-05  0.3728E-05  0.3463E-05
  0.1729E-04  0.1840E-04  0.1968E-04  0.2102E-04  0.2240E-04  0.2367E-04  0.2825E-04  0.3415E-04  0.3993E-04  0.4715E-04  0.5251E-04  0.5614E-04  0.5844E-04  0.5970E-04  0.6064E-04  0.6299E-04  0.6466E-04  0.6589E-04  0.6913E-04  0.7164E-04  0.7320E-04  0.7795E-04  0.8019E-04  0.8457E-04  0.8931E-04  0.9082E-04  0.1002E-03  0.1041E-03  0.1103E-03  0.1202E-03  0.1229E-03  0.1332E-03  0.1438E-03  0.1454E-03  0.1589E-03  0.1689E-03  0.1650E-03  0.1856E-03  0.1832E-03  0.2000E-03  0.1985E-03  0.2172E-03  0.2516E-03  0.2405E-03  0.1655E-03  0.1263E-03  0.1146E-03  0.1007E-03  0.8660E-04  0.7796E-04  0.7319E-04  0.6655E-04  0.5767E-04  0.4778E-04  0.3858E-04  0.3080E-04  0.2459E-04  0.1975E-04  0.1615E-04  0.1346E-04  0.1127E-04  0.1006E-04  0.9741E-05  0.9396E-05  0.9029E-05  0.8624E-05  0.8219E-05  0.7808E-05  0.7380E-05  0.6947E-05  0.6521E-05  0.6118E-05  0.5723E-05  0.5334E-05  0.4968E-05  0.4611E-05  0.4290E-05  0.3985E-05  0.3695E-05
  0.1950E-04  0.2090E-04  0.2237E-04  0.2402E-04  0.2556E-04  0.2710E-04  0.3278E-04  0.3986E-04  0.4657E-04  0.5313E-04  0.5762E-04  0.6027E-04  0.6167E-04  0.6222E-04  0.6451E-04  0.6632E-04  0.6737E-04  0.7044E-04  0.7331E-04  0.7452E-04  0.7983E-04  0.8215E-04  0.8691E-04  0.9206E-04  0.9435E-04  0.1035E-03  0.1076E-03  0.1112E-03  0.1224E-03  0.1250E-03  0.1305E-03  0.1422E-03  0.1442E-03  0.1512E-03  0.1626E-03  0.1605E-03  0.1765E-03  0.1758E-03  0.1928E-03  0.1946E-03  0.2088E-03  0.2479E-03  0.2422E-03  0.1635E-03  0.1481E-03  0.1353E-03  0.1193E-03  0.1039E-03  0.8979E-04  0.7883E-04  0.7476E-04  0.6758E-04  0.5828E-04  0.4806E-04  0.3879E-04  0.3086E-04  0.2458E-04  0.1987E-04  0.1641E-04  0.1365E-04  0.1162E-04  0.1097E-04  0.1064E-04  0.1026E-04  0.9860E-05  0.9433E-05  0.8975E-05  0.8491E-05  0.7994E-05  0.7501E-05  0.7032E-05  0.6569E-05  0.6124E-05  0.5704E-05  0.5297E-05  0.4928E-05  0.4576E-05  0.4242E-05  0.3904E-05
  0.2199E-04  0.2368E-04  0.2549E-04  0.2732E-04  0.2910E-04  0.3090E-04  0.3790E-04  0.4647E-04  0.5508E-04  0.6197E-04  0.6685E-04  0.6870E-04  0.6784E-04  0.6678E-04  0.6883E-04  0.6992E-04  0.7189E-04  0.7501E-04  0.7588E-04  0.8211E-04  0.8431E-04  0.8961E-04  0.9641E-04  0.1023E-03  0.1071E-03  0.1120E-03  0.1172E-03  0.1218E-03  0.1241E-03  0.1249E-03  0.1362E-03  0.1383E-03  0.1412E-03  0.1531E-03  0.1516E-03  0.1673E-03  0.1680E-03  0.1837E-03  0.1899E-03  0.1961E-03  0.2334E-03  0.2400E-03  0.1962E-03  0.1791E-03  0.1567E-03  0.1340E-03  0.1180E-03  0.1039E-03  0.9028E-04  0.7836E-04  0.7413E-04  0.6510E-04  0.5540E-04  0.4572E-04  0.3695E-04  0.2959E-04  0.2380E-04  0.1950E-04  0.1621E-04  0.1369E-04  0.1234E-04  0.1199E-04  0.1165E-04  0.1126E-04  0.1084E-04  0.1037E-04  0.9863E-05  0.9297E-05  0.8733E-05  0.8175E-05  0.7624E-05  0.7081E-05  0.6568E-05  0.6084E-05  0.5645E-05  0.5242E-05  0.4860E-05  0.4473E-05  0.4118E-05
  0.2474E-04  0.2674E-04  0.2892E-04  0.3101E-04  0.3317E-04  0.3519E-04  0.4301E-04  0.5410E-04  0.6516E-04  0.7428E-04  0.8033E-04  0.8161E-04  0.7863E-04  0.7729E-04  0.7695E-04  0.7772E-04  0.8003E-04  0.7950E-04  0.8558E-04  0.8708E-04  0.9360E-04  0.1023E-03  0.1100E-03  0.1166E-03  0.1219E-03  0.1275E-03  0.1336E-03  0.1384E-03  0.1414E-03  0.1443E-03  0.1509E-03  0.1546E-03  0.1585E-03  0.1707E-03  0.1773E-03  0.1898E-03  0.2078E-03  0.2142E-03  0.2250E-03  0.2391E-03  0.2381E-03  0.2261E-03  0.2077E-03  0.1842E-03  0.1578E-03  0.1332E-03  0.1123E-03  0.9930E-04  0.8572E-04  0.7260E-04  0.6607E-04  0.5668E-04  0.4822E-04  0.4032E-04  0.3317E-04  0.2709E-04  0.2228E-04  0.1857E-04  0.1570E-04  0.1403E-04  0.1356E-04  0.1317E-04  0.1282E-04  0.1243E-04  0.1201E-04  0.1151E-04  0.1092E-04  0.1029E-04  0.9630E-05  0.8981E-05  0.8329E-05  0.7690E-05  0.7087E-05  0.6534E-05  0.6030E-05  0.5543E-05  0.5113E-05  0.4706E-05  0.4334E-05
  0.2789E-04  0.3018E-04  0.3270E-04  0.3522E-04  0.3772E-04  0.4012E-04  0.4936E-04  0.6122E-04  0.7523E-04  0.8791E-04  0.9660E-04  0.9914E-04  0.9556E-04  0.9519E-04  0.9164E-04  0.9474E-04  0.9185E-04  0.9665E-04  0.9661E-04  0.9755E-04  0.1070E-03  0.1170E-03  0.1259E-03  0.1333E-03  0.1391E-03  0.1459E-03  0.1534E-03  0.1587E-03  0.1618E-03  0.1694E-03  0.1770E-03  0.1802E-03  0.1952E-03  0.2070E-03  0.2179E-03  0.2452E-03  0.2556E-03  0.2564E-03  0.2732E-03  0.2680E-03  0.2511E-03  0.2293E-03  0.2042E-03  0.1774E-03  0.1494E-03  0.1244E-03  0.1021E-03  0.8675E-04  0.7367E-04  0.6113E-04  0.4991E-04  0.4358E-04  0.3793E-04  0.3286E-04  0.2811E-04  0.2384E-04  0.2032E-04  0.1744E-04  0.1608E-04  0.1546E-04  0.1498E-04  0.1453E-04  0.1424E-04  0.1395E-04  0.1360E-04  0.1306E-04  0.1241E-04  0.1160E-04  0.1081E-04  0.9970E-05  0.9177E-05  0.8423E-05  0.7744E-05  0.7089E-05  0.6446E-05  0.5914E-05  0.5394E-05  0.4948E-05  0.4529E-05
  0.3141E-04  0.3412E-04  0.3706E-04  0.3996E-04  0.4277E-04  0.4554E-04  0.5434E-04  0.6720E-04  0.8357E-04  0.9969E-04  0.1122E-03  0.1183E-03  0.1180E-03  0.1210E-03  0.1190E-03  0.1198E-03  0.1174E-03  0.1202E-03  0.1117E-03  0.1180E-03  0.1227E-03  0.1340E-03  0.1442E-03  0.1525E-03  0.1585E-03  0.1684E-03  0.1771E-03  0.1827E-03  0.1890E-03  0.2010E-03  0.2079E-03  0.2222E-03  0.2413E-03  0.2487E-03  0.2848E-03  0.3015E-03  0.2956E-03  0.3049E-03  0.2932E-03  0.2676E-03  0.2404E-03  0.2134E-03  0.1853E-03  0.1572E-03  0.1300E-03  0.1065E-03  0.8669E-04  0.7036E-04  0.5694E-04  0.4706E-04  0.3867E-04  0.3143E-04  0.2754E-04  0.2531E-04  0.2282E-04  0.2043E-04  0.1932E-04  0.1833E-04  0.1770E-04  0.1713E-04  0.1673E-04  0.1629E-04  0.1655E-04  0.1638E-04  0.1585E-04  0.1533E-04  0.1440E-04  0.1355E-04  0.1237E-04  0.1132E-04  0.1027E-04  0.9306E-05  0.8453E-05  0.7671E-05  0.6972E-05  0.6314E-05  0.5729E-05  0.5186E-05  0.4721E-05
  0.3535E-04  0.3858E-04  0.4191E-04  0.4525E-04  0.4858E-04  0.5173E-04  0.5584E-04  0.6944E-04  0.8679E-04  0.1054E-03  0.1210E-03  0.1315E-03  0.1370E-03  0.1449E-03  0.1447E-03  0.1460E-03  0.1456E-03  0.1463E-03  0.1398E-03  0.1413E-03  0.1409E-03  0.1543E-03  0.1656E-03  0.1745E-03  0.1838E-03  0.1966E-03  0.2059E-03  0.2112E-03  0.2289E-03  0.2408E-03  0.2549E-03  0.2814E-03  0.2933E-03  0.3268E-03  0.3482E-03  0.3407E-03  0.3331E-03  0.3112E-03  0.2736E-03  0.2381E-03  0.2079E-03  0.1792E-03  0.1512E-03  0.1273E-03  0.1066E-03  0.8655E-04  0.6973E-04  0.5644E-04  0.4607E-04  0.3849E-04  0.3318E-04  0.2955E-04  0.2713E-04  0.2490E-04  0.2347E-04  0.2207E-04  0.2112E-04  0.2031E-04  0.1973E-04  0.1936E-04  0.1955E-04  0.1985E-04  0.2013E-04  0.1978E-04  0.1903E-04  0.1829E-04  0.1703E-04  0.1588E-04  0.1435E-04  0.1289E-04  0.1155E-04  0.1034E-04  0.9284E-05  0.8352E-05  0.7512E-05  0.6744E-05  0.6074E-05  0.5463E-05  0.4945E-05
  0.3967E-04  0.4357E-04  0.4735E-04  0.5126E-04  0.5509E-04  0.5871E-04  0.6216E-04  0.6670E-04  0.8313E-04  0.1016E-03  0.1179E-03  0.1303E-03  0.1400E-03  0.1493E-03  0.1497E-03  0.1543E-03  0.1541E-03  0.1574E-03  0.1520E-03  0.1558E-03  0.1625E-03  0.1780E-03  0.1907E-03  0.2004E-03  0.2172E-03  0.2317E-03  0.2410E-03  0.2635E-03  0.2815E-03  0.2946E-03  0.3325E-03  0.3473E-03  0.3698E-03  0.3954E-03  0.3811E-03  0.3589E-03  0.3200E-03  0.2657E-03  0.2202E-03  0.1865E-03  0.1583E-03  0.1427E-03  0.1267E-03  0.1086E-03  0.8944E-04  0.7707E-04  0.6361E-04  0.5297E-04  0.4508E-04  0.3867E-04  0.3441E-04  0.3127E-04  0.2871E-04  0.2695E-04  0.2524E-04  0.2475E-04  0.2366E-04  0.2378E-04  0.2361E-04  0.2412E-04  0.2487E-04  0.2549E-04  0.2591E-04  0.2517E-04  0.2381E-04  0.2238E-04  0.2045E-04  0.1845E-04  0.1672E-04  0.1480E-04  0.1310E-04  0.1155E-04  0.1023E-04  0.9080E-05  0.8062E-05  0.7224E-05  0.6469E-05  0.5792E-05  0.5206E-05
  0.4462E-04  0.4923E-04  0.5367E-04  0.5806E-04  0.6246E-04  0.6663E-04  0.7040E-04  0.7509E-04  0.7898E-04  0.8797E-04  0.1014E-03  0.1118E-03  0.1208E-03  0.1289E-03  0.1385E-03  0.1463E-03  0.1519E-03  0.1542E-03  0.1575E-03  0.1701E-03  0.1891E-03  0.2065E-03  0.2206E-03  0.2389E-03  0.2605E-03  0.2757E-03  0.3053E-03  0.3328E-03  0.3451E-03  0.3946E-03  0.4147E-03  0.4233E-03  0.4454E-03  0.4165E-03  0.3802E-03  0.3138E-03  0.2404E-03  0.1966E-03  0.1639E-03  0.1428E-03  0.1303E-03  0.1193E-03  0.1042E-03  0.9405E-04  0.8447E-04  0.7221E-04  0.6386E-04  0.5350E-04  0.4848E-04  0.4306E-04  0.4048E-04  0.3760E-04  0.3607E-04  0.3395E-04  0.3349E-04  0.3208E-04  0.3203E-04  0.3142E-04  0.3272E-04  0.3366E-04  0.3490E-04  0.3540E-04  0.3501E-04  0.3314E-04  0.3051E-04  0.2751E-04  0.2482E-04  0.2192E-04  0.1921E-04  0.1702E-04  0.1478E-04  0.1289E-04  0.1129E-04  0.9887E-05  0.8698E-05  0.7726E-05  0.6857E-05  0.6120E-05  0.5488E-05
  0.5031E-04  0.5560E-04  0.6079E-04  0.6593E-04  0.7083E-04  0.7608E-04  0.8250E-04  0.8758E-04  0.9109E-04  0.9415E-04  0.9916E-04  0.1053E-03  0.1128E-03  0.1194E-03  0.1287E-03  0.1392E-03  0.1490E-03  0.1664E-03  0.1824E-03  0.1987E-03  0.2222E-03  0.2420E-03  0.2619E-03  0.2931E-03  0.3160E-03  0.3538E-03  0.3938E-03  0.4118E-03  0.4741E-03  0.4969E-03  0.5053E-03  0.5144E-03  0.4685E-03  0.4103E-03  0.2947E-03  0.2190E-03  0.1753E-03  0.1522E-03  0.1380E-03  0.1358E-03  0.1283E-03  0.1221E-03  0.1202E-03  0.1067E-03  0.1047E-03  0.9542E-04  0.8618E-04  0.7905E-04  0.7115E-04  0.6740E-04  0.6216E-04  0.6041E-04  0.5626E-04  0.5532E-04  0.5259E-04  0.5123E-04  0.5023E-04  0.4878E-04  0.5051E-04  0.5106E-04  0.5167E-04  0.5061E-04  0.4768E-04  0.4343E-04  0.3901E-04  0.3420E-04  0.2972E-04  0.2565E-04  0.2237E-04  0.1924E-04  0.1657E-04  0.1427E-04  0.1235E-04  0.1073E-04  0.9404E-05  0.8288E-05  0.7277E-05  0.6458E-05  0.5764E-05
  0.5695E-04  0.6299E-04  0.6881E-04  0.7478E-04  0.8180E-04  0.8965E-04  0.9610E-04  0.1010E-03  0.1041E-03  0.1072E-03  0.1127E-03  0.1208E-03  0.1291E-03  0.1362E-03  0.1489E-03  0.1607E-03  0.1754E-03  0.1962E-03  0.2144E-03  0.2403E-03  0.2687E-03  0.2908E-03  0.3350E-03  0.3700E-03  0.4113E-03  0.4725E-03  0.5020E-03  0.5771E-03  0.6179E-03  0.6512E-03  0.6776E-03  0.6894E-03  0.6104E-03  0.2902E-03  0.2171E-03  0.1841E-03  0.2511E-03  0.2803E-03  0.2539E-03  0.2412E-03  0.2146E-03  0.2119E-03  0.1953E-03  0.1819E-03  0.1762E-03  0.1540E-03  0.1503E-03  0.1330E-03  0.1274E-03  0.1179E-03  0.1112E-03  0.1060E-03  0.9898E-04  0.9594E-04  0.8983E-04  0.8770E-04  0.8404E-04  0.8152E-04  0.7892E-04  0.7738E-04  0.7490E-04  0.7027E-04  0.6369E-04  0.5612E-04  0.4847E-04  0.4141E-04  0.3545E-04  0.3010E-04  0.2551E-04  0.2163E-04  0.1855E-04  0.1580E-04  0.1351E-04  0.1166E-04  0.1007E-04  0.8809E-05  0.7752E-05  0.6855E-05  0.6067E-05
  0.6432E-04  0.7129E-04  0.7806E-04  0.8667E-04  0.9614E-04  0.1045E-03  0.1111E-03  0.1158E-03  0.1188E-03  0.1241E-03  0.1310E-03  0.1403E-03  0.1506E-03  0.1603E-03  0.1769E-03  0.1921E-03  0.2131E-03  0.2395E-03  0.2620E-03  0.3040E-03  0.3398E-03  0.3848E-03  0.4437E-03  0.4830E-03  0.5707E-03  0.6354E-03  0.7059E-03  0.8128E-03  0.8583E-03  0.9528E-03  0.8735E-03  0.5519E-03  0.2774E-03  0.2340E-03  0.2015E-03  0.2732E-03  0.2245E-03  0.2631E-03  0.3905E-03  0.4716E-03  0.4140E-03  0.3875E-03  0.3366E-03  0.2881E-03  0.2701E-03  0.2307E-03  0.2252E-03  0.2000E-03  0.1908E-03  0.1789E-03  0.1671E-03  0.1614E-03  0.1491E-03  0.1467E-03  0.1372E-03  0.1348E-03  0.1276E-03  0.1227E-03  0.1131E-03  0.1080E-03  0.1012E-03  0.9182E-04  0.8067E-04  0.6937E-04  0.5873E-04  0.4962E-04  0.4161E-04  0.3468E-04  0.2894E-04  0.2434E-04  0.2042E-04  0.1723E-04  0.1467E-04  0.1259E-04  0.1083E-04  0.9409E-05  0.8209E-05  0.7217E-05  0.6366E-05
  0.7242E-04  0.8033E-04  0.9029E-04  0.1016E-03  0.1117E-03  0.1204E-03  0.1273E-03  0.1430E-03  0.1611E-03  0.1745E-03  0.1878E-03  0.2070E-03  0.2193E-03  0.2375E-03  0.2438E-03  0.2669E-03  0.2743E-03  0.3028E-03  0.3378E-03  0.3966E-03  0.4458E-03  0.5168E-03  0.5916E-03  0.6467E-03  0.7650E-03  0.8327E-03  0.9253E-03  0.9515E-03  0.9045E-03  0.6840E-03  0.3771E-03  0.3013E-03  0.4192E-03  0.3131E-03  0.2622E-03  0.3161E-03  0.5136E-03  0.2765E-03  0.3025E-03  0.4079E-03  0.4533E-03  0.5380E-03  0.5264E-03  0.4688E-03  0.4350E-03  0.3552E-03  0.3288E-03  0.2882E-03  0.2546E-03  0.2401E-03  0.2137E-03  0.2107E-03  0.1913E-03  0.1906E-03  0.1786E-03  0.1751E-03  0.1654E-03  0.1566E-03  0.1417E-03  0.1336E-03  0.1245E-03  0.1120E-03  0.9765E-04  0.8308E-04  0.7019E-04  0.5871E-04  0.4921E-04  0.4113E-04  0.3402E-04  0.2804E-04  0.2305E-04  0.1897E-04  0.1574E-04  0.1348E-04  0.1152E-04  0.9943E-05  0.8668E-05  0.7582E-05  0.6660E-05
  0.8160E-04  0.9255E-04  0.1053E-03  0.1172E-03  0.1280E-03  0.1373E-03  0.1497E-03  0.1778E-03  0.2031E-03  0.2226E-03  0.2401E-03  0.2676E-03  0.2826E-03  0.3051E-03  0.3061E-03  0.3341E-03  0.3398E-03  0.3931E-03  0.4379E-03  0.5126E-03  0.5754E-03  0.6637E-03  0.7383E-03  0.8113E-03  0.8654E-03  0.8860E-03  0.8443E-03  0.6945E-03  0.4571E-03  0.3368E-03  0.3956E-03  0.4577E-03  0.4341E-03  0.4583E-03  0.3872E-03  0.3440E-03  0.3714E-03  0.5928E-03  0.3526E-03  0.3134E-03  0.3647E-03  0.4565E-03  0.4938E-03  0.5359E-03  0.5596E-03  0.4989E-03  0.4850E-03  0.4332E-03  0.3720E-03  0.3422E-03  0.2875E-03  0.2735E-03  0.2442E-03  0.2301E-03  0.2144E-03  0.2041E-03  0.1930E-03  0.1810E-03  0.1658E-03  0.1558E-03  0.1455E-03  0.1313E-03  0.1151E-03  0.9889E-04  0.8374E-04  0.7039E-04  0.5878E-04  0.4879E-04  0.4042E-04  0.3309E-04  0.2686E-04  0.2172E-04  0.1761E-04  0.1455E-04  0.1218E-04  0.1054E-04  0.9123E-05  0.7933E-05  0.6965E-05
  0.9358E-04  0.1075E-03  0.1206E-03  0.1329E-03  0.1440E-03  0.1540E-03  0.1710E-03  0.2040E-03  0.2339E-03  0.2560E-03  0.2730E-03  0.3023E-03  0.3152E-03  0.3379E-03  0.3391E-03  0.3858E-03  0.4267E-03  0.4931E-03  0.5483E-03  0.6214E-03  0.6942E-03  0.7469E-03  0.7997E-03  0.8055E-03  0.7540E-03  0.7024E-03  0.5177E-03  0.3261E-03  0.3677E-03  0.3639E-03  0.4803E-03  0.5198E-03  0.3971E-03  0.4611E-03  0.5034E-03  0.4285E-03  0.3545E-03  0.5120E-03  0.6109E-03  0.3364E-03  0.3201E-03  0.3682E-03  0.3859E-03  0.4602E-03  0.5071E-03  0.5175E-03  0.5530E-03  0.5318E-03  0.4997E-03  0.4727E-03  0.4054E-03  0.3807E-03  0.3348E-03  0.3012E-03  0.2721E-03  0.2459E-03  0.2283E-03  0.2087E-03  0.1935E-03  0.1806E-03  0.1701E-03  0.1555E-03  0.1382E-03  0.1191E-03  0.1011E-03  0.8501E-04  0.7100E-04  0.5865E-04  0.4795E-04  0.3900E-04  0.3165E-04  0.2537E-04  0.2023E-04  0.1630E-04  0.1316E-04  0.1105E-04  0.9524E-05  0.8282E-05  0.7244E-05
  0.1081E-03  0.1221E-03  0.1351E-03  0.1473E-03  0.1587E-03  0.1694E-03  0.1904E-03  0.2178E-03  0.2482E-03  0.2690E-03  0.2804E-03  0.3050E-03  0.3352E-03  0.3767E-03  0.4144E-03  0.4687E-03  0.5241E-03  0.5798E-03  0.6400E-03  0.7077E-03  0.7216E-03  0.7285E-03  0.7401E-03  0.6584E-03  0.5212E-03  0.3699E-03  0.3427E-03  0.3263E-03  0.4051E-03  0.4934E-03  0.5087E-03  0.5332E-03  0.5422E-03  0.4602E-03  0.4719E-03  0.5146E-03  0.4030E-03  0.3781E-03  0.6164E-03  0.5669E-03  0.3653E-03  0.3153E-03  0.3359E-03  0.3871E-03  0.4092E-03  0.4528E-03  0.4951E-03  0.4971E-03  0.5270E-03  0.5269E-03  0.4960E-03  0.4826E-03  0.4363E-03  0.4040E-03  0.3656E-03  0.3262E-03  0.2980E-03  0.2668E-03  0.2463E-03  0.2245E-03  0.2098E-03  0.1916E-03  0.1706E-03  0.1479E-03  0.1254E-03  0.1048E-03  0.8671E-04  0.7093E-04  0.5729E-04  0.4596E-04  0.3666E-04  0.2921E-04  0.2306E-04  0.1821E-04  0.1450E-04  0.1173E-04  0.9952E-05  0.8626E-05  0.7490E-05
  0.1218E-03  0.1350E-03  0.1473E-03  0.1590E-03  0.1709E-03  0.1858E-03  0.2058E-03  0.2283E-03  0.2539E-03  0.2807E-03  0.3167E-03  0.3565E-03  0.3975E-03  0.4436E-03  0.4805E-03  0.5639E-03  0.6103E-03  0.6223E-03  0.6742E-03  0.6961E-03  0.6608E-03  0.6216E-03  0.5563E-03  0.4173E-03  0.3260E-03  0.3136E-03  0.3717E-03  0.4008E-03  0.4313E-03  0.5498E-03  0.4920E-03  0.5164E-03  0.5850E-03  0.5622E-03  0.4905E-03  0.4862E-03  0.4489E-03  0.3605E-03  0.4928E-03  0.6532E-03  0.5414E-03  0.3387E-03  0.3199E-03  0.3323E-03  0.3487E-03  0.3904E-03  0.4138E-03  0.4405E-03  0.4714E-03  0.4814E-03  0.4971E-03  0.5057E-03  0.4827E-03  0.4780E-03  0.4485E-03  0.4182E-03  0.3883E-03  0.3535E-03  0.3242E-03  0.2924E-03  0.2706E-03  0.2440E-03  0.2148E-03  0.1857E-03  0.1569E-03  0.1301E-03  0.1061E-03  0.8550E-04  0.6814E-04  0.5377E-04  0.4234E-04  0.3323E-04  0.2608E-04  0.2019E-04  0.1589E-04  0.1263E-04  0.1030E-04  0.8898E-05  0.7745E-05
  0.1321E-03  0.1461E-03  0.1605E-03  0.1762E-03  0.1944E-03  0.2155E-03  0.2404E-03  0.2688E-03  0.3006E-03  0.3408E-03  0.3769E-03  0.4271E-03  0.4878E-03  0.5183E-03  0.5309E-03  0.6037E-03  0.6199E-03  0.6001E-03  0.6301E-03  0.6129E-03  0.5318E-03  0.4200E-03  0.3154E-03  0.3023E-03  0.3462E-03  0.3610E-03  0.3673E-03  0.4513E-03  0.5258E-03  0.5219E-03  0.5018E-03  0.5067E-03  0.4895E-03  0.5382E-03  0.5495E-03  0.5015E-03  0.4536E-03  0.3809E-03  0.4379E-03  0.5431E-03  0.6402E-03  0.4953E-03  0.3482E-03  0.3275E-03  0.3389E-03  0.3479E-03  0.3557E-03  0.3851E-03  0.4018E-03  0.4210E-03  0.4437E-03  0.4558E-03  0.4646E-03  0.4754E-03  0.4655E-03  0.4617E-03  0.4451E-03  0.4215E-03  0.3930E-03  0.3619E-03  0.3341E-03  0.2994E-03  0.2636E-03  0.2270E-03  0.1911E-03  0.1576E-03  0.1271E-03  0.1008E-03  0.7942E-04  0.6191E-04  0.4787E-04  0.3713E-04  0.2884E-04  0.2252E-04  0.1753E-04  0.1387E-04  0.1113E-04  0.9131E-05  0.7982E-05
  0.1532E-03  0.1721E-03  0.1917E-03  0.2147E-03  0.2386E-03  0.2656E-03  0.3003E-03  0.3297E-03  0.3766E-03  0.4207E-03  0.4443E-03  0.4805E-03  0.5282E-03  0.5368E-03  0.5281E-03  0.5871E-03  0.5851E-03  0.5419E-03  0.5075E-03  0.4477E-03  0.3472E-03  0.2888E-03  0.3257E-03  0.3381E-03  0.3526E-03  0.3938E-03  0.4293E-03  0.4781E-03  0.5305E-03  0.4802E-03  0.5384E-03  0.5917E-03  0.5680E-03  0.4874E-03  0.5114E-03  0.5302E-03  0.4565E-03  0.3986E-03  0.4057E-03  0.4413E-03  0.5782E-03  0.6168E-03  0.4628E-03  0.3187E-03  0.3082E-03  0.3311E-03  0.3519E-03  0.3699E-03  0.3812E-03  0.3833E-03  0.3782E-03  0.3895E-03  0.4072E-03  0.4178E-03  0.4233E-03  0.4356E-03  0.4344E-03  0.4313E-03  0.4166E-03  0.3999E-03  0.3738E-03  0.3395E-03  0.3018E-03  0.2615E-03  0.2210E-03  0.1814E-03  0.1457E-03  0.1149E-03  0.8952E-04  0.6943E-04  0.5333E-04  0.4081E-04  0.3135E-04  0.2441E-04  0.1872E-04  0.1468E-04  0.1163E-04  0.9340E-05  0.8366E-05
  0.1799E-03  0.2085E-03  0.2397E-03  0.2691E-03  0.2951E-03  0.3295E-03  0.3651E-03  0.3875E-03  0.4255E-03  0.4598E-03  0.4664E-03  0.4833E-03  0.5225E-03  0.5224E-03  0.4983E-03  0.5303E-03  0.5009E-03  0.4274E-03  0.3408E-03  0.2712E-03  0.2861E-03  0.2984E-03  0.3319E-03  0.3627E-03  0.3738E-03  0.4054E-03  0.4870E-03  0.5170E-03  0.4877E-03  0.4471E-03  0.5035E-03  0.5682E-03  0.5783E-03  0.5408E-03  0.4969E-03  0.4937E-03  0.4683E-03  0.4099E-03  0.3659E-03  0.4106E-03  0.4975E-03  0.5943E-03  0.5627E-03  0.4168E-03  0.3063E-03  0.2778E-03  0.3060E-03  0.3361E-03  0.3660E-03  0.3911E-03  0.4069E-03  0.4108E-03  0.4024E-03  0.3850E-03  0.4027E-03  0.4124E-03  0.4125E-03  0.4037E-03  0.3890E-03  0.3894E-03  0.3754E-03  0.3508E-03  0.3180E-03  0.2801E-03  0.2386E-03  0.1971E-03  0.1585E-03  0.1248E-03  0.9728E-04  0.7500E-04  0.5754E-04  0.4382E-04  0.3350E-04  0.2590E-04  0.2024E-04  0.1584E-04  0.1252E-04  0.1008E-04  0.9006E-05
  0.2065E-03  0.2467E-03  0.2845E-03  0.3182E-03  0.3441E-03  0.3724E-03  0.4006E-03  0.4105E-03  0.4327E-03  0.4587E-03  0.4590E-03  0.4664E-03  0.4986E-03  0.4873E-03  0.4446E-03  0.4130E-03  0.3597E-03  0.2829E-03  0.2691E-03  0.2752E-03  0.2879E-03  0.3111E-03  0.3181E-03  0.3496E-03  0.3885E-03  0.4358E-03  0.4940E-03  0.4895E-03  0.4669E-03  0.4959E-03  0.5390E-03  0.5359E-03  0.5063E-03  0.5228E-03  0.5245E-03  0.5005E-03  0.4557E-03  0.3901E-03  0.3772E-03  0.4146E-03  0.4513E-03  0.4982E-03  0.5634E-03  0.5165E-03  0.3745E-03  0.3229E-03  0.3203E-03  0.3169E-03  0.3135E-03  0.3458E-03  0.3760E-03  0.3980E-03  0.4080E-03  0.4078E-03  0.3988E-03  0.3837E-03  0.3847E-03  0.3867E-03  0.3781E-03  0.3631E-03  0.3470E-03  0.3335E-03  0.3104E-03  0.2787E-03  0.2409E-03  0.2022E-03  0.1666E-03  0.1313E-03  0.1011E-03  0.7838E-04  0.6014E-04  0.4586E-04  0.3508E-04  0.2706E-04  0.2111E-04  0.1642E-04  0.1290E-04  0.1054E-04  0.9624E-05
  0.2302E-03  0.2752E-03  0.3147E-03  0.3451E-03  0.3657E-03  0.3822E-03  0.4035E-03  0.4069E-03  0.4217E-03  0.4459E-03  0.4429E-03  0.4284E-03  0.4423E-03  0.4087E-03  0.3473E-03  0.2791E-03  0.2510E-03  0.2559E-03  0.2710E-03  0.2890E-03  0.3065E-03  0.3183E-03  0.3224E-03  0.3329E-03  0.3939E-03  0.4603E-03  0.4682E-03  0.4444E-03  0.4580E-03  0.5215E-03  0.5758E-03  0.5810E-03  0.5359E-03  0.4751E-03  0.4950E-03  0.5069E-03  0.4671E-03  0.4021E-03  0.3740E-03  0.4188E-03  0.4190E-03  0.4241E-03  0.4960E-03  0.5436E-03  0.4576E-03  0.3333E-03  0.3349E-03  0.3404E-03  0.3422E-03  0.3409E-03  0.3358E-03  0.3424E-03  0.3648E-03  0.3796E-03  0.3870E-03  0.3865E-03  0.3796E-03  0.3651E-03  0.3456E-03  0.3375E-03  0.3262E-03  0.3110E-03  0.2921E-03  0.2687E-03  0.2410E-03  0.2099E-03  0.1759E-03  0.1410E-03  0.1076E-03  0.7886E-04  0.6084E-04  0.4687E-04  0.3598E-04  0.2771E-04  0.2167E-04  0.1708E-04  0.1348E-04  0.1126E-04  0.1024E-04
  0.2428E-03  0.2882E-03  0.3257E-03  0.3504E-03  0.3631E-03  0.3745E-03  0.3942E-03  0.3972E-03  0.4045E-03  0.4229E-03  0.4076E-03  0.3703E-03  0.3392E-03  0.2938E-03  0.2575E-03  0.2548E-03  0.2573E-03  0.2715E-03  0.2833E-03  0.2914E-03  0.2961E-03  0.3136E-03  0.3361E-03  0.3555E-03  0.4036E-03  0.4468E-03  0.4339E-03  0.4243E-03  0.4366E-03  0.4766E-03  0.5288E-03  0.5503E-03  0.5360E-03  0.5055E-03  0.4812E-03  0.4760E-03  0.4648E-03  0.4109E-03  0.3870E-03  0.4101E-03  0.3837E-03  0.3998E-03  0.4474E-03  0.5001E-03  0.5003E-03  0.4168E-03  0.3044E-03  0.3181E-03  0.3284E-03  0.3343E-03  0.3363E-03  0.3363E-03  0.3337E-03  0.3315E-03  0.3490E-03  0.3600E-03  0.3633E-03  0.3578E-03  0.3437E-03  0.3237E-03  0.3000E-03  0.2890E-03  0.2750E-03  0.2566E-03  0.2337E-03  0.2066E-03  0.1758E-03  0.1434E-03  0.1115E-03  0.8194E-04  0.6010E-04  0.4650E-04  0.3588E-04  0.2791E-04  0.2190E-04  0.1739E-04  0.1382E-04  0.1183E-04  0.1074E-04
  0.2467E-03  0.2908E-03  0.3260E-03  0.3480E-03  0.3576E-03  0.3647E-03  0.3839E-03  0.3820E-03  0.3651E-03  0.3678E-03  0.3369E-03  0.2879E-03  0.2627E-03  0.2610E-03  0.2509E-03  0.2430E-03  0.2495E-03  0.2623E-03  0.2834E-03  0.3023E-03  0.3195E-03  0.3313E-03  0.3393E-03  0.3710E-03  0.4121E-03  0.4196E-03  0.4329E-03  0.4347E-03  0.4720E-03  0.5194E-03  0.5382E-03  0.5139E-03  0.4852E-03  0.4932E-03  0.4965E-03  0.4882E-03  0.4488E-03  0.4029E-03  0.3862E-03  0.3845E-03  0.3551E-03  0.4026E-03  0.4237E-03  0.4375E-03  0.4799E-03  0.4709E-03  0.3738E-03  0.2918E-03  0.2862E-03  0.3000E-03  0.3105E-03  0.3183E-03  0.3234E-03  0.3263E-03  0.3267E-03  0.3237E-03  0.3310E-03  0.3317E-03  0.3248E-03  0.3120E-03  0.2944E-03  0.2730E-03  0.2523E-03  0.2377E-03  0.2188E-03  0.1953E-03  0.1685E-03  0.1395E-03  0.1103E-03  0.8281E-04  0.5876E-04  0.4498E-04  0.3512E-04  0.2748E-04  0.2179E-04  0.1743E-04  0.1396E-04  0.1231E-04  0.1117E-04
  0.2445E-03  0.2877E-03  0.3221E-03  0.3435E-03  0.3531E-03  0.3470E-03  0.3585E-03  0.3449E-03  0.3136E-03  0.2804E-03  0.2616E-03  0.2641E-03  0.2570E-03  0.2408E-03  0.2330E-03  0.2439E-03  0.2556E-03  0.2678E-03  0.2806E-03  0.2917E-03  0.3098E-03  0.3348E-03  0.3566E-03  0.3822E-03  0.4074E-03  0.4207E-03  0.4004E-03  0.4300E-03  0.4709E-03  0.5118E-03  0.5268E-03  0.5113E-03  0.4782E-03  0.4477E-03  0.4723E-03  0.4872E-03  0.4690E-03  0.4190E-03  0.3886E-03  0.3445E-03  0.3734E-03  0.4081E-03  0.4067E-03  0.3957E-03  0.4328E-03  0.4718E-03  0.4316E-03  0.3425E-03  0.2879E-03  0.2834E-03  0.2793E-03  0.2875E-03  0.2984E-03  0.3074E-03  0.3132E-03  0.3156E-03  0.3127E-03  0.3043E-03  0.2972E-03  0.2897E-03  0.2778E-03  0.2616E-03  0.2413E-03  0.2174E-03  0.2001E-03  0.1801E-03  0.1566E-03  0.1313E-03  0.1054E-03  0.8033E-04  0.5825E-04  0.4314E-04  0.3388E-04  0.2677E-04  0.2143E-04  0.1725E-04  0.1402E-04  0.1270E-04  0.1150E-04
  0.2364E-03  0.2780E-03  0.3105E-03  0.3290E-03  0.3326E-03  0.3198E-03  0.3054E-03  0.2814E-03  0.2559E-03  0.2608E-03  0.2588E-03  0.2466E-03  0.2330E-03  0.2363E-03  0.2345E-03  0.2405E-03  0.2462E-03  0.2617E-03  0.2805E-03  0.3024E-03  0.3229E-03  0.3376E-03  0.3574E-03  0.3760E-03  0.4064E-03  0.4142E-03  0.3773E-03  0.3986E-03  0.4422E-03  0.4727E-03  0.4706E-03  0.4687E-03  0.4612E-03  0.4550E-03  0.4557E-03  0.4536E-03  0.4584E-03  0.4234E-03  0.3799E-03  0.3641E-03  0.3797E-03  0.3986E-03  0.3799E-03  0.3831E-03  0.4080E-03  0.4373E-03  0.4449E-03  0.4014E-03  0.3115E-03  0.2769E-03  0.2775E-03  0.2775E-03  0.2767E-03  0.2807E-03  0.2902E-03  0.2961E-03  0.2971E-03  0.2921E-03  0.2820E-03  0.2668E-03  0.2558E-03  0.2438E-03  0.2273E-03  0.2068E-03  0.1833E-03  0.1634E-03  0.1430E-03  0.1207E-03  0.9813E-04  0.7600E-04  0.5620E-04  0.4054E-04  0.3237E-04  0.2584E-04  0.2092E-04  0.1696E-04  0.1434E-04  0.1299E-04  0.1175E-04
  0.2256E-03  0.2575E-03  0.2847E-03  0.2963E-03  0.2907E-03  0.2700E-03  0.2412E-03  0.2492E-03  0.2513E-03  0.2458E-03  0.2323E-03  0.2381E-03  0.2366E-03  0.2270E-03  0.2292E-03  0.2394E-03  0.2506E-03  0.2629E-03  0.2744E-03  0.2890E-03  0.3179E-03  0.3444E-03  0.3678E-03  0.3886E-03  0.4008E-03  0.3874E-03  0.4052E-03  0.4328E-03  0.4651E-03  0.4825E-03  0.4763E-03  0.4533E-03  0.4241E-03  0.4323E-03  0.4502E-03  0.4602E-03  0.4445E-03  0.4092E-03  0.3713E-03  0.3664E-03  0.3715E-03  0.3744E-03  0.3466E-03  0.3814E-03  0.3958E-03  0.3977E-03  0.4217E-03  0.4275E-03  0.3682E-03  0.2855E-03  0.2633E-03  0.2672E-03  0.2699E-03  0.2709E-03  0.2704E-03  0.2714E-03  0.2748E-03  0.2729E-03  0.2662E-03  0.2550E-03  0.2396E-03  0.2228E-03  0.2096E-03  0.1924E-03  0.1718E-03  0.1492E-03  0.1288E-03  0.1095E-03  0.8948E-04  0.7035E-04  0.5299E-04  0.3843E-04  0.3052E-04  0.2470E-04  0.2021E-04  0.1653E-04  0.1455E-04  0.1318E-04  0.1192E-04
  0.2065E-03  0.2265E-03  0.2447E-03  0.2485E-03  0.2360E-03  0.2282E-03  0.2315E-03  0.2293E-03  0.2208E-03  0.2260E-03  0.2273E-03  0.2232E-03  0.2147E-03  0.2218E-03  0.2287E-03  0.2355E-03  0.2434E-03  0.2599E-03  0.2776E-03  0.2972E-03  0.3175E-03  0.3388E-03  0.3604E-03  0.3850E-03  0.3871E-03  0.3796E-03  0.4057E-03  0.4299E-03  0.4491E-03  0.4562E-03  0.4506E-03  0.4362E-03  0.4196E-03  0.4112E-03  0.4129E-03  0.4367E-03  0.4369E-03  0.4053E-03  0.3711E-03  0.3487E-03  0.3462E-03  0.3358E-03  0.3492E-03  0.3778E-03  0.3833E-03  0.3675E-03  0.3878E-03  0.4199E-03  0.3983E-03  0.3409E-03  0.2623E-03  0.2491E-03  0.2548E-03  0.2586E-03  0.2604E-03  0.2595E-03  0.2551E-03  0.2506E-03  0.2464E-03  0.2384E-03  0.2260E-03  0.2100E-03  0.1906E-03  0.1760E-03  0.1583E-03  0.1381E-03  0.1167E-03  0.9822E-04  0.8087E-04  0.6410E-04  0.4924E-04  0.3647E-04  0.2855E-04  0.2348E-04  0.1942E-04  0.1629E-04  0.1465E-04  0.1328E-04  0.1202E-04
  0.1801E-03  0.1939E-03  0.1976E-03  0.2025E-03  0.2095E-03  0.2111E-03  0.2073E-03  0.2103E-03  0.2128E-03  0.2105E-03  0.2033E-03  0.2067E-03  0.2122E-03  0.2170E-03  0.2241E-03  0.2349E-03  0.2463E-03  0.2585E-03  0.2712E-03  0.2886E-03  0.3177E-03  0.3405E-03  0.3651E-03  0.3744E-03  0.3595E-03  0.3605E-03  0.3858E-03  0.4200E-03  0.4460E-03  0.4498E-03  0.4361E-03  0.4103E-03  0.3931E-03  0.3954E-03  0.4046E-03  0.4088E-03  0.4094E-03  0.3944E-03  0.3552E-03  0.3388E-03  0.3305E-03  0.3215E-03  0.3442E-03  0.3653E-03  0.3602E-03  0.3492E-03  0.3694E-03  0.3916E-03  0.3984E-03  0.3778E-03  0.3133E-03  0.2403E-03  0.2352E-03  0.2413E-03  0.2449E-03  0.2455E-03  0.2432E-03  0.2369E-03  0.2270E-03  0.2192E-03  0.2095E-03  0.1960E-03  0.1796E-03  0.1603E-03  0.1435E-03  0.1261E-03  0.1071E-03  0.8783E-04  0.7244E-04  0.5804E-04  0.4515E-04  0.3419E-04  0.2671E-04  0.2228E-04  0.1915E-04  0.1695E-04  0.1490E-04  0.1330E-04  0.1206E-04
  0.1514E-03  0.1667E-03  0.1792E-03  0.1864E-03  0.1884E-03  0.1930E-03  0.1972E-03  0.1968E-03  0.1927E-03  0.1934E-03  0.1972E-03  0.2015E-03  0.2066E-03  0.2145E-03  0.2222E-03  0.2301E-03  0.2384E-03  0.2548E-03  0.2721E-03  0.2950E-03  0.3220E-03  0.3353E-03  0.3539E-03  0.3592E-03  0.3720E-03  0.3888E-03  0.4075E-03  0.4253E-03  0.4328E-03  0.4288E-03  0.4122E-03  0.3914E-03  0.3717E-03  0.3632E-03  0.3811E-03  0.3961E-03  0.3933E-03  0.3756E-03  0.3478E-03  0.3308E-03  0.3059E-03  0.3071E-03  0.3279E-03  0.3376E-03  0.3231E-03  0.3391E-03  0.3589E-03  0.3636E-03  0.3796E-03  0.3889E-03  0.3505E-03  0.2897E-03  0.2280E-03  0.2272E-03  0.2262E-03  0.2284E-03  0.2276E-03  0.2230E-03  0.2150E-03  0.2037E-03  0.1917E-03  0.1805E-03  0.1661E-03  0.1495E-03  0.1309E-03  0.1135E-03  0.9726E-04  0.8046E-04  0.6416E-04  0.5222E-04  0.4126E-04  0.3162E-04  0.2507E-04  0.2174E-04  0.1948E-04  0.1733E-04  0.1532E-04  0.1346E-04  0.1203E-04
  0.1388E-03  0.1505E-03  0.1626E-03  0.1721E-03  0.1784E-03  0.1808E-03  0.1800E-03  0.1814E-03  0.1837E-03  0.1856E-03  0.1902E-03  0.1965E-03  0.2031E-03  0.2090E-03  0.2148E-03  0.2261E-03  0.2381E-03  0.2502E-03  0.2796E-03  0.3016E-03  0.3259E-03  0.3372E-03  0.3330E-03  0.3322E-03  0.3529E-03  0.3682E-03  0.3816E-03  0.4031E-03  0.4163E-03  0.4105E-03  0.3903E-03  0.3632E-03  0.3490E-03  0.3482E-03  0.3543E-03  0.3715E-03  0.3806E-03  0.3659E-03  0.3380E-03  0.3153E-03  0.3011E-03  0.2867E-03  0.2992E-03  0.2974E-03  0.3026E-03  0.3290E-03  0.3446E-03  0.3402E-03  0.3501E-03  0.3727E-03  0.3649E-03  0.3301E-03  0.2669E-03  0.2170E-03  0.2159E-03  0.2126E-03  0.2099E-03  0.2069E-03  0.2004E-03  0.1910E-03  0.1786E-03  0.1643E-03  0.1518E-03  0.1375E-03  0.1209E-03  0.1036E-03  0.8714E-04  0.7258E-04  0.5860E-04  0.4680E-04  0.3741E-04  0.2904E-04  0.2392E-04  0.2167E-04  0.1953E-04  0.1747E-04  0.1553E-04  0.1372E-04  0.1206E-04
  0.1313E-03  0.1438E-03  0.1533E-03  0.1602E-03  0.1631E-03  0.1671E-03  0.1705E-03  0.1715E-03  0.1727E-03  0.1790E-03  0.1851E-03  0.1905E-03  0.1955E-03  0.2023E-03  0.2108E-03  0.2197E-03  0.2344E-03  0.2599E-03  0.2862E-03  0.3089E-03  0.3138E-03  0.3296E-03  0.3289E-03  0.3288E-03  0.3364E-03  0.3530E-03  0.3734E-03  0.3894E-03  0.3927E-03  0.3831E-03  0.3664E-03  0.3457E-03  0.3286E-03  0.3296E-03  0.3395E-03  0.3467E-03  0.3525E-03  0.3490E-03  0.3265E-03  0.2976E-03  0.2940E-03  0.2722E-03  0.2667E-03  0.2661E-03  0.2914E-03  0.3111E-03  0.3168E-03  0.3026E-03  0.3218E-03  0.3417E-03  0.3583E-03  0.3497E-03  0.3057E-03  0.2480E-03  0.2036E-03  0.2014E-03  0.1966E-03  0.1897E-03  0.1847E-03  0.1767E-03  0.1661E-03  0.1529E-03  0.1379E-03  0.1247E-03  0.1104E-03  0.9501E-04  0.7949E-04  0.6498E-04  0.5264E-04  0.4196E-04  0.3386E-04  0.2664E-04  0.2348E-04  0.2138E-04  0.1934E-04  0.1741E-04  0.1555E-04  0.1383E-04  0.1222E-04
  0.1217E-03  0.1314E-03  0.1404E-03  0.1484E-03  0.1543E-03  0.1576E-03  0.1580E-03  0.1589E-03  0.1660E-03  0.1721E-03  0.1775E-03  0.1824E-03  0.1890E-03  0.1957E-03  0.2059E-03  0.2178E-03  0.2374E-03  0.2651E-03  0.2886E-03  0.3080E-03  0.2999E-03  0.3044E-03  0.3145E-03  0.3218E-03  0.3305E-03  0.3422E-03  0.3525E-03  0.3588E-03  0.3583E-03  0.3482E-03  0.3357E-03  0.3234E-03  0.3141E-03  0.3088E-03  0.3190E-03  0.3293E-03  0.3295E-03  0.3250E-03  0.3124E-03  0.2878E-03  0.2770E-03  0.2670E-03  0.2509E-03  0.2536E-03  0.2722E-03  0.2817E-03  0.2775E-03  0.2842E-03  0.3071E-03  0.3230E-03  0.3323E-03  0.3395E-03  0.3235E-03  0.2857E-03  0.2307E-03  0.1878E-03  0.1842E-03  0.1782E-03  0.1696E-03  0.1617E-03  0.1525E-03  0.1413E-03  0.1278E-03  0.1133E-03  0.9973E-04  0.8627E-04  0.7246E-04  0.5928E-04  0.4717E-04  0.3761E-04  0.3063E-04  0.2484E-04  0.2287E-04  0.2090E-04  0.1900E-04  0.1715E-04  0.1542E-04  0.1377E-04  0.1225E-04
  0.1140E-03  0.1238E-03  0.1324E-03  0.1386E-03  0.1422E-03  0.1449E-03  0.1486E-03  0.1514E-03  0.1579E-03  0.1635E-03  0.1691E-03  0.1747E-03  0.1804E-03  0.1896E-03  0.2011E-03  0.2143E-03  0.2416E-03  0.2598E-03  0.2745E-03  0.2935E-03  0.2910E-03  0.2820E-03  0.2825E-03  0.2929E-03  0.3022E-03  0.3197E-03  0.3351E-03  0.3425E-03  0.3403E-03  0.3300E-03  0.3147E-03  0.2995E-03  0.2957E-03  0.2952E-03  0.2959E-03  0.3063E-03  0.3106E-03  0.3041E-03  0.2928E-03  0.2754E-03  0.2562E-03  0.2547E-03  0.2433E-03  0.2375E-03  0.2474E-03  0.2477E-03  0.2488E-03  0.2689E-03  0.2859E-03  0.2918E-03  0.2899E-03  0.3054E-03  0.3169E-03  0.3030E-03  0.2636E-03  0.2142E-03  0.1704E-03  0.1653E-03  0.1582E-03  0.1487E-03  0.1389E-03  0.1290E-03  0.1172E-03  0.1043E-03  0.9086E-04  0.7750E-04  0.6547E-04  0.5390E-04  0.4308E-04  0.3386E-04  0.2774E-04  0.2409E-04  0.2225E-04  0.2042E-04  0.1865E-04  0.1694E-04  0.1529E-04  0.1375E-04  0.1228E-04
  0.1057E-03  0.1138E-03  0.1218E-03  0.1288E-03  0.1341E-03  0.1373E-03  0.1389E-03  0.1425E-03  0.1490E-03  0.1546E-03  0.1598E-03  0.1649E-03  0.1747E-03  0.1851E-03  0.1957E-03  0.2161E-03  0.2336E-03  0.2513E-03  0.2603E-03  0.2665E-03  0.2732E-03  0.2745E-03  0.2781E-03  0.2860E-03  0.2976E-03  0.3089E-03  0.3165E-03  0.3183E-03  0.3144E-03  0.3051E-03  0.2925E-03  0.2794E-03  0.2739E-03  0.2768E-03  0.2801E-03  0.2813E-03  0.2868E-03  0.2850E-03  0.2738E-03  0.2587E-03  0.2404E-03  0.2376E-03  0.2322E-03  0.2211E-03  0.2207E-03  0.2221E-03  0.2348E-03  0.2492E-03  0.2561E-03  0.2522E-03  0.2601E-03  0.2847E-03  0.2935E-03  0.2945E-03  0.2790E-03  0.2438E-03  0.1959E-03  0.1517E-03  0.1457E-03  0.1375E-03  0.1273E-03  0.1167E-03  0.1065E-03  0.9507E-04  0.8307E-04  0.7088E-04  0.5914E-04  0.4856E-04  0.3917E-04  0.3068E-04  0.2512E-04  0.2328E-04  0.2158E-04  0.1988E-04  0.1823E-04  0.1663E-04  0.1509E-04  0.1364E-04  0.1225E-04
  0.9977E-04  0.1082E-03  0.1151E-03  0.1209E-03  0.1246E-03  0.1265E-03  0.1293E-03  0.1337E-03  0.1391E-03  0.1440E-03  0.1507E-03  0.1591E-03  0.1674E-03  0.1782E-03  0.1920E-03  0.2091E-03  0.2163E-03  0.2341E-03  0.2427E-03  0.2375E-03  0.2488E-03  0.2562E-03  0.2635E-03  0.2715E-03  0.2801E-03  0.2865E-03  0.2900E-03  0.2894E-03  0.2847E-03  0.2767E-03  0.2681E-03  0.2589E-03  0.2518E-03  0.2550E-03  0.2599E-03  0.2633E-03  0.2614E-03  0.2612E-03  0.2546E-03  0.2408E-03  0.2241E-03  0.2163E-03  0.2164E-03  0.2094E-03  0.2035E-03  0.2051E-03  0.2160E-03  0.2235E-03  0.2233E-03  0.2248E-03  0.2389E-03  0.2557E-03  0.2595E-03  0.2650E-03  0.2729E-03  0.2575E-03  0.2176E-03  0.1714E-03  0.1328E-03  0.1258E-03  0.1171E-03  0.1069E-03  0.9596E-04  0.8583E-04  0.7537E-04  0.6469E-04  0.5411E-04  0.4431E-04  0.3540E-04  0.2775E-04  0.2414E-04  0.2257E-04  0.2098E-04  0.1940E-04  0.1787E-04  0.1636E-04  0.1491E-04  0.1352E-04  0.1221E-04
  0.9321E-04  0.1002E-03  0.1059E-03  0.1104E-03  0.1153E-03  0.1191E-03  0.1212E-03  0.1236E-03  0.1284E-03  0.1352E-03  0.1428E-03  0.1522E-03  0.1617E-03  0.1709E-03  0.1836E-03  0.1947E-03  0.1997E-03  0.2101E-03  0.2199E-03  0.2210E-03  0.2204E-03  0.2303E-03  0.2383E-03  0.2463E-03  0.2525E-03  0.2569E-03  0.2581E-03  0.2571E-03  0.2534E-03  0.2484E-03  0.2422E-03  0.2364E-03  0.2319E-03  0.2307E-03  0.2370E-03  0.2408E-03  0.2403E-03  0.2345E-03  0.2306E-03  0.2214E-03  0.2076E-03  0.1960E-03  0.1954E-03  0.1923E-03  0.1860E-03  0.1859E-03  0.1941E-03  0.1964E-03  0.1914E-03  0.2003E-03  0.2143E-03  0.2221E-03  0.2190E-03  0.2333E-03  0.2465E-03  0.2437E-03  0.2197E-03  0.1826E-03  0.1432E-03  0.1140E-03  0.1065E-03  0.9760E-04  0.8789E-04  0.7762E-04  0.6778E-04  0.5837E-04  0.4911E-04  0.4038E-04  0.3254E-04  0.2564E-04  0.2322E-04  0.2178E-04  0.2031E-04  0.1888E-04  0.1744E-04  0.1605E-04  0.1468E-04  0.1338E-04  0.1213E-04
  0.8545E-04  0.9154E-04  0.9793E-04  0.1032E-03  0.1071E-03  0.1100E-03  0.1111E-03  0.1132E-03  0.1195E-03  0.1279E-03  0.1361E-03  0.1441E-03  0.1517E-03  0.1588E-03  0.1655E-03  0.1723E-03  0.1785E-03  0.1833E-03  0.1942E-03  0.1999E-03  0.2026E-03  0.2071E-03  0.2128E-03  0.2210E-03  0.2271E-03  0.2309E-03  0.2311E-03  0.2283E-03  0.2227E-03  0.2195E-03  0.2161E-03  0.2130E-03  0.2099E-03  0.2073E-03  0.2118E-03  0.2156E-03  0.2161E-03  0.2119E-03  0.2040E-03  0.1979E-03  0.1880E-03  0.1762E-03  0.1711E-03  0.1714E-03  0.1679E-03  0.1661E-03  0.1704E-03  0.1696E-03  0.1683E-03  0.1794E-03  0.1868E-03  0.1883E-03  0.1816E-03  0.2004E-03  0.2107E-03  0.2144E-03  0.2036E-03  0.1775E-03  0.1438E-03  0.1111E-03  0.9599E-04  0.8825E-04  0.7969E-04  0.7077E-04  0.6156E-04  0.5246E-04  0.4422E-04  0.3649E-04  0.2955E-04  0.2372E-04  0.2241E-04  0.2106E-04  0.1972E-04  0.1836E-04  0.1704E-04  0.1571E-04  0.1444E-04  0.1319E-04  0.1202E-04
