DSAA
          79         109
    318.3670    342.0670
   7336.5760   7369.2760
  0.0000E+00  0.3372E-03
  0.0000E+00  0.0000E+00  0.0000E+00  0.0000E+00  0.0000E+00  0.0000E+00  0.0000E+00  0.0000E+00  0.0000E+00  0.0000E+00  0.0000E+00  0.0000E+00  0.0000E+00  0.0000E+00  0.0000E+00  0.0000E+00  0.0000E+00  0.0000E+00  0.0000E+00  0.0000E+00  0.0000E+00  0.0000E+00  0.0000E+00  0.0000E+00  0.0000E+00  0.0000E+00  0.0000E+00  0.0000E+00  0.0000E+00  0.0000E+00  0.0000E+00  0.0000E+00  0.0000E+00  0.0000E+00  0.0000E+00  0.0000E+00  0.0000E+00  0.0000E+00  0.0000E+00  0.0000E+00  0.0000E+00  0.0000E+00  0.0000E+00  0.0000E+00  0.0000E+00  0.0000E+00  0.0000E+00  0.0000E+00  0.0000E+00  0.0000E+00  0.0000E+00  0.0000E+00  0.0000E+00  0.0000E+00  0.0000E+00  0.0000E+00  0.0000E+00  0.0000E+00  0.0000E+00  0.0000E+00  0.0000E+00  0.0000E+00  0.0000E+00  0.0000E+00  0.0000E+00  0.0000E+00  0.0000E+00  0.0000E+00  0.0000E+00  0.0000E+00  0.0000E+00  0.0000E+00  0.0000E+00  0.0000E+00  0.0000E+00  0.0000E+00  0.0000E+00  0.0000E+00  0.0000E+00
  0.0000E+00  0.0000E+00  0.0000E+00  0.0000E+00  0.0000E+00  0.0000E+00  0.0000E+00  0.0000E+00  0.0000E+00  0.0000E+00  0.0000E+00  0.0000E+00  0.0000E+00  0.0000E+00  0.0000E+00  0.0000E+00  0.0000E+00  0.0000E+00  0.0000E+00  0.0000E+00  0.0000E+00  0.0000E+00  0.0000E+00  0.0000E+00  0.0000E+00  0.0000E+00  0.0000E+00  0.0000E+00  0.0000E+00  0.0000E+00  0.0000E+00  0.0000E+00  0.0000E+00  0.0000E+00  0.0000E+00  0.0000E+00  0.0000E+00  0.0000E+00  0.0000E+00  0.0000E+00  0.0000E+00  0.0000E+00  0.0000E+00  0.0000E+00  0.0000E+00  0.0000E+00  0.0000E+00  0.0000E+00  0.0000E+00  0.0000E+00  0.0000E+00  0.0000E+00  0.0000E+00  0.0000E+00  0.0000E+00  0.0000E+00  0.0000E+00  0.0000E+00  0.0000E+00  0.0000E+00  0.0000E+00  0.0000E+00  0.0000E+00  0.0000E+00  0.0000E+00  0.0000E+00  0.0000E+00  0.0000E+00  0.0000E+00  0.0000E+00  0.0000E+00  0.0000E+00  0.0000E+00  0.0000E+00  0.0000E+00  0.0000E+00  0.0000E+00  0.0000E+00  0.0000E+00
  0.0000E+00  0.0000E+00  0.0000E+00  0.0000E+00  0.0000E+00  0.0000E+00  0.0000E+00  0.0000E+00  0.0000E+00  0.0000E+00  0.0000E+00  0.0000E+00  0.0000E+00  0.0000E+00  0.0000E+00  0.0000E+00  0.0000E+00  0.0000E+00  0.0000E+00  0.0000E+00  0.0000E+00  0.0000E+00  0.0000E+00  0.0000E+00  0.0000E+00  0.0000E+00  0.0000E+00  0.0000E+00  0.0000E+00  0.0000E+00  0.0000E+00  0.0000E+00  0.0000E+00  0.0000E+00  0.0000E+00  0.0000E+00  0.0000E+00  0.0000E+00  0.0000E+00  0.0000E+00  0.0000E+00  0.0000E+00  0.0000E+00  0.0000E+00  0.0000E+00  0.0000E+00  0.0000E+00  0.0000E+00  0.0000E+00  0.0000E+00  0.0000E+00  0.0000E+00  0.0000E+00  0.0000E+00  0.0000E+00  0.0000E+00  0.0000E+00  0.0000E+00  0.0000E+00  0.0000E+00  0.0000E+00  0.0000E+00  0.0000E+00  0.0000E+00  0.0000E+00  0.0000E+00  0.0000E+00  0.0000E+00  0.0000E+00  0.0000E+00  0.0000E+00  0.0000E+00  0.0000E+00  0.0000E+00  0.0000E+00  0.0000E+00  0.0000E+00  0.0000E+00  0.0000E+00
  0.0000E+00  0.0000E+00  0.0000E+00  0.0000E+00  0.0000E+00  0.0000E+00  0.0000E+00  0.0000E+00  0.0000E+00  0.0000E+00  0.0000E+00  0.0000E+00  0.0000E+00  0.0000E+00  0.0000E+00  0.0000E+00  0.0000E+00  0.0000E+00  0.0000E+00  0.0000E+00  0.0000E+00  0.0000E+00  0.0000E+00  0.0000E+00  0.0000E+00  0.0000E+00  0.0000E+00  0.0000E+00  0.0000E+00  0.0000E+00  0.0000E+00  0.0000E+00  0.0000E+00  0.0000E+00  0.0000E+00  0.0000E+00  0.0000E+00  0.0000E+00  0.0000E+00  0.0000E+00  0.0000E+00  0.0000E+00  0.0000E+00  0.0000E+00  0.0000E+00  0.0000E+00  0.0000E+00  0.0000E+00  0.0000E+00  0.0000E+00  0.0000E+00  0.0000E+00  0.0000E+00  0.0000E+00  0.0000E+00  0.0000E+00  0.0000E+00  0.0000E+00  0.0000E+00  0.0000E+00  0.0000E+00  0.0000E+00  0.0000E+00  0.0000E+00  0.0000E+00  0.0000E+00  0.0000E+00  0.0000E+00  0.0000E+00  0.0000E+00  0.0000E+00  0.0000E+00  0.0000E+00  0.0000E+00  0.0000E+00  0.0000E+00  0.0000E+00  0.0000E+00  0.0000E+00
  0.0000E+00  0.0000E+00  0.0000E+00  0.0000E+00  0.0000E+00  0.0000E+00  0.0000E+00  0.0000E+00  0.0000E+00  0.0000E+00  0.0000E+00  0.0000E+00  0.0000E+00  0.0000E+00  0.0000E+00  0.0000E+00  0.0000E+00  0.0000E+00  0.0000E+00  0.0000E+00  0.0000E+00  0.0000E+00  0.0000E+00  0.0000E+00  0.0000E+00  0.0000E+00  0.0000E+00  0.0000E+00  0.0000E+00  0.0000E+00  0.0000E+00  0.0000E+00  0.0000E+00  0.0000E+00  0.0000E+00  0.0000E+00  0.0000E+00  0.0000E+00  0.0000E+00  0.0000E+00  0.0000E+00  0.0000E+00  0.0000E+00  0.0000E+00  0.0000E+00  0.0000E+00  0.0000E+00  0.0000E+00  0.0000E+00  0.0000E+00  0.0000E+00  0.0000E+00  0.0000E+00  0.0000E+00  0.0000E+00  0.0000E+00  0.0000E+00  0.0000E+00  0.0000E+00  0.0000E+00  0.0000E+00  0.0000E+00  0.0000E+00  0.0000E+00  0.0000E+00  0.0000E+00  0.0000E+00  0.0000E+00  0.0000E+00  0.0000E+00  0.0000E+00  0.0000E+00  0.0000E+00  0.0000E+00  0.0000E+00  0.0000E+00  0.0000E+00  0.0000E+00  0.0000E+00
  0.0000E+00  0.0000E+00  0.0000E+00  0.0000E+00  0.0000E+00  0.0000E+00  0.0000E+00  0.0000E+00  0.0000E+00  0.0000E+00  0.0000E+00  0.0000E+00  0.0000E+00  0.0000E+00  0.0000E+00  0.0000E+00  0.0000E+00  0.0000E+00  0.0000E+00  0.0000E+00  0.0000E+00  0.0000E+00  0.0000E+00  0.0000E+00  0.0000E+00  0.0000E+00  0.0000E+00  0.0000E+00  0.0000E+00  0.0000E+00  0.0000E+00  0.0000E+00  0.0000E+00  0.0000E+00  0.0000E+00  0.0000E+00  0.0000E+00  0.0000E+00  0.0000E+00  0.0000E+00  0.0000E+00  0.0000E+00  0.0000E+00  0.0000E+00  0.0000E+00  0.0000E+00  0.0000E+00  0.0000E+00  0.0000E+00  0.0000E+00  0.0000E+00  0.0000E+00  0.0000E+00  0.0000E+00  0.0000E+00  0.0000E+00  0.0000E+00  0.0000E+00  0.0000E+00  0.0000E+00  0.0000E+00  0.0000E+00  0.0000E+00  0.0000E+00  0.0000E+00  0.0000E+00  0.0000E+00  0.0000E+00  0.0000E+00  0.0000E+00  0.0000E+00  0.0000E+00  0.0000E+00  0.0000E+00  0.0000E+00  0.0000E+00  0.0000E+00  0.0000E+00  0.0000E+00
  0.0000E+00  0.0000E+00  0.0000E+00  0.0000E+00  0.0000E+00  0.0000E+00  0.0000E+00  0.0000E+00  0.0000E+00  0.0000E+00  0.0000E+00  0.0000E+00  0.0000E+00  0.0000E+00  0.0000E+00  0.0000E+00  0.0000E+00  0.0000E+00  0.0000E+00  0.0000E+00  0.0000E+00  0.0000E+00  0.0000E+00  0.0000E+00  0.0000E+00  0.0000E+00  0.0000E+00  0.0000E+00  0.0000E+00  0.0000E+00  0.0000E+00  0.0000E+00  0.0000E+00  0.0000E+00  0.0000E+00  0.0000E+00  0.0000E+00  0.0000E+00  0.0000E+00  0.0000E+00  0.0000E+00  0.0000E+00  0.0000E+00  0.0000E+00  0.0000E+00  0.0000E+00  0.0000E+00  0.0000E+00  0.0000E+00  0.0000E+00  0.0000E+00  0.0000E+00  0.0000E+00  0.0000E+00  0.0000E+00  0.0000E+00  0.0000E+00  0.0000E+00  0.0000E+00  0.0000E+00  0.0000E+00  0.0000E+00  0.0000E+00  0.0000E+00  0.0000E+00  0.0000E+00  0.0000E+00  0.0000E+00  0.0000E+00  0.0000E+00  0.0000E+00  0.0000E+00  0.0000E+00  0.0000E+00  0.0000E+00  0.0000E+00  0.0000E+00  0.0000E+00  0.0000E+00
  0.0000E+00  0.0000E+00  0.0000E+00  0.0000E+00  0.0000E+00  0.0000E+00  0.0000E+00  0.0000E+00  0.0000E+00  0.0000E+00  0.0000E+00  0.0000E+00  0.0000E+00  0.0000E+00  0.0000E+00  0.0000E+00  0.0000E+00  0.0000E+00  0.0000E+00  0.0000E+00  0.0000E+00  0.0000E+00  0.0000E+00  0.0000E+00  0.0000E+00  0.0000E+00  0.0000E+00  0.0000E+00  0.0000E+00  0.0000E+00  0.0000E+00  0.0000E+00  0.0000E+00  0.0000E+00  0.0000E+00  0.0000E+00  0.0000E+00  0.0000E+00  0.0000E+00  0.0000E+00  0.0000E+00  0.0000E+00  0.0000E+00  0.0000E+00  0.0000E+00  0.0000E+00  0.0000E+00  0.0000E+00  0.0000E+00  0.0000E+00  0.0000E+00  0.0000E+00  0.0000E+00  0.0000E+00  0.0000E+00  0.0000E+00  0.0000E+00  0.0000E+00  0.0000E+00  0.0000E+00  0.0000E+00  0.0000E+00  0.0000E+00  0.0000E+00  0.0000E+00  0.0000E+00  0.0000E+00  0.0000E+00  0.0000E+00  0.0000E+00  0.0000E+00  0.0000E+00  0.0000E+00  0.0000E+00  0.0000E+00  0.0000E+00  0.0000E+00  0.0000E+00  0.0000E+00
  0.0000E+00  0.0000E+00  0.0000E+00  0.0000E+00  0.0000E+00  0.0000E+00  0.0000E+00  0.0000E+00  0.0000E+00  0.0000E+00  0.0000E+00  0.0000E+00  0.0000E+00  0.0000E+00  0.0000E+00  0.0000E+00  0.0000E+00  0.0000E+00  0.0000E+00  0.0000E+00  0.0000E+00  0.0000E+00  0.0000E+00  0.0000E+00  0.0000E+00  0.0000E+00  0.0000E+00  0.0000E+00  0.0000E+00  0.0000E+00  0.0000E+00  0.0000E+00  0.0000E+00  0.0000E+00  0.0000E+00  0.0000E+00  0.0000E+00  0.0000E+00  0.0000E+00  0.0000E+00  0.0000E+00  0.0000E+00  0.0000E+00  0.0000E+00  0.0000E+00  0.0000E+00  0.0000E+00  0.0000E+00  0.0000E+00  0.0000E+00  0.0000E+00  0.0000E+00  0.0000E+00  0.0000E+00  0.0000E+00  0.0000E+00  0.0000E+00  0.0000E+00  0.0000E+00  0.0000E+00  0.0000E+00  0.0000E+00  0.0000E+00  0.0000E+00  0.0000E+00  0.0000E+00  0.0000E+00  0.0000E+00  0.0000E+00  0.0000E+00  0.0000E+00  0.0000E+00  0.0000E+00  0.0000E+00  0.0000E+00  0.0000E+00  0.0000E+00  0.0000E+00  0.0000E+00
  0.0000E+00  0.0000E+00  0.0000E+00  0.0000E+00  0.0000E+00  0.0000E+00  0.0000E+00  0.0000E+00  0.0000E+00  0.0000E+00  0.0000E+00  0.0000E+00  0.0000E+00  0.0000E+00  0.0000E+00  0.0000E+00  0.0000E+00  0.0000E+00  0.0000E+00  0.0000E+00  0.0000E+00  0.0000E+00  0.0000E+00  0.0000E+00  0.0000E+00  0.0000E+00  0.0000E+00  0.0000E+00  0.0000E+00  0.0000E+00  0.0000E+00  0.0000E+00  0.0000E+00  0.0000E+00  0.0000E+00  0.0000E+00  0.0000E+00  0.0000E+00  0.0000E+00  0.0000E+00  0.0000E+00  0.0000E+00  0.0000E+00  0.0000E+00  0.0000E+00  0.0000E+00  0.0000E+00  0.0000E+00  0.0000E+00  0.0000E+00  0.0000E+00  0.0000E+00  0.0000E+00  0.0000E+00  0.0000E+00  0.0000E+00  0.0000E+00  0.0000E+00  0.0000E+00  0.0000E+00  0.0000E+00  0.0000E+00  0.0000E+00  0.0000E+00  0.0000E+00  0.0000E+00  0.0000E+00  0.0000E+00  0.0000E+00  0.0000E+00  0.0000E+00  0.0000E+00  0.0000E+00  0.0000E+00  0.0000E+00  0.0000E+00  0.0000E+00  0.0000E+00  0.0000E+00
  0.0000E+00  0.0000E+00  0.0000E+00  0.0000E+00  0.0000E+00  0.0000E+00  0.0000E+00  0.0000E+00  0.0000E+00  0.0000E+00  0.0000E+00  0.0000E+00  0.0000E+00  0.0000E+00  0.0000E+00  0.0000E+00  0.0000E+00  0.0000E+00  0.0000E+00  0.0000E+00  0.0000E+00  0.0000E+00  0.0000E+00  0.0000E+00  0.0000E+00  0.0000E+00  0.0000E+00  0.0000E+00  0.0000E+00  0.0000E+00  0.0000E+00  0.0000E+00  0.0000E+00  0.0000E+00  0.0000E+00  0.0000E+00  0.0000E+00  0.0000E+00  0.0000E+00  0.0000E+00  0.0000E+00  0.0000E+00  0.0000E+00  0.0000E+00  0.0000E+00  0.0000E+00  0.0000E+00  0.0000E+00  0.0000E+00  0.0000E+00  0.0000E+00  0.0000E+00  0.0000E+00  0.0000E+00  0.0000E+00  0.0000E+00  0.0000E+00  0.0000E+00  0.0000E+00  0.0000E+00  0.0000E+00  0.0000E+00  0.0000E+00  0.0000E+00  0.0000E+00  0.0000E+00  0.0000E+00  0.0000E+00  0.0000E+00  0.0000E+00  0.0000E+00  0.0000E+00  0.0000E+00  0.0000E+00  0.0000E+00  0.0000E+00  0.0000E+00  0.0000E+00  0.0000E+00
  0.0000E+00  0.0000E+00  0.0000E+00  0.0000E+00  0.0000E+00  0.0000E+00  0.0000E+00  0.0000E+00  0.0000E+00  0.0000E+00  0.0000E+00  0.0000E+00  0.0000E+00  0.0000E+00  0.0000E+00  0.0000E+00  0.0000E+00  0.0000E+00  0.0000E+00  0.0000E+00  0.0000E+00  0.0000E+00  0.0000E+00  0.0000E+00  0.0000E+00  0.0000E+00  0.0000E+00  0.0000E+00  0.0000E+00  0.0000E+00  0.0000E+00  0.0000E+00  0.0000E+00  0.0000E+00  0.0000E+00  0.0000E+00  0.0000E+00  0.0000E+00  0.0000E+00  0.0000E+00  0.0000E+00  0.0000E+00  0.0000E+00  0.0000E+00  0.0000E+00  0.0000E+00  0.0000E+00  0.0000E+00  0.0000E+00  0.0000E+00  0.0000E+00  0.0000E+00  0.0000E+00  0.0000E+00  0.0000E+00  0.0000E+00  0.0000E+00  0.0000E+00  0.0000E+00  0.0000E+00  0.0000E+00  0.0000E+00  0.0000E+00  0.0000E+00  0.0000E+00  0.0000E+00  0.0000E+00  0.0000E+00  0.0000E+00  0.0000E+00  0.0000E+00  0.0000E+00  0.0000E+00  0.0000E+00  0.0000E+00  0.0000E+00  0.0000E+00  0.0000E+00  0.0000E+00
  0.0000E+00  0.0000E+00  0.0000E+00  0.0000E+00  0.0000E+00  0.0000E+00  0.0000E+00  0.0000E+00  0.0000E+00  0.0000E+00  0.0000E+00  0.0000E+00  0.0000E+00  0.0000E+00  0.0000E+00  0.0000E+00  0.0000E+00  0.0000E+00  0.0000E+00  0.0000E+00  0.0000E+00  0.0000E+00  0.0000E+00  0.0000E+00  0.0000E+00  0.0000E+00  0.0000E+00  0.0000E+00  0.0000E+00  0.0000E+00  0.0000E+00  0.0000E+00  0.0000E+00  0.0000E+00  0.0000E+00  0.0000E+00  0.0000E+00  0.0000E+00  0.0000E+00  0.0000E+00  0.0000E+00  0.0000E+00  0.0000E+00  0.0000E+00  0.0000E+00  0.0000E+00  0.0000E+00  0.0000E+00  0.0000E+00  0.0000E+00  0.0000E+00  0.0000E+00  0.0000E+00  0.0000E+00  0.0000E+00  0.0000E+00  0.0000E+00  0.0000E+00  0.0000E+00  0.0000E+00  0.0000E+00  0.0000E+00  0.0000E+00  0.0000E+00  0.0000E+00  0.0000E+00  0.0000E+00  0.0000E+00  0.0000E+00  0.0000E+00  0.0000E+00  0.0000E+00  0.0000E+00  0.0000E+00  0.0000E+00  0.0000E+00  0.0000E+00  0.0000E+00  0.0000E+00
  0.0000E+00  0.0000E+00  0.0000E+00  0.0000E+00  0.0000E+00  0.0000E+00  0.0000E+00  0.0000E+00  0.0000E+00  0.0000E+00  0.0000E+00  0.0000E+00  0.0000E+00  0.0000E+00  0.0000E+00  0.0000E+00  0.0000E+00  0.0000E+00  0.0000E+00  0.0000E+00  0.0000E+00  0.0000E+00  0.0000E+00  0.0000E+00  0.0000E+00  0.0000E+00  0.0000E+00  0.0000E+00  0.0000E+00  0.0000E+00  0.0000E+00  0.0000E+00  0.0000E+00  0.0000E+00  0.0000E+00  0.0000E+00  0.0000E+00  0.0000E+00  0.0000E+00  0.0000E+00  0.0000E+00  0.0000E+00  0.0000E+00  0.0000E+00  0.0000E+00  0.0000E+00  0.0000E+00  0.0000E+00  0.0000E+00  0.0000E+00  0.0000E+00  0.0000E+00  0.0000E+00  0.0000E+00  0.0000E+00  0.0000E+00  0.0000E+00  0.0000E+00  0.0000E+00  0.0000E+00  0.0000E+00  0.0000E+00  0.0000E+00  0.0000E+00  0.0000E+00  0.0000E+00  0.0000E+00  0.0000E+00  0.0000E+00  0.0000E+00  0.0000E+00  0.0000E+00  0.0000E+00  0.0000E+00  0.0000E+00  0.0000E+00  0.0000E+00  0.0000E+00  0.0000E+00
  0.0000E+00  0.0000E+00  0.0000E+00  0.0000E+00  0.0000E+00  0.0000E+00  0.0000E+00  0.0000E+00  0.0000E+00  0.0000E+00  0.0000E+00  0.0000E+00  0.0000E+00  0.0000E+00  0.0000E+00  0.0000E+00  0.0000E+00  0.0000E+00  0.0000E+00  0.0000E+00  0.0000E+00  0.0000E+00  0.0000E+00  0.0000E+00  0.0000E+00  0.0000E+00  0.0000E+00  0.0000E+00  0.0000E+00  0.0000E+00  0.0000E+00  0.0000E+00  0.0000E+00  0.0000E+00  0.0000E+00  0.0000E+00  0.0000E+00  0.0000E+00  0.0000E+00  0.0000E+00  0.0000E+00  0.0000E+00  0.0000E+00  0.0000E+00  0.0000E+00  0.0000E+00  0.0000E+00  0.0000E+00  0.0000E+00  0.0000E+00  0.0000E+00  0.0000E+00  0.0000E+00  0.0000E+00  0.0000E+00  0.0000E+00  0.0000E+00  0.0000E+00  0.0000E+00  0.0000E+00  0.0000E+00  0.0000E+00  0.0000E+00  0.0000E+00  0.0000E+00  0.0000E+00  0.0000E+00  0.0000E+00  0.0000E+00  0.0000E+00  0.0000E+00  0.0000E+00  0.0000E+00  0.0000E+00  0.0000E+00  0.0000E+00  0.0000E+00  0.0000E+00  0.0000E+00
  0.0000E+00  0.0000E+00  0.0000E+00  0.0000E+00  0.0000E+00  0.0000E+00  0.0000E+00  0.0000E+00  0.0000E+00  0.0000E+00  0.0000E+00  0.0000E+00  0.0000E+00  0.0000E+00  0.0000E+00  0.0000E+00  0.0000E+00  0.0000E+00  0.0000E+00  0.0000E+00  0.0000E+00  0.0000E+00  0.0000E+00  0.0000E+00  0.0000E+00  0.0000E+00  0.0000E+00  0.0000E+00  0.0000E+00  0.0000E+00  0.0000E+00  0.0000E+00  0.0000E+00  0.0000E+00  0.0000E+00  0.0000E+00  0.0000E+00  0.0000E+00  0.0000E+00  0.0000E+00  0.0000E+00  0.0000E+00  0.0000E+00  0.0000E+00  0.0000E+00  0.0000E+00  0.0000E+00  0.0000E+00  0.0000E+00  0.0000E+00  0.0000E+00  0.0000E+00  0.0000E+00  0.0000E+00  0.0000E+00  0.0000E+00  0.0000E+00  0.0000E+00  0.0000E+00  0.0000E+00  0.0000E+00  0.0000E+00  0.0000E+00  0.0000E+00  0.0000E+00  0.0000E+00  0.0000E+00  0.0000E+00  0.0000E+00  0.0000E+00  0.0000E+00  0.0000E+00  0.0000E+00  0.0000E+00  0.0000E+00  0.0000E+00  0.0000E+00  0.0000E+00  0.0000E+00
  0.0000E+00  0.0000E+00  0.0000E+00  0.0000E+00  0.0000E+00  0.0000E+00  0.0000E+00  0.0000E+00  0.0000E+00  0.0000E+00  0.0000E+00  0.0000E+00  0.0000E+00  0.0000E+00  0.0000E+00  0.0000E+00  0.0000E+00  0.0000E+00  0.0000E+00  0.0000E+00  0.0000E+00  0.0000E+00  0.0000E+00  0.0000E+00  0.0000E+00  0.0000E+00  0.0000E+00  0.0000E+00  0.0000E+00  0.0000E+00  0.0000E+00  0.0000E+00  0.0000E+00  0.0000E+00  0.0000E+00  0.0000E+00  0.0000E+00  0.0000E+00  0.0000E+00  0.0000E+00  0.0000E+00  0.0000E+00  0.0000E+00  0.0000E+00  0.0000E+00  0.0000E+00  0.0000E+00  0.0000E+00  0.0000E+00  0.0000E+00  0.0000E+00  0.0000E+00  0.0000E+00  0.0000E+00  0.0000E+00  0.0000E+00  0.0000E+00  0.0000E+00  0.0000E+00  0.0000E+00  0.0000E+00  0.0000E+00  0.0000E+00  0.0000E+00  0.0000E+00  0.0000E+00  0.0000E+00  0.0000E+00  0.0000E+00  0.0000E+00  0.0000E+00  0.0000E+00  0.0000E+00  0.0000E+00  0.0000E+00  0.0000E+00  0.0000E+00  0.0000E+00  0.0000E+00
  0.0000E+00  0.0000E+00  0.0000E+00  0.0000E+00  0.0000E+00  0.0000E+00  0.0000E+00  0.0000E+00  0.0000E+00  0.0000E+00  0.0000E+00  0.0000E+00  0.0000E+00  0.0000E+00  0.0000E+00  0.0000E+00  0.0000E+00  0.0000E+00  0.0000E+00  0.0000E+00  0.0000E+00  0.0000E+00  0.0000E+00  0.0000E+00  0.0000E+00  0.0000E+00  0.0000E+00  0.0000E+00  0.0000E+00  0.0000E+00  0.0000E+00  0.0000E+00  0.0000E+00  0.0000E+00  0.0000E+00  0.0000E+00  0.0000E+00  0.0000E+00  0.0000E+00  0.0000E+00  0.0000E+00  0.0000E+00  0.0000E+00  0.0000E+00  0.0000E+00  0.0000E+00  0.0000E+00  0.0000E+00  0.0000E+00  0.0000E+00  0.0000E+00  0.0000E+00  0.0000E+00  0.0000E+00  0.0000E+00  0.0000E+00  0.0000E+00  0.0000E+00  0.0000E+00  0.0000E+00  0.0000E+00  0.0000E+00  0.0000E+00  0.0000E+00  0.0000E+00  0.0000E+00  0.0000E+00  0.0000E+00  0.0000E+00  0.0000E+00  0.0000E+00  0.0000E+00  0.0000E+00  0.0000E+00  0.0000E+00  0.0000E+00  0.0000E+00  0.0000E+00  0.0000E+00
  0.0000E+00  0.0000E+00  0.0000E+00  0.0000E+00  0.0000E+00  0.0000E+00  0.0000E+00  0.0000E+00  0.0000E+00  0.0000E+00  0.0000E+00  0.0000E+00  0.0000E+00  0.0000E+00  0.0000E+00  0.0000E+00  0.0000E+00  0.0000E+00  0.0000E+00  0.0000E+00  0.0000E+00  0.0000E+00  0.0000E+00  0.0000E+00  0.0000E+00  0.0000E+00  0.0000E+00  0.0000E+00  0.0000E+00  0.0000E+00  0.0000E+00  0.0000E+00  0.0000E+00  0.0000E+00  0.0000E+00  0.0000E+00  0.0000E+00  0.0000E+00  0.0000E+00  0.0000E+00  0.0000E+00  0.0000E+00  0.0000E+00  0.0000E+00  0.0000E+00  0.0000E+00  0.0000E+00  0.0000E+00  0.0000E+00  0.0000E+00  0.0000E+00  0.0000E+00  0.0000E+00  0.0000E+00  0.0000E+00  0.0000E+00  0.0000E+00  0.0000E+00  0.0000E+00  0.0000E+00  0.0000E+00  0.0000E+00  0.0000E+00  0.0000E+00  0.0000E+00  0.0000E+00  0.0000E+00  0.0000E+00  0.0000E+00  0.0000E+00  0.0000E+00  0.0000E+00  0.0000E+00  0.0000E+00  0.0000E+00  0.0000E+00  0.0000E+00  0.0000E+00  0.0000E+00
  0.0000E+00  0.0000E+00  0.0000E+00  0.0000E+00  0.0000E+00  0.0000E+00  0.0000E+00  0.0000E+00  0.0000E+00  0.0000E+00  0.0000E+00  0.0000E+00  0.0000E+00  0.0000E+00  0.0000E+00  0.0000E+00  0.0000E+00  0.0000E+00  0.0000E+00  0.0000E+00  0.0000E+00  0.0000E+00  0.0000E+00  0.0000E+00  0.0000E+00  0.0000E+00  0.0000E+00  0.0000E+00  0.0000E+00  0.0000E+00  0.0000E+00  0.0000E+00  0.0000E+00  0.0000E+00  0.0000E+00  0.0000E+00  0.0000E+00  0.0000E+00  0.0000E+00  0.0000E+00  0.0000E+00  0.0000E+00  0.0000E+00  0.0000E+00  0.0000E+00  0.0000E+00  0.0000E+00  0.0000E+00  0.0000E+00  0.0000E+00  0.0000E+00  0.0000E+00  0.0000E+00  0.0000E+00  0.0000E+00  0.0000E+00  0.0000E+00  0.0000E+00  0.0000E+00  0.0000E+00  0.0000E+00  0.0000E+00  0.0000E+00  0.0000E+00  0.0000E+00  0.0000E+00  0.0000E+00  0.0000E+00  0.0000E+00  0.0000E+00  0.0000E+00  0.0000E+00  0.0000E+00  0.0000E+00  0.0000E+00  0.0000E+00  0.0000E+00  0.0000E+00  0.0000E+00
  0.0000E+00  0.0000E+00  0.0000E+00  0.0000E+00  0.0000E+00  0.0000E+00  0.0000E+00  0.0000E+00  0.0000E+00  0.0000E+00  0.0000E+00  0.0000E+00  0.0000E+00  0.0000E+00  0.0000E+00  0.0000E+00  0.0000E+00  0.0000E+00  0.0000E+00  0.0000E+00  0.0000E+00  0.0000E+00  0.0000E+00  0.0000E+00  0.0000E+00  0.0000E+00  0.0000E+00  0.0000E+00  0.0000E+00  0.0000E+00  0.0000E+00  0.0000E+00  0.0000E+00  0.0000E+00  0.0000E+00  0.0000E+00  0.0000E+00  0.0000E+00  0.0000E+00  0.0000E+00  0.0000E+00  0.0000E+00  0.0000E+00  0.0000E+00  0.0000E+00  0.0000E+00  0.0000E+00  0.0000E+00  0.0000E+00  0.0000E+00  0.0000E+00  0.0000E+00  0.0000E+00  0.0000E+00  0.0000E+00  0.0000E+00  0.0000E+00  0.0000E+00  0.0000E+00  0.0000E+00  0.0000E+00  0.0000E+00  0.0000E+00  0.0000E+00  0.0000E+00  0.0000E+00  0.0000E+00  0.0000E+00  0.0000E+00  0.0000E+00  0.0000E+00  0.0000E+00  0.0000E+00  0.0000E+00  0.0000E+00  0.0000E+00  0.0000E+00  0.0000E+00  0.0000E+00
  0.0000E+00  0.0000E+00  0.0000E+00  0.0000E+00  0.0000E+00  0.0000E+00  0.0000E+00  0.0000E+00  0.0000E+00  0.0000E+00  0.0000E+00  0.0000E+00  0.0000E+00  0.0000E+00  0.0000E+00  0.0000E+00  0.0000E+00  0.0000E+00  0.0000E+00  0.0000E+00  0.0000E+00  0.0000E+00  0.0000E+00  0.0000E+00  0.0000E+00  0.0000E+00  0.0000E+00  0.0000E+00  0.0000E+00  0.0000E+00  0.0000E+00  0.0000E+00  0.0000E+00  0.0000E+00  0.0000E+00  0.0000E+00  0.0000E+00  0.0000E+00  0.0000E+00  0.0000E+00  0.0000E+00  0.0000E+00  0.0000E+00  0.0000E+00  0.0000E+00  0.0000E+00  0.0000E+00  0.0000E+00  0.0000E+00  0.0000E+00  0.0000E+00  0.0000E+00  0.0000E+00  0.0000E+00  0.0000E+00  0.0000E+00  0.0000E+00  0.0000E+00  0.0000E+00  0.0000E+00  0.0000E+00  0.0000E+00  0.0000E+00  0.0000E+00  0.0000E+00  0.0000E+00  0.0000E+00  0.0000E+00  0.0000E+00  0.0000E+00  0.0000E+00  0.0000E+00  0.0000E+00  0.0000E+00  0.0000E+00  0.0000E+00  0.0000E+00  0.0000E+00  0.0000E+00
  0.0000E+00  0.0000E+00  0.0000E+00  0.0000E+00  0.0000E+00  0.0000E+00  0.0000E+00  0.0000E+00  0.0000E+00  0.0000E+00  0.0000E+00  0.0000E+00  0.0000E+00  0.0000E+00  0.0000E+00  0.0000E+00  0.0000E+00  0.0000E+00  0.0000E+00  0.0000E+00  0.0000E+00  0.0000E+00  0.0000E+00  0.0000E+00  0.0000E+00  0.0000E+00  0.0000E+00  0.0000E+00  0.0000E+00  0.0000E+00  0.0000E+00  0.0000E+00  0.0000E+00  0.0000E+00  0.0000E+00  0.0000E+00  0.0000E+00  0.0000E+00  0.0000E+00  0.0000E+00  0.0000E+00  0.0000E+00  0.0000E+00  0.0000E+00  0.0000E+00  0.0000E+00  0.0000E+00  0.0000E+00  0.0000E+00  0.0000E+00  0.0000E+00  0.0000E+00  0.0000E+00  0.0000E+00  0.0000E+00  0.0000E+00  0.0000E+00  0.0000E+00  0.0000E+00  0.0000E+00  0.0000E+00  0.0000E+00  0.0000E+00  0.0000E+00  0.0000E+00  0.0000E+00  0.0000E+00  0.0000E+00  0.0000E+00  0.0000E+00  0.0000E+00  0.0000E+00  0.0000E+00  0.0000E+00  0.0000E+00  0.0000E+00  0.0000E+00  0.0000E+00  0.0000E+00
  0.0000E+00  0.0000E+00  0.0000E+00  0.0000E+00  0.0000E+00  0.0000E+00  0.0000E+00  0.0000E+00  0.0000E+00  0.0000E+00  0.0000E+00  0.0000E+00  0.0000E+00  0.0000E+00  0.0000E+00  0.0000E+00  0.0000E+00  0.0000E+00  0.0000E+00  0.0000E+00  0.0000E+00  0.0000E+00  0.0000E+00  0.0000E+00  0.0000E+00  0.0000E+00  0.0000E+00  0.0000E+00  0.0000E+00  0.0000E+00  0.0000E+00  0.0000E+00  0.0000E+00  0.0000E+00  0.0000E+00  0.0000E+00  0.0000E+00  0.0000E+00  0.0000E+00  0.0000E+00  0.0000E+00  0.0000E+00  0.0000E+00  0.0000E+00  0.0000E+00  0.0000E+00  0.0000E+00  0.0000E+00  0.0000E+00  0.0000E+00  0.0000E+00  0.0000E+00  0.0000E+00  0.0000E+00  0.0000E+00  0.0000E+00  0.0000E+00  0.0000E+00  0.0000E+00  0.0000E+00  0.0000E+00  0.0000E+00  0.0000E+00  0.0000E+00  0.0000E+00  0.0000E+00  0.0000E+00  0.0000E+00  0.0000E+00  0.0000E+00  0.0000E+00  0.0000E+00  0.0000E+00  0.0000E+00  0.0000E+00  0.0000E+00  0.0000E+00  0.0000E+00  0.0000E+00
  0.0000E+00  0.0000E+00  0.0000E+00  0.0000E+00  0.0000E+00  0.0000E+00  0.0000E+00  0.0000E+00  0.0000E+00  0.0000E+00  0.0000E+00  0.0000E+00  0.0000E+00  0.0000E+00  0.0000E+00  0.0000E+00  0.0000E+00  0.0000E+00  0.0000E+00  0.0000E+00  0.0000E+00  0.0000E+00  0.0000E+00  0.0000E+00  0.0000E+00  0.0000E+00  0.0000E+00  0.0000E+00  0.0000E+00  0.0000E+00  0.0000E+00  0.0000E+00  0.0000E+00  0.0000E+00  0.0000E+00  0.0000E+00  0.0000E+00  0.0000E+00  0.0000E+00  0.0000E+00  0.0000E+00  0.0000E+00  0.0000E+00  0.0000E+00  0.0000E+00  0.0000E+00  0.0000E+00  0.0000E+00  0.0000E+00  0.0000E+00  0.0000E+00  0.0000E+00  0.0000E+00  0.0000E+00  0.0000E+00  0.0000E+00  0.0000E+00  0.0000E+00  0.0000E+00  0.0000E+00  0.0000E+00  0.0000E+00  0.0000E+00  0.0000E+00  0.0000E+00  0.0000E+00  0.0000E+00  0.0000E+00  0.0000E+00  0.0000E+00  0.0000E+00  0.0000E+00  0.0000E+00  0.0000E+00  0.0000E+00  0.0000E+00  0.0000E+00  0.0000E+00  0.0000E+00
  0.0000E+00  0.0000E+00  0.0000E+00  0.0000E+00  0.0000E+00  0.0000E+00  0.0000E+00  0.0000E+00  0.0000E+00  0.0000E+00  0.0000E+00  0.0000E+00  0.0000E+00  0.0000E+00  0.0000E+00  0.0000E+00  0.0000E+00  0.0000E+00  0.0000E+00  0.0000E+00  0.0000E+00  0.0000E+00  0.0000E+00  0.0000E+00  0.0000E+00  0.0000E+00  0.0000E+00  0.0000E+00  0.0000E+00  0.0000E+00  0.0000E+00  0.0000E+00  0.0000E+00  0.0000E+00  0.0000E+00  0.0000E+00  0.0000E+00  0.0000E+00  0.0000E+00  0.0000E+00  0.0000E+00  0.0000E+00  0.0000E+00  0.0000E+00  0.0000E+00  0.0000E+00  0.0000E+00  0.0000E+00  0.0000E+00  0.0000E+00  0.0000E+00  0.0000E+00  0.0000E+00  0.0000E+00  0.0000E+00  0.0000E+00  0.0000E+00  0.0000E+00  0.0000E+00  0.0000E+00  0.0000E+00  0.0000E+00  0.0000E+00  0.0000E+00  0.0000E+00  0.0000E+00  0.0000E+00  0.0000E+00  0.0000E+00  0.0000E+00  0.0000E+00  0.0000E+00  0.0000E+00  0.0000E+00  0.0000E+00  0.0000E+00  0.0000E+00  0.0000E+00  0.0000E+00
  0.0000E+00  0.0000E+00  0.0000E+00  0.0000E+00  0.0000E+00  0.0000E+00  0.0000E+00  0.0000E+00  0.0000E+00  0.0000E+00  0.0000E+00  0.0000E+00  0.0000E+00  0.0000E+00  0.0000E+00  0.0000E+00  0.0000E+00  0.0000E+00  0.0000E+00  0.0000E+00  0.0000E+00  0.0000E+00  0.0000E+00  0.0000E+00  0.0000E+00  0.0000E+00  0.0000E+00  0.0000E+00  0.0000E+00  0.0000E+00  0.0000E+00  0.0000E+00  0.0000E+00  0.0000E+00  0.0000E+00  0.0000E+00  0.0000E+00  0.0000E+00  0.0000E+00  0.0000E+00  0.0000E+00  0.0000E+00  0.0000E+00  0.0000E+00  0.0000E+00  0.0000E+00  0.0000E+00  0.0000E+00  0.0000E+00  0.0000E+00  0.0000E+00  0.0000E+00  0.0000E+00  0.0000E+00  0.0000E+00  0.0000E+00  0.0000E+00  0.0000E+00  0.0000E+00  0.0000E+00  0.0000E+00  0.0000E+00  0.0000E+00  0.0000E+00  0.0000E+00  0.0000E+00  0.0000E+00  0.0000E+00  0.0000E+00  0.0000E+00  0.0000E+00  0.0000E+00  0.0000E+00  0.0000E+00  0.0000E+00  0.0000E+00  0.0000E+00  0.0000E+00  0.0000E+00
  0.0000E+00  0.0000E+00  0.0000E+00  0.0000E+00  0.0000E+00  0.0000E+00  0.0000E+00  0.0000E+00  0.0000E+00  0.0000E+00  0.0000E+00  0.0000E+00  0.0000E+00  0.0000E+00  0.0000E+00  0.0000E+00  0.0000E+00  0.0000E+00  0.0000E+00  0.0000E+00  0.0000E+00  0.0000E+00  0.0000E+00  0.0000E+00  0.0000E+00  0.0000E+00  0.0000E+00  0.0000E+00  0.0000E+00  0.0000E+00  0.0000E+00  0.0000E+00  0.0000E+00  0.0000E+00  0.0000E+00  0.0000E+00  0.0000E+00  0.0000E+00  0.0000E+00  0.0000E+00  0.0000E+00  0.0000E+00  0.0000E+00  0.0000E+00  0.0000E+00  0.0000E+00  0.0000E+00  0.0000E+00  0.0000E+00  0.0000E+00  0.0000E+00  0.0000E+00  0.0000E+00  0.0000E+00  0.0000E+00  0.0000E+00  0.0000E+00  0.0000E+00  0.0000E+00  0.0000E+00  0.0000E+00  0.0000E+00  0.0000E+00  0.0000E+00  0.0000E+00  0.0000E+00  0.0000E+00  0.0000E+00  0.0000E+00  0.0000E+00  0.0000E+00  0.0000E+00  0.0000E+00  0.0000E+00  0.0000E+00  0.0000E+00  0.0000E+00  0.0000E+00  0.0000E+00
  0.0000E+00  0.0000E+00  0.0000E+00  0.0000E+00  0.0000E+00  0.0000E+00  0.0000E+00  0.0000E+00  0.0000E+00  0.0000E+00  0.0000E+00  0.0000E+00  0.0000E+00  0.0000E+00  0.0000E+00  0.0000E+00  0.0000E+00  0.0000E+00  0.0000E+00  0.0000E+00  0.0000E+00  0.0000E+00  0.0000E+00  0.0000E+00  0.0000E+00  0.0000E+00  0.0000E+00  0.0000E+00  0.0000E+00  0.0000E+00  0.0000E+00  0.0000E+00  0.0000E+00  0.0000E+00  0.0000E+00  0.0000E+00  0.0000E+00  0.0000E+00  0.0000E+00  0.0000E+00  0.0000E+00  0.0000E+00  0.0000E+00  0.0000E+00  0.0000E+00  0.0000E+00  0.0000E+00  0.0000E+00  0.0000E+00  0.0000E+00  0.0000E+00  0.0000E+00  0.0000E+00  0.0000E+00  0.0000E+00  0.0000E+00  0.0000E+00  0.0000E+00  0.0000E+00  0.0000E+00  0.0000E+00  0.0000E+00  0.0000E+00  0.0000E+00  0.0000E+00  0.0000E+00  0.0000E+00  0.0000E+00  0.0000E+00  0.0000E+00  0.0000E+00  0.0000E+00  0.0000E+00  0.0000E+00  0.0000E+00  0.0000E+00  0.0000E+00  0.0000E+00  0.0000E+00
  0.0000E+00  0.0000E+00  0.0000E+00  0.0000E+00  0.0000E+00  0.0000E+00  0.0000E+00  0.0000E+00  0.0000E+00  0.0000E+00  0.0000E+00  0.0000E+00  0.0000E+00  0.0000E+00  0.0000E+00  0.0000E+00  0.0000E+00  0.0000E+00  0.0000E+00  0.0000E+00  0.0000E+00  0.0000E+00  0.0000E+00  0.0000E+00  0.0000E+00  0.0000E+00  0.0000E+00  0.0000E+00  0.0000E+00  0.0000E+00  0.0000E+00  0.0000E+00  0.0000E+00  0.0000E+00  0.0000E+00  0.0000E+00  0.0000E+00  0.0000E+00  0.0000E+00  0.0000E+00  0.0000E+00  0.0000E+00  0.0000E+00  0.0000E+00  0.0000E+00  0.0000E+00  0.0000E+00  0.0000E+00  0.0000E+00  0.0000E+00  0.0000E+00  0.0000E+00  0.0000E+00  0.0000E+00  0.0000E+00  0.0000E+00  0.0000E+00  0.0000E+00  0.0000E+00  0.0000E+00  0.0000E+00  0.0000E+00  0.0000E+00  0.0000E+00  0.0000E+00  0.0000E+00  0.0000E+00  0.0000E+00  0.0000E+00  0.0000E+00  0.0000E+00  0.0000E+00  0.0000E+00  0.0000E+00  0.0000E+00  0.0000E+00  0.0000E+00  0.0000E+00  0.0000E+00
  0.0000E+00  0.0000E+00  0.0000E+00  0.0000E+00  0.0000E+00  0.0000E+00  0.0000E+00  0.0000E+00  0.0000E+00  0.0000E+00  0.0000E+00  0.0000E+00  0.0000E+00  0.0000E+00  0.0000E+00  0.0000E+00  0.0000E+00  0.0000E+00  0.0000E+00  0.0000E+00  0.0000E+00  0.0000E+00  0.0000E+00  0.0000E+00  0.0000E+00  0.0000E+00  0.0000E+00  0.0000E+00  0.0000E+00  0.0000E+00  0.0000E+00  0.0000E+00  0.0000E+00  0.0000E+00  0.0000E+00  0.0000E+00  0.0000E+00  0.0000E+00  0.0000E+00  0.0000E+00  0.0000E+00  0.0000E+00  0.0000E+00  0.0000E+00  0.0000E+00  0.0000E+00  0.0000E+00  0.0000E+00  0.0000E+00  0.0000E+00  0.0000E+00  0.0000E+00  0.0000E+00  0.0000E+00  0.0000E+00  0.0000E+00  0.0000E+00  0.0000E+00  0.0000E+00  0.0000E+00  0.0000E+00  0.0000E+00  0.0000E+00  0.0000E+00  0.0000E+00  0.0000E+00  0.0000E+00  0.0000E+00  0.0000E+00  0.0000E+00  0.0000E+00  0.0000E+00  0.0000E+00  0.0000E+00  0.0000E+00  0.0000E+00  0.0000E+00  0.0000E+00  0.0000E+00
  0.0000E+00  0.0000E+00  0.0000E+00  0.0000E+00  0.0000E+00  0.0000E+00  0.0000E+00  0.0000E+00  0.0000E+00  0.0000E+00  0.0000E+00  0.0000E+00  0.0000E+00  0.0000E+00  0.0000E+00  0.0000E+00  0.0000E+00  0.0000E+00  0.0000E+00  0.0000E+00  0.0000E+00  0.0000E+00  0.0000E+00  0.0000E+00  0.0000E+00  0.0000E+00  0.0000E+00  0.0000E+00  0.0000E+00  0.0000E+00  0.0000E+00  0.0000E+00  0.0000E+00  0.0000E+00  0.0000E+00  0.0000E+00  0.0000E+00  0.0000E+00  0.0000E+00  0.0000E+00  0.0000E+00  0.0000E+00  0.0000E+00  0.0000E+00  0.0000E+00  0.0000E+00  0.0000E+00  0.0000E+00  0.0000E+00  0.0000E+00  0.0000E+00  0.0000E+00  0.0000E+00  0.0000E+00  0.0000E+00  0.0000E+00  0.0000E+00  0.0000E+00  0.0000E+00  0.0000E+00  0.0000E+00  0.0000E+00  0.0000E+00  0.0000E+00  0.0000E+00  0.0000E+00  0.0000E+00  0.0000E+00  0.0000E+00  0.0000E+00  0.0000E+00  0.0000E+00  0.0000E+00  0.0000E+00  0.0000E+00  0.0000E+00  0.0000E+00  0.0000E+00  0.0000E+00
  0.0000E+00  0.0000E+00  0.0000E+00  0.0000E+00  0.0000E+00  0.0000E+00  0.0000E+00  0.0000E+00  0.0000E+00  0.0000E+00  0.0000E+00  0.0000E+00  0.0000E+00  0.0000E+00  0.0000E+00  0.0000E+00  0.0000E+00  0.0000E+00  0.0000E+00  0.0000E+00  0.0000E+00  0.0000E+00  0.0000E+00  0.0000E+00  0.0000E+00  0.0000E+00  0.0000E+00  0.0000E+00  0.0000E+00  0.0000E+00  0.0000E+00  0.0000E+00  0.0000E+00  0.0000E+00  0.0000E+00  0.0000E+00  0.0000E+00  0.0000E+00  0.0000E+00  0.0000E+00  0.0000E+00  0.0000E+00  0.0000E+00  0.0000E+00  0.0000E+00  0.0000E+00  0.0000E+00  0.0000E+00  0.0000E+00  0.0000E+00  0.0000E+00  0.0000E+00  0.0000E+00  0.0000E+00  0.0000E+00  0.0000E+00  0.0000E+00  0.0000E+00  0.0000E+00  0.0000E+00  0.0000E+00  0.0000E+00  0.0000E+00  0.0000E+00  0.0000E+00  0.0000E+00  0.0000E+00  0.0000E+00  0.0000E+00  0.0000E+00  0.0000E+00  0.0000E+00  0.0000E+00  0.0000E+00  0.0000E+00  0.0000E+00  0.0000E+00  0.0000E+00  0.0000E+00
  0.0000E+00  0.0000E+00  0.0000E+00  0.0000E+00  0.0000E+00  0.0000E+00  0.0000E+00  0.0000E+00  0.0000E+00  0.0000E+00  0.0000E+00  0.0000E+00  0.0000E+00  0.0000E+00  0.0000E+00  0.0000E+00  0.0000E+00  0.0000E+00  0.0000E+00  0.0000E+00  0.0000E+00  0.0000E+00  0.0000E+00  0.0000E+00  0.0000E+00  0.0000E+00  0.0000E+00  0.0000E+00  0.0000E+00  0.0000E+00  0.0000E+00  0.0000E+00  0.0000E+00  0.0000E+00  0.0000E+00  0.0000E+00  0.0000E+00  0.0000E+00  0.0000E+00  0.0000E+00  0.0000E+00  0.0000E+00  0.0000E+00  0.0000E+00  0.0000E+00  0.0000E+00  0.0000E+00  0.0000E+00  0.0000E+00  0.0000E+00  0.0000E+00  0.0000E+00  0.0000E+00  0.0000E+00  0.0000E+00  0.0000E+00  0.0000E+00  0.0000E+00  0.0000E+00  0.0000E+00  0.0000E+00  0.0000E+00  0.0000E+00  0.0000E+00  0.0000E+00  0.0000E+00  0.0000E+00  0.0000E+00  0.0000E+00  0.0000E+00  0.0000E+00  0.0000E+00  0.0000E+00  0.0000E+00  0.0000E+00  0.0000E+00  0.0000E+00  0.0000E+00  0.0000E+00
  0.0000E+00  0.0000E+00  0.0000E+00  0.0000E+00  0.0000E+00  0.0000E+00  0.0000E+00  0.0000E+00  0.0000E+00  0.0000E+00  0.0000E+00  0.0000E+00  0.0000E+00  0.0000E+00  0.0000E+00  0.0000E+00  0.0000E+00  0.0000E+00  0.0000E+00  0.0000E+00  0.0000E+00  0.0000E+00  0.0000E+00  0.0000E+00  0.0000E+00  0.0000E+00  0.0000E+00  0.0000E+00  0.0000E+00  0.0000E+00  0.0000E+00  0.0000E+00  0.0000E+00  0.0000E+00  0.0000E+00  0.0000E+00  0.0000E+00  0.0000E+00  0.0000E+00  0.0000E+00  0.0000E+00  0.0000E+00  0.0000E+00  0.0000E+00  0.0000E+00  0.0000E+00  0.0000E+00  0.0000E+00  0.0000E+00  0.0000E+00  0.0000E+00  0.0000E+00  0.0000E+00  0.0000E+00  0.0000E+00  0.0000E+00  0.0000E+00  0.0000E+00  0.0000E+00  0.0000E+00  0.0000E+00  0.0000E+00  0.0000E+00  0.0000E+00  0.0000E+00  0.0000E+00  0.0000E+00  0.0000E+00  0.0000E+00  0.0000E+00  0.0000E+00  0.0000E+00  0.0000E+00  0.0000E+00  0.0000E+00  0.0000E+00  0.0000E+00  0.0000E+00  0.0000E+00
  0.0000E+00  0.0000E+00  0.0000E+00  0.0000E+00  0.0000E+00  0.0000E+00  0.0000E+00  0.0000E+00  0.0000E+00  0.0000E+00  0.0000E+00  0.0000E+00  0.0000E+00  0.0000E+00  0.0000E+00  0.0000E+00  0.0000E+00  0.0000E+00  0.0000E+00  0.0000E+00  0.0000E+00  0.0000E+00  0.0000E+00  0.0000E+00  0.0000E+00  0.0000E+00  0.0000E+00  0.0000E+00  0.0000E+00  0.0000E+00  0.0000E+00  0.0000E+00  0.0000E+00  0.0000E+00  0.0000E+00  0.0000E+00  0.0000E+00  0.0000E+00  0.0000E+00  0.0000E+00  0.0000E+00  0.0000E+00  0.0000E+00  0.0000E+00  0.0000E+00  0.0000E+00  0.0000E+00  0.0000E+00  0.0000E+00  0.0000E+00  0.0000E+00  0.0000E+00  0.0000E+00  0.0000E+00  0.0000E+00  0.0000E+00  0.0000E+00  0.0000E+00  0.0000E+00  0.0000E+00  0.0000E+00  0.0000E+00  0.0000E+00  0.0000E+00  0.0000E+00  0.0000E+00  0.0000E+00  0.0000E+00  0.0000E+00  0.0000E+00  0.0000E+00  0.0000E+00  0.0000E+00  0.0000E+00  0.0000E+00  0.0000E+00  0.0000E+00  0.0000E+00  0.0000E+00
  0.0000E+00  0.0000E+00  0.0000E+00  0.0000E+00  0.0000E+00  0.0000E+00  0.0000E+00  0.0000E+00  0.0000E+00  0.0000E+00  0.0000E+00  0.0000E+00  0.0000E+00  0.0000E+00  0.0000E+00  0.0000E+00  0.0000E+00  0.0000E+00  0.0000E+00  0.0000E+00  0.0000E+00  0.0000E+00  0.0000E+00  0.0000E+00  0.0000E+00  0.0000E+00  0.0000E+00  0.0000E+00  0.0000E+00  0.0000E+00  0.0000E+00  0.0000E+00  0.0000E+00  0.0000E+00  0.0000E+00  0.0000E+00  0.0000E+00  0.0000E+00  0.0000E+00  0.0000E+00  0.0000E+00  0.0000E+00  0.0000E+00  0.0000E+00  0.0000E+00  0.0000E+00  0.0000E+00  0.0000E+00  0.2218E-09  0.4437E-09  0.4506E-09  0.8997E-09  0.9104E-09  0.1143E-08  0.1152E-08  0.1159E-08  0.1163E-08  0.1165E-08  0.1165E-08  0.1162E-08  0.1157E-08  0.1150E-08  0.1140E-08  0.9067E-09  0.8954E-09  0.4469E-09  0.2236E-09  0.2194E-09  0.0000E+00  0.0000E+00  0.0000E+00  0.0000E+00  0.0000E+00  0.0000E+00  0.0000E+00  0.0000E+00  0.0000E+00  0.0000E+00  0.0000E+00
  0.0000E+00  0.0000E+00  0.0000E+00  0.0000E+00  0.0000E+00  0.0000E+00  0.0000E+00  0.0000E+00  0.0000E+00  0.0000E+00  0.0000E+00  0.0000E+00  0.0000E+00  0.0000E+00  0.0000E+00  0.0000E+00  0.0000E+00  0.0000E+00  0.0000E+00  0.0000E+00  0.0000E+00  0.0000E+00  0.0000E+00  0.0000E+00  0.0000E+00  0.0000E+00  0.0000E+00  0.0000E+00  0.0000E+00  0.0000E+00  0.0000E+00  0.0000E+00  0.0000E+00  0.0000E+00  0.0000E+00  0.0000E+00  0.0000E+00  0.0000E+00  0.0000E+00  0.0000E+00  0.0000E+00  0.0000E+00  0.0000E+00  0.4423E-09  0.6707E-09  0.9179E-09  0.1168E-08  0.1653E-08  0.1918E-08  0.1954E-08  0.2459E-08  0.2496E-08  0.2769E-08  0.2799E-08  0.3310E-08  0.3334E-08  0.3350E-08  0.3359E-08  0.3362E-08  0.3357E-08  0.3345E-08  0.3327E-08  0.3301E-08  0.3269E-08  0.2749E-08  0.2711E-08  0.2432E-08  0.1921E-08  0.1652E-08  0.1394E-08  0.9094E-09  0.4479E-09  0.2213E-09  0.0000E+00  0.0000E+00  0.0000E+00  0.0000E+00  0.0000E+00  0.0000E+00
  0.0000E+00  0.0000E+00  0.0000E+00  0.0000E+00  0.0000E+00  0.0000E+00  0.0000E+00  0.0000E+00  0.0000E+00  0.0000E+00  0.0000E+00  0.0000E+00  0.0000E+00  0.0000E+00  0.0000E+00  0.0000E+00  0.0000E+00  0.0000E+00  0.0000E+00  0.0000E+00  0.0000E+00  0.0000E+00  0.0000E+00  0.0000E+00  0.0000E+00  0.0000E+00  0.0000E+00  0.0000E+00  0.0000E+00  0.0000E+00  0.0000E+00  0.0000E+00  0.0000E+00  0.0000E+00  0.0000E+00  0.0000E+00  0.0000E+00  0.0000E+00  0.0000E+00  0.4421E-09  0.6762E-09  0.1157E-08  0.1419E-08  0.1934E-08  0.2222E-08  0.2529E-08  0.3074E-08  0.3399E-08  0.3723E-08  0.4043E-08  0.4378E-08  0.4707E-08  0.5026E-08  0.5356E-08  0.5411E-08  0.5719E-08  0.5754E-08  0.5776E-08  0.5786E-08  0.6043E-08  0.5767E-08  0.5739E-08  0.5698E-08  0.5645E-08  0.5581E-08  0.5244E-08  0.5162E-08  0.4559E-08  0.4215E-08  0.3624E-08  0.3291E-08  0.2724E-08  0.2412E-08  0.1880E-08  0.1147E-08  0.6751E-09  0.2201E-09  0.0000E+00  0.0000E+00
  0.0000E+00  0.0000E+00  0.0000E+00  0.0000E+00  0.0000E+00  0.0000E+00  0.0000E+00  0.0000E+00  0.0000E+00  0.0000E+00  0.0000E+00  0.0000E+00  0.0000E+00  0.0000E+00  0.0000E+00  0.0000E+00  0.0000E+00  0.0000E+00  0.0000E+00  0.0000E+00  0.0000E+00  0.0000E+00  0.0000E+00  0.0000E+00  0.0000E+00  0.0000E+00  0.0000E+00  0.0000E+00  0.0000E+00  0.0000E+00  0.0000E+00  0.0000E+00  0.0000E+00  0.0000E+00  0.0000E+00  0.0000E+00  0.4462E-09  0.9139E-09  0.1402E-08  0.1694E-08  0.2226E-08  0.2553E-08  0.3126E-08  0.3729E-08  0.4091E-08  0.4473E-08  0.5110E-08  0.5510E-08  0.5908E-08  0.6578E-08  0.6981E-08  0.7105E-08  0.7777E-08  0.7884E-08  0.8261E-08  0.8338E-08  0.8977E-08  0.9024E-08  0.9049E-08  0.9055E-08  0.9332E-08  0.9296E-08  0.8947E-08  0.8870E-08  0.8774E-08  0.8660E-08  0.7958E-08  0.7535E-08  0.7385E-08  0.6675E-08  0.6244E-08  0.5550E-08  0.5132E-08  0.4216E-08  0.3583E-08  0.2984E-08  0.2401E-08  0.1627E-08  0.9001E-09
  0.0000E+00  0.0000E+00  0.0000E+00  0.0000E+00  0.0000E+00  0.0000E+00  0.0000E+00  0.0000E+00  0.0000E+00  0.0000E+00  0.0000E+00  0.0000E+00  0.0000E+00  0.0000E+00  0.0000E+00  0.0000E+00  0.0000E+00  0.0000E+00  0.0000E+00  0.0000E+00  0.0000E+00  0.0000E+00  0.0000E+00  0.0000E+00  0.0000E+00  0.0000E+00  0.0000E+00  0.0000E+00  0.0000E+00  0.0000E+00  0.0000E+00  0.0000E+00  0.0000E+00  0.4414E-09  0.6840E-09  0.1402E-08  0.1703E-08  0.2250E-08  0.2835E-08  0.3444E-08  0.3831E-08  0.4489E-08  0.5166E-08  0.5614E-08  0.6331E-08  0.6808E-08  0.7556E-08  0.8052E-08  0.8543E-08  0.9326E-08  0.9821E-08  0.1030E-07  0.1079E-07  0.1126E-07  0.1171E-07  0.1216E-07  0.1226E-07  0.1265E-07  0.1271E-07  0.1273E-07  0.1414E-07  0.1411E-07  0.1404E-07  0.1393E-07  0.1238E-07  0.1223E-07  0.1205E-07  0.1153E-07  0.1068E-07  0.1045E-07  0.9898E-08  0.9052E-08  0.8226E-08  0.7402E-08  0.6610E-08  0.5577E-08  0.5111E-08  0.4159E-08  0.3260E-08
  0.0000E+00  0.0000E+00  0.0000E+00  0.0000E+00  0.0000E+00  0.0000E+00  0.0000E+00  0.0000E+00  0.0000E+00  0.0000E+00  0.0000E+00  0.0000E+00  0.0000E+00  0.0000E+00  0.0000E+00  0.0000E+00  0.0000E+00  0.0000E+00  0.0000E+00  0.0000E+00  0.0000E+00  0.0000E+00  0.0000E+00  0.0000E+00  0.0000E+00  0.0000E+00  0.0000E+00  0.0000E+00  0.0000E+00  0.0000E+00  0.0000E+00  0.6675E-09  0.1157E-08  0.1445E-08  0.2228E-08  0.2582E-08  0.3196E-08  0.3852E-08  0.4538E-08  0.5251E-08  0.6005E-08  0.6510E-08  0.7320E-08  0.8151E-08  0.8720E-08  0.9593E-08  0.1048E-07  0.1109E-07  0.1170E-07  0.1262E-07  0.1323E-07  0.1493E-07  0.1632E-07  0.1661E-07  0.1797E-07  0.1821E-07  0.1841E-07  0.1856E-07  0.1867E-07  0.1986E-07  0.1988E-07  0.1984E-07  0.1976E-07  0.1963E-07  0.1833E-07  0.1812E-07  0.1786E-07  0.1756E-07  0.1722E-07  0.1685E-07  0.1536E-07  0.1386E-07  0.1204E-07  0.1135E-07  0.1036E-07  0.9102E-08  0.8471E-08  0.7300E-08  0.6188E-08
  0.0000E+00  0.0000E+00  0.1471E-08  0.4635E-08  0.5691E-08  0.5771E-08  0.6564E-08  0.1050E-07  0.1155E-07  0.1161E-07  0.1165E-07  0.1166E-07  0.1165E-07  0.1162E-07  0.1156E-07  0.9269E-08  0.6836E-08  0.5798E-08  0.5723E-08  0.4912E-08  0.2582E-08  0.0000E+00  0.0000E+00  0.0000E+00  0.0000E+00  0.0000E+00  0.0000E+00  0.0000E+00  0.2189E-09  0.6764E-09  0.1176E-08  0.1710E-08  0.2280E-08  0.3132E-08  0.3548E-08  0.4237E-08  0.4973E-08  0.5744E-08  0.6551E-08  0.7405E-08  0.8291E-08  0.9208E-08  0.1017E-07  0.1085E-07  0.1187E-07  0.1290E-07  0.1365E-07  0.1550E-07  0.1708E-07  0.1868E-07  0.1916E-07  0.2076E-07  0.2234E-07  0.2388E-07  0.2429E-07  0.2464E-07  0.2493E-07  0.2629E-07  0.2646E-07  0.2657E-07  0.2661E-07  0.2657E-07  0.2647E-07  0.2630E-07  0.2493E-07  0.2464E-07  0.2429E-07  0.2388E-07  0.2342E-07  0.2291E-07  0.2127E-07  0.1960E-07  0.1792E-07  0.1735E-07  0.1676E-07  0.1508E-07  0.1342E-07  0.1119E-07  0.9817E-08
  0.1176E-07  0.1431E-07  0.1718E-07  0.1764E-07  0.1792E-07  0.1816E-07  0.1852E-07  0.1870E-07  0.1883E-07  0.1893E-07  0.1899E-07  0.1901E-07  0.1899E-07  0.1892E-07  0.1882E-07  0.1869E-07  0.1851E-07  0.1830E-07  0.1805E-07  0.1761E-07  0.1582E-07  0.1235E-07  0.1194E-07  0.9312E-08  0.5793E-08  0.4915E-08  0.9762E-09  0.6785E-09  0.1405E-08  0.1726E-08  0.2310E-08  0.3182E-08  0.3866E-08  0.4594E-08  0.5364E-08  0.6188E-08  0.7056E-08  0.7966E-08  0.8931E-08  0.9936E-08  0.1098E-07  0.1208E-07  0.1321E-07  0.1437E-07  0.1605E-07  0.1889E-07  0.1958E-07  0.2252E-07  0.2437E-07  0.2510E-07  0.2694E-07  0.2876E-07  0.3053E-07  0.3115E-07  0.3170E-07  0.3217E-07  0.3371E-07  0.3403E-07  0.3427E-07  0.3441E-07  0.3446E-07  0.3442E-07  0.3429E-07  0.3406E-07  0.3375E-07  0.3222E-07  0.3176E-07  0.3122E-07  0.3061E-07  0.2993E-07  0.2810E-07  0.2624E-07  0.2436E-07  0.2358E-07  0.2276E-07  0.2085E-07  0.1786E-07  0.1712E-07  0.1637E-07
  0.1916E-07  0.1958E-07  0.2030E-07  0.2066E-07  0.2099E-07  0.2144E-07  0.2169E-07  0.2190E-07  0.2206E-07  0.2251E-07  0.2259E-07  0.2261E-07  0.2259E-07  0.2252E-07  0.2240E-07  0.2224E-07  0.2187E-07  0.2162E-07  0.2116E-07  0.2083E-07  0.2046E-07  0.1989E-07  0.1946E-07  0.1884E-07  0.1819E-07  0.1762E-07  0.1440E-07  0.1286E-07  0.9139E-08  0.7382E-08  0.4050E-08  0.4649E-08  0.5448E-08  0.6569E-08  0.7218E-08  0.8179E-08  0.9487E-08  0.1057E-07  0.1171E-07  0.1290E-07  0.1415E-07  0.1622E-07  0.1918E-07  0.2114E-07  0.2426E-07  0.2525E-07  0.2737E-07  0.3063E-07  0.3166E-07  0.3380E-07  0.3591E-07  0.3797E-07  0.3885E-07  0.3965E-07  0.4036E-07  0.4213E-07  0.4265E-07  0.4306E-07  0.4450E-07  0.4469E-07  0.4475E-07  0.4355E-07  0.4337E-07  0.4308E-07  0.4152E-07  0.4102E-07  0.4042E-07  0.3972E-07  0.3893E-07  0.3693E-07  0.3487E-07  0.3276E-07  0.3178E-07  0.3074E-07  0.2856E-07  0.2638E-07  0.2423E-07  0.2321E-07  0.2109E-07
  0.2238E-07  0.2305E-07  0.2369E-07  0.2412E-07  0.2468E-07  0.2502E-07  0.2531E-07  0.2591E-07  0.2611E-07  0.2625E-07  0.2634E-07  0.2637E-07  0.2635E-07  0.2627E-07  0.2614E-07  0.2595E-07  0.2571E-07  0.2542E-07  0.2507E-07  0.2451E-07  0.2390E-07  0.2343E-07  0.2274E-07  0.2287E-07  0.2240E-07  0.2217E-07  0.2221E-07  0.2246E-07  0.2236E-07  0.2131E-07  0.1760E-07  0.1516E-07  0.1328E-07  0.9283E-08  0.9667E-08  0.1082E-07  0.1202E-07  0.1330E-07  0.1495E-07  0.1684E-07  0.1997E-07  0.2324E-07  0.2550E-07  0.2898E-07  0.3141E-07  0.3388E-07  0.3637E-07  0.3888E-07  0.4137E-07  0.4383E-07  0.4623E-07  0.4745E-07  0.4856E-07  0.4956E-07  0.5164E-07  0.5242E-07  0.5422E-07  0.5473E-07  0.5510E-07  0.5532E-07  0.5539E-07  0.5530E-07  0.5391E-07  0.5353E-07  0.5184E-07  0.5120E-07  0.5043E-07  0.4954E-07  0.4853E-07  0.4629E-07  0.4397E-07  0.4159E-07  0.4032E-07  0.3898E-07  0.3649E-07  0.3286E-07  0.3154E-07  0.3018E-07  0.2663E-07
  0.2621E-07  0.2699E-07  0.2754E-07  0.2823E-07  0.2869E-07  0.2927E-07  0.2982E-07  0.3011E-07  0.3034E-07  0.3051E-07  0.3081E-07  0.3086E-07  0.3083E-07  0.3075E-07  0.3059E-07  0.3037E-07  0.3009E-07  0.2956E-07  0.2916E-07  0.2871E-07  0.2820E-07  0.2769E-07  0.2737E-07  0.2749E-07  0.2744E-07  0.2721E-07  0.2675E-07  0.2684E-07  0.2699E-07  0.2695E-07  0.2697E-07  0.2706E-07  0.2677E-07  0.2307E-07  0.1991E-07  0.1772E-07  0.1528E-07  0.1837E-07  0.2054E-07  0.2511E-07  0.2761E-07  0.3136E-07  0.3409E-07  0.3803E-07  0.3975E-07  0.4382E-07  0.4674E-07  0.4849E-07  0.5137E-07  0.5420E-07  0.5696E-07  0.5845E-07  0.5983E-07  0.6226E-07  0.6338E-07  0.6550E-07  0.6630E-07  0.6692E-07  0.6735E-07  0.6760E-07  0.6767E-07  0.6754E-07  0.6606E-07  0.6558E-07  0.6374E-07  0.6293E-07  0.6195E-07  0.6083E-07  0.5956E-07  0.5703E-07  0.5441E-07  0.5172E-07  0.5010E-07  0.4841E-07  0.4442E-07  0.4158E-07  0.3987E-07  0.3702E-07  0.3308E-07
  0.3039E-07  0.3128E-07  0.3212E-07  0.3271E-07  0.3325E-07  0.3413E-07  0.3455E-07  0.3489E-07  0.3538E-07  0.3558E-07  0.3571E-07  0.3577E-07  0.3575E-07  0.3565E-07  0.3547E-07  0.3522E-07  0.3490E-07  0.3450E-07  0.3404E-07  0.3351E-07  0.3339E-07  0.3325E-07  0.3292E-07  0.3259E-07  0.3273E-07  0.3271E-07  0.3250E-07  0.3232E-07  0.3221E-07  0.3245E-07  0.3276E-07  0.3261E-07  0.3265E-07  0.3327E-07  0.3402E-07  0.3263E-07  0.3205E-07  0.3137E-07  0.3040E-07  0.3228E-07  0.3757E-07  0.3959E-07  0.4400E-07  0.4732E-07  0.5185E-07  0.5526E-07  0.5750E-07  0.6087E-07  0.6419E-07  0.6743E-07  0.6940E-07  0.7122E-07  0.7410E-07  0.7563E-07  0.7816E-07  0.7932E-07  0.8027E-07  0.8100E-07  0.8151E-07  0.8179E-07  0.8184E-07  0.8166E-07  0.8007E-07  0.7946E-07  0.7743E-07  0.7642E-07  0.7520E-07  0.7380E-07  0.7107E-07  0.6820E-07  0.6522E-07  0.6332E-07  0.6131E-07  0.5807E-07  0.5364E-07  0.5153E-07  0.4938E-07  0.4495E-07  0.4174E-07
  0.3532E-07  0.3613E-07  0.3710E-07  0.3780E-07  0.3885E-07  0.3942E-07  0.3991E-07  0.4054E-07  0.4088E-07  0.4112E-07  0.4128E-07  0.4180E-07  0.4178E-07  0.4167E-07  0.4147E-07  0.4119E-07  0.4081E-07  0.4014E-07  0.3959E-07  0.3946E-07  0.3953E-07  0.3938E-07  0.3923E-07  0.3889E-07  0.3855E-07  0.3872E-07  0.3874E-07  0.3857E-07  0.3845E-07  0.3842E-07  0.3878E-07  0.3905E-07  0.3934E-07  0.3940E-07  0.4253E-07  0.4614E-07  0.4879E-07  0.5185E-07  0.5049E-07  0.4899E-07  0.4841E-07  0.5153E-07  0.5538E-07  0.5930E-07  0.6441E-07  0.6721E-07  0.7115E-07  0.7505E-07  0.7885E-07  0.8138E-07  0.8375E-07  0.8717E-07  0.8920E-07  0.9223E-07  0.9384E-07  0.9521E-07  0.9751E-07  0.9837E-07  0.9895E-07  0.9807E-07  0.9810E-07  0.9785E-07  0.9613E-07  0.9536E-07  0.9312E-07  0.9186E-07  0.9036E-07  0.8863E-07  0.8554E-07  0.8228E-07  0.7889E-07  0.7655E-07  0.7407E-07  0.6920E-07  0.6545E-07  0.6285E-07  0.5904E-07  0.5410E-07  0.5155E-07
  0.4068E-07  0.4163E-07  0.4274E-07  0.4378E-07  0.4475E-07  0.4542E-07  0.4623E-07  0.4673E-07  0.4712E-07  0.4789E-07  0.4809E-07  0.4818E-07  0.4817E-07  0.4805E-07  0.4783E-07  0.4750E-07  0.4707E-07  0.4721E-07  0.4687E-07  0.4648E-07  0.4654E-07  0.4636E-07  0.4643E-07  0.4604E-07  0.4542E-07  0.4536E-07  0.4558E-07  0.4567E-07  0.4557E-07  0.4533E-07  0.4543E-07  0.4594E-07  0.4897E-07  0.5219E-07  0.5486E-07  0.5784E-07  0.6094E-07  0.6565E-07  0.6818E-07  0.7208E-07  0.7049E-07  0.6991E-07  0.6903E-07  0.7302E-07  0.7762E-07  0.8222E-07  0.8678E-07  0.9125E-07  0.9443E-07  0.9745E-07  0.1015E-06  0.1042E-06  0.1078E-06  0.1100E-06  0.1131E-06  0.1147E-06  0.1160E-06  0.1170E-06  0.1176E-06  0.1179E-06  0.1167E-06  0.1164E-06  0.1145E-06  0.1135E-06  0.1111E-06  0.1095E-06  0.1077E-06  0.1056E-06  0.1020E-06  0.9713E-07  0.9446E-07  0.9160E-07  0.8743E-07  0.8318E-07  0.7888E-07  0.7568E-07  0.7013E-07  0.6580E-07  0.6265E-07
  0.4674E-07  0.4808E-07  0.4913E-07  0.5056E-07  0.5145E-07  0.5247E-07  0.5316E-07  0.5399E-07  0.5472E-07  0.5508E-07  0.5532E-07  0.5544E-07  0.5570E-07  0.5557E-07  0.5532E-07  0.5495E-07  0.5514E-07  0.5527E-07  0.5489E-07  0.5448E-07  0.5452E-07  0.5432E-07  0.5411E-07  0.5419E-07  0.5352E-07  0.5316E-07  0.5315E-07  0.5323E-07  0.5342E-07  0.5341E-07  0.5320E-07  0.5739E-07  0.6068E-07  0.6346E-07  0.6774E-07  0.7220E-07  0.7488E-07  0.7884E-07  0.8308E-07  0.8656E-07  0.9128E-07  0.9499E-07  0.9552E-07  0.9454E-07  0.9301E-07  0.9818E-07  0.1046E-06  0.1086E-06  0.1123E-06  0.1172E-06  0.1205E-06  0.1249E-06  0.1278E-06  0.1315E-06  0.1338E-06  0.1356E-06  0.1371E-06  0.1382E-06  0.1390E-06  0.1393E-06  0.1380E-06  0.1376E-06  0.1355E-06  0.1331E-06  0.1315E-06  0.1296E-06  0.1274E-06  0.1237E-06  0.1196E-06  0.1154E-06  0.1122E-06  0.1087E-06  0.1027E-06  0.9787E-07  0.9411E-07  0.8907E-07  0.8285E-07  0.7904E-07  0.7520E-07
  0.5357E-07  0.5511E-07  0.5657E-07  0.5796E-07  0.5900E-07  0.6018E-07  0.6100E-07  0.6222E-07  0.6279E-07  0.6322E-07  0.6379E-07  0.6395E-07  0.6396E-07  0.6383E-07  0.6355E-07  0.6382E-07  0.6403E-07  0.6417E-07  0.6426E-07  0.6384E-07  0.6334E-07  0.6335E-07  0.6311E-07  0.6289E-07  0.6270E-07  0.6200E-07  0.6198E-07  0.6203E-07  0.6222E-07  0.6490E-07  0.6802E-07  0.7140E-07  0.7542E-07  0.7875E-07  0.8226E-07  0.8634E-07  0.9176E-07  0.9518E-07  0.1002E-06  0.1054E-06  0.1096E-06  0.1141E-06  0.1199E-06  0.1233E-06  0.1236E-06  0.1234E-06  0.1237E-06  0.1284E-06  0.1341E-06  0.1383E-06  0.1436E-06  0.1472E-06  0.1518E-06  0.1548E-06  0.1574E-06  0.1595E-06  0.1612E-06  0.1625E-06  0.1633E-06  0.1636E-06  0.1623E-06  0.1617E-06  0.1594E-06  0.1567E-06  0.1548E-06  0.1525E-06  0.1498E-06  0.1455E-06  0.1409E-06  0.1361E-06  0.1322E-06  0.1269E-06  0.1214E-06  0.1158E-06  0.1113E-06  0.1043E-06  0.9854E-07  0.9395E-07  0.8701E-07
  0.6127E-07  0.6304E-07  0.6472E-07  0.6633E-07  0.6781E-07  0.6891E-07  0.7014E-07  0.7283E-07  0.7356E-07  0.7598E-07  0.7642E-07  0.7668E-07  0.7677E-07  0.7870E-07  0.7891E-07  0.7922E-07  0.7943E-07  0.7774E-07  0.7779E-07  0.7727E-07  0.7695E-07  0.7685E-07  0.7496E-07  0.7492E-07  0.7465E-07  0.7236E-07  0.7198E-07  0.7203E-07  0.7463E-07  0.7887E-07  0.8226E-07  0.8640E-07  0.9102E-07  0.9470E-07  0.1002E-06  0.1048E-06  0.1087E-06  0.1152E-06  0.1196E-06  0.1255E-06  0.1294E-06  0.1358E-06  0.1410E-06  0.1464E-06  0.1519E-06  0.1551E-06  0.1542E-06  0.1549E-06  0.1576E-06  0.1638E-06  0.1697E-06  0.1740E-06  0.1779E-06  0.1813E-06  0.1843E-06  0.1867E-06  0.1887E-06  0.1901E-06  0.1910E-06  0.1913E-06  0.1898E-06  0.1891E-06  0.1865E-06  0.1835E-06  0.1812E-06  0.1784E-06  0.1752E-06  0.1691E-06  0.1638E-06  0.1595E-06  0.1549E-06  0.1488E-06  0.1413E-06  0.1361E-06  0.1295E-06  0.1217E-06  0.1162E-06  0.1107E-06  0.1018E-06
  0.6991E-07  0.7195E-07  0.7389E-07  0.7733E-07  0.8070E-07  0.8396E-07  0.8717E-07  0.8840E-07  0.8943E-07  0.9214E-07  0.9278E-07  0.9319E-07  0.9381E-07  0.9402E-07  0.9452E-07  0.9486E-07  0.9506E-07  0.9512E-07  0.9483E-07  0.9415E-07  0.9208E-07  0.9184E-07  0.9158E-07  0.8948E-07  0.8931E-07  0.8683E-07  0.8652E-07  0.8854E-07  0.9379E-07  0.9566E-07  0.9990E-07  0.1046E-06  0.1097E-06  0.1143E-06  0.1191E-06  0.1246E-06  0.1303E-06  0.1354E-06  0.1418E-06  0.1473E-06  0.1543E-06  0.1603E-06  0.1651E-06  0.1726E-06  0.1789E-06  0.1839E-06  0.1888E-06  0.1903E-06  0.1913E-06  0.1926E-06  0.1980E-06  0.2029E-06  0.2074E-06  0.2114E-06  0.2148E-06  0.2176E-06  0.2198E-06  0.2214E-06  0.2223E-06  0.2226E-06  0.2210E-06  0.2188E-06  0.2172E-06  0.2137E-06  0.2110E-06  0.2076E-06  0.2025E-06  0.1970E-06  0.1910E-06  0.1859E-06  0.1804E-06  0.1722E-06  0.1650E-06  0.1588E-06  0.1501E-06  0.1425E-06  0.1360E-06  0.1272E-06  0.1196E-06
  0.8121E-07  0.8529E-07  0.9122E-07  0.9341E-07  0.9737E-07  0.1012E-06  0.1049E-06  0.1065E-06  0.1079E-06  0.1109E-06  0.1118E-06  0.1130E-06  0.1133E-06  0.1141E-06  0.1147E-06  0.1150E-06  0.1151E-06  0.1151E-06  0.1128E-06  0.1119E-06  0.1115E-06  0.1091E-06  0.1087E-06  0.1064E-06  0.1056E-06  0.1028E-06  0.1085E-06  0.1097E-06  0.1128E-06  0.1171E-06  0.1203E-06  0.1238E-06  0.1286E-06  0.1352E-06  0.1408E-06  0.1468E-06  0.1536E-06  0.1593E-06  0.1667E-06  0.1731E-06  0.1810E-06  0.1867E-06  0.1940E-06  0.2024E-06  0.2081E-06  0.2140E-06  0.2211E-06  0.2280E-06  0.2331E-06  0.2324E-06  0.2311E-06  0.2358E-06  0.2409E-06  0.2455E-06  0.2493E-06  0.2525E-06  0.2550E-06  0.2567E-06  0.2577E-06  0.2580E-06  0.2562E-06  0.2537E-06  0.2505E-06  0.2478E-06  0.2445E-06  0.2406E-06  0.2348E-06  0.2272E-06  0.2216E-06  0.2156E-06  0.2079E-06  0.1987E-06  0.1917E-06  0.1844E-06  0.1733E-06  0.1658E-06  0.1582E-06  0.1471E-06  0.1396E-06
  0.9957E-07  0.1044E-06  0.1093E-06  0.1141E-06  0.1168E-06  0.1212E-06  0.1255E-06  0.1276E-06  0.1293E-06  0.1307E-06  0.1345E-06  0.1355E-06  0.1364E-06  0.1373E-06  0.1379E-06  0.1362E-06  0.1363E-06  0.1359E-06  0.1350E-06  0.1325E-06  0.1319E-06  0.1292E-06  0.1285E-06  0.1277E-06  0.1252E-06  0.1294E-06  0.1325E-06  0.1352E-06  0.1393E-06  0.1423E-06  0.1459E-06  0.1503E-06  0.1559E-06  0.1602E-06  0.1653E-06  0.1723E-06  0.1785E-06  0.1877E-06  0.1938E-06  0.2025E-06  0.2103E-06  0.2182E-06  0.2264E-06  0.2346E-06  0.2415E-06  0.2497E-06  0.2575E-06  0.2653E-06  0.2716E-06  0.2775E-06  0.2785E-06  0.2786E-06  0.2788E-06  0.2840E-06  0.2884E-06  0.2920E-06  0.2947E-06  0.2967E-06  0.2977E-06  0.2979E-06  0.2959E-06  0.2931E-06  0.2894E-06  0.2863E-06  0.2823E-06  0.2764E-06  0.2698E-06  0.2625E-06  0.2560E-06  0.2489E-06  0.2389E-06  0.2297E-06  0.2215E-06  0.2105E-06  0.2007E-06  0.1919E-06  0.1806E-06  0.1707E-06  0.1619E-06
  0.1188E-06  0.1246E-06  0.1303E-06  0.1359E-06  0.1393E-06  0.1445E-06  0.1474E-06  0.1520E-06  0.1542E-06  0.1566E-06  0.1580E-06  0.1597E-06  0.1610E-06  0.1620E-06  0.1626E-06  0.1629E-06  0.1629E-06  0.1617E-06  0.1591E-06  0.1583E-06  0.1554E-06  0.1543E-06  0.1511E-06  0.1512E-06  0.1519E-06  0.1557E-06  0.1588E-06  0.1618E-06  0.1675E-06  0.1708E-06  0.1750E-06  0.1787E-06  0.1850E-06  0.1913E-06  0.1960E-06  0.2023E-06  0.2095E-06  0.2173E-06  0.2268E-06  0.2354E-06  0.2443E-06  0.2535E-06  0.2628E-06  0.2709E-06  0.2803E-06  0.2895E-06  0.2972E-06  0.3060E-06  0.3132E-06  0.3200E-06  0.3261E-06  0.3272E-06  0.3273E-06  0.3273E-06  0.3323E-06  0.3363E-06  0.3394E-06  0.3415E-06  0.3425E-06  0.3413E-06  0.3404E-06  0.3372E-06  0.3331E-06  0.3293E-06  0.3246E-06  0.3178E-06  0.3090E-06  0.3020E-06  0.2944E-06  0.2848E-06  0.2735E-06  0.2644E-06  0.2548E-06  0.2412E-06  0.2312E-06  0.2198E-06  0.2071E-06  0.1969E-06  0.1855E-06
  0.1412E-06  0.1500E-06  0.1548E-06  0.1613E-06  0.1655E-06  0.1715E-06  0.1750E-06  0.1803E-06  0.1836E-06  0.1858E-06  0.1883E-06  0.1903E-06  0.1918E-06  0.1928E-06  0.1934E-06  0.1933E-06  0.1905E-06  0.1899E-06  0.1870E-06  0.1858E-06  0.1844E-06  0.1809E-06  0.1793E-06  0.1806E-06  0.1839E-06  0.1887E-06  0.1913E-06  0.1934E-06  0.1964E-06  0.2021E-06  0.2068E-06  0.2122E-06  0.2173E-06  0.2238E-06  0.2318E-06  0.2379E-06  0.2461E-06  0.2534E-06  0.2625E-06  0.2711E-06  0.2827E-06  0.2931E-06  0.3024E-06  0.3132E-06  0.3238E-06  0.3330E-06  0.3434E-06  0.3519E-06  0.3601E-06  0.3679E-06  0.3748E-06  0.3813E-06  0.3862E-06  0.3820E-06  0.3817E-06  0.3862E-06  0.3896E-06  0.3918E-06  0.3929E-06  0.3915E-06  0.3890E-06  0.3854E-06  0.3820E-06  0.3775E-06  0.3720E-06  0.3629E-06  0.3543E-06  0.3462E-06  0.3372E-06  0.3251E-06  0.3137E-06  0.3030E-06  0.2894E-06  0.2768E-06  0.2652E-06  0.2509E-06  0.2378E-06  0.2260E-06  0.2106E-06
  0.1691E-06  0.1772E-06  0.1831E-06  0.1907E-06  0.1959E-06  0.2027E-06  0.2070E-06  0.2108E-06  0.2169E-06  0.2203E-06  0.2231E-06  0.2254E-06  0.2271E-06  0.2260E-06  0.2258E-06  0.2258E-06  0.2233E-06  0.2224E-06  0.2211E-06  0.2174E-06  0.2155E-06  0.2103E-06  0.2141E-06  0.2167E-06  0.2201E-06  0.2229E-06  0.2256E-06  0.2293E-06  0.2346E-06  0.2388E-06  0.2427E-06  0.2475E-06  0.2545E-06  0.2612E-06  0.2675E-06  0.2771E-06  0.2856E-06  0.2937E-06  0.3048E-06  0.3144E-06  0.3256E-06  0.3362E-06  0.3469E-06  0.3591E-06  0.3712E-06  0.3831E-06  0.3933E-06  0.4032E-06  0.4126E-06  0.4214E-06  0.4294E-06  0.4367E-06  0.4431E-06  0.4484E-06  0.4485E-06  0.4419E-06  0.4456E-06  0.4480E-06  0.4491E-06  0.4475E-06  0.4447E-06  0.4405E-06  0.4365E-06  0.4312E-06  0.4234E-06  0.4145E-06  0.4047E-06  0.3952E-06  0.3836E-06  0.3699E-06  0.3582E-06  0.3458E-06  0.3292E-06  0.3162E-06  0.3015E-06  0.2854E-06  0.2718E-06  0.2557E-06  0.2410E-06
  0.1992E-06  0.2088E-06  0.2158E-06  0.2247E-06  0.2310E-06  0.2367E-06  0.2441E-06  0.2493E-06  0.2539E-06  0.2578E-06  0.2611E-06  0.2636E-06  0.2647E-06  0.2658E-06  0.2641E-06  0.2640E-06  0.2632E-06  0.2597E-06  0.2579E-06  0.2547E-06  0.2500E-06  0.2511E-06  0.2551E-06  0.2578E-06  0.2622E-06  0.2642E-06  0.2660E-06  0.2687E-06  0.2743E-06  0.2790E-06  0.2847E-06  0.2901E-06  0.2965E-06  0.3040E-06  0.3125E-06  0.3205E-06  0.3309E-06  0.3407E-06  0.3512E-06  0.3624E-06  0.3742E-06  0.3847E-06  0.3982E-06  0.4120E-06  0.4256E-06  0.4377E-06  0.4493E-06  0.4606E-06  0.4713E-06  0.4811E-06  0.4903E-06  0.4986E-06  0.5056E-06  0.5117E-06  0.5165E-06  0.5158E-06  0.5088E-06  0.5106E-06  0.5117E-06  0.5099E-06  0.5066E-06  0.5019E-06  0.4970E-06  0.4908E-06  0.4819E-06  0.4705E-06  0.4607E-06  0.4497E-06  0.4351E-06  0.4210E-06  0.4075E-06  0.3907E-06  0.3748E-06  0.3597E-06  0.3418E-06  0.3250E-06  0.3094E-06  0.2900E-06  0.2746E-06
  0.2341E-06  0.2453E-06  0.2538E-06  0.2641E-06  0.2716E-06  0.2784E-06  0.2875E-06  0.2937E-06  0.2990E-06  0.3036E-06  0.3068E-06  0.3071E-06  0.3091E-06  0.3103E-06  0.3106E-06  0.3101E-06  0.3066E-06  0.3039E-06  0.2991E-06  0.2962E-06  0.2966E-06  0.2976E-06  0.3017E-06  0.3044E-06  0.3044E-06  0.3099E-06  0.3118E-06  0.3159E-06  0.3186E-06  0.3257E-06  0.3306E-06  0.3366E-06  0.3452E-06  0.3522E-06  0.3616E-06  0.3708E-06  0.3823E-06  0.3920E-06  0.4053E-06  0.4179E-06  0.4297E-06  0.4435E-06  0.4554E-06  0.4710E-06  0.4850E-06  0.4988E-06  0.5119E-06  0.5248E-06  0.5383E-06  0.5494E-06  0.5598E-06  0.5688E-06  0.5756E-06  0.5824E-06  0.5876E-06  0.5915E-06  0.5895E-06  0.5842E-06  0.5800E-06  0.5779E-06  0.5741E-06  0.5701E-06  0.5643E-06  0.5557E-06  0.5456E-06  0.5341E-06  0.5227E-06  0.5087E-06  0.4923E-06  0.4776E-06  0.4608E-06  0.4419E-06  0.4252E-06  0.4066E-06  0.3864E-06  0.3687E-06  0.3483E-06  0.3293E-06  0.3103E-06
  0.2744E-06  0.2874E-06  0.2975E-06  0.3095E-06  0.3184E-06  0.3272E-06  0.3352E-06  0.3423E-06  0.3478E-06  0.3530E-06  0.3572E-06  0.3603E-06  0.3624E-06  0.3635E-06  0.3612E-06  0.3595E-06  0.3577E-06  0.3528E-06  0.3473E-06  0.3493E-06  0.3495E-06  0.3528E-06  0.3545E-06  0.3560E-06  0.3572E-06  0.3603E-06  0.3621E-06  0.3652E-06  0.3694E-06  0.3748E-06  0.3815E-06  0.3890E-06  0.3969E-06  0.4061E-06  0.4152E-06  0.4269E-06  0.4383E-06  0.4507E-06  0.4635E-06  0.4764E-06  0.4913E-06  0.5066E-06  0.5224E-06  0.5367E-06  0.5511E-06  0.5664E-06  0.5816E-06  0.5975E-06  0.6109E-06  0.6237E-06  0.6351E-06  0.6455E-06  0.6529E-06  0.6605E-06  0.6665E-06  0.6706E-06  0.6731E-06  0.6695E-06  0.6609E-06  0.6546E-06  0.6503E-06  0.6454E-06  0.6387E-06  0.6288E-06  0.6159E-06  0.6042E-06  0.5910E-06  0.5738E-06  0.5567E-06  0.5399E-06  0.5195E-06  0.4996E-06  0.4805E-06  0.4568E-06  0.4369E-06  0.4153E-06  0.3925E-06  0.3722E-06  0.3483E-06
  0.3209E-06  0.3360E-06  0.3481E-06  0.3618E-06  0.3731E-06  0.3834E-06  0.3920E-06  0.4003E-06  0.4074E-06  0.4133E-06  0.4179E-06  0.4213E-06  0.4211E-06  0.4212E-06  0.4209E-06  0.4170E-06  0.4146E-06  0.4089E-06  0.4070E-06  0.4098E-06  0.4098E-06  0.4129E-06  0.4145E-06  0.4133E-06  0.4177E-06  0.4197E-06  0.4217E-06  0.4248E-06  0.4279E-06  0.4324E-06  0.4383E-06  0.4469E-06  0.4543E-06  0.4645E-06  0.4747E-06  0.4876E-06  0.5004E-06  0.5143E-06  0.5293E-06  0.5452E-06  0.5618E-06  0.5790E-06  0.5933E-06  0.6098E-06  0.6262E-06  0.6434E-06  0.6605E-06  0.6765E-06  0.6919E-06  0.7062E-06  0.7189E-06  0.7305E-06  0.7403E-06  0.7471E-06  0.7536E-06  0.7583E-06  0.7608E-06  0.7614E-06  0.7542E-06  0.7425E-06  0.7345E-06  0.7286E-06  0.7207E-06  0.7081E-06  0.6950E-06  0.6815E-06  0.6650E-06  0.6456E-06  0.6277E-06  0.6071E-06  0.5842E-06  0.5631E-06  0.5399E-06  0.5149E-06  0.4922E-06  0.4653E-06  0.4423E-06  0.4180E-06  0.3927E-06
  0.3744E-06  0.3919E-06  0.4061E-06  0.4197E-06  0.4351E-06  0.4471E-06  0.4579E-06  0.4674E-06  0.4755E-06  0.4796E-06  0.4843E-06  0.4877E-06  0.4898E-06  0.4880E-06  0.4872E-06  0.4827E-06  0.4794E-06  0.4726E-06  0.4758E-06  0.4783E-06  0.4781E-06  0.4809E-06  0.4796E-06  0.4805E-06  0.4799E-06  0.4840E-06  0.4857E-06  0.4875E-06  0.4921E-06  0.4981E-06  0.5044E-06  0.5110E-06  0.5220E-06  0.5317E-06  0.5445E-06  0.5559E-06  0.5715E-06  0.5870E-06  0.6023E-06  0.6181E-06  0.6366E-06  0.6557E-06  0.6740E-06  0.6924E-06  0.7104E-06  0.7286E-06  0.7461E-06  0.7641E-06  0.7813E-06  0.7970E-06  0.8115E-06  0.8241E-06  0.8352E-06  0.8427E-06  0.8497E-06  0.8547E-06  0.8575E-06  0.8564E-06  0.8531E-06  0.8432E-06  0.8284E-06  0.8201E-06  0.8095E-06  0.7953E-06  0.7818E-06  0.7663E-06  0.7462E-06  0.7258E-06  0.7053E-06  0.6807E-06  0.6564E-06  0.6324E-06  0.6036E-06  0.5783E-06  0.5512E-06  0.5226E-06  0.4966E-06  0.4667E-06  0.4410E-06
  0.4385E-06  0.4562E-06  0.4754E-06  0.4918E-06  0.5070E-06  0.5209E-06  0.5333E-06  0.5439E-06  0.5526E-06  0.5600E-06  0.5631E-06  0.5669E-06  0.5689E-06  0.5642E-06  0.5626E-06  0.5590E-06  0.5521E-06  0.5557E-06  0.5573E-06  0.5560E-06  0.5552E-06  0.5575E-06  0.5544E-06  0.5548E-06  0.5550E-06  0.5551E-06  0.5566E-06  0.5619E-06  0.5652E-06  0.5701E-06  0.5769E-06  0.5854E-06  0.5944E-06  0.6065E-06  0.6191E-06  0.6312E-06  0.6484E-06  0.6642E-06  0.6828E-06  0.7024E-06  0.7230E-06  0.7428E-06  0.7612E-06  0.7833E-06  0.8038E-06  0.8241E-06  0.8435E-06  0.8623E-06  0.8812E-06  0.8989E-06  0.9133E-06  0.9275E-06  0.9380E-06  0.9479E-06  0.9556E-06  0.9607E-06  0.9635E-06  0.9621E-06  0.9584E-06  0.9520E-06  0.9392E-06  0.9211E-06  0.9069E-06  0.8923E-06  0.8768E-06  0.8576E-06  0.8351E-06  0.8134E-06  0.7887E-06  0.7612E-06  0.7352E-06  0.7066E-06  0.6760E-06  0.6474E-06  0.6143E-06  0.5850E-06  0.5530E-06  0.5225E-06  0.4922E-06
  0.5114E-06  0.5307E-06  0.5503E-06  0.5719E-06  0.5893E-06  0.6048E-06  0.6190E-06  0.6288E-06  0.6391E-06  0.6473E-06  0.6533E-06  0.6544E-06  0.6531E-06  0.6529E-06  0.6506E-06  0.6440E-06  0.6439E-06  0.6422E-06  0.6459E-06  0.6439E-06  0.6423E-06  0.6413E-06  0.6400E-06  0.6371E-06  0.6366E-06  0.6362E-06  0.6373E-06  0.6386E-06  0.6432E-06  0.6483E-06  0.6554E-06  0.6646E-06  0.6743E-06  0.6875E-06  0.7013E-06  0.7170E-06  0.7344E-06  0.7534E-06  0.7739E-06  0.7922E-06  0.8136E-06  0.8356E-06  0.8597E-06  0.8806E-06  0.9035E-06  0.9260E-06  0.9479E-06  0.9672E-06  0.9868E-06  0.1006E-05  0.1024E-05  0.1039E-05  0.1051E-05  0.1062E-05  0.1070E-05  0.1076E-05  0.1078E-05  0.1078E-05  0.1072E-05  0.1066E-05  0.1058E-05  0.1038E-05  0.1014E-05  0.9984E-06  0.9806E-06  0.9576E-06  0.9337E-06  0.9091E-06  0.8799E-06  0.8505E-06  0.8210E-06  0.7863E-06  0.7548E-06  0.7198E-06  0.6858E-06  0.6528E-06  0.6158E-06  0.5830E-06  0.5465E-06
  0.5970E-06  0.6212E-06  0.6447E-06  0.6656E-06  0.6858E-06  0.7041E-06  0.7176E-06  0.7289E-06  0.7401E-06  0.7459E-06  0.7524E-06  0.7563E-06  0.7577E-06  0.7541E-06  0.7482E-06  0.7427E-06  0.7424E-06  0.7451E-06  0.7456E-06  0.7451E-06  0.7401E-06  0.7368E-06  0.7345E-06  0.7318E-06  0.7291E-06  0.7279E-06  0.7284E-06  0.7294E-06  0.7324E-06  0.7375E-06  0.7449E-06  0.7532E-06  0.7665E-06  0.7779E-06  0.7944E-06  0.8101E-06  0.8256E-06  0.8465E-06  0.8676E-06  0.8900E-06  0.9135E-06  0.9359E-06  0.9609E-06  0.9862E-06  0.1011E-05  0.1034E-05  0.1059E-05  0.1082E-05  0.1102E-05  0.1122E-05  0.1141E-05  0.1158E-05  0.1173E-05  0.1185E-05  0.1194E-05  0.1200E-05  0.1202E-05  0.1202E-05  0.1197E-05  0.1189E-05  0.1179E-05  0.1164E-05  0.1138E-05  0.1114E-05  0.1092E-05  0.1066E-05  0.1041E-05  0.1011E-05  0.9789E-06  0.9472E-06  0.9112E-06  0.8755E-06  0.8400E-06  0.7997E-06  0.7630E-06  0.7220E-06  0.6851E-06  0.6456E-06  0.6080E-06
  0.7030E-06  0.7296E-06  0.7530E-06  0.7755E-06  0.7971E-06  0.8172E-06  0.8326E-06  0.8454E-06  0.8553E-06  0.8651E-06  0.8718E-06  0.8755E-06  0.8730E-06  0.8679E-06  0.8605E-06  0.8599E-06  0.8627E-06  0.8585E-06  0.8578E-06  0.8536E-06  0.8497E-06  0.8452E-06  0.8363E-06  0.8349E-06  0.8324E-06  0.8288E-06  0.8285E-06  0.8289E-06  0.8329E-06  0.8366E-06  0.8441E-06  0.8542E-06  0.8618E-06  0.8756E-06  0.8904E-06  0.9074E-06  0.9266E-06  0.9479E-06  0.9688E-06  0.9934E-06  0.1019E-05  0.1046E-05  0.1072E-05  0.1099E-05  0.1127E-05  0.1153E-05  0.1179E-05  0.1205E-05  0.1229E-05  0.1250E-05  0.1269E-05  0.1288E-05  0.1304E-05  0.1317E-05  0.1327E-05  0.1333E-05  0.1336E-05  0.1335E-05  0.1330E-05  0.1322E-05  0.1310E-05  0.1293E-05  0.1272E-05  0.1243E-05  0.1213E-05  0.1186E-05  0.1157E-05  0.1123E-05  0.1088E-05  0.1052E-05  0.1011E-05  0.9720E-06  0.9294E-06  0.8876E-06  0.8451E-06  0.8011E-06  0.7598E-06  0.7147E-06  0.6742E-06
  0.8241E-06  0.8506E-06  0.8757E-06  0.8998E-06  0.9229E-06  0.9445E-06  0.9614E-06  0.9759E-06  0.9867E-06  0.9966E-06  0.1003E-05  0.1007E-05  0.1001E-05  0.9949E-06  0.9918E-06  0.9986E-06  0.9943E-06  0.9923E-06  0.9890E-06  0.9817E-06  0.9708E-06  0.9620E-06  0.9578E-06  0.9510E-06  0.9432E-06  0.9397E-06  0.9408E-06  0.9380E-06  0.9387E-06  0.9435E-06  0.9497E-06  0.9572E-06  0.9674E-06  0.9804E-06  0.9961E-06  0.1012E-05  0.1033E-05  0.1056E-05  0.1081E-05  0.1108E-05  0.1134E-05  0.1164E-05  0.1194E-05  0.1222E-05  0.1253E-05  0.1283E-05  0.1310E-05  0.1339E-05  0.1365E-05  0.1388E-05  0.1410E-05  0.1429E-05  0.1446E-05  0.1460E-05  0.1470E-05  0.1477E-05  0.1480E-05  0.1478E-05  0.1473E-05  0.1464E-05  0.1450E-05  0.1433E-05  0.1412E-05  0.1382E-05  0.1346E-05  0.1313E-05  0.1281E-05  0.1243E-05  0.1205E-05  0.1162E-05  0.1119E-05  0.1076E-05  0.1027E-05  0.9820E-06  0.9320E-06  0.8861E-06  0.8359E-06  0.7903E-06  0.7411E-06
  0.9601E-06  0.9896E-06  0.1018E-05  0.1044E-05  0.1069E-05  0.1091E-05  0.1109E-05  0.1123E-05  0.1136E-05  0.1146E-05  0.1153E-05  0.1153E-05  0.1146E-05  0.1144E-05  0.1146E-05  0.1146E-05  0.1140E-05  0.1139E-05  0.1131E-05  0.1118E-05  0.1112E-05  0.1100E-05  0.1091E-05  0.1079E-05  0.1074E-05  0.1068E-05  0.1061E-05  0.1060E-05  0.1060E-05  0.1061E-05  0.1065E-05  0.1073E-05  0.1081E-05  0.1094E-05  0.1111E-05  0.1131E-05  0.1153E-05  0.1176E-05  0.1203E-05  0.1232E-05  0.1263E-05  0.1293E-05  0.1326E-05  0.1360E-05  0.1391E-05  0.1424E-05  0.1456E-05  0.1484E-05  0.1513E-05  0.1538E-05  0.1562E-05  0.1583E-05  0.1600E-05  0.1615E-05  0.1626E-05  0.1633E-05  0.1635E-05  0.1633E-05  0.1627E-05  0.1616E-05  0.1601E-05  0.1581E-05  0.1558E-05  0.1530E-05  0.1492E-05  0.1451E-05  0.1413E-05  0.1372E-05  0.1330E-05  0.1283E-05  0.1236E-05  0.1184E-05  0.1135E-05  0.1081E-05  0.1029E-05  0.9769E-06  0.9232E-06  0.8726E-06  0.8187E-06
  0.1117E-05  0.1150E-05  0.1181E-05  0.1210E-05  0.1237E-05  0.1261E-05  0.1279E-05  0.1291E-05  0.1306E-05  0.1317E-05  0.1323E-05  0.1321E-05  0.1319E-05  0.1316E-05  0.1317E-05  0.1314E-05  0.1308E-05  0.1305E-05  0.1288E-05  0.1278E-05  0.1266E-05  0.1251E-05  0.1241E-05  0.1227E-05  0.1218E-05  0.1210E-05  0.1200E-05  0.1194E-05  0.1191E-05  0.1189E-05  0.1193E-05  0.1200E-05  0.1210E-05  0.1224E-05  0.1242E-05  0.1261E-05  0.1285E-05  0.1311E-05  0.1339E-05  0.1370E-05  0.1404E-05  0.1438E-05  0.1472E-05  0.1508E-05  0.1544E-05  0.1578E-05  0.1612E-05  0.1643E-05  0.1674E-05  0.1703E-05  0.1727E-05  0.1749E-05  0.1766E-05  0.1782E-05  0.1793E-05  0.1800E-05  0.1802E-05  0.1799E-05  0.1792E-05  0.1779E-05  0.1762E-05  0.1740E-05  0.1713E-05  0.1682E-05  0.1647E-05  0.1601E-05  0.1553E-05  0.1509E-05  0.1463E-05  0.1412E-05  0.1361E-05  0.1305E-05  0.1250E-05  0.1191E-05  0.1135E-05  0.1074E-05  0.1018E-05  0.9584E-06  0.9036E-06
  0.1292E-05  0.1330E-05  0.1364E-05  0.1396E-05  0.1425E-05  0.1451E-05  0.1470E-05  0.1486E-05  0.1500E-05  0.1510E-05  0.1515E-05  0.1513E-05  0.1512E-05  0.1510E-05  0.1509E-05  0.1504E-05  0.1496E-05  0.1484E-05  0.1468E-05  0.1457E-05  0.1435E-05  0.1424E-05  0.1408E-05  0.1392E-05  0.1379E-05  0.1363E-05  0.1352E-05  0.1344E-05  0.1336E-05  0.1333E-05  0.1335E-05  0.1342E-05  0.1350E-05  0.1364E-05  0.1383E-05  0.1405E-05  0.1428E-05  0.1456E-05  0.1488E-05  0.1519E-05  0.1555E-05  0.1593E-05  0.1629E-05  0.1668E-05  0.1706E-05  0.1742E-05  0.1779E-05  0.1815E-05  0.1846E-05  0.1876E-05  0.1901E-05  0.1925E-05  0.1943E-05  0.1958E-05  0.1970E-05  0.1976E-05  0.1978E-05  0.1974E-05  0.1965E-05  0.1950E-05  0.1931E-05  0.1906E-05  0.1877E-05  0.1842E-05  0.1804E-05  0.1758E-05  0.1704E-05  0.1652E-05  0.1601E-05  0.1547E-05  0.1489E-05  0.1431E-05  0.1369E-05  0.1307E-05  0.1243E-05  0.1180E-05  0.1116E-05  0.1054E-05  0.9912E-06
  0.1483E-05  0.1524E-05  0.1564E-05  0.1599E-05  0.1631E-05  0.1660E-05  0.1684E-05  0.1702E-05  0.1717E-05  0.1730E-05  0.1733E-05  0.1732E-05  0.1729E-05  0.1725E-05  0.1721E-05  0.1716E-05  0.1700E-05  0.1686E-05  0.1671E-05  0.1650E-05  0.1631E-05  0.1610E-05  0.1587E-05  0.1570E-05  0.1547E-05  0.1530E-05  0.1513E-05  0.1502E-05  0.1495E-05  0.1492E-05  0.1488E-05  0.1494E-05  0.1504E-05  0.1519E-05  0.1535E-05  0.1558E-05  0.1585E-05  0.1613E-05  0.1646E-05  0.1682E-05  0.1718E-05  0.1758E-05  0.1798E-05  0.1838E-05  0.1879E-05  0.1917E-05  0.1957E-05  0.1992E-05  0.2027E-05  0.2059E-05  0.2086E-05  0.2111E-05  0.2129E-05  0.2145E-05  0.2155E-05  0.2161E-05  0.2162E-05  0.2157E-05  0.2146E-05  0.2129E-05  0.2107E-05  0.2079E-05  0.2046E-05  0.2009E-05  0.1966E-05  0.1919E-05  0.1862E-05  0.1801E-05  0.1744E-05  0.1685E-05  0.1624E-05  0.1560E-05  0.1494E-05  0.1428E-05  0.1358E-05  0.1291E-05  0.1220E-05  0.1154E-05  0.1085E-05
  0.1693E-05  0.1740E-05  0.1784E-05  0.1824E-05  0.1859E-05  0.1890E-05  0.1916E-05  0.1938E-05  0.1956E-05  0.1967E-05  0.1974E-05  0.1974E-05  0.1970E-05  0.1965E-05  0.1961E-05  0.1949E-05  0.1929E-05  0.1913E-05  0.1889E-05  0.1864E-05  0.1842E-05  0.1812E-05  0.1787E-05  0.1758E-05  0.1733E-05  0.1709E-05  0.1692E-05  0.1678E-05  0.1668E-05  0.1660E-05  0.1659E-05  0.1658E-05  0.1668E-05  0.1682E-05  0.1701E-05  0.1722E-05  0.1750E-05  0.1782E-05  0.1814E-05  0.1852E-05  0.1893E-05  0.1932E-05  0.1976E-05  0.2017E-05  0.2061E-05  0.2104E-05  0.2143E-05  0.2182E-05  0.2217E-05  0.2250E-05  0.2278E-05  0.2304E-05  0.2323E-05  0.2338E-05  0.2347E-05  0.2352E-05  0.2352E-05  0.2345E-05  0.2333E-05  0.2314E-05  0.2289E-05  0.2258E-05  0.2221E-05  0.2180E-05  0.2133E-05  0.2082E-05  0.2026E-05  0.1960E-05  0.1891E-05  0.1827E-05  0.1761E-05  0.1692E-05  0.1622E-05  0.1549E-05  0.1477E-05  0.1401E-05  0.1329E-05  0.1253E-05  0.1183E-05
  0.1924E-05  0.1977E-05  0.2026E-05  0.2071E-05  0.2110E-05  0.2145E-05  0.2176E-05  0.2202E-05  0.2220E-05  0.2231E-05  0.2237E-05  0.2236E-05  0.2232E-05  0.2232E-05  0.2225E-05  0.2203E-05  0.2185E-05  0.2158E-05  0.2132E-05  0.2104E-05  0.2065E-05  0.2033E-05  0.1997E-05  0.1965E-05  0.1936E-05  0.1907E-05  0.1885E-05  0.1865E-05  0.1854E-05  0.1843E-05  0.1838E-05  0.1841E-05  0.1846E-05  0.1857E-05  0.1876E-05  0.1900E-05  0.1926E-05  0.1959E-05  0.1993E-05  0.2032E-05  0.2075E-05  0.2116E-05  0.2162E-05  0.2208E-05  0.2251E-05  0.2296E-05  0.2337E-05  0.2378E-05  0.2414E-05  0.2449E-05  0.2478E-05  0.2504E-05  0.2523E-05  0.2538E-05  0.2546E-05  0.2549E-05  0.2547E-05  0.2539E-05  0.2524E-05  0.2502E-05  0.2474E-05  0.2440E-05  0.2400E-05  0.2355E-05  0.2304E-05  0.2248E-05  0.2188E-05  0.2120E-05  0.2044E-05  0.1972E-05  0.1901E-05  0.1827E-05  0.1751E-05  0.1674E-05  0.1597E-05  0.1517E-05  0.1440E-05  0.1360E-05  0.1280E-05
  0.2176E-05  0.2235E-05  0.2291E-05  0.2340E-05  0.2386E-05  0.2427E-05  0.2461E-05  0.2489E-05  0.2508E-05  0.2522E-05  0.2526E-05  0.2523E-05  0.2522E-05  0.2518E-05  0.2506E-05  0.2487E-05  0.2463E-05  0.2431E-05  0.2397E-05  0.2352E-05  0.2313E-05  0.2269E-05  0.2229E-05  0.2191E-05  0.2153E-05  0.2124E-05  0.2092E-05  0.2072E-05  0.2050E-05  0.2041E-05  0.2033E-05  0.2030E-05  0.2037E-05  0.2047E-05  0.2062E-05  0.2086E-05  0.2113E-05  0.2146E-05  0.2184E-05  0.2222E-05  0.2266E-05  0.2309E-05  0.2357E-05  0.2402E-05  0.2450E-05  0.2494E-05  0.2539E-05  0.2581E-05  0.2619E-05  0.2654E-05  0.2683E-05  0.2707E-05  0.2728E-05  0.2741E-05  0.2750E-05  0.2750E-05  0.2747E-05  0.2737E-05  0.2719E-05  0.2695E-05  0.2664E-05  0.2626E-05  0.2582E-05  0.2532E-05  0.2477E-05  0.2417E-05  0.2351E-05  0.2282E-05  0.2202E-05  0.2120E-05  0.2043E-05  0.1964E-05  0.1883E-05  0.1800E-05  0.1717E-05  0.1634E-05  0.1550E-05  0.1468E-05  0.1384E-05
  0.2447E-05  0.2514E-05  0.2575E-05  0.2634E-05  0.2686E-05  0.2731E-05  0.2769E-05  0.2798E-05  0.2820E-05  0.2834E-05  0.2839E-05  0.2836E-05  0.2837E-05  0.2827E-05  0.2813E-05  0.2789E-05  0.2761E-05  0.2724E-05  0.2677E-05  0.2628E-05  0.2579E-05  0.2527E-05  0.2479E-05  0.2431E-05  0.2392E-05  0.2349E-05  0.2318E-05  0.2285E-05  0.2266E-05  0.2245E-05  0.2239E-05  0.2234E-05  0.2236E-05  0.2247E-05  0.2261E-05  0.2284E-05  0.2311E-05  0.2342E-05  0.2380E-05  0.2420E-05  0.2465E-05  0.2510E-05  0.2558E-05  0.2607E-05  0.2654E-05  0.2702E-05  0.2746E-05  0.2790E-05  0.2828E-05  0.2864E-05  0.2893E-05  0.2917E-05  0.2937E-05  0.2949E-05  0.2957E-05  0.2955E-05  0.2949E-05  0.2936E-05  0.2916E-05  0.2889E-05  0.2854E-05  0.2813E-05  0.2765E-05  0.2711E-05  0.2651E-05  0.2586E-05  0.2516E-05  0.2441E-05  0.2361E-05  0.2272E-05  0.2185E-05  0.2101E-05  0.2015E-05  0.1927E-05  0.1839E-05  0.1751E-05  0.1662E-05  0.1574E-05  0.1487E-05
  0.2781E-05  0.2861E-05  0.2932E-05  0.2999E-05  0.3050E-05  0.3085E-05  0.3105E-05  0.3133E-05  0.3156E-05  0.3170E-05  0.3175E-05  0.3175E-05  0.3175E-05  0.3165E-05  0.3144E-05  0.3116E-05  0.3078E-05  0.3031E-05  0.2979E-05  0.2924E-05  0.2863E-05  0.2805E-05  0.2746E-05  0.2695E-05  0.2640E-05  0.2597E-05  0.2552E-05  0.2521E-05  0.2489E-05  0.2471E-05  0.2453E-05  0.2450E-05  0.2449E-05  0.2455E-05  0.2470E-05  0.2490E-05  0.2518E-05  0.2546E-05  0.2585E-05  0.2625E-05  0.2671E-05  0.2719E-05  0.2766E-05  0.2817E-05  0.2864E-05  0.2913E-05  0.2958E-05  0.3002E-05  0.3041E-05  0.3077E-05  0.3106E-05  0.3129E-05  0.3149E-05  0.3160E-05  0.3164E-05  0.3162E-05  0.3152E-05  0.3136E-05  0.3114E-05  0.3083E-05  0.3045E-05  0.3000E-05  0.2948E-05  0.2889E-05  0.2825E-05  0.2755E-05  0.2680E-05  0.2601E-05  0.2517E-05  0.2425E-05  0.2329E-05  0.2238E-05  0.2147E-05  0.2054E-05  0.1961E-05  0.1867E-05  0.1774E-05  0.1682E-05  0.1589E-05
  0.3149E-05  0.3246E-05  0.3337E-05  0.3419E-05  0.3483E-05  0.3545E-05  0.3598E-05  0.3634E-05  0.3656E-05  0.3654E-05  0.3634E-05  0.3613E-05  0.3575E-05  0.3536E-05  0.3496E-05  0.3460E-05  0.3412E-05  0.3358E-05  0.3299E-05  0.3236E-05  0.3171E-05  0.3100E-05  0.3037E-05  0.2968E-05  0.2912E-05  0.2853E-05  0.2809E-05  0.2763E-05  0.2732E-05  0.2701E-05  0.2685E-05  0.2670E-05  0.2671E-05  0.2672E-05  0.2685E-05  0.2706E-05  0.2730E-05  0.2760E-05  0.2796E-05  0.2836E-05  0.2882E-05  0.2928E-05  0.2979E-05  0.3027E-05  0.3078E-05  0.3125E-05  0.3173E-05  0.3215E-05  0.3255E-05  0.3289E-05  0.3320E-05  0.3342E-05  0.3361E-05  0.3370E-05  0.3372E-05  0.3369E-05  0.3355E-05  0.3336E-05  0.3310E-05  0.3276E-05  0.3234E-05  0.3185E-05  0.3129E-05  0.3066E-05  0.2997E-05  0.2923E-05  0.2843E-05  0.2758E-05  0.2670E-05  0.2576E-05  0.2474E-05  0.2374E-05  0.2278E-05  0.2180E-05  0.2082E-05  0.1984E-05  0.1886E-05  0.1788E-05  0.1692E-05
  0.3547E-05  0.3659E-05  0.3761E-05  0.3855E-05  0.3938E-05  0.4003E-05  0.4059E-05  0.4105E-05  0.4137E-05  0.4154E-05  0.4159E-05  0.4150E-05  0.4123E-05  0.4081E-05  0.4026E-05  0.3956E-05  0.3881E-05  0.3796E-05  0.3707E-05  0.3608E-05  0.3511E-05  0.3421E-05  0.3337E-05  0.3267E-05  0.3192E-05  0.3133E-05  0.3071E-05  0.3025E-05  0.2979E-05  0.2950E-05  0.2921E-05  0.2906E-05  0.2898E-05  0.2900E-05  0.2908E-05  0.2926E-05  0.2949E-05  0.2978E-05  0.3015E-05  0.3052E-05  0.3098E-05  0.3144E-05  0.3194E-05  0.3243E-05  0.3294E-05  0.3341E-05  0.3389E-05  0.3430E-05  0.3471E-05  0.3504E-05  0.3533E-05  0.3555E-05  0.3571E-05  0.3579E-05  0.3579E-05  0.3571E-05  0.3557E-05  0.3533E-05  0.3504E-05  0.3466E-05  0.3421E-05  0.3368E-05  0.3307E-05  0.3240E-05  0.3166E-05  0.3087E-05  0.3002E-05  0.2913E-05  0.2820E-05  0.2723E-05  0.2618E-05  0.2510E-05  0.2407E-05  0.2305E-05  0.2201E-05  0.2098E-05  0.1996E-05  0.1894E-05  0.1793E-05
  0.3989E-05  0.4108E-05  0.4221E-05  0.4325E-05  0.4421E-05  0.4503E-05  0.4570E-05  0.4622E-05  0.4654E-05  0.4671E-05  0.4677E-05  0.4679E-05  0.4662E-05  0.4619E-05  0.4551E-05  0.4470E-05  0.4378E-05  0.4281E-05  0.4178E-05  0.4068E-05  0.3956E-05  0.3845E-05  0.3737E-05  0.3627E-05  0.3526E-05  0.3434E-05  0.3360E-05  0.3293E-05  0.3246E-05  0.3201E-05  0.3171E-05  0.3148E-05  0.3137E-05  0.3133E-05  0.3137E-05  0.3153E-05  0.3173E-05  0.3200E-05  0.3236E-05  0.3274E-05  0.3316E-05  0.3362E-05  0.3412E-05  0.3460E-05  0.3511E-05  0.3558E-05  0.3602E-05  0.3646E-05  0.3683E-05  0.3717E-05  0.3743E-05  0.3765E-05  0.3778E-05  0.3783E-05  0.3783E-05  0.3772E-05  0.3755E-05  0.3728E-05  0.3694E-05  0.3653E-05  0.3603E-05  0.3546E-05  0.3482E-05  0.3410E-05  0.3332E-05  0.3248E-05  0.3159E-05  0.3065E-05  0.2967E-05  0.2865E-05  0.2758E-05  0.2644E-05  0.2534E-05  0.2427E-05  0.2319E-05  0.2211E-05  0.2104E-05  0.1998E-05  0.1893E-05
  0.4524E-05  0.4663E-05  0.4791E-05  0.4906E-05  0.5008E-05  0.5096E-05  0.5166E-05  0.5219E-05  0.5252E-05  0.5268E-05  0.5275E-05  0.5266E-05  0.5235E-05  0.5182E-05  0.5112E-05  0.5016E-05  0.4909E-05  0.4790E-05  0.4667E-05  0.4537E-05  0.4404E-05  0.4274E-05  0.4144E-05  0.4017E-05  0.3896E-05  0.3787E-05  0.3683E-05  0.3601E-05  0.3526E-05  0.3470E-05  0.3427E-05  0.3397E-05  0.3395E-05  0.6008E-05  0.6581E-05  0.3383E-05  0.3401E-05  0.3428E-05  0.3459E-05  0.3495E-05  0.3539E-05  0.3580E-05  0.3629E-05  0.3677E-05  0.3726E-05  0.3772E-05  0.3815E-05  0.3858E-05  0.3893E-05  0.3926E-05  0.3950E-05  0.3970E-05  0.3981E-05  0.3984E-05  0.3979E-05  0.3967E-05  0.3945E-05  0.3917E-05  0.3878E-05  0.3833E-05  0.3780E-05  0.3719E-05  0.3650E-05  0.3574E-05  0.3492E-05  0.3403E-05  0.3309E-05  0.3211E-05  0.3108E-05  0.3002E-05  0.2892E-05  0.2776E-05  0.2658E-05  0.2545E-05  0.2433E-05  0.2321E-05  0.2210E-05  0.2099E-05  0.1990E-05
  0.5090E-05  0.5248E-05  0.5392E-05  0.5523E-05  0.5638E-05  0.5734E-05  0.5810E-05  0.5868E-05  0.5904E-05  0.5919E-05  0.5927E-05  0.5909E-05  0.5863E-05  0.5796E-05  0.5712E-05  0.5611E-05  0.5492E-05  0.5351E-05  0.5206E-05  0.5052E-05  0.4897E-05  0.4740E-05  0.4588E-05  0.4437E-05  0.4294E-05  0.4158E-05  0.4037E-05  0.3927E-05  0.3835E-05  0.3758E-05  0.3699E-05  0.4589E-05  0.2185E-04  0.5558E-04  0.2813E-04  0.3773E-05  0.3631E-05  0.3654E-05  0.3683E-05  0.3717E-05  0.3758E-05  0.3800E-05  0.3845E-05  0.3891E-05  0.3938E-05  0.3983E-05  0.4025E-05  0.4063E-05  0.4099E-05  0.4128E-05  0.4152E-05  0.4168E-05  0.4176E-05  0.4179E-05  0.4171E-05  0.4156E-05  0.4131E-05  0.4097E-05  0.4055E-05  0.4006E-05  0.3950E-05  0.3885E-05  0.3812E-05  0.3732E-05  0.3645E-05  0.3553E-05  0.3455E-05  0.3352E-05  0.3245E-05  0.3134E-05  0.3021E-05  0.2903E-05  0.2779E-05  0.2660E-05  0.2544E-05  0.2428E-05  0.2312E-05  0.2198E-05  0.2085E-05
  0.5712E-05  0.5893E-05  0.6057E-05  0.6206E-05  0.6337E-05  0.6447E-05  0.6535E-05  0.6600E-05  0.6640E-05  0.6659E-05  0.6662E-05  0.6630E-05  0.6570E-05  0.6488E-05  0.6385E-05  0.6264E-05  0.6127E-05  0.5977E-05  0.5802E-05  0.5620E-05  0.5437E-05  0.5250E-05  0.5065E-05  0.4892E-05  0.4721E-05  0.4561E-05  0.4412E-05  0.4278E-05  0.4160E-05  0.4241E-05  0.7570E-05  0.3623E-04  0.1233E-03  0.7072E-04  0.6397E-04  0.4683E-05  0.3884E-05  0.3878E-05  0.3905E-05  0.3936E-05  0.3972E-05  0.4014E-05  0.4056E-05  0.4100E-05  0.4143E-05  0.4185E-05  0.4228E-05  0.4264E-05  0.4298E-05  0.4324E-05  0.4346E-05  0.4359E-05  0.4365E-05  0.4362E-05  0.4353E-05  0.4334E-05  0.4305E-05  0.4270E-05  0.4224E-05  0.4171E-05  0.4110E-05  0.4042E-05  0.3965E-05  0.3881E-05  0.3791E-05  0.3694E-05  0.3592E-05  0.3486E-05  0.3375E-05  0.3260E-05  0.3143E-05  0.3023E-05  0.2896E-05  0.2770E-05  0.2650E-05  0.2530E-05  0.2411E-05  0.2293E-05  0.2177E-05
  0.6407E-05  0.6612E-05  0.6803E-05  0.6974E-05  0.7125E-05  0.7254E-05  0.7357E-05  0.7431E-05  0.7476E-05  0.7503E-05  0.7496E-05  0.7452E-05  0.7379E-05  0.7278E-05  0.7153E-05  0.7006E-05  0.6840E-05  0.6658E-05  0.6465E-05  0.6248E-05  0.6031E-05  0.5810E-05  0.5597E-05  0.5384E-05  0.5180E-05  0.4991E-05  0.4811E-05  0.4650E-05  0.5036E-05  0.1168E-04  0.4586E-04  0.1409E-03  0.1735E-03  0.8378E-04  0.9638E-04  0.1065E-04  0.4184E-05  0.4105E-05  0.4124E-05  0.4151E-05  0.4184E-05  0.4223E-05  0.4262E-05  0.4302E-05  0.4343E-05  0.4383E-05  0.4420E-05  0.4456E-05  0.4485E-05  0.4511E-05  0.4528E-05  0.4539E-05  0.4543E-05  0.4538E-05  0.4526E-05  0.4501E-05  0.4471E-05  0.4431E-05  0.4383E-05  0.4325E-05  0.4261E-05  0.4189E-05  0.4109E-05  0.4022E-05  0.3928E-05  0.3828E-05  0.3722E-05  0.3612E-05  0.3497E-05  0.3379E-05  0.3259E-05  0.3136E-05  0.3008E-05  0.2876E-05  0.2750E-05  0.2628E-05  0.2505E-05  0.2384E-05  0.2265E-05
  0.7172E-05  0.7409E-05  0.7630E-05  0.7831E-05  0.8009E-05  0.8159E-05  0.8279E-05  0.8369E-05  0.8426E-05  0.8457E-05  0.8441E-05  0.8389E-05  0.8302E-05  0.8183E-05  0.8032E-05  0.7855E-05  0.7655E-05  0.7434E-05  0.7199E-05  0.6955E-05  0.6693E-05  0.6431E-05  0.6172E-05  0.5921E-05  0.5681E-05  0.5451E-05  0.5381E-05  0.6350E-05  0.1552E-04  0.5029E-04  0.1388E-03  0.2284E-03  0.1573E-03  0.1013E-03  0.1214E-03  0.2231E-04  0.4783E-05  0.4343E-05  0.4338E-05  0.4361E-05  0.4389E-05  0.4422E-05  0.4460E-05  0.4497E-05  0.4534E-05  0.4570E-05  0.4605E-05  0.4638E-05  0.4664E-05  0.4685E-05  0.4699E-05  0.4709E-05  0.4708E-05  0.4702E-05  0.4685E-05  0.4659E-05  0.4626E-05  0.4580E-05  0.4529E-05  0.4468E-05  0.4401E-05  0.4326E-05  0.4243E-05  0.4152E-05  0.4055E-05  0.3952E-05  0.3843E-05  0.3729E-05  0.3612E-05  0.3491E-05  0.3367E-05  0.3242E-05  0.3113E-05  0.2977E-05  0.2846E-05  0.2720E-05  0.2595E-05  0.2472E-05  0.2349E-05
  0.7993E-05  0.8272E-05  0.8531E-05  0.8767E-05  0.8976E-05  0.9154E-05  0.9300E-05  0.9408E-05  0.9483E-05  0.9513E-05  0.9498E-05  0.9441E-05  0.9343E-05  0.9205E-05  0.9031E-05  0.8821E-05  0.8582E-05  0.8318E-05  0.8035E-05  0.7738E-05  0.7434E-05  0.7117E-05  0.6810E-05  0.6509E-05  0.6220E-05  0.6286E-05  0.8346E-05  0.1860E-04  0.5210E-04  0.1303E-03  0.2342E-03  0.2380E-03  0.1393E-03  0.1176E-03  0.1394E-03  0.3718E-04  0.5711E-05  0.4592E-05  0.4548E-05  0.4561E-05  0.4585E-05  0.4613E-05  0.4647E-05  0.4680E-05  0.4713E-05  0.4744E-05  0.4777E-05  0.4804E-05  0.4827E-05  0.4847E-05  0.4858E-05  0.4864E-05  0.4861E-05  0.4849E-05  0.4829E-05  0.4802E-05  0.4765E-05  0.4718E-05  0.4664E-05  0.4598E-05  0.4529E-05  0.4451E-05  0.4365E-05  0.4272E-05  0.4172E-05  0.4066E-05  0.3954E-05  0.3838E-05  0.3718E-05  0.3594E-05  0.3468E-05  0.3340E-05  0.3209E-05  0.3073E-05  0.2937E-05  0.2808E-05  0.2680E-05  0.2554E-05  0.2429E-05
  0.8855E-05  0.9182E-05  0.9487E-05  0.9765E-05  0.1001E-04  0.1023E-04  0.1040E-04  0.1054E-04  0.1063E-04  0.1067E-04  0.1066E-04  0.1060E-04  0.1050E-04  0.1034E-04  0.1014E-04  0.9905E-05  0.9628E-05  0.9318E-05  0.8983E-05  0.8629E-05  0.8263E-05  0.7889E-05  0.7515E-05  0.7157E-05  0.7353E-05  0.1030E-04  0.2132E-04  0.5272E-04  0.1214E-03  0.2198E-03  0.2778E-03  0.2079E-03  0.1334E-03  0.1324E-03  0.1524E-03  0.5286E-04  0.8256E-05  0.4926E-05  0.4753E-05  0.4749E-05  0.4769E-05  0.4792E-05  0.4819E-05  0.4847E-05  0.4879E-05  0.4905E-05  0.4934E-05  0.4956E-05  0.4977E-05  0.4992E-05  0.5002E-05  0.5003E-05  0.4996E-05  0.4984E-05  0.4961E-05  0.4929E-05  0.4889E-05  0.4841E-05  0.4783E-05  0.4717E-05  0.4643E-05  0.4563E-05  0.4475E-05  0.4379E-05  0.4277E-05  0.4169E-05  0.4055E-05  0.3937E-05  0.3815E-05  0.3689E-05  0.3561E-05  0.3430E-05  0.3298E-05  0.3161E-05  0.3022E-05  0.2889E-05  0.2759E-05  0.2631E-05  0.2504E-05
  0.9802E-05  0.1017E-04  0.1052E-04  0.1084E-04  0.1111E-04  0.1135E-04  0.1156E-04  0.1172E-04  0.1183E-04  0.1189E-04  0.1189E-04  0.1184E-04  0.1173E-04  0.1157E-04  0.1135E-04  0.1109E-04  0.1077E-04  0.1042E-04  0.1004E-04  0.9628E-05  0.9199E-05  0.8760E-05  0.8419E-05  0.8615E-05  0.1218E-04  0.2343E-04  0.5243E-04  0.1131E-03  0.2017E-03  0.2825E-03  0.2682E-03  0.1791E-03  0.1344E-03  0.1437E-03  0.1618E-03  0.6752E-04  0.1246E-04  0.5485E-05  0.4956E-05  0.4930E-05  0.4937E-05  0.4957E-05  0.4976E-05  0.5002E-05  0.5026E-05  0.5053E-05  0.5073E-05  0.5092E-05  0.5110E-05  0.5121E-05  0.5126E-05  0.5124E-05  0.5116E-05  0.5099E-05  0.5073E-05  0.5041E-05  0.4996E-05  0.4947E-05  0.4886E-05  0.4818E-05  0.4743E-05  0.4661E-05  0.4571E-05  0.4474E-05  0.4370E-05  0.4260E-05  0.4145E-05  0.4025E-05  0.3901E-05  0.3774E-05  0.3644E-05  0.3512E-05  0.3379E-05  0.3242E-05  0.3101E-05  0.2964E-05  0.2832E-05  0.2702E-05  0.2574E-05
  0.1083E-04  0.1127E-04  0.1168E-04  0.1207E-04  0.1238E-04  0.1266E-04  0.1285E-04  0.1298E-04  0.1307E-04  0.1315E-04  0.1317E-04  0.1313E-04  0.1302E-04  0.1285E-04  0.1262E-04  0.1233E-04  0.1199E-04  0.1161E-04  0.1118E-04  0.1072E-04  0.1023E-04  0.9945E-05  0.1016E-04  0.1443E-04  0.2564E-04  0.5187E-04  0.1057E-03  0.1847E-03  0.2692E-03  0.3014E-03  0.2364E-03  0.1635E-03  0.1372E-03  0.1536E-03  0.1688E-03  0.8079E-04  0.1787E-04  0.6262E-05  0.5174E-05  0.5101E-05  0.5094E-05  0.5103E-05  0.5117E-05  0.5139E-05  0.5160E-05  0.5180E-05  0.5195E-05  0.5210E-05  0.5222E-05  0.5229E-05  0.5232E-05  0.5227E-05  0.5215E-05  0.5195E-05  0.5169E-05  0.5133E-05  0.5088E-05  0.5036E-05  0.4972E-05  0.4904E-05  0.4826E-05  0.4743E-05  0.4652E-05  0.4554E-05  0.4449E-05  0.4338E-05  0.4222E-05  0.4101E-05  0.3976E-05  0.3848E-05  0.3717E-05  0.3584E-05  0.3450E-05  0.3314E-05  0.3172E-05  0.3032E-05  0.2898E-05  0.2767E-05  0.2637E-05
  0.1184E-04  0.1236E-04  0.1284E-04  0.1329E-04  0.1368E-04  0.1402E-04  0.1428E-04  0.1449E-04  0.1460E-04  0.1458E-04  0.1451E-04  0.1441E-04  0.1431E-04  0.1414E-04  0.1390E-04  0.1360E-04  0.1324E-04  0.1284E-04  0.1245E-04  0.1210E-04  0.1193E-04  0.1221E-04  0.1653E-04  0.2752E-04  0.5160E-04  0.1000E-03  0.1697E-03  0.2514E-03  0.3090E-03  0.2867E-03  0.2078E-03  0.1593E-03  0.1415E-03  0.1626E-03  0.1751E-03  0.9294E-04  0.2439E-04  0.7353E-05  0.5513E-05  0.5313E-05  0.5282E-05  0.5284E-05  0.5297E-05  0.5318E-05  0.5337E-05  0.5364E-05  0.5378E-05  0.5384E-05  0.5389E-05  0.5390E-05  0.5381E-05  0.5363E-05  0.5342E-05  0.5306E-05  0.5268E-05  0.5220E-05  0.5166E-05  0.5110E-05  0.5042E-05  0.4971E-05  0.4892E-05  0.4808E-05  0.4716E-05  0.4618E-05  0.4512E-05  0.4401E-05  0.4285E-05  0.4163E-05  0.4038E-05  0.3910E-05  0.3778E-05  0.3645E-05  0.3510E-05  0.3374E-05  0.3233E-05  0.3092E-05  0.2956E-05  0.2824E-05  0.2693E-05
  0.1288E-04  0.1347E-04  0.1404E-04  0.1455E-04  0.1500E-04  0.1540E-04  0.1571E-04  0.1596E-04  0.1612E-04  0.1619E-04  0.1615E-04  0.1602E-04  0.1576E-04  0.1546E-04  0.1515E-04  0.1484E-04  0.1448E-04  0.1412E-04  0.1380E-04  0.1376E-04  0.1458E-04  0.1913E-04  0.2945E-04  0.5150E-04  0.9459E-04  0.1575E-03  0.2327E-03  0.3014E-03  0.3171E-03  0.2581E-03  0.1905E-03  0.1613E-03  0.1487E-03  0.1711E-03  0.1808E-03  0.1040E-03  0.3206E-04  0.8983E-05  0.6336E-05  0.5699E-05  0.5558E-05  0.5525E-05  0.5515E-05  0.5515E-05  0.5522E-05  0.5525E-05  0.5527E-05  0.5527E-05  0.5519E-05  0.5510E-05  0.5493E-05  0.5473E-05  0.5444E-05  0.5406E-05  0.5363E-05  0.5308E-05  0.5247E-05  0.5181E-05  0.5106E-05  0.5028E-05  0.4943E-05  0.4856E-05  0.4764E-05  0.4666E-05  0.4560E-05  0.4449E-05  0.4333E-05  0.4212E-05  0.4087E-05  0.3959E-05  0.3827E-05  0.3694E-05  0.3559E-05  0.3424E-05  0.3285E-05  0.3142E-05  0.3004E-05  0.2872E-05  0.2741E-05
  0.1407E-04  0.1475E-04  0.1537E-04  0.1597E-04  0.1646E-04  0.1690E-04  0.1722E-04  0.1750E-04  0.1769E-04  0.1778E-04  0.1778E-04  0.1767E-04  0.1743E-04  0.1710E-04  0.1672E-04  0.1623E-04  0.1572E-04  0.1539E-04  0.1537E-04  0.1668E-04  0.2064E-04  0.3058E-04  0.5022E-04  0.8740E-04  0.1436E-03  0.2144E-03  0.2851E-03  0.3267E-03  0.3010E-03  0.2305E-03  0.1841E-03  0.1647E-03  0.1556E-03  0.1791E-03  0.1861E-03  0.1145E-03  0.4065E-04  0.1305E-04  0.7563E-05  0.6312E-05  0.6000E-05  0.5847E-05  0.5773E-05  0.5730E-05  0.5716E-05  0.5703E-05  0.5692E-05  0.5677E-05  0.5657E-05  0.5637E-05  0.5608E-05  0.5577E-05  0.5538E-05  0.5493E-05  0.5443E-05  0.5380E-05  0.5315E-05  0.5242E-05  0.5164E-05  0.5080E-05  0.4986E-05  0.4894E-05  0.4799E-05  0.4698E-05  0.4593E-05  0.4483E-05  0.4367E-05  0.4247E-05  0.4123E-05  0.3995E-05  0.3865E-05  0.3732E-05  0.3598E-05  0.3463E-05  0.3325E-05  0.3184E-05  0.3045E-05  0.2912E-05  0.2782E-05
  0.1542E-04  0.1624E-04  0.1701E-04  0.1769E-04  0.1833E-04  0.1886E-04  0.1921E-04  0.1950E-04  0.1963E-04  0.1965E-04  0.1959E-04  0.1943E-04  0.1921E-04  0.1880E-04  0.1838E-04  0.1787E-04  0.1752E-04  0.1728E-04  0.1828E-04  0.2226E-04  0.3104E-04  0.4893E-04  0.8106E-04  0.1296E-03  0.1923E-03  0.2621E-03  0.3193E-03  0.3268E-03  0.2738E-03  0.2120E-03  0.1840E-03  0.1684E-03  0.1629E-03  0.1863E-03  0.1914E-03  0.1244E-03  0.4986E-04  0.1754E-04  0.9394E-05  0.7261E-05  0.6663E-05  0.6332E-05  0.6139E-05  0.6018E-05  0.5960E-05  0.5921E-05  0.5888E-05  0.5851E-05  0.5814E-05  0.5778E-05  0.5735E-05  0.5689E-05  0.5636E-05  0.5580E-05  0.5518E-05  0.5449E-05  0.5376E-05  0.5294E-05  0.5212E-05  0.5119E-05  0.5023E-05  0.4925E-05  0.4825E-05  0.4721E-05  0.4612E-05  0.4502E-05  0.4388E-05  0.4269E-05  0.4146E-05  0.4019E-05  0.3890E-05  0.3759E-05  0.3626E-05  0.3492E-05  0.3356E-05  0.3216E-05  0.3078E-05  0.2944E-05  0.2814E-05
  0.1708E-04  0.1807E-04  0.1901E-04  0.1984E-04  0.2062E-04  0.2129E-04  0.2186E-04  0.2225E-04  0.2249E-04  0.2259E-04  0.2248E-04  0.2231E-04  0.2197E-04  0.2153E-04  0.2112E-04  0.2080E-04  0.2056E-04  0.2172E-04  0.2510E-04  0.3316E-04  0.4894E-04  0.7660E-04  0.1193E-03  0.1741E-03  0.2374E-03  0.2988E-03  0.3325E-03  0.3091E-03  0.2479E-03  0.2027E-03  0.1863E-03  0.1728E-03  0.1691E-03  0.1928E-03  0.1961E-03  0.1336E-03  0.5960E-04  0.2308E-04  0.1182E-04  0.8891E-05  0.7669E-05  0.7056E-05  0.6662E-05  0.6414E-05  0.6288E-05  0.6200E-05  0.6135E-05  0.6070E-05  0.6006E-05  0.5944E-05  0.5883E-05  0.5816E-05  0.5746E-05  0.5676E-05  0.5596E-05  0.5515E-05  0.5432E-05  0.5338E-05  0.5247E-05  0.5150E-05  0.5050E-05  0.4947E-05  0.4839E-05  0.4732E-05  0.4622E-05  0.4511E-05  0.4396E-05  0.4278E-05  0.4157E-05  0.4032E-05  0.3904E-05  0.3774E-05  0.3643E-05  0.3511E-05  0.3377E-05  0.3239E-05  0.3102E-05  0.2968E-05  0.2840E-05
  0.1920E-04  0.2045E-04  0.2164E-04  0.2271E-04  0.2371E-04  0.2461E-04  0.2534E-04  0.2593E-04  0.2633E-04  0.2664E-04  0.2679E-04  0.2673E-04  0.2655E-04  0.2642E-04  0.2630E-04  0.2682E-04  0.2781E-04  0.3100E-04  0.3738E-04  0.5141E-04  0.7515E-04  0.1131E-03  0.1609E-03  0.2174E-03  0.2764E-03  0.3212E-03  0.3248E-03  0.2823E-03  0.2289E-03  0.2012E-03  0.1895E-03  0.1770E-03  0.1746E-03  0.1979E-03  0.1999E-03  0.1418E-03  0.6954E-04  0.2977E-04  0.1530E-04  0.1123E-04  0.9186E-05  0.8149E-05  0.7458E-05  0.6978E-05  0.6720E-05  0.6566E-05  0.6450E-05  0.6342E-05  0.6244E-05  0.6149E-05  0.6060E-05  0.5972E-05  0.5874E-05  0.5783E-05  0.5687E-05  0.5586E-05  0.5488E-05  0.5385E-05  0.5279E-05  0.5173E-05  0.5066E-05  0.4959E-05  0.4851E-05  0.4735E-05  0.4622E-05  0.4508E-05  0.4393E-05  0.4275E-05  0.4156E-05  0.4033E-05  0.3907E-05  0.3780E-05  0.3650E-05  0.3520E-05  0.3389E-05  0.3253E-05  0.3116E-05  0.2984E-05  0.2857E-05
  0.2206E-04  0.2363E-04  0.2512E-04  0.2659E-04  0.2791E-04  0.2910E-04  0.3018E-04  0.3111E-04  0.3190E-04  0.3257E-04  0.3304E-04  0.3354E-04  0.3402E-04  0.3478E-04  0.3593E-04  0.3780E-04  0.4161E-04  0.4769E-04  0.5890E-04  0.7781E-04  0.1109E-03  0.1527E-03  0.2023E-03  0.2561E-03  0.3044E-03  0.3261E-03  0.3028E-03  0.2521E-03  0.2146E-03  0.2031E-03  0.1939E-03  0.1801E-03  0.1780E-03  0.1987E-03  0.1990E-03  0.1461E-03  0.7803E-04  0.3725E-04  0.1998E-04  0.1483E-04  0.1170E-04  0.9821E-05  0.8630E-05  0.7843E-05  0.7336E-05  0.7067E-05  0.6862E-05  0.6692E-05  0.6541E-05  0.6407E-05  0.6280E-05  0.6155E-05  0.6030E-05  0.5912E-05  0.5792E-05  0.5668E-05  0.5551E-05  0.5431E-05  0.5312E-05  0.5194E-05  0.5078E-05  0.4963E-05  0.4849E-05  0.4729E-05  0.4614E-05  0.4497E-05  0.4380E-05  0.4264E-05  0.4144E-05  0.4024E-05  0.3901E-05  0.3775E-05  0.3648E-05  0.3520E-05  0.3391E-05  0.3260E-05  0.3125E-05  0.2993E-05  0.2867E-05
  0.2592E-04  0.2795E-04  0.2993E-04  0.3187E-04  0.3368E-04  0.3542E-04  0.3702E-04  0.3853E-04  0.3984E-04  0.4123E-04  0.4255E-04  0.4405E-04  0.4573E-04  0.4777E-04  0.5083E-04  0.5563E-04  0.6199E-04  0.7171E-04  0.8777E-04  0.1132E-03  0.1489E-03  0.1939E-03  0.2414E-03  0.2885E-03  0.3203E-03  0.3158E-03  0.2751E-03  0.2293E-03  0.2086E-03  0.2063E-03  0.1975E-03  0.1824E-03  0.1804E-03  0.1989E-03  0.1976E-03  0.1487E-03  0.8408E-04  0.4302E-04  0.2513E-04  0.1844E-04  0.1472E-04  0.1217E-04  0.1041E-04  0.9112E-05  0.8310E-05  0.7834E-05  0.7474E-05  0.7193E-05  0.6955E-05  0.6748E-05  0.6561E-05  0.6388E-05  0.6226E-05  0.6071E-05  0.5915E-05  0.5767E-05  0.5625E-05  0.5483E-05  0.5347E-05  0.5216E-05  0.5086E-05  0.4962E-05  0.4842E-05  0.4717E-05  0.4598E-05  0.4479E-05  0.4361E-05  0.4242E-05  0.4125E-05  0.4004E-05  0.3884E-05  0.3762E-05  0.3637E-05  0.3512E-05  0.3386E-05  0.3257E-05  0.3124E-05  0.2996E-05  0.2871E-05
  0.3103E-04  0.3368E-04  0.3636E-04  0.3902E-04  0.4163E-04  0.4406E-04  0.4654E-04  0.4889E-04  0.5136E-04  0.5368E-04  0.5638E-04  0.5930E-04  0.6252E-04  0.6660E-04  0.7212E-04  0.7925E-04  0.8945E-04  0.1031E-03  0.1229E-03  0.1499E-03  0.1858E-03  0.2306E-03  0.2793E-03  0.3147E-03  0.3251E-03  0.2984E-03  0.2510E-03  0.2161E-03  0.2076E-03  0.2069E-03  0.1960E-03  0.1802E-03  0.1809E-03  0.1989E-03  0.1960E-03  0.1502E-03  0.8847E-04  0.4741E-04  0.2866E-04  0.2133E-04  0.1738E-04  0.1446E-04  0.1235E-04  0.1077E-04  0.9555E-05  0.8851E-05  0.8338E-05  0.7907E-05  0.7552E-05  0.7243E-05  0.6966E-05  0.6723E-05  0.6494E-05  0.6285E-05  0.6083E-05  0.5894E-05  0.5718E-05  0.5546E-05  0.5389E-05  0.5238E-05  0.5095E-05  0.4956E-05  0.4825E-05  0.4699E-05  0.4576E-05  0.4455E-05  0.4335E-05  0.4215E-05  0.4094E-05  0.3976E-05  0.3859E-05  0.3739E-05  0.3618E-05  0.3495E-05  0.3372E-05  0.3246E-05  0.3118E-05  0.2990E-05  0.2867E-05
  0.3712E-04  0.4064E-04  0.4424E-04  0.4782E-04  0.5144E-04  0.5507E-04  0.5854E-04  0.6231E-04  0.6613E-04  0.7010E-04  0.7438E-04  0.7913E-04  0.8450E-04  0.9121E-04  0.9921E-04  0.1094E-03  0.1229E-03  0.1397E-03  0.1621E-03  0.1906E-03  0.2256E-03  0.2668E-03  0.3081E-03  0.3320E-03  0.3238E-03  0.2822E-03  0.2354E-03  0.2116E-03  0.2094E-03  0.2048E-03  0.1912E-03  0.1759E-03  0.1799E-03  0.1987E-03  0.1962E-03  0.1526E-03  0.9277E-04  0.5061E-04  0.3114E-04  0.2317E-04  0.1945E-04  0.1639E-04  0.1413E-04  0.1229E-04  0.1088E-04  0.9968E-05  0.9330E-05  0.8787E-05  0.8307E-05  0.7892E-05  0.7523E-05  0.7187E-05  0.6878E-05  0.6599E-05  0.6332E-05  0.6088E-05  0.5862E-05  0.5650E-05  0.5457E-05  0.5278E-05  0.5111E-05  0.4958E-05  0.4814E-05  0.4676E-05  0.4547E-05  0.4423E-05  0.4299E-05  0.4175E-05  0.4058E-05  0.3942E-05  0.3825E-05  0.3709E-05  0.3591E-05  0.3471E-05  0.3351E-05  0.3229E-05  0.3103E-05  0.2979E-05  0.2857E-05
  0.4366E-04  0.4823E-04  0.5284E-04  0.5760E-04  0.6243E-04  0.6736E-04  0.7234E-04  0.7755E-04  0.8298E-04  0.8879E-04  0.9501E-04  0.1019E-03  0.1099E-03  0.1191E-03  0.1299E-03  0.1432E-03  0.1591E-03  0.1791E-03  0.2028E-03  0.2311E-03  0.2641E-03  0.2985E-03  0.3278E-03  0.3372E-03  0.3129E-03  0.2673E-03  0.2250E-03  0.2069E-03  0.2040E-03  0.1980E-03  0.1848E-03  0.1719E-03  0.1794E-03  0.1990E-03  0.1965E-03  0.1548E-03  0.9689E-04  0.5405E-04  0.3303E-04  0.2440E-04  0.2085E-04  0.1790E-04  0.1556E-04  0.1370E-04  0.1213E-04  0.1104E-04  0.1032E-04  0.9697E-05  0.9143E-05  0.8634E-05  0.8180E-05  0.7760E-05  0.7372E-05  0.7013E-05  0.6681E-05  0.6373E-05  0.6089E-05  0.5828E-05  0.5589E-05  0.5371E-05  0.5170E-05  0.4992E-05  0.4828E-05  0.4675E-05  0.4532E-05  0.4397E-05  0.4268E-05  0.4143E-05  0.4020E-05  0.3901E-05  0.3786E-05  0.3671E-05  0.3556E-05  0.3440E-05  0.3323E-05  0.3205E-05  0.3082E-05  0.2961E-05  0.2842E-05
  0.5016E-04  0.5568E-04  0.6139E-04  0.6737E-04  0.7340E-04  0.7975E-04  0.8624E-04  0.9292E-04  0.1000E-03  0.1076E-03  0.1159E-03  0.1248E-03  0.1348E-03  0.1462E-03  0.1593E-03  0.1747E-03  0.1930E-03  0.2134E-03  0.2374E-03  0.2637E-03  0.2912E-03  0.3152E-03  0.3292E-03  0.3238E-03  0.2946E-03  0.2506E-03  0.2154E-03  0.1991E-03  0.1933E-03  0.1862E-03  0.1753E-03  0.1685E-03  0.1794E-03  0.1989E-03  0.1967E-03  0.1573E-03  0.1009E-03  0.5753E-04  0.3459E-04  0.2511E-04  0.2170E-04  0.1890E-04  0.1664E-04  0.1477E-04  0.1318E-04  0.1195E-04  0.1115E-04  0.1049E-04  0.9899E-05  0.9334E-05  0.8815E-05  0.8331E-05  0.7878E-05  0.7459E-05  0.7063E-05  0.6699E-05  0.6364E-05  0.6048E-05  0.5767E-05  0.5509E-05  0.5271E-05  0.5063E-05  0.4872E-05  0.4699E-05  0.4539E-05  0.4390E-05  0.4251E-05  0.4118E-05  0.3991E-05  0.3867E-05  0.3748E-05  0.3630E-05  0.3515E-05  0.3403E-05  0.3289E-05  0.3174E-05  0.3056E-05  0.2936E-05  0.2821E-05
  0.5597E-04  0.6233E-04  0.6914E-04  0.7616E-04  0.8346E-04  0.9088E-04  0.9870E-04  0.1068E-03  0.1152E-03  0.1242E-03  0.1338E-03  0.1442E-03  0.1557E-03  0.1685E-03  0.1828E-03  0.1986E-03  0.2172E-03  0.2369E-03  0.2582E-03  0.2802E-03  0.3001E-03  0.3138E-03  0.3154E-03  0.3005E-03  0.2688E-03  0.2314E-03  0.2021E-03  0.1870E-03  0.1789E-03  0.1729E-03  0.1656E-03  0.1648E-03  0.1798E-03  0.1999E-03  0.1975E-03  0.1599E-03  0.1054E-03  0.6146E-04  0.3717E-04  0.2619E-04  0.2226E-04  0.1952E-04  0.1733E-04  0.1547E-04  0.1389E-04  0.1266E-04  0.1175E-04  0.1110E-04  0.1048E-04  0.9902E-05  0.9343E-05  0.8819E-05  0.8318E-05  0.7852E-05  0.7415E-05  0.7004E-05  0.6624E-05  0.6270E-05  0.5943E-05  0.5650E-05  0.5382E-05  0.5140E-05  0.4925E-05  0.4729E-05  0.4551E-05  0.4389E-05  0.4237E-05  0.4095E-05  0.3962E-05  0.3835E-05  0.3710E-05  0.3589E-05  0.3474E-05  0.3362E-05  0.3250E-05  0.3138E-05  0.3024E-05  0.2909E-05  0.2795E-05
  0.6067E-04  0.6777E-04  0.7533E-04  0.8320E-04  0.9135E-04  0.9981E-04  0.1086E-03  0.1175E-03  0.1269E-03  0.1367E-03  0.1471E-03  0.1580E-03  0.1702E-03  0.1830E-03  0.1969E-03  0.2123E-03  0.2287E-03  0.2463E-03  0.2638E-03  0.2800E-03  0.2916E-03  0.2964E-03  0.2899E-03  0.2709E-03  0.2414E-03  0.2104E-03  0.1864E-03  0.1721E-03  0.1641E-03  0.1585E-03  0.1553E-03  0.1605E-03  0.1789E-03  0.1999E-03  0.1982E-03  0.1629E-03  0.1102E-03  0.6596E-04  0.4029E-04  0.2763E-04  0.2282E-04  0.2000E-04  0.1775E-04  0.1591E-04  0.1442E-04  0.1310E-04  0.1214E-04  0.1149E-04  0.1088E-04  0.1029E-04  0.9734E-05  0.9185E-05  0.8664E-05  0.8167E-05  0.7700E-05  0.7257E-05  0.6844E-05  0.6460E-05  0.6107E-05  0.5781E-05  0.5485E-05  0.5220E-05  0.4978E-05  0.4763E-05  0.4568E-05  0.4389E-05  0.4226E-05  0.4076E-05  0.3934E-05  0.3799E-05  0.3674E-05  0.3553E-05  0.3432E-05  0.3317E-05  0.3208E-05  0.3098E-05  0.2986E-05  0.2875E-05  0.2765E-05
  0.6398E-04  0.7150E-04  0.7956E-04  0.8790E-04  0.9656E-04  0.1056E-03  0.1148E-03  0.1242E-03  0.1339E-03  0.1439E-03  0.1542E-03  0.1649E-03  0.1763E-03  0.1883E-03  0.2011E-03  0.2143E-03  0.2287E-03  0.2426E-03  0.2556E-03  0.2655E-03  0.2713E-03  0.2694E-03  0.2587E-03  0.2394E-03  0.2132E-03  0.1877E-03  0.1683E-03  0.1559E-03  0.1483E-03  0.1441E-03  0.1451E-03  0.1549E-03  0.1766E-03  0.1989E-03  0.1988E-03  0.1662E-03  0.1160E-03  0.7146E-04  0.4413E-04  0.3013E-04  0.2348E-04  0.2033E-04  0.1797E-04  0.1610E-04  0.1460E-04  0.1332E-04  0.1234E-04  0.1166E-04  0.1109E-04  0.1052E-04  0.9976E-05  0.9425E-05  0.8891E-05  0.8387E-05  0.7901E-05  0.7445E-05  0.7013E-05  0.6607E-05  0.6232E-05  0.5887E-05  0.5571E-05  0.5288E-05  0.5029E-05  0.4793E-05  0.4582E-05  0.4391E-05  0.4216E-05  0.4056E-05  0.3908E-05  0.3770E-05  0.3638E-05  0.3512E-05  0.3393E-05  0.3278E-05  0.3164E-05  0.3055E-05  0.2945E-05  0.2837E-05  0.2731E-05
  0.6572E-04  0.7344E-04  0.8168E-04  0.9006E-04  0.9887E-04  0.1079E-03  0.1174E-03  0.1266E-03  0.1360E-03  0.1455E-03  0.1552E-03  0.1649E-03  0.1747E-03  0.1851E-03  0.1957E-03  0.2069E-03  0.2179E-03  0.2277E-03  0.2365E-03  0.2419E-03  0.2432E-03  0.2377E-03  0.2260E-03  0.2073E-03  0.1862E-03  0.1649E-03  0.1497E-03  0.1387E-03  0.1321E-03  0.1310E-03  0.1354E-03  0.1486E-03  0.1702E-03  0.1897E-03  0.1899E-03  0.1634E-03  0.1207E-03  0.7908E-04  0.5038E-04  0.3390E-04  0.2497E-04  0.2085E-04  0.1816E-04  0.1621E-04  0.1463E-04  0.1337E-04  0.1235E-04  0.1165E-04  0.1111E-04  0.1059E-04  0.1005E-04  0.9536E-05  0.9010E-05  0.8508E-05  0.8021E-05  0.7551E-05  0.7118E-05  0.6704E-05  0.6318E-05  0.5961E-05  0.5631E-05  0.5334E-05  0.5063E-05  0.4816E-05  0.4591E-05  0.4388E-05  0.4204E-05  0.4036E-05  0.3880E-05  0.3736E-05  0.3602E-05  0.3475E-05  0.3352E-05  0.3235E-05  0.3123E-05  0.3013E-05  0.2904E-05  0.2795E-05  0.2693E-05
  0.6596E-04  0.7360E-04  0.8162E-04  0.8991E-04  0.9855E-04  0.1072E-03  0.1161E-03  0.1249E-03  0.1337E-03  0.1422E-03  0.1507E-03  0.1591E-03  0.1674E-03  0.1756E-03  0.1842E-03  0.1920E-03  0.1997E-03  0.2066E-03  0.2111E-03  0.2138E-03  0.2118E-03  0.2058E-03  0.1942E-03  0.1782E-03  0.1608E-03  0.1437E-03  0.1312E-03  0.1219E-03  0.1177E-03  0.1181E-03  0.1252E-03  0.1397E-03  0.1594E-03  0.1755E-03  0.1762E-03  0.1563E-03  0.1220E-03  0.8579E-04  0.5720E-04  0.3856E-04  0.2781E-04  0.2168E-04  0.1854E-04  0.1630E-04  0.1462E-04  0.1326E-04  0.1225E-04  0.1153E-04  0.1097E-04  0.1050E-04  0.1001E-04  0.9507E-05  0.9021E-05  0.8524E-05  0.8054E-05  0.7592E-05  0.7156E-05  0.6748E-05  0.6356E-05  0.5995E-05  0.5661E-05  0.5357E-05  0.5078E-05  0.4822E-05  0.4589E-05  0.4379E-05  0.4187E-05  0.4013E-05  0.3850E-05  0.3702E-05  0.3564E-05  0.3434E-05  0.3312E-05  0.3192E-05  0.3079E-05  0.2970E-05  0.2861E-05  0.2754E-05  0.2651E-05
  0.6477E-04  0.7219E-04  0.7984E-04  0.8774E-04  0.9573E-04  0.1040E-03  0.1121E-03  0.1200E-03  0.1278E-03  0.1352E-03  0.1424E-03  0.1492E-03  0.1558E-03  0.1621E-03  0.1678E-03  0.1733E-03  0.1783E-03  0.1818E-03  0.1845E-03  0.1841E-03  0.1815E-03  0.1749E-03  0.1644E-03  0.1514E-03  0.1374E-03  0.1244E-03  0.1138E-03  0.1067E-03  0.1040E-03  0.1060E-03  0.1140E-03  0.1278E-03  0.1444E-03  0.1572E-03  0.1583E-03  0.1438E-03  0.1177E-03  0.8800E-04  0.6191E-04  0.4300E-04  0.3079E-04  0.2320E-04  0.1902E-04  0.1644E-04  0.1461E-04  0.1316E-04  0.1207E-04  0.1130E-04  0.1075E-04  0.1028E-04  0.9844E-05  0.9391E-05  0.8916E-05  0.8463E-05  0.8006E-05  0.7565E-05  0.7133E-05  0.6739E-05  0.6352E-05  0.5988E-05  0.5659E-05  0.5351E-05  0.5072E-05  0.4811E-05  0.4574E-05  0.4359E-05  0.4161E-05  0.3981E-05  0.3818E-05  0.3665E-05  0.3525E-05  0.3392E-05  0.3268E-05  0.3150E-05  0.3035E-05  0.2926E-05  0.2817E-05  0.2711E-05  0.2611E-05
  0.6251E-04  0.6940E-04  0.7647E-04  0.8379E-04  0.9115E-04  0.9861E-04  0.1058E-03  0.1127E-03  0.1194E-03  0.1258E-03  0.1314E-03  0.1368E-03  0.1418E-03  0.1460E-03  0.1498E-03  0.1535E-03  0.1559E-03  0.1576E-03  0.1579E-03  0.1565E-03  0.1530E-03  0.1468E-03  0.1382E-03  0.1277E-03  0.1169E-03  0.1069E-03  0.9809E-04  0.9313E-04  0.9157E-04  0.9451E-04  0.1015E-03  0.1131E-03  0.1257E-03  0.1354E-03  0.1363E-03  0.1264E-03  0.1072E-03  0.8404E-04  0.6234E-04  0.4505E-04  0.3277E-04  0.2466E-04  0.1973E-04  0.1662E-04  0.1454E-04  0.1298E-04  0.1187E-04  0.1101E-04  0.1046E-04  0.9980E-05  0.9583E-05  0.9175E-05  0.8739E-05  0.8313E-05  0.7896E-05  0.7469E-05  0.7068E-05  0.6671E-05  0.6305E-05  0.5955E-05  0.5626E-05  0.5321E-05  0.5038E-05  0.4783E-05  0.4544E-05  0.4328E-05  0.4127E-05  0.3944E-05  0.3778E-05  0.3624E-05  0.3481E-05  0.3348E-05  0.3223E-05  0.3104E-05  0.2993E-05  0.2881E-05  0.2773E-05  0.2669E-05  0.2568E-05
