DSAA
          79         109
    318.3670    342.0670
   7336.5760   7369.2760
  0.0000E+00  0.1701E-03
  0.0000E+00  0.0000E+00  0.0000E+00  0.0000E+00  0.0000E+00  0.0000E+00  0.0000E+00  0.0000E+00  0.0000E+00  0.0000E+00  0.0000E+00  0.0000E+00  0.0000E+00  0.0000E+00  0.0000E+00  0.0000E+00  0.0000E+00  0.0000E+00  0.0000E+00  0.0000E+00  0.0000E+00  0.0000E+00  0.0000E+00  0.0000E+00  0.0000E+00  0.0000E+00  0.0000E+00  0.0000E+00  0.0000E+00  0.0000E+00  0.0000E+00  0.0000E+00  0.0000E+00  0.0000E+00  0.0000E+00  0.0000E+00  0.0000E+00  0.0000E+00  0.0000E+00  0.0000E+00  0.0000E+00  0.0000E+00  0.0000E+00  0.0000E+00  0.0000E+00  0.0000E+00  0.0000E+00  0.0000E+00  0.0000E+00  0.0000E+00  0.0000E+00  0.0000E+00  0.0000E+00  0.0000E+00  0.0000E+00  0.0000E+00  0.0000E+00  0.0000E+00  0.0000E+00  0.0000E+00  0.0000E+00  0.0000E+00  0.0000E+00  0.0000E+00  0.0000E+00  0.0000E+00  0.0000E+00  0.0000E+00  0.0000E+00  0.0000E+00  0.0000E+00  0.0000E+00  0.0000E+00  0.0000E+00  0.0000E+00  0.0000E+00  0.0000E+00  0.0000E+00  0.0000E+00
  0.0000E+00  0.0000E+00  0.0000E+00  0.0000E+00  0.0000E+00  0.0000E+00  0.0000E+00  0.0000E+00  0.0000E+00  0.0000E+00  0.0000E+00  0.0000E+00  0.0000E+00  0.0000E+00  0.0000E+00  0.0000E+00  0.0000E+00  0.0000E+00  0.0000E+00  0.0000E+00  0.0000E+00  0.0000E+00  0.0000E+00  0.0000E+00  0.0000E+00  0.0000E+00  0.0000E+00  0.0000E+00  0.0000E+00  0.0000E+00  0.0000E+00  0.0000E+00  0.0000E+00  0.0000E+00  0.0000E+00  0.0000E+00  0.0000E+00  0.0000E+00  0.0000E+00  0.0000E+00  0.0000E+00  0.0000E+00  0.0000E+00  0.0000E+00  0.0000E+00  0.0000E+00  0.0000E+00  0.0000E+00  0.0000E+00  0.0000E+00  0.0000E+00  0.0000E+00  0.0000E+00  0.0000E+00  0.0000E+00  0.0000E+00  0.0000E+00  0.0000E+00  0.0000E+00  0.0000E+00  0.0000E+00  0.0000E+00  0.0000E+00  0.0000E+00  0.0000E+00  0.0000E+00  0.0000E+00  0.0000E+00  0.0000E+00  0.0000E+00  0.0000E+00  0.0000E+00  0.0000E+00  0.0000E+00  0.0000E+00  0.0000E+00  0.0000E+00  0.0000E+00  0.0000E+00
  0.0000E+00  0.0000E+00  0.0000E+00  0.0000E+00  0.0000E+00  0.0000E+00  0.0000E+00  0.0000E+00  0.0000E+00  0.0000E+00  0.0000E+00  0.0000E+00  0.0000E+00  0.0000E+00  0.0000E+00  0.0000E+00  0.0000E+00  0.0000E+00  0.0000E+00  0.0000E+00  0.0000E+00  0.0000E+00  0.0000E+00  0.0000E+00  0.0000E+00  0.0000E+00  0.0000E+00  0.0000E+00  0.0000E+00  0.0000E+00  0.0000E+00  0.0000E+00  0.0000E+00  0.0000E+00  0.0000E+00  0.0000E+00  0.0000E+00  0.0000E+00  0.0000E+00  0.0000E+00  0.0000E+00  0.0000E+00  0.0000E+00  0.0000E+00  0.0000E+00  0.0000E+00  0.0000E+00  0.0000E+00  0.0000E+00  0.0000E+00  0.0000E+00  0.0000E+00  0.0000E+00  0.0000E+00  0.0000E+00  0.0000E+00  0.0000E+00  0.0000E+00  0.0000E+00  0.0000E+00  0.0000E+00  0.0000E+00  0.0000E+00  0.0000E+00  0.0000E+00  0.0000E+00  0.0000E+00  0.0000E+00  0.0000E+00  0.0000E+00  0.0000E+00  0.0000E+00  0.0000E+00  0.0000E+00  0.0000E+00  0.0000E+00  0.0000E+00  0.0000E+00  0.0000E+00
  0.0000E+00  0.0000E+00  0.0000E+00  0.0000E+00  0.0000E+00  0.0000E+00  0.0000E+00  0.0000E+00  0.0000E+00  0.0000E+00  0.0000E+00  0.0000E+00  0.0000E+00  0.0000E+00  0.0000E+00  0.0000E+00  0.0000E+00  0.0000E+00  0.0000E+00  0.0000E+00  0.0000E+00  0.0000E+00  0.0000E+00  0.0000E+00  0.0000E+00  0.0000E+00  0.0000E+00  0.0000E+00  0.0000E+00  0.0000E+00  0.0000E+00  0.0000E+00  0.0000E+00  0.0000E+00  0.0000E+00  0.0000E+00  0.0000E+00  0.0000E+00  0.0000E+00  0.0000E+00  0.0000E+00  0.0000E+00  0.0000E+00  0.0000E+00  0.0000E+00  0.0000E+00  0.0000E+00  0.0000E+00  0.0000E+00  0.0000E+00  0.0000E+00  0.0000E+00  0.0000E+00  0.0000E+00  0.0000E+00  0.0000E+00  0.0000E+00  0.0000E+00  0.0000E+00  0.0000E+00  0.0000E+00  0.0000E+00  0.0000E+00  0.0000E+00  0.0000E+00  0.0000E+00  0.0000E+00  0.0000E+00  0.0000E+00  0.0000E+00  0.0000E+00  0.0000E+00  0.0000E+00  0.0000E+00  0.0000E+00  0.0000E+00  0.0000E+00  0.0000E+00  0.0000E+00
  0.0000E+00  0.0000E+00  0.0000E+00  0.0000E+00  0.0000E+00  0.0000E+00  0.0000E+00  0.0000E+00  0.0000E+00  0.0000E+00  0.0000E+00  0.0000E+00  0.0000E+00  0.0000E+00  0.0000E+00  0.0000E+00  0.0000E+00  0.0000E+00  0.0000E+00  0.0000E+00  0.0000E+00  0.0000E+00  0.0000E+00  0.0000E+00  0.0000E+00  0.0000E+00  0.0000E+00  0.0000E+00  0.0000E+00  0.0000E+00  0.0000E+00  0.0000E+00  0.0000E+00  0.0000E+00  0.0000E+00  0.0000E+00  0.0000E+00  0.0000E+00  0.0000E+00  0.0000E+00  0.0000E+00  0.0000E+00  0.0000E+00  0.0000E+00  0.0000E+00  0.0000E+00  0.0000E+00  0.0000E+00  0.0000E+00  0.0000E+00  0.0000E+00  0.0000E+00  0.0000E+00  0.0000E+00  0.0000E+00  0.0000E+00  0.0000E+00  0.0000E+00  0.0000E+00  0.0000E+00  0.0000E+00  0.0000E+00  0.0000E+00  0.0000E+00  0.0000E+00  0.0000E+00  0.0000E+00  0.0000E+00  0.0000E+00  0.0000E+00  0.0000E+00  0.0000E+00  0.0000E+00  0.0000E+00  0.0000E+00  0.0000E+00  0.0000E+00  0.0000E+00  0.0000E+00
  0.0000E+00  0.0000E+00  0.0000E+00  0.0000E+00  0.0000E+00  0.0000E+00  0.0000E+00  0.0000E+00  0.0000E+00  0.0000E+00  0.0000E+00  0.0000E+00  0.0000E+00  0.0000E+00  0.0000E+00  0.0000E+00  0.0000E+00  0.0000E+00  0.0000E+00  0.0000E+00  0.0000E+00  0.0000E+00  0.0000E+00  0.0000E+00  0.0000E+00  0.0000E+00  0.0000E+00  0.0000E+00  0.0000E+00  0.0000E+00  0.0000E+00  0.0000E+00  0.0000E+00  0.0000E+00  0.0000E+00  0.0000E+00  0.0000E+00  0.0000E+00  0.0000E+00  0.0000E+00  0.0000E+00  0.0000E+00  0.0000E+00  0.0000E+00  0.0000E+00  0.0000E+00  0.0000E+00  0.0000E+00  0.0000E+00  0.0000E+00  0.0000E+00  0.0000E+00  0.0000E+00  0.0000E+00  0.0000E+00  0.0000E+00  0.0000E+00  0.0000E+00  0.0000E+00  0.0000E+00  0.0000E+00  0.0000E+00  0.0000E+00  0.0000E+00  0.0000E+00  0.0000E+00  0.0000E+00  0.0000E+00  0.0000E+00  0.0000E+00  0.0000E+00  0.0000E+00  0.0000E+00  0.0000E+00  0.0000E+00  0.0000E+00  0.0000E+00  0.0000E+00  0.0000E+00
  0.0000E+00  0.0000E+00  0.0000E+00  0.0000E+00  0.0000E+00  0.0000E+00  0.0000E+00  0.0000E+00  0.0000E+00  0.0000E+00  0.0000E+00  0.0000E+00  0.0000E+00  0.0000E+00  0.0000E+00  0.0000E+00  0.0000E+00  0.0000E+00  0.0000E+00  0.0000E+00  0.0000E+00  0.0000E+00  0.0000E+00  0.0000E+00  0.0000E+00  0.0000E+00  0.0000E+00  0.0000E+00  0.0000E+00  0.0000E+00  0.0000E+00  0.0000E+00  0.0000E+00  0.0000E+00  0.0000E+00  0.0000E+00  0.0000E+00  0.0000E+00  0.0000E+00  0.0000E+00  0.0000E+00  0.0000E+00  0.0000E+00  0.0000E+00  0.0000E+00  0.0000E+00  0.0000E+00  0.0000E+00  0.0000E+00  0.0000E+00  0.0000E+00  0.0000E+00  0.0000E+00  0.0000E+00  0.0000E+00  0.0000E+00  0.0000E+00  0.0000E+00  0.0000E+00  0.0000E+00  0.0000E+00  0.0000E+00  0.0000E+00  0.0000E+00  0.0000E+00  0.0000E+00  0.0000E+00  0.0000E+00  0.0000E+00  0.0000E+00  0.0000E+00  0.0000E+00  0.0000E+00  0.0000E+00  0.0000E+00  0.0000E+00  0.0000E+00  0.0000E+00  0.0000E+00
  0.0000E+00  0.0000E+00  0.0000E+00  0.0000E+00  0.0000E+00  0.0000E+00  0.0000E+00  0.0000E+00  0.0000E+00  0.0000E+00  0.0000E+00  0.0000E+00  0.0000E+00  0.0000E+00  0.0000E+00  0.0000E+00  0.0000E+00  0.0000E+00  0.0000E+00  0.0000E+00  0.0000E+00  0.0000E+00  0.0000E+00  0.0000E+00  0.0000E+00  0.0000E+00  0.0000E+00  0.0000E+00  0.0000E+00  0.0000E+00  0.0000E+00  0.0000E+00  0.0000E+00  0.0000E+00  0.0000E+00  0.0000E+00  0.0000E+00  0.0000E+00  0.0000E+00  0.0000E+00  0.0000E+00  0.0000E+00  0.0000E+00  0.0000E+00  0.0000E+00  0.0000E+00  0.0000E+00  0.0000E+00  0.0000E+00  0.0000E+00  0.0000E+00  0.0000E+00  0.0000E+00  0.0000E+00  0.0000E+00  0.0000E+00  0.0000E+00  0.0000E+00  0.0000E+00  0.0000E+00  0.0000E+00  0.0000E+00  0.0000E+00  0.0000E+00  0.0000E+00  0.0000E+00  0.0000E+00  0.0000E+00  0.0000E+00  0.0000E+00  0.0000E+00  0.0000E+00  0.0000E+00  0.0000E+00  0.0000E+00  0.0000E+00  0.0000E+00  0.0000E+00  0.0000E+00
  0.0000E+00  0.0000E+00  0.0000E+00  0.0000E+00  0.0000E+00  0.0000E+00  0.0000E+00  0.0000E+00  0.0000E+00  0.0000E+00  0.0000E+00  0.0000E+00  0.0000E+00  0.0000E+00  0.0000E+00  0.0000E+00  0.0000E+00  0.0000E+00  0.0000E+00  0.0000E+00  0.0000E+00  0.0000E+00  0.0000E+00  0.0000E+00  0.0000E+00  0.0000E+00  0.0000E+00  0.0000E+00  0.0000E+00  0.0000E+00  0.0000E+00  0.0000E+00  0.0000E+00  0.0000E+00  0.0000E+00  0.0000E+00  0.0000E+00  0.0000E+00  0.0000E+00  0.0000E+00  0.0000E+00  0.0000E+00  0.0000E+00  0.0000E+00  0.0000E+00  0.0000E+00  0.0000E+00  0.0000E+00  0.0000E+00  0.0000E+00  0.0000E+00  0.0000E+00  0.0000E+00  0.0000E+00  0.0000E+00  0.0000E+00  0.0000E+00  0.0000E+00  0.0000E+00  0.0000E+00  0.0000E+00  0.0000E+00  0.0000E+00  0.0000E+00  0.0000E+00  0.0000E+00  0.0000E+00  0.0000E+00  0.0000E+00  0.0000E+00  0.0000E+00  0.0000E+00  0.0000E+00  0.0000E+00  0.0000E+00  0.0000E+00  0.0000E+00  0.0000E+00  0.0000E+00
  0.0000E+00  0.0000E+00  0.0000E+00  0.0000E+00  0.0000E+00  0.0000E+00  0.0000E+00  0.0000E+00  0.0000E+00  0.0000E+00  0.0000E+00  0.0000E+00  0.0000E+00  0.0000E+00  0.0000E+00  0.0000E+00  0.0000E+00  0.0000E+00  0.0000E+00  0.0000E+00  0.0000E+00  0.0000E+00  0.0000E+00  0.0000E+00  0.0000E+00  0.0000E+00  0.0000E+00  0.0000E+00  0.0000E+00  0.0000E+00  0.0000E+00  0.0000E+00  0.0000E+00  0.0000E+00  0.0000E+00  0.0000E+00  0.0000E+00  0.0000E+00  0.0000E+00  0.0000E+00  0.0000E+00  0.0000E+00  0.0000E+00  0.0000E+00  0.0000E+00  0.0000E+00  0.0000E+00  0.0000E+00  0.0000E+00  0.0000E+00  0.0000E+00  0.0000E+00  0.0000E+00  0.0000E+00  0.0000E+00  0.0000E+00  0.0000E+00  0.0000E+00  0.0000E+00  0.0000E+00  0.0000E+00  0.0000E+00  0.0000E+00  0.0000E+00  0.0000E+00  0.0000E+00  0.0000E+00  0.0000E+00  0.0000E+00  0.0000E+00  0.0000E+00  0.0000E+00  0.0000E+00  0.0000E+00  0.0000E+00  0.0000E+00  0.0000E+00  0.0000E+00  0.0000E+00
  0.0000E+00  0.0000E+00  0.0000E+00  0.0000E+00  0.0000E+00  0.0000E+00  0.0000E+00  0.0000E+00  0.0000E+00  0.0000E+00  0.0000E+00  0.0000E+00  0.0000E+00  0.0000E+00  0.0000E+00  0.0000E+00  0.0000E+00  0.0000E+00  0.0000E+00  0.0000E+00  0.0000E+00  0.0000E+00  0.0000E+00  0.0000E+00  0.0000E+00  0.0000E+00  0.0000E+00  0.0000E+00  0.0000E+00  0.0000E+00  0.0000E+00  0.0000E+00  0.0000E+00  0.0000E+00  0.0000E+00  0.0000E+00  0.0000E+00  0.0000E+00  0.0000E+00  0.0000E+00  0.0000E+00  0.0000E+00  0.0000E+00  0.0000E+00  0.0000E+00  0.0000E+00  0.0000E+00  0.0000E+00  0.0000E+00  0.0000E+00  0.0000E+00  0.0000E+00  0.0000E+00  0.0000E+00  0.0000E+00  0.0000E+00  0.0000E+00  0.0000E+00  0.0000E+00  0.0000E+00  0.0000E+00  0.0000E+00  0.0000E+00  0.0000E+00  0.0000E+00  0.0000E+00  0.0000E+00  0.0000E+00  0.0000E+00  0.0000E+00  0.0000E+00  0.0000E+00  0.0000E+00  0.0000E+00  0.0000E+00  0.0000E+00  0.0000E+00  0.0000E+00  0.0000E+00
  0.0000E+00  0.0000E+00  0.0000E+00  0.0000E+00  0.0000E+00  0.0000E+00  0.0000E+00  0.0000E+00  0.0000E+00  0.0000E+00  0.0000E+00  0.0000E+00  0.0000E+00  0.0000E+00  0.0000E+00  0.0000E+00  0.0000E+00  0.0000E+00  0.0000E+00  0.0000E+00  0.0000E+00  0.0000E+00  0.0000E+00  0.0000E+00  0.0000E+00  0.0000E+00  0.0000E+00  0.0000E+00  0.0000E+00  0.0000E+00  0.0000E+00  0.0000E+00  0.0000E+00  0.0000E+00  0.0000E+00  0.0000E+00  0.0000E+00  0.0000E+00  0.0000E+00  0.0000E+00  0.0000E+00  0.0000E+00  0.0000E+00  0.0000E+00  0.0000E+00  0.0000E+00  0.0000E+00  0.0000E+00  0.0000E+00  0.0000E+00  0.0000E+00  0.0000E+00  0.0000E+00  0.0000E+00  0.0000E+00  0.0000E+00  0.0000E+00  0.0000E+00  0.0000E+00  0.0000E+00  0.0000E+00  0.0000E+00  0.0000E+00  0.0000E+00  0.0000E+00  0.0000E+00  0.0000E+00  0.0000E+00  0.0000E+00  0.0000E+00  0.0000E+00  0.0000E+00  0.0000E+00  0.0000E+00  0.0000E+00  0.0000E+00  0.0000E+00  0.0000E+00  0.0000E+00
  0.0000E+00  0.0000E+00  0.0000E+00  0.0000E+00  0.0000E+00  0.0000E+00  0.0000E+00  0.0000E+00  0.0000E+00  0.0000E+00  0.0000E+00  0.0000E+00  0.0000E+00  0.0000E+00  0.0000E+00  0.0000E+00  0.0000E+00  0.0000E+00  0.0000E+00  0.0000E+00  0.0000E+00  0.0000E+00  0.0000E+00  0.0000E+00  0.0000E+00  0.0000E+00  0.0000E+00  0.0000E+00  0.0000E+00  0.0000E+00  0.0000E+00  0.0000E+00  0.0000E+00  0.0000E+00  0.0000E+00  0.0000E+00  0.0000E+00  0.0000E+00  0.0000E+00  0.0000E+00  0.0000E+00  0.0000E+00  0.0000E+00  0.0000E+00  0.0000E+00  0.0000E+00  0.0000E+00  0.0000E+00  0.0000E+00  0.0000E+00  0.0000E+00  0.0000E+00  0.0000E+00  0.0000E+00  0.0000E+00  0.0000E+00  0.0000E+00  0.0000E+00  0.0000E+00  0.0000E+00  0.0000E+00  0.0000E+00  0.0000E+00  0.0000E+00  0.0000E+00  0.0000E+00  0.0000E+00  0.0000E+00  0.0000E+00  0.0000E+00  0.0000E+00  0.0000E+00  0.0000E+00  0.0000E+00  0.0000E+00  0.0000E+00  0.0000E+00  0.0000E+00  0.0000E+00
  0.0000E+00  0.0000E+00  0.0000E+00  0.0000E+00  0.0000E+00  0.0000E+00  0.0000E+00  0.0000E+00  0.0000E+00  0.0000E+00  0.0000E+00  0.0000E+00  0.0000E+00  0.0000E+00  0.0000E+00  0.0000E+00  0.0000E+00  0.0000E+00  0.0000E+00  0.0000E+00  0.0000E+00  0.0000E+00  0.0000E+00  0.0000E+00  0.0000E+00  0.0000E+00  0.0000E+00  0.0000E+00  0.0000E+00  0.0000E+00  0.0000E+00  0.0000E+00  0.0000E+00  0.0000E+00  0.0000E+00  0.0000E+00  0.0000E+00  0.0000E+00  0.0000E+00  0.0000E+00  0.0000E+00  0.0000E+00  0.0000E+00  0.0000E+00  0.0000E+00  0.0000E+00  0.0000E+00  0.0000E+00  0.0000E+00  0.0000E+00  0.0000E+00  0.0000E+00  0.0000E+00  0.0000E+00  0.0000E+00  0.0000E+00  0.0000E+00  0.0000E+00  0.0000E+00  0.0000E+00  0.0000E+00  0.0000E+00  0.0000E+00  0.0000E+00  0.0000E+00  0.0000E+00  0.0000E+00  0.0000E+00  0.0000E+00  0.0000E+00  0.0000E+00  0.0000E+00  0.0000E+00  0.0000E+00  0.0000E+00  0.0000E+00  0.0000E+00  0.0000E+00  0.0000E+00
  0.0000E+00  0.0000E+00  0.0000E+00  0.0000E+00  0.0000E+00  0.0000E+00  0.0000E+00  0.0000E+00  0.0000E+00  0.0000E+00  0.0000E+00  0.0000E+00  0.0000E+00  0.0000E+00  0.0000E+00  0.0000E+00  0.0000E+00  0.0000E+00  0.0000E+00  0.0000E+00  0.0000E+00  0.0000E+00  0.0000E+00  0.0000E+00  0.0000E+00  0.0000E+00  0.0000E+00  0.0000E+00  0.0000E+00  0.0000E+00  0.0000E+00  0.0000E+00  0.0000E+00  0.0000E+00  0.0000E+00  0.0000E+00  0.0000E+00  0.0000E+00  0.0000E+00  0.0000E+00  0.0000E+00  0.0000E+00  0.0000E+00  0.0000E+00  0.0000E+00  0.0000E+00  0.0000E+00  0.0000E+00  0.0000E+00  0.0000E+00  0.0000E+00  0.0000E+00  0.0000E+00  0.0000E+00  0.0000E+00  0.0000E+00  0.0000E+00  0.0000E+00  0.0000E+00  0.0000E+00  0.0000E+00  0.0000E+00  0.0000E+00  0.0000E+00  0.0000E+00  0.0000E+00  0.0000E+00  0.0000E+00  0.0000E+00  0.0000E+00  0.0000E+00  0.0000E+00  0.0000E+00  0.0000E+00  0.0000E+00  0.0000E+00  0.0000E+00  0.0000E+00  0.0000E+00
  0.0000E+00  0.0000E+00  0.0000E+00  0.0000E+00  0.0000E+00  0.0000E+00  0.0000E+00  0.0000E+00  0.0000E+00  0.0000E+00  0.0000E+00  0.0000E+00  0.0000E+00  0.0000E+00  0.0000E+00  0.0000E+00  0.0000E+00  0.0000E+00  0.0000E+00  0.0000E+00  0.0000E+00  0.0000E+00  0.0000E+00  0.0000E+00  0.0000E+00  0.0000E+00  0.0000E+00  0.0000E+00  0.0000E+00  0.0000E+00  0.0000E+00  0.0000E+00  0.0000E+00  0.0000E+00  0.0000E+00  0.0000E+00  0.0000E+00  0.0000E+00  0.0000E+00  0.0000E+00  0.0000E+00  0.0000E+00  0.0000E+00  0.0000E+00  0.0000E+00  0.0000E+00  0.0000E+00  0.0000E+00  0.0000E+00  0.0000E+00  0.0000E+00  0.0000E+00  0.0000E+00  0.0000E+00  0.0000E+00  0.0000E+00  0.0000E+00  0.0000E+00  0.0000E+00  0.0000E+00  0.0000E+00  0.0000E+00  0.0000E+00  0.0000E+00  0.0000E+00  0.0000E+00  0.0000E+00  0.0000E+00  0.0000E+00  0.0000E+00  0.0000E+00  0.0000E+00  0.0000E+00  0.0000E+00  0.0000E+00  0.0000E+00  0.0000E+00  0.0000E+00  0.0000E+00
  0.0000E+00  0.0000E+00  0.0000E+00  0.0000E+00  0.0000E+00  0.0000E+00  0.0000E+00  0.0000E+00  0.0000E+00  0.0000E+00  0.0000E+00  0.0000E+00  0.0000E+00  0.0000E+00  0.0000E+00  0.0000E+00  0.0000E+00  0.0000E+00  0.0000E+00  0.0000E+00  0.0000E+00  0.0000E+00  0.0000E+00  0.0000E+00  0.0000E+00  0.0000E+00  0.0000E+00  0.0000E+00  0.0000E+00  0.0000E+00  0.0000E+00  0.0000E+00  0.0000E+00  0.0000E+00  0.0000E+00  0.0000E+00  0.0000E+00  0.0000E+00  0.0000E+00  0.0000E+00  0.0000E+00  0.0000E+00  0.0000E+00  0.0000E+00  0.0000E+00  0.0000E+00  0.0000E+00  0.0000E+00  0.0000E+00  0.0000E+00  0.0000E+00  0.0000E+00  0.0000E+00  0.0000E+00  0.0000E+00  0.0000E+00  0.0000E+00  0.0000E+00  0.0000E+00  0.0000E+00  0.0000E+00  0.0000E+00  0.0000E+00  0.0000E+00  0.0000E+00  0.0000E+00  0.0000E+00  0.0000E+00  0.0000E+00  0.0000E+00  0.0000E+00  0.0000E+00  0.0000E+00  0.0000E+00  0.0000E+00  0.0000E+00  0.0000E+00  0.0000E+00  0.0000E+00
  0.0000E+00  0.0000E+00  0.0000E+00  0.0000E+00  0.0000E+00  0.0000E+00  0.0000E+00  0.0000E+00  0.0000E+00  0.0000E+00  0.0000E+00  0.0000E+00  0.0000E+00  0.0000E+00  0.0000E+00  0.0000E+00  0.0000E+00  0.0000E+00  0.0000E+00  0.0000E+00  0.0000E+00  0.0000E+00  0.0000E+00  0.0000E+00  0.0000E+00  0.0000E+00  0.0000E+00  0.0000E+00  0.0000E+00  0.0000E+00  0.0000E+00  0.0000E+00  0.0000E+00  0.0000E+00  0.0000E+00  0.0000E+00  0.0000E+00  0.0000E+00  0.0000E+00  0.0000E+00  0.0000E+00  0.0000E+00  0.0000E+00  0.0000E+00  0.0000E+00  0.0000E+00  0.0000E+00  0.0000E+00  0.0000E+00  0.0000E+00  0.0000E+00  0.0000E+00  0.0000E+00  0.0000E+00  0.0000E+00  0.0000E+00  0.0000E+00  0.0000E+00  0.0000E+00  0.0000E+00  0.0000E+00  0.0000E+00  0.0000E+00  0.0000E+00  0.0000E+00  0.0000E+00  0.0000E+00  0.0000E+00  0.0000E+00  0.0000E+00  0.0000E+00  0.0000E+00  0.0000E+00  0.0000E+00  0.0000E+00  0.0000E+00  0.0000E+00  0.0000E+00  0.0000E+00
  0.0000E+00  0.0000E+00  0.0000E+00  0.0000E+00  0.0000E+00  0.0000E+00  0.0000E+00  0.0000E+00  0.0000E+00  0.0000E+00  0.0000E+00  0.0000E+00  0.0000E+00  0.0000E+00  0.0000E+00  0.0000E+00  0.0000E+00  0.0000E+00  0.0000E+00  0.0000E+00  0.0000E+00  0.0000E+00  0.0000E+00  0.0000E+00  0.0000E+00  0.0000E+00  0.0000E+00  0.0000E+00  0.0000E+00  0.0000E+00  0.0000E+00  0.0000E+00  0.0000E+00  0.0000E+00  0.0000E+00  0.0000E+00  0.0000E+00  0.0000E+00  0.0000E+00  0.0000E+00  0.0000E+00  0.0000E+00  0.0000E+00  0.0000E+00  0.0000E+00  0.0000E+00  0.0000E+00  0.0000E+00  0.0000E+00  0.0000E+00  0.0000E+00  0.0000E+00  0.0000E+00  0.0000E+00  0.0000E+00  0.0000E+00  0.0000E+00  0.0000E+00  0.0000E+00  0.0000E+00  0.0000E+00  0.0000E+00  0.0000E+00  0.0000E+00  0.0000E+00  0.0000E+00  0.0000E+00  0.0000E+00  0.0000E+00  0.0000E+00  0.0000E+00  0.0000E+00  0.0000E+00  0.0000E+00  0.0000E+00  0.0000E+00  0.0000E+00  0.0000E+00  0.0000E+00
  0.0000E+00  0.0000E+00  0.0000E+00  0.0000E+00  0.0000E+00  0.0000E+00  0.0000E+00  0.0000E+00  0.0000E+00  0.0000E+00  0.0000E+00  0.0000E+00  0.0000E+00  0.0000E+00  0.0000E+00  0.0000E+00  0.0000E+00  0.0000E+00  0.0000E+00  0.0000E+00  0.0000E+00  0.0000E+00  0.0000E+00  0.0000E+00  0.0000E+00  0.0000E+00  0.0000E+00  0.0000E+00  0.0000E+00  0.0000E+00  0.0000E+00  0.0000E+00  0.0000E+00  0.0000E+00  0.0000E+00  0.0000E+00  0.0000E+00  0.0000E+00  0.0000E+00  0.0000E+00  0.0000E+00  0.0000E+00  0.0000E+00  0.0000E+00  0.0000E+00  0.0000E+00  0.0000E+00  0.0000E+00  0.0000E+00  0.0000E+00  0.0000E+00  0.0000E+00  0.0000E+00  0.0000E+00  0.0000E+00  0.0000E+00  0.0000E+00  0.0000E+00  0.0000E+00  0.0000E+00  0.0000E+00  0.0000E+00  0.0000E+00  0.0000E+00  0.0000E+00  0.0000E+00  0.0000E+00  0.0000E+00  0.0000E+00  0.0000E+00  0.0000E+00  0.0000E+00  0.0000E+00  0.0000E+00  0.0000E+00  0.0000E+00  0.0000E+00  0.0000E+00  0.0000E+00
  0.0000E+00  0.0000E+00  0.0000E+00  0.0000E+00  0.0000E+00  0.0000E+00  0.0000E+00  0.0000E+00  0.0000E+00  0.0000E+00  0.0000E+00  0.0000E+00  0.0000E+00  0.0000E+00  0.0000E+00  0.0000E+00  0.0000E+00  0.0000E+00  0.0000E+00  0.0000E+00  0.0000E+00  0.0000E+00  0.0000E+00  0.0000E+00  0.0000E+00  0.0000E+00  0.0000E+00  0.0000E+00  0.0000E+00  0.0000E+00  0.0000E+00  0.0000E+00  0.0000E+00  0.0000E+00  0.0000E+00  0.0000E+00  0.0000E+00  0.0000E+00  0.0000E+00  0.0000E+00  0.0000E+00  0.0000E+00  0.0000E+00  0.0000E+00  0.0000E+00  0.0000E+00  0.0000E+00  0.0000E+00  0.0000E+00  0.0000E+00  0.0000E+00  0.0000E+00  0.0000E+00  0.0000E+00  0.0000E+00  0.0000E+00  0.0000E+00  0.0000E+00  0.0000E+00  0.0000E+00  0.0000E+00  0.0000E+00  0.0000E+00  0.0000E+00  0.0000E+00  0.0000E+00  0.0000E+00  0.0000E+00  0.0000E+00  0.0000E+00  0.0000E+00  0.0000E+00  0.0000E+00  0.0000E+00  0.0000E+00  0.0000E+00  0.0000E+00  0.0000E+00  0.0000E+00
  0.0000E+00  0.0000E+00  0.0000E+00  0.0000E+00  0.0000E+00  0.0000E+00  0.0000E+00  0.0000E+00  0.0000E+00  0.0000E+00  0.0000E+00  0.0000E+00  0.0000E+00  0.0000E+00  0.0000E+00  0.0000E+00  0.0000E+00  0.0000E+00  0.0000E+00  0.0000E+00  0.0000E+00  0.0000E+00  0.0000E+00  0.0000E+00  0.0000E+00  0.0000E+00  0.0000E+00  0.0000E+00  0.0000E+00  0.0000E+00  0.0000E+00  0.0000E+00  0.0000E+00  0.0000E+00  0.0000E+00  0.0000E+00  0.0000E+00  0.0000E+00  0.0000E+00  0.0000E+00  0.0000E+00  0.0000E+00  0.0000E+00  0.0000E+00  0.0000E+00  0.0000E+00  0.0000E+00  0.0000E+00  0.0000E+00  0.0000E+00  0.0000E+00  0.0000E+00  0.0000E+00  0.0000E+00  0.0000E+00  0.0000E+00  0.0000E+00  0.0000E+00  0.0000E+00  0.0000E+00  0.0000E+00  0.0000E+00  0.0000E+00  0.0000E+00  0.0000E+00  0.0000E+00  0.0000E+00  0.0000E+00  0.0000E+00  0.0000E+00  0.0000E+00  0.0000E+00  0.0000E+00  0.0000E+00  0.0000E+00  0.0000E+00  0.0000E+00  0.0000E+00  0.0000E+00
  0.0000E+00  0.0000E+00  0.0000E+00  0.0000E+00  0.0000E+00  0.0000E+00  0.0000E+00  0.0000E+00  0.0000E+00  0.0000E+00  0.0000E+00  0.0000E+00  0.0000E+00  0.0000E+00  0.0000E+00  0.0000E+00  0.0000E+00  0.0000E+00  0.0000E+00  0.0000E+00  0.0000E+00  0.0000E+00  0.0000E+00  0.0000E+00  0.0000E+00  0.0000E+00  0.0000E+00  0.0000E+00  0.0000E+00  0.0000E+00  0.0000E+00  0.0000E+00  0.0000E+00  0.0000E+00  0.0000E+00  0.0000E+00  0.0000E+00  0.0000E+00  0.0000E+00  0.0000E+00  0.0000E+00  0.0000E+00  0.0000E+00  0.0000E+00  0.0000E+00  0.0000E+00  0.0000E+00  0.0000E+00  0.0000E+00  0.0000E+00  0.0000E+00  0.0000E+00  0.0000E+00  0.0000E+00  0.0000E+00  0.0000E+00  0.0000E+00  0.0000E+00  0.0000E+00  0.0000E+00  0.0000E+00  0.0000E+00  0.0000E+00  0.0000E+00  0.0000E+00  0.0000E+00  0.0000E+00  0.0000E+00  0.0000E+00  0.0000E+00  0.0000E+00  0.0000E+00  0.0000E+00  0.0000E+00  0.0000E+00  0.0000E+00  0.0000E+00  0.0000E+00  0.0000E+00
  0.0000E+00  0.0000E+00  0.0000E+00  0.0000E+00  0.0000E+00  0.0000E+00  0.0000E+00  0.0000E+00  0.0000E+00  0.0000E+00  0.0000E+00  0.0000E+00  0.0000E+00  0.0000E+00  0.0000E+00  0.0000E+00  0.0000E+00  0.0000E+00  0.0000E+00  0.0000E+00  0.0000E+00  0.0000E+00  0.0000E+00  0.0000E+00  0.0000E+00  0.0000E+00  0.0000E+00  0.0000E+00  0.0000E+00  0.0000E+00  0.0000E+00  0.0000E+00  0.0000E+00  0.0000E+00  0.0000E+00  0.0000E+00  0.0000E+00  0.0000E+00  0.0000E+00  0.0000E+00  0.0000E+00  0.0000E+00  0.0000E+00  0.0000E+00  0.0000E+00  0.0000E+00  0.0000E+00  0.0000E+00  0.0000E+00  0.0000E+00  0.0000E+00  0.0000E+00  0.0000E+00  0.0000E+00  0.0000E+00  0.0000E+00  0.0000E+00  0.0000E+00  0.0000E+00  0.0000E+00  0.0000E+00  0.0000E+00  0.0000E+00  0.0000E+00  0.0000E+00  0.0000E+00  0.0000E+00  0.0000E+00  0.0000E+00  0.0000E+00  0.0000E+00  0.0000E+00  0.0000E+00  0.0000E+00  0.0000E+00  0.0000E+00  0.0000E+00  0.0000E+00  0.0000E+00
  0.0000E+00  0.0000E+00  0.0000E+00  0.0000E+00  0.0000E+00  0.0000E+00  0.0000E+00  0.0000E+00  0.0000E+00  0.0000E+00  0.0000E+00  0.0000E+00  0.0000E+00  0.0000E+00  0.0000E+00  0.0000E+00  0.0000E+00  0.0000E+00  0.0000E+00  0.0000E+00  0.0000E+00  0.0000E+00  0.0000E+00  0.0000E+00  0.0000E+00  0.0000E+00  0.0000E+00  0.0000E+00  0.0000E+00  0.0000E+00  0.0000E+00  0.0000E+00  0.0000E+00  0.0000E+00  0.0000E+00  0.0000E+00  0.0000E+00  0.0000E+00  0.0000E+00  0.0000E+00  0.0000E+00  0.0000E+00  0.0000E+00  0.0000E+00  0.0000E+00  0.0000E+00  0.0000E+00  0.0000E+00  0.0000E+00  0.0000E+00  0.0000E+00  0.0000E+00  0.0000E+00  0.0000E+00  0.0000E+00  0.0000E+00  0.0000E+00  0.0000E+00  0.0000E+00  0.0000E+00  0.0000E+00  0.0000E+00  0.0000E+00  0.0000E+00  0.0000E+00  0.0000E+00  0.0000E+00  0.0000E+00  0.0000E+00  0.0000E+00  0.0000E+00  0.0000E+00  0.0000E+00  0.0000E+00  0.0000E+00  0.0000E+00  0.0000E+00  0.0000E+00  0.0000E+00
  0.0000E+00  0.0000E+00  0.0000E+00  0.0000E+00  0.0000E+00  0.0000E+00  0.0000E+00  0.0000E+00  0.0000E+00  0.0000E+00  0.0000E+00  0.0000E+00  0.0000E+00  0.0000E+00  0.0000E+00  0.0000E+00  0.0000E+00  0.0000E+00  0.0000E+00  0.0000E+00  0.0000E+00  0.0000E+00  0.0000E+00  0.0000E+00  0.0000E+00  0.0000E+00  0.0000E+00  0.0000E+00  0.0000E+00  0.0000E+00  0.0000E+00  0.0000E+00  0.0000E+00  0.0000E+00  0.0000E+00  0.0000E+00  0.0000E+00  0.0000E+00  0.0000E+00  0.0000E+00  0.0000E+00  0.0000E+00  0.0000E+00  0.0000E+00  0.0000E+00  0.0000E+00  0.0000E+00  0.0000E+00  0.0000E+00  0.0000E+00  0.0000E+00  0.0000E+00  0.0000E+00  0.0000E+00  0.0000E+00  0.0000E+00  0.0000E+00  0.0000E+00  0.0000E+00  0.0000E+00  0.0000E+00  0.0000E+00  0.0000E+00  0.0000E+00  0.0000E+00  0.0000E+00  0.0000E+00  0.0000E+00  0.0000E+00  0.0000E+00  0.0000E+00  0.0000E+00  0.0000E+00  0.0000E+00  0.0000E+00  0.0000E+00  0.0000E+00  0.0000E+00  0.0000E+00
  0.0000E+00  0.0000E+00  0.0000E+00  0.0000E+00  0.0000E+00  0.0000E+00  0.0000E+00  0.0000E+00  0.0000E+00  0.0000E+00  0.0000E+00  0.0000E+00  0.0000E+00  0.0000E+00  0.0000E+00  0.0000E+00  0.0000E+00  0.0000E+00  0.0000E+00  0.0000E+00  0.0000E+00  0.0000E+00  0.0000E+00  0.0000E+00  0.0000E+00  0.0000E+00  0.0000E+00  0.0000E+00  0.0000E+00  0.0000E+00  0.0000E+00  0.0000E+00  0.0000E+00  0.0000E+00  0.0000E+00  0.0000E+00  0.0000E+00  0.0000E+00  0.0000E+00  0.0000E+00  0.0000E+00  0.0000E+00  0.0000E+00  0.0000E+00  0.0000E+00  0.0000E+00  0.0000E+00  0.0000E+00  0.0000E+00  0.0000E+00  0.0000E+00  0.0000E+00  0.0000E+00  0.0000E+00  0.0000E+00  0.0000E+00  0.0000E+00  0.0000E+00  0.0000E+00  0.0000E+00  0.0000E+00  0.0000E+00  0.0000E+00  0.0000E+00  0.0000E+00  0.0000E+00  0.0000E+00  0.0000E+00  0.0000E+00  0.0000E+00  0.0000E+00  0.0000E+00  0.0000E+00  0.0000E+00  0.0000E+00  0.0000E+00  0.0000E+00  0.0000E+00  0.0000E+00
  0.0000E+00  0.0000E+00  0.0000E+00  0.0000E+00  0.0000E+00  0.0000E+00  0.0000E+00  0.0000E+00  0.0000E+00  0.0000E+00  0.0000E+00  0.0000E+00  0.0000E+00  0.0000E+00  0.0000E+00  0.0000E+00  0.0000E+00  0.0000E+00  0.0000E+00  0.0000E+00  0.0000E+00  0.0000E+00  0.0000E+00  0.0000E+00  0.0000E+00  0.0000E+00  0.0000E+00  0.0000E+00  0.0000E+00  0.0000E+00  0.0000E+00  0.0000E+00  0.0000E+00  0.0000E+00  0.0000E+00  0.0000E+00  0.0000E+00  0.0000E+00  0.0000E+00  0.0000E+00  0.0000E+00  0.0000E+00  0.0000E+00  0.0000E+00  0.0000E+00  0.0000E+00  0.0000E+00  0.0000E+00  0.0000E+00  0.0000E+00  0.0000E+00  0.0000E+00  0.0000E+00  0.0000E+00  0.0000E+00  0.0000E+00  0.0000E+00  0.0000E+00  0.0000E+00  0.0000E+00  0.0000E+00  0.0000E+00  0.0000E+00  0.0000E+00  0.0000E+00  0.0000E+00  0.0000E+00  0.0000E+00  0.0000E+00  0.0000E+00  0.0000E+00  0.0000E+00  0.0000E+00  0.0000E+00  0.0000E+00  0.0000E+00  0.0000E+00  0.0000E+00  0.0000E+00
  0.0000E+00  0.0000E+00  0.0000E+00  0.0000E+00  0.0000E+00  0.0000E+00  0.0000E+00  0.0000E+00  0.0000E+00  0.0000E+00  0.0000E+00  0.0000E+00  0.0000E+00  0.0000E+00  0.0000E+00  0.0000E+00  0.0000E+00  0.0000E+00  0.0000E+00  0.0000E+00  0.0000E+00  0.0000E+00  0.0000E+00  0.0000E+00  0.0000E+00  0.0000E+00  0.0000E+00  0.0000E+00  0.0000E+00  0.0000E+00  0.0000E+00  0.0000E+00  0.0000E+00  0.0000E+00  0.0000E+00  0.0000E+00  0.0000E+00  0.0000E+00  0.0000E+00  0.0000E+00  0.0000E+00  0.0000E+00  0.0000E+00  0.0000E+00  0.0000E+00  0.0000E+00  0.0000E+00  0.0000E+00  0.0000E+00  0.0000E+00  0.0000E+00  0.0000E+00  0.0000E+00  0.0000E+00  0.0000E+00  0.0000E+00  0.0000E+00  0.0000E+00  0.0000E+00  0.0000E+00  0.0000E+00  0.0000E+00  0.0000E+00  0.0000E+00  0.0000E+00  0.0000E+00  0.0000E+00  0.0000E+00  0.0000E+00  0.0000E+00  0.0000E+00  0.0000E+00  0.0000E+00  0.0000E+00  0.0000E+00  0.0000E+00  0.0000E+00  0.0000E+00  0.0000E+00
  0.0000E+00  0.0000E+00  0.0000E+00  0.0000E+00  0.0000E+00  0.0000E+00  0.0000E+00  0.0000E+00  0.0000E+00  0.0000E+00  0.0000E+00  0.0000E+00  0.0000E+00  0.0000E+00  0.0000E+00  0.0000E+00  0.0000E+00  0.0000E+00  0.0000E+00  0.0000E+00  0.0000E+00  0.0000E+00  0.0000E+00  0.0000E+00  0.0000E+00  0.0000E+00  0.0000E+00  0.0000E+00  0.0000E+00  0.0000E+00  0.0000E+00  0.0000E+00  0.0000E+00  0.0000E+00  0.0000E+00  0.0000E+00  0.0000E+00  0.0000E+00  0.0000E+00  0.0000E+00  0.0000E+00  0.0000E+00  0.0000E+00  0.0000E+00  0.0000E+00  0.0000E+00  0.0000E+00  0.0000E+00  0.0000E+00  0.0000E+00  0.0000E+00  0.0000E+00  0.0000E+00  0.0000E+00  0.0000E+00  0.0000E+00  0.0000E+00  0.0000E+00  0.0000E+00  0.0000E+00  0.0000E+00  0.0000E+00  0.0000E+00  0.0000E+00  0.0000E+00  0.0000E+00  0.0000E+00  0.0000E+00  0.0000E+00  0.0000E+00  0.0000E+00  0.0000E+00  0.0000E+00  0.0000E+00  0.0000E+00  0.0000E+00  0.0000E+00  0.0000E+00  0.0000E+00
  0.0000E+00  0.0000E+00  0.0000E+00  0.0000E+00  0.0000E+00  0.0000E+00  0.0000E+00  0.0000E+00  0.0000E+00  0.0000E+00  0.0000E+00  0.0000E+00  0.0000E+00  0.0000E+00  0.0000E+00  0.0000E+00  0.0000E+00  0.0000E+00  0.0000E+00  0.0000E+00  0.0000E+00  0.0000E+00  0.0000E+00  0.0000E+00  0.0000E+00  0.0000E+00  0.0000E+00  0.0000E+00  0.0000E+00  0.0000E+00  0.0000E+00  0.0000E+00  0.0000E+00  0.0000E+00  0.0000E+00  0.0000E+00  0.0000E+00  0.0000E+00  0.0000E+00  0.0000E+00  0.0000E+00  0.0000E+00  0.0000E+00  0.0000E+00  0.0000E+00  0.0000E+00  0.0000E+00  0.0000E+00  0.0000E+00  0.0000E+00  0.0000E+00  0.0000E+00  0.0000E+00  0.0000E+00  0.0000E+00  0.0000E+00  0.0000E+00  0.0000E+00  0.0000E+00  0.0000E+00  0.0000E+00  0.0000E+00  0.0000E+00  0.0000E+00  0.0000E+00  0.0000E+00  0.0000E+00  0.0000E+00  0.0000E+00  0.0000E+00  0.0000E+00  0.0000E+00  0.0000E+00  0.0000E+00  0.0000E+00  0.0000E+00  0.0000E+00  0.0000E+00  0.0000E+00
  0.0000E+00  0.0000E+00  0.0000E+00  0.0000E+00  0.0000E+00  0.0000E+00  0.0000E+00  0.0000E+00  0.0000E+00  0.0000E+00  0.0000E+00  0.0000E+00  0.0000E+00  0.0000E+00  0.0000E+00  0.0000E+00  0.0000E+00  0.0000E+00  0.0000E+00  0.0000E+00  0.0000E+00  0.0000E+00  0.0000E+00  0.0000E+00  0.0000E+00  0.0000E+00  0.0000E+00  0.0000E+00  0.0000E+00  0.0000E+00  0.0000E+00  0.0000E+00  0.0000E+00  0.0000E+00  0.0000E+00  0.0000E+00  0.0000E+00  0.0000E+00  0.0000E+00  0.0000E+00  0.0000E+00  0.0000E+00  0.0000E+00  0.0000E+00  0.0000E+00  0.0000E+00  0.0000E+00  0.0000E+00  0.0000E+00  0.0000E+00  0.0000E+00  0.0000E+00  0.0000E+00  0.0000E+00  0.0000E+00  0.0000E+00  0.0000E+00  0.0000E+00  0.0000E+00  0.0000E+00  0.0000E+00  0.0000E+00  0.0000E+00  0.0000E+00  0.0000E+00  0.0000E+00  0.0000E+00  0.0000E+00  0.0000E+00  0.0000E+00  0.0000E+00  0.0000E+00  0.0000E+00  0.0000E+00  0.0000E+00  0.0000E+00  0.0000E+00  0.0000E+00  0.0000E+00
  0.0000E+00  0.0000E+00  0.0000E+00  0.0000E+00  0.0000E+00  0.0000E+00  0.0000E+00  0.0000E+00  0.0000E+00  0.0000E+00  0.0000E+00  0.0000E+00  0.0000E+00  0.0000E+00  0.0000E+00  0.0000E+00  0.0000E+00  0.0000E+00  0.0000E+00  0.0000E+00  0.0000E+00  0.0000E+00  0.0000E+00  0.0000E+00  0.0000E+00  0.0000E+00  0.0000E+00  0.0000E+00  0.0000E+00  0.0000E+00  0.0000E+00  0.0000E+00  0.0000E+00  0.0000E+00  0.1537E-08  0.1464E-08  0.1383E-08  0.1294E-08  0.1200E-08  0.2167E-08  0.2591E-08  0.2305E-08  0.1560E-08  0.1358E-08  0.1163E-08  0.0000E+00  0.0000E+00  0.0000E+00  0.0000E+00  0.0000E+00  0.0000E+00  0.0000E+00  0.0000E+00  0.0000E+00  0.0000E+00  0.0000E+00  0.0000E+00  0.0000E+00  0.0000E+00  0.0000E+00  0.0000E+00  0.0000E+00  0.0000E+00  0.0000E+00  0.0000E+00  0.0000E+00  0.0000E+00  0.0000E+00  0.0000E+00  0.0000E+00  0.0000E+00  0.0000E+00  0.0000E+00  0.0000E+00  0.0000E+00  0.0000E+00  0.0000E+00  0.0000E+00  0.0000E+00
  0.0000E+00  0.0000E+00  0.0000E+00  0.0000E+00  0.0000E+00  0.0000E+00  0.0000E+00  0.0000E+00  0.0000E+00  0.0000E+00  0.0000E+00  0.0000E+00  0.0000E+00  0.0000E+00  0.0000E+00  0.0000E+00  0.0000E+00  0.0000E+00  0.0000E+00  0.0000E+00  0.0000E+00  0.0000E+00  0.0000E+00  0.0000E+00  0.0000E+00  0.0000E+00  0.0000E+00  0.0000E+00  0.0000E+00  0.0000E+00  0.1655E-08  0.1752E-08  0.1844E-08  0.3599E-08  0.5340E-08  0.6342E-08  0.6021E-08  0.8170E-08  0.8966E-08  0.9124E-08  0.9088E-08  0.9128E-08  0.7468E-08  0.4159E-08  0.3587E-08  0.3037E-08  0.1570E-08  0.0000E+00  0.0000E+00  0.0000E+00  0.0000E+00  0.0000E+00  0.0000E+00  0.0000E+00  0.0000E+00  0.0000E+00  0.0000E+00  0.0000E+00  0.0000E+00  0.0000E+00  0.0000E+00  0.0000E+00  0.0000E+00  0.0000E+00  0.0000E+00  0.0000E+00  0.0000E+00  0.0000E+00  0.0000E+00  0.0000E+00  0.0000E+00  0.0000E+00  0.0000E+00  0.0000E+00  0.0000E+00  0.0000E+00  0.0000E+00  0.0000E+00  0.0000E+00
  0.0000E+00  0.0000E+00  0.0000E+00  0.0000E+00  0.0000E+00  0.0000E+00  0.0000E+00  0.0000E+00  0.0000E+00  0.0000E+00  0.0000E+00  0.0000E+00  0.0000E+00  0.0000E+00  0.0000E+00  0.0000E+00  0.0000E+00  0.0000E+00  0.0000E+00  0.0000E+00  0.0000E+00  0.0000E+00  0.0000E+00  0.0000E+00  0.0000E+00  0.0000E+00  0.0000E+00  0.0000E+00  0.1722E-08  0.1842E-08  0.3671E-08  0.5781E-08  0.7754E-08  0.1160E-07  0.1524E-07  0.1632E-07  0.1873E-07  0.2072E-07  0.1943E-07  0.2053E-07  0.1975E-07  0.1779E-07  0.1650E-07  0.1315E-07  0.9029E-08  0.6021E-08  0.3890E-08  0.1669E-08  0.0000E+00  0.0000E+00  0.0000E+00  0.0000E+00  0.0000E+00  0.0000E+00  0.0000E+00  0.0000E+00  0.0000E+00  0.0000E+00  0.0000E+00  0.0000E+00  0.0000E+00  0.0000E+00  0.0000E+00  0.0000E+00  0.0000E+00  0.0000E+00  0.0000E+00  0.0000E+00  0.0000E+00  0.0000E+00  0.0000E+00  0.0000E+00  0.0000E+00  0.0000E+00  0.0000E+00  0.0000E+00  0.0000E+00  0.0000E+00  0.0000E+00
  0.0000E+00  0.0000E+00  0.0000E+00  0.0000E+00  0.0000E+00  0.0000E+00  0.0000E+00  0.0000E+00  0.0000E+00  0.0000E+00  0.0000E+00  0.0000E+00  0.0000E+00  0.0000E+00  0.0000E+00  0.0000E+00  0.0000E+00  0.0000E+00  0.0000E+00  0.0000E+00  0.0000E+00  0.0000E+00  0.0000E+00  0.0000E+00  0.0000E+00  0.0000E+00  0.1745E-08  0.1887E-08  0.5610E-08  0.6029E-08  0.1200E-07  0.1469E-07  0.1734E-07  0.2556E-07  0.2993E-07  0.3142E-07  0.3397E-07  0.3594E-07  0.3582E-07  0.3473E-07  0.3320E-07  0.3117E-07  0.2783E-07  0.2553E-07  0.2069E-07  0.1306E-07  0.8623E-08  0.4155E-08  0.1756E-08  0.0000E+00  0.0000E+00  0.0000E+00  0.0000E+00  0.0000E+00  0.0000E+00  0.0000E+00  0.0000E+00  0.0000E+00  0.0000E+00  0.0000E+00  0.0000E+00  0.0000E+00  0.0000E+00  0.0000E+00  0.0000E+00  0.0000E+00  0.0000E+00  0.0000E+00  0.0000E+00  0.0000E+00  0.0000E+00  0.0000E+00  0.0000E+00  0.0000E+00  0.0000E+00  0.0000E+00  0.0000E+00  0.0000E+00  0.0000E+00
  0.0000E+00  0.0000E+00  0.0000E+00  0.0000E+00  0.0000E+00  0.0000E+00  0.0000E+00  0.0000E+00  0.0000E+00  0.0000E+00  0.0000E+00  0.0000E+00  0.0000E+00  0.0000E+00  0.0000E+00  0.0000E+00  0.0000E+00  0.0000E+00  0.0000E+00  0.0000E+00  0.0000E+00  0.0000E+00  0.0000E+00  0.0000E+00  0.1721E-08  0.1881E-08  0.5625E-08  0.6113E-08  0.1223E-07  0.1528E-07  0.2252E-07  0.3023E-07  0.3388E-07  0.3931E-07  0.4896E-07  0.5114E-07  0.5424E-07  0.5647E-07  0.5771E-07  0.5587E-07  0.5186E-07  0.5047E-07  0.4544E-07  0.4109E-07  0.3566E-07  0.2598E-07  0.1827E-07  0.1000E-07  0.6325E-08  0.1827E-08  0.0000E+00  0.0000E+00  0.0000E+00  0.0000E+00  0.0000E+00  0.0000E+00  0.0000E+00  0.0000E+00  0.0000E+00  0.0000E+00  0.0000E+00  0.0000E+00  0.0000E+00  0.0000E+00  0.0000E+00  0.0000E+00  0.0000E+00  0.0000E+00  0.0000E+00  0.0000E+00  0.0000E+00  0.0000E+00  0.0000E+00  0.0000E+00  0.0000E+00  0.0000E+00  0.0000E+00  0.0000E+00  0.0000E+00
  0.0000E+00  0.0000E+00  0.0000E+00  0.0000E+00  0.0000E+00  0.0000E+00  0.0000E+00  0.0000E+00  0.0000E+00  0.0000E+00  0.0000E+00  0.0000E+00  0.0000E+00  0.0000E+00  0.0000E+00  0.0000E+00  0.0000E+00  0.0000E+00  0.0000E+00  0.0000E+00  0.0000E+00  0.0000E+00  0.1653E-08  0.1826E-08  0.5488E-08  0.6030E-08  0.1017E-07  0.1528E-07  0.2055E-07  0.3091E-07  0.3561E-07  0.4489E-07  0.5473E-07  0.6177E-07  0.7088E-07  0.7414E-07  0.8075E-07  0.8372E-07  0.8528E-07  0.8283E-07  0.7754E-07  0.7528E-07  0.6977E-07  0.6505E-07  0.5675E-07  0.4382E-07  0.3429E-07  0.2066E-07  0.1064E-07  0.6613E-08  0.2472E-08  0.0000E+00  0.0000E+00  0.0000E+00  0.0000E+00  0.0000E+00  0.0000E+00  0.0000E+00  0.0000E+00  0.0000E+00  0.0000E+00  0.0000E+00  0.0000E+00  0.0000E+00  0.0000E+00  0.0000E+00  0.0000E+00  0.0000E+00  0.0000E+00  0.0000E+00  0.0000E+00  0.0000E+00  0.0000E+00  0.0000E+00  0.0000E+00  0.0000E+00  0.0000E+00  0.0000E+00  0.0000E+00
  0.0000E+00  0.0000E+00  0.0000E+00  0.0000E+00  0.0000E+00  0.0000E+00  0.0000E+00  0.0000E+00  0.0000E+00  0.0000E+00  0.0000E+00  0.0000E+00  0.0000E+00  0.0000E+00  0.0000E+00  0.0000E+00  0.0000E+00  0.0000E+00  0.0000E+00  0.0000E+00  0.0000E+00  0.1725E-08  0.1916E-08  0.5784E-08  0.8076E-08  0.1486E-07  0.1832E-07  0.2848E-07  0.3543E-07  0.4760E-07  0.5398E-07  0.6792E-07  0.7769E-07  0.8733E-07  0.9838E-07  0.1062E-06  0.1094E-06  0.1166E-06  0.1193E-06  0.1191E-06  0.1152E-06  0.1094E-06  0.1043E-06  0.9550E-07  0.8410E-07  0.7130E-07  0.5702E-07  0.3981E-07  0.2489E-07  0.1192E-07  0.6812E-08  0.2505E-08  0.0000E+00  0.0000E+00  0.0000E+00  0.0000E+00  0.0000E+00  0.0000E+00  0.0000E+00  0.0000E+00  0.0000E+00  0.0000E+00  0.0000E+00  0.0000E+00  0.0000E+00  0.0000E+00  0.0000E+00  0.0000E+00  0.0000E+00  0.0000E+00  0.0000E+00  0.0000E+00  0.0000E+00  0.0000E+00  0.0000E+00  0.0000E+00  0.0000E+00  0.0000E+00  0.0000E+00
  0.0000E+00  0.0000E+00  0.0000E+00  0.0000E+00  0.0000E+00  0.0000E+00  0.0000E+00  0.0000E+00  0.0000E+00  0.0000E+00  0.0000E+00  0.0000E+00  0.0000E+00  0.0000E+00  0.0000E+00  0.0000E+00  0.0000E+00  0.0000E+00  0.0000E+00  0.0000E+00  0.1782E-08  0.3664E-08  0.6029E-08  0.1028E-07  0.1560E-07  0.2319E-07  0.3222E-07  0.4188E-07  0.5316E-07  0.6276E-07  0.7879E-07  0.8803E-07  0.1085E-06  0.1182E-06  0.1326E-06  0.1465E-06  0.1521E-06  0.1617E-06  0.1664E-06  0.1644E-06  0.1630E-06  0.1591E-06  0.1496E-06  0.1381E-06  0.1267E-06  0.1082E-06  0.8920E-07  0.6485E-07  0.4549E-07  0.2836E-07  0.1314E-07  0.6236E-08  0.1882E-08  0.0000E+00  0.0000E+00  0.0000E+00  0.0000E+00  0.0000E+00  0.0000E+00  0.0000E+00  0.0000E+00  0.0000E+00  0.0000E+00  0.0000E+00  0.0000E+00  0.0000E+00  0.0000E+00  0.0000E+00  0.0000E+00  0.0000E+00  0.0000E+00  0.0000E+00  0.0000E+00  0.0000E+00  0.0000E+00  0.0000E+00  0.0000E+00  0.0000E+00  0.0000E+00
  0.0000E+00  0.0000E+00  0.0000E+00  0.0000E+00  0.0000E+00  0.0000E+00  0.0000E+00  0.0000E+00  0.0000E+00  0.0000E+00  0.0000E+00  0.0000E+00  0.0000E+00  0.0000E+00  0.0000E+00  0.0000E+00  0.0000E+00  0.0000E+00  0.0000E+00  0.1821E-08  0.5533E-08  0.6216E-08  0.1260E-07  0.1621E-07  0.2845E-07  0.3370E-07  0.4875E-07  0.5615E-07  0.7436E-07  0.8675E-07  0.1058E-06  0.1208E-06  0.1395E-06  0.1557E-06  0.1745E-06  0.1925E-06  0.2058E-06  0.2156E-06  0.2273E-06  0.2274E-06  0.2271E-06  0.2233E-06  0.2157E-06  0.2008E-06  0.1829E-06  0.1603E-06  0.1368E-06  0.1053E-06  0.7672E-07  0.5020E-07  0.2984E-07  0.1344E-07  0.6209E-08  0.1832E-08  0.0000E+00  0.0000E+00  0.0000E+00  0.0000E+00  0.0000E+00  0.0000E+00  0.0000E+00  0.0000E+00  0.0000E+00  0.0000E+00  0.0000E+00  0.0000E+00  0.0000E+00  0.0000E+00  0.0000E+00  0.0000E+00  0.0000E+00  0.0000E+00  0.0000E+00  0.0000E+00  0.0000E+00  0.0000E+00  0.0000E+00  0.0000E+00  0.0000E+00
  0.0000E+00  0.0000E+00  0.0000E+00  0.0000E+00  0.0000E+00  0.0000E+00  0.0000E+00  0.0000E+00  0.0000E+00  0.0000E+00  0.0000E+00  0.0000E+00  0.0000E+00  0.0000E+00  0.0000E+00  0.0000E+00  0.0000E+00  0.1622E-08  0.1840E-08  0.5609E-08  0.6336E-08  0.1481E-07  0.1664E-07  0.2928E-07  0.3684E-07  0.5061E-07  0.6320E-07  0.7799E-07  0.9387E-07  0.1149E-06  0.1317E-06  0.1567E-06  0.1736E-06  0.2043E-06  0.2215E-06  0.2484E-06  0.2673E-06  0.2830E-06  0.3049E-06  0.3092E-06  0.3121E-06  0.3100E-06  0.3023E-06  0.2846E-06  0.2621E-06  0.2326E-06  0.2027E-06  0.1625E-06  0.1243E-06  0.8650E-07  0.5339E-07  0.3088E-07  0.1346E-07  0.5368E-08  0.1214E-08  0.0000E+00  0.0000E+00  0.0000E+00  0.0000E+00  0.0000E+00  0.0000E+00  0.0000E+00  0.0000E+00  0.0000E+00  0.0000E+00  0.0000E+00  0.0000E+00  0.0000E+00  0.0000E+00  0.0000E+00  0.0000E+00  0.0000E+00  0.0000E+00  0.0000E+00  0.0000E+00  0.0000E+00  0.0000E+00  0.0000E+00  0.0000E+00
  0.0000E+00  0.0000E+00  0.0000E+00  0.0000E+00  0.0000E+00  0.0000E+00  0.0000E+00  0.0000E+00  0.0000E+00  0.0000E+00  0.0000E+00  0.0000E+00  0.0000E+00  0.0000E+00  0.0000E+00  0.0000E+00  0.1614E-08  0.1841E-08  0.5624E-08  0.6389E-08  0.1495E-07  0.1872E-07  0.2979E-07  0.3982E-07  0.5194E-07  0.6749E-07  0.8324E-07  0.1004E-06  0.1203E-06  0.1448E-06  0.1662E-06  0.1958E-06  0.2212E-06  0.2546E-06  0.2818E-06  0.3123E-06  0.3425E-06  0.3666E-06  0.3913E-06  0.4141E-06  0.4234E-06  0.4260E-06  0.4444E-06  0.4228E-06  0.3934E-06  0.3757E-06  0.3288E-06  0.2631E-06  0.1932E-06  0.1376E-06  0.9460E-07  0.5713E-07  0.3030E-07  0.1154E-07  0.3766E-08  0.5950E-09  0.0000E+00  0.0000E+00  0.0000E+00  0.0000E+00  0.0000E+00  0.0000E+00  0.0000E+00  0.0000E+00  0.0000E+00  0.0000E+00  0.0000E+00  0.0000E+00  0.0000E+00  0.0000E+00  0.0000E+00  0.0000E+00  0.0000E+00  0.0000E+00  0.0000E+00  0.0000E+00  0.0000E+00  0.0000E+00  0.0000E+00
  0.0000E+00  0.0000E+00  0.0000E+00  0.0000E+00  0.0000E+00  0.0000E+00  0.0000E+00  0.0000E+00  0.0000E+00  0.0000E+00  0.0000E+00  0.0000E+00  0.0000E+00  0.0000E+00  0.0000E+00  0.0000E+00  0.1821E-08  0.5576E-08  0.6370E-08  0.1302E-07  0.1878E-07  0.2996E-07  0.4019E-07  0.5266E-07  0.6871E-07  0.8514E-07  0.1060E-06  0.1243E-06  0.1536E-06  0.1737E-06  0.2095E-06  0.2383E-06  0.2772E-06  0.3105E-06  0.3536E-06  0.3888E-06  0.4383E-06  0.4676E-06  0.5098E-06  0.5650E-06  0.5844E-06  0.6402E-06  0.6971E-06  0.6719E-06  0.6889E-06  0.6403E-06  0.5831E-06  0.4698E-06  0.3780E-06  0.2239E-06  0.1539E-06  0.1001E-06  0.5841E-07  0.2901E-07  0.1020E-07  0.2846E-08  0.0000E+00  0.0000E+00  0.0000E+00  0.0000E+00  0.0000E+00  0.0000E+00  0.0000E+00  0.0000E+00  0.0000E+00  0.0000E+00  0.0000E+00  0.0000E+00  0.0000E+00  0.0000E+00  0.0000E+00  0.0000E+00  0.0000E+00  0.0000E+00  0.0000E+00  0.0000E+00  0.0000E+00  0.0000E+00  0.0000E+00
  0.0000E+00  0.0000E+00  0.0000E+00  0.0000E+00  0.0000E+00  0.0000E+00  0.0000E+00  0.0000E+00  0.0000E+00  0.0000E+00  0.0000E+00  0.0000E+00  0.0000E+00  0.0000E+00  0.0000E+00  0.1783E-08  0.3735E-08  0.6281E-08  0.1287E-07  0.1683E-07  0.2978E-07  0.3800E-07  0.5277E-07  0.6911E-07  0.8601E-07  0.1076E-06  0.1268E-06  0.1574E-06  0.1791E-06  0.2172E-06  0.2519E-06  0.2915E-06  0.3336E-06  0.3845E-06  0.4330E-06  0.4844E-06  0.5365E-06  0.6160E-06  0.6682E-06  0.7870E-06  0.8742E-06  0.9865E-06  0.1110E-05  0.1127E-05  0.1128E-05  0.1033E-05  0.9253E-06  0.7844E-06  0.5642E-06  0.4407E-06  0.2531E-06  0.1642E-06  0.1017E-06  0.5579E-07  0.2506E-07  0.1090E-07  0.4105E-08  0.0000E+00  0.0000E+00  0.0000E+00  0.0000E+00  0.0000E+00  0.0000E+00  0.0000E+00  0.0000E+00  0.0000E+00  0.0000E+00  0.0000E+00  0.0000E+00  0.0000E+00  0.0000E+00  0.0000E+00  0.0000E+00  0.0000E+00  0.0000E+00  0.0000E+00  0.0000E+00  0.0000E+00  0.0000E+00
  0.0000E+00  0.0000E+00  0.0000E+00  0.0000E+00  0.0000E+00  0.0000E+00  0.0000E+00  0.0000E+00  0.0000E+00  0.0000E+00  0.0000E+00  0.0000E+00  0.0000E+00  0.0000E+00  0.1727E-08  0.3629E-08  0.6125E-08  0.1257E-07  0.1652E-07  0.2723E-07  0.3751E-07  0.5225E-07  0.6869E-07  0.8348E-07  0.1051E-06  0.1277E-06  0.1592E-06  0.1823E-06  0.2220E-06  0.2590E-06  0.3015E-06  0.3476E-06  0.4043E-06  0.4651E-06  0.5213E-06  0.5908E-06  0.6882E-06  0.8277E-06  0.9479E-06  0.1142E-05  0.1331E-05  0.1496E-05  0.1708E-05  0.1744E-05  0.1703E-05  0.1595E-05  0.1450E-05  0.1163E-05  0.9634E-06  0.6692E-06  0.5038E-06  0.2739E-06  0.1689E-06  0.9998E-07  0.5330E-07  0.3289E-07  0.1788E-07  0.7476E-08  0.1846E-08  0.0000E+00  0.0000E+00  0.0000E+00  0.0000E+00  0.0000E+00  0.0000E+00  0.0000E+00  0.0000E+00  0.0000E+00  0.0000E+00  0.0000E+00  0.0000E+00  0.0000E+00  0.0000E+00  0.0000E+00  0.0000E+00  0.0000E+00  0.0000E+00  0.0000E+00  0.0000E+00
  0.0000E+00  0.0000E+00  0.0000E+00  0.0000E+00  0.0000E+00  0.0000E+00  0.0000E+00  0.0000E+00  0.0000E+00  0.0000E+00  0.0000E+00  0.0000E+00  0.0000E+00  0.1655E-08  0.1918E-08  0.5907E-08  0.1033E-07  0.1604E-07  0.2647E-07  0.3471E-07  0.4887E-07  0.6294E-07  0.8233E-07  0.1040E-06  0.1244E-06  0.1558E-06  0.1829E-06  0.2237E-06  0.2623E-06  0.3072E-06  0.3562E-06  0.4170E-06  0.4837E-06  0.5479E-06  0.6567E-06  0.7711E-06  0.9018E-06  0.1090E-05  0.1373E-05  0.1659E-05  0.1977E-05  0.2328E-05  0.2482E-05  0.2570E-05  0.2512E-05  0.2371E-05  0.2160E-05  0.1849E-05  0.1519E-05  0.1165E-05  0.8177E-06  0.5588E-06  0.3052E-06  0.1681E-06  0.1016E-06  0.6390E-07  0.4126E-07  0.2721E-07  0.1290E-07  0.1924E-08  0.0000E+00  0.0000E+00  0.0000E+00  0.0000E+00  0.0000E+00  0.0000E+00  0.0000E+00  0.0000E+00  0.0000E+00  0.0000E+00  0.0000E+00  0.0000E+00  0.0000E+00  0.0000E+00  0.0000E+00  0.0000E+00  0.0000E+00  0.0000E+00  0.0000E+00
  0.0000E+00  0.0000E+00  0.0000E+00  0.0000E+00  0.0000E+00  0.0000E+00  0.0000E+00  0.0000E+00  0.0000E+00  0.0000E+00  0.0000E+00  0.0000E+00  0.0000E+00  0.1828E-08  0.5635E-08  0.8198E-08  0.1539E-07  0.2158E-07  0.3159E-07  0.4505E-07  0.5909E-07  0.7774E-07  0.9675E-07  0.1222E-06  0.1506E-06  0.1812E-06  0.2189E-06  0.2555E-06  0.3083E-06  0.3595E-06  0.4189E-06  0.4887E-06  0.5639E-06  0.6515E-06  0.8066E-06  0.9896E-06  0.1207E-05  0.1577E-05  0.1970E-05  0.2379E-05  0.2873E-05  0.3303E-05  0.3536E-05  0.3649E-05  0.3625E-05  0.3468E-05  0.3162E-05  0.2824E-05  0.2332E-05  0.1865E-05  0.1375E-05  0.9251E-06  0.5809E-06  0.2862E-06  0.1760E-06  0.1178E-06  0.8184E-07  0.5398E-07  0.2963E-07  0.1790E-07  0.4929E-08  0.0000E+00  0.0000E+00  0.0000E+00  0.0000E+00  0.0000E+00  0.0000E+00  0.0000E+00  0.0000E+00  0.0000E+00  0.0000E+00  0.0000E+00  0.0000E+00  0.0000E+00  0.0000E+00  0.0000E+00  0.0000E+00  0.0000E+00  0.0000E+00
  0.0000E+00  0.0000E+00  0.0000E+00  0.0000E+00  0.0000E+00  0.0000E+00  0.0000E+00  0.0000E+00  0.0000E+00  0.0000E+00  0.0000E+00  0.0000E+00  0.1724E-08  0.3650E-08  0.6207E-08  0.1280E-07  0.1697E-07  0.2810E-07  0.3900E-07  0.5468E-07  0.7243E-07  0.9131E-07  0.1157E-06  0.1411E-06  0.1743E-06  0.2115E-06  0.2518E-06  0.2972E-06  0.3500E-06  0.4184E-06  0.4861E-06  0.5694E-06  0.6565E-06  0.8172E-06  0.1018E-05  0.1258E-05  0.1693E-05  0.2153E-05  0.2825E-05  0.3368E-05  0.3987E-05  0.4562E-05  0.4898E-05  0.5085E-05  0.5100E-05  0.4894E-05  0.4619E-05  0.4105E-05  0.3588E-05  0.2884E-05  0.2227E-05  0.1565E-05  0.1000E-05  0.6136E-06  0.3693E-06  0.2043E-06  0.1454E-06  0.9223E-07  0.6149E-07  0.3555E-07  0.1784E-07  0.5034E-08  0.0000E+00  0.0000E+00  0.0000E+00  0.0000E+00  0.0000E+00  0.0000E+00  0.0000E+00  0.0000E+00  0.0000E+00  0.0000E+00  0.0000E+00  0.0000E+00  0.0000E+00  0.0000E+00  0.0000E+00  0.0000E+00  0.0000E+00
  0.0000E+00  0.0000E+00  0.0000E+00  0.0000E+00  0.0000E+00  0.0000E+00  0.0000E+00  0.0000E+00  0.0000E+00  0.0000E+00  0.0000E+00  0.1608E-08  0.1884E-08  0.5822E-08  0.8514E-08  0.1601E-07  0.2452E-07  0.3310E-07  0.4971E-07  0.6456E-07  0.8502E-07  0.1083E-06  0.1308E-06  0.1651E-06  0.1960E-06  0.2418E-06  0.2867E-06  0.3432E-06  0.4028E-06  0.4722E-06  0.5607E-06  0.6502E-06  0.8156E-06  0.1013E-05  0.1266E-05  0.1726E-05  0.2314E-05  0.2979E-05  0.3823E-05  0.4633E-05  0.5410E-05  0.6166E-05  0.6639E-05  0.6938E-05  0.6966E-05  0.6878E-05  0.6477E-05  0.6017E-05  0.5263E-05  0.4435E-05  0.3457E-05  0.2533E-05  0.1702E-05  0.1071E-05  0.6576E-06  0.4261E-06  0.2384E-06  0.1584E-06  0.1019E-06  0.6427E-07  0.3619E-07  0.1790E-07  0.6044E-08  0.0000E+00  0.0000E+00  0.0000E+00  0.0000E+00  0.0000E+00  0.0000E+00  0.0000E+00  0.0000E+00  0.0000E+00  0.0000E+00  0.0000E+00  0.0000E+00  0.0000E+00  0.0000E+00  0.0000E+00  0.0000E+00
  0.0000E+00  0.0000E+00  0.0000E+00  0.0000E+00  0.0000E+00  0.0000E+00  0.0000E+00  0.0000E+00  0.0000E+00  0.0000E+00  0.0000E+00  0.1748E-08  0.3717E-08  0.6343E-08  0.1311E-07  0.1927E-07  0.3107E-07  0.4247E-07  0.5675E-07  0.7796E-07  0.9554E-07  0.1244E-06  0.1519E-06  0.1848E-06  0.2254E-06  0.2699E-06  0.3284E-06  0.3872E-06  0.4562E-06  0.5384E-06  0.6293E-06  0.7661E-06  0.9601E-06  0.1277E-05  0.1680E-05  0.2279E-05  0.3039E-05  0.4020E-05  0.5143E-05  0.6230E-05  0.7203E-05  0.8183E-05  0.8838E-05  0.9301E-05  0.9476E-05  0.9450E-05  0.9116E-05  0.8529E-05  0.7682E-05  0.6544E-05  0.5300E-05  0.3970E-05  0.2779E-05  0.1795E-05  0.1153E-05  0.7703E-06  0.4624E-06  0.2733E-06  0.1640E-06  0.1028E-06  0.6127E-07  0.3480E-07  0.1674E-07  0.4267E-08  0.0000E+00  0.0000E+00  0.0000E+00  0.0000E+00  0.0000E+00  0.0000E+00  0.0000E+00  0.0000E+00  0.0000E+00  0.0000E+00  0.0000E+00  0.0000E+00  0.0000E+00  0.0000E+00  0.0000E+00
  0.0000E+00  0.0000E+00  0.0000E+00  0.0000E+00  0.0000E+00  0.0000E+00  0.0000E+00  0.0000E+00  0.0000E+00  0.0000E+00  0.1605E-08  0.1890E-08  0.5851E-08  0.8600E-08  0.1619E-07  0.2488E-07  0.3571E-07  0.5073E-07  0.6614E-07  0.8739E-07  0.1117E-06  0.1382E-06  0.1718E-06  0.2078E-06  0.2538E-06  0.3025E-06  0.3638E-06  0.4295E-06  0.5064E-06  0.6043E-06  0.7054E-06  0.8884E-06  0.1161E-05  0.1586E-05  0.2209E-05  0.2994E-05  0.4079E-05  0.5318E-05  0.6730E-05  0.8149E-05  0.9494E-05  0.1064E-04  0.1155E-04  0.1222E-04  0.1265E-04  0.1269E-04  0.1250E-04  0.1185E-04  0.1085E-04  0.9490E-05  0.7809E-05  0.6098E-05  0.4426E-05  0.2961E-05  0.1959E-05  0.1220E-05  0.7974E-06  0.4593E-06  0.2457E-06  0.1557E-06  0.9498E-07  0.5510E-07  0.3101E-07  0.1346E-07  0.2584E-08  0.0000E+00  0.0000E+00  0.0000E+00  0.0000E+00  0.0000E+00  0.0000E+00  0.0000E+00  0.0000E+00  0.0000E+00  0.0000E+00  0.0000E+00  0.0000E+00  0.0000E+00  0.0000E+00
  0.0000E+00  0.0000E+00  0.0000E+00  0.0000E+00  0.0000E+00  0.0000E+00  0.0000E+00  0.0000E+00  0.0000E+00  0.0000E+00  0.1726E-08  0.3684E-08  0.6304E-08  0.1305E-07  0.1926E-07  0.3109E-07  0.4058E-07  0.5719E-07  0.7630E-07  0.9693E-07  0.1265E-06  0.1523E-06  0.1895E-06  0.2321E-06  0.2791E-06  0.3407E-06  0.3999E-06  0.4780E-06  0.5669E-06  0.6660E-06  0.7846E-06  0.1052E-05  0.1454E-05  0.1945E-05  0.2772E-05  0.3912E-05  0.5366E-05  0.7041E-05  0.8684E-05  0.1050E-04  0.1222E-04  0.1370E-04  0.1489E-04  0.1591E-04  0.1650E-04  0.1689E-04  0.1671E-04  0.1612E-04  0.1495E-04  0.1329E-04  0.1121E-04  0.8919E-05  0.6625E-05  0.4631E-05  0.2998E-05  0.1964E-05  0.1184E-05  0.6935E-06  0.4193E-06  0.2206E-06  0.1377E-06  0.8213E-07  0.4835E-07  0.2447E-07  0.1070E-07  0.9631E-09  0.0000E+00  0.0000E+00  0.0000E+00  0.0000E+00  0.0000E+00  0.0000E+00  0.0000E+00  0.0000E+00  0.0000E+00  0.0000E+00  0.0000E+00  0.0000E+00  0.0000E+00
  0.0000E+00  0.0000E+00  0.0000E+00  0.0000E+00  0.0000E+00  0.0000E+00  0.0000E+00  0.0000E+00  0.0000E+00  0.0000E+00  0.1847E-08  0.5720E-08  0.8449E-08  0.1592E-07  0.2260E-07  0.3335E-07  0.5026E-07  0.6578E-07  0.8709E-07  0.1092E-06  0.1361E-06  0.1699E-06  0.2072E-06  0.2572E-06  0.3080E-06  0.3680E-06  0.4407E-06  0.5217E-06  0.6193E-06  0.7325E-06  0.9139E-06  0.1209E-05  0.1721E-05  0.2435E-05  0.3622E-05  0.5084E-05  0.6816E-05  0.9019E-05  0.1113E-04  0.1341E-04  0.1556E-04  0.1737E-04  0.1899E-04  0.2026E-04  0.2138E-04  0.2196E-04  0.2205E-04  0.2140E-04  0.2008E-04  0.1804E-04  0.1545E-04  0.1250E-04  0.9520E-05  0.6751E-05  0.4491E-05  0.2808E-05  0.1753E-05  0.1026E-05  0.5652E-06  0.3209E-06  0.1891E-06  0.1143E-06  0.6887E-07  0.3893E-07  0.1823E-07  0.5981E-08  0.0000E+00  0.0000E+00  0.0000E+00  0.0000E+00  0.0000E+00  0.0000E+00  0.0000E+00  0.0000E+00  0.0000E+00  0.0000E+00  0.0000E+00  0.0000E+00  0.0000E+00
  0.0000E+00  0.0000E+00  0.0000E+00  0.0000E+00  0.0000E+00  0.0000E+00  0.0000E+00  0.0000E+00  0.0000E+00  0.1660E-08  0.1965E-08  0.6094E-08  0.1082E-07  0.1697E-07  0.2824E-07  0.3963E-07  0.5593E-07  0.7482E-07  0.9299E-07  0.1193E-06  0.1482E-06  0.1880E-06  0.2279E-06  0.2754E-06  0.3336E-06  0.3985E-06  0.4773E-06  0.5689E-06  0.6712E-06  0.7880E-06  0.1061E-05  0.1481E-05  0.2106E-05  0.3160E-05  0.4529E-05  0.6412E-05  0.8694E-05  0.1133E-04  0.1407E-04  0.1681E-04  0.1946E-04  0.2178E-04  0.2390E-04  0.2570E-04  0.2719E-04  0.2814E-04  0.2836E-04  0.2777E-04  0.2621E-04  0.2380E-04  0.2063E-04  0.1685E-04  0.1305E-04  0.9343E-05  0.6217E-05  0.3947E-05  0.2387E-05  0.1390E-05  0.7815E-06  0.4567E-06  0.2445E-06  0.1521E-06  0.9190E-07  0.5425E-07  0.2786E-07  0.1257E-07  0.1991E-08  0.0000E+00  0.0000E+00  0.0000E+00  0.0000E+00  0.0000E+00  0.0000E+00  0.0000E+00  0.0000E+00  0.0000E+00  0.0000E+00  0.0000E+00  0.0000E+00
  0.0000E+00  0.0000E+00  0.0000E+00  0.0000E+00  0.0000E+00  0.0000E+00  0.0000E+00  0.0000E+00  0.0000E+00  0.1756E-08  0.3765E-08  0.6458E-08  0.1339E-07  0.1983E-07  0.3205E-07  0.4626E-07  0.5932E-07  0.7939E-07  0.1035E-06  0.1323E-06  0.1629E-06  0.1998E-06  0.2454E-06  0.2963E-06  0.3588E-06  0.4278E-06  0.5130E-06  0.6062E-06  0.7203E-06  0.8460E-06  0.1215E-05  0.1737E-05  0.2528E-05  0.3871E-05  0.5731E-05  0.8124E-05  0.1088E-04  0.1416E-04  0.1754E-04  0.2083E-04  0.2406E-04  0.2700E-04  0.2965E-04  0.3214E-04  0.3404E-04  0.3541E-04  0.3581E-04  0.3512E-04  0.3332E-04  0.3036E-04  0.2638E-04  0.2178E-04  0.1683E-04  0.1219E-04  0.8165E-05  0.5094E-05  0.3079E-05  0.1809E-05  0.1014E-05  0.5624E-06  0.3079E-06  0.1914E-06  0.1189E-06  0.7035E-07  0.3940E-07  0.1817E-07  0.6173E-08  0.0000E+00  0.0000E+00  0.0000E+00  0.0000E+00  0.0000E+00  0.0000E+00  0.0000E+00  0.0000E+00  0.0000E+00  0.0000E+00  0.0000E+00  0.0000E+00
  0.0000E+00  0.0000E+00  0.0000E+00  0.0000E+00  0.0000E+00  0.0000E+00  0.0000E+00  0.0000E+00  0.0000E+00  0.1849E-08  0.5731E-08  0.8510E-08  0.1604E-07  0.2479E-07  0.3379E-07  0.4877E-07  0.6694E-07  0.8878E-07  0.1092E-06  0.1396E-06  0.1748E-06  0.2138E-06  0.2591E-06  0.3161E-06  0.3829E-06  0.4560E-06  0.5462E-06  0.6452E-06  0.7613E-06  0.9001E-06  0.1352E-05  0.2075E-05  0.3057E-05  0.4745E-05  0.7024E-05  0.1011E-04  0.1363E-04  0.1743E-04  0.2155E-04  0.2555E-04  0.2939E-04  0.3300E-04  0.3650E-04  0.3947E-04  0.4205E-04  0.4365E-04  0.4418E-04  0.4333E-04  0.4105E-04  0.3733E-04  0.3246E-04  0.2668E-04  0.2070E-04  0.1494E-04  0.9973E-05  0.6239E-05  0.3740E-05  0.2169E-05  0.1215E-05  0.6675E-06  0.3658E-06  0.2321E-06  0.1424E-06  0.8701E-07  0.5037E-07  0.2746E-07  0.1132E-07  0.1979E-08  0.0000E+00  0.0000E+00  0.0000E+00  0.0000E+00  0.0000E+00  0.0000E+00  0.0000E+00  0.0000E+00  0.0000E+00  0.0000E+00  0.0000E+00
  0.0000E+00  0.0000E+00  0.0000E+00  0.0000E+00  0.0000E+00  0.0000E+00  0.0000E+00  0.0000E+00  0.1627E-08  0.1936E-08  0.6005E-08  0.1070E-07  0.1682E-07  0.2599E-07  0.3941E-07  0.5567E-07  0.7016E-07  0.9305E-07  0.1197E-06  0.1490E-06  0.1833E-06  0.2271E-06  0.2787E-06  0.3350E-06  0.4051E-06  0.4821E-06  0.5725E-06  0.6812E-06  0.7977E-06  0.9430E-06  0.1531E-05  0.2411E-05  0.3611E-05  0.5719E-05  0.8700E-05  0.1239E-04  0.1674E-04  0.2123E-04  0.2620E-04  0.3104E-04  0.3562E-04  0.4017E-04  0.4435E-04  0.4810E-04  0.5105E-04  0.5291E-04  0.5327E-04  0.5202E-04  0.4895E-04  0.4429E-04  0.3819E-04  0.3123E-04  0.2396E-04  0.1723E-04  0.1148E-04  0.7143E-05  0.4247E-05  0.2443E-05  0.1394E-05  0.7803E-06  0.4462E-06  0.2714E-06  0.1696E-06  0.1043E-06  0.6147E-07  0.3447E-07  0.1597E-07  0.4903E-08  0.0000E+00  0.0000E+00  0.0000E+00  0.0000E+00  0.0000E+00  0.0000E+00  0.0000E+00  0.0000E+00  0.0000E+00  0.0000E+00  0.0000E+00
  0.0000E+00  0.0000E+00  0.0000E+00  0.0000E+00  0.0000E+00  0.0000E+00  0.0000E+00  0.0000E+00  0.1694E-08  0.3644E-08  0.6258E-08  0.1115E-07  0.1930E-07  0.2916E-07  0.4106E-07  0.5799E-07  0.7776E-07  0.9933E-07  0.1247E-06  0.1552E-06  0.1939E-06  0.2395E-06  0.2901E-06  0.3487E-06  0.4215E-06  0.5015E-06  0.5953E-06  0.7080E-06  0.8339E-06  0.1012E-05  0.1725E-05  0.2793E-05  0.4390E-05  0.6923E-05  0.1053E-04  0.1509E-04  0.2031E-04  0.2573E-04  0.3165E-04  0.3742E-04  0.4296E-04  0.4834E-04  0.5334E-04  0.5767E-04  0.6097E-04  0.6273E-04  0.6278E-04  0.6073E-04  0.5650E-04  0.5047E-04  0.4291E-04  0.3450E-04  0.2624E-04  0.1865E-04  0.1232E-04  0.7622E-05  0.4549E-05  0.2634E-05  0.1498E-05  0.8495E-06  0.4942E-06  0.3041E-06  0.1946E-06  0.1220E-06  0.7212E-07  0.4034E-07  0.2194E-07  0.8175E-08  0.9551E-09  0.0000E+00  0.0000E+00  0.0000E+00  0.0000E+00  0.0000E+00  0.0000E+00  0.0000E+00  0.0000E+00  0.0000E+00  0.0000E+00
  0.0000E+00  0.0000E+00  0.0000E+00  0.0000E+00  0.0000E+00  0.0000E+00  0.0000E+00  0.0000E+00  0.1755E-08  0.3778E-08  0.6485E-08  0.1344E-07  0.2000E-07  0.3231E-07  0.4467E-07  0.6006E-07  0.8052E-07  0.1028E-06  0.1290E-06  0.1632E-06  0.2037E-06  0.2477E-06  0.3031E-06  0.3603E-06  0.4353E-06  0.5177E-06  0.6141E-06  0.7298E-06  0.8636E-06  0.1200E-05  0.1882E-05  0.3221E-05  0.5310E-05  0.8363E-05  0.1270E-04  0.1829E-04  0.2461E-04  0.3123E-04  0.3793E-04  0.4473E-04  0.5141E-04  0.5764E-04  0.6344E-04  0.6816E-04  0.7146E-04  0.7282E-04  0.7189E-04  0.6845E-04  0.6273E-04  0.5488E-04  0.4580E-04  0.3622E-04  0.2699E-04  0.1890E-04  0.1241E-04  0.7670E-05  0.4598E-05  0.2692E-05  0.1540E-05  0.8917E-06  0.5114E-06  0.3350E-06  0.2136E-06  0.1345E-06  0.8330E-07  0.4724E-07  0.2555E-07  0.1029E-07  0.2026E-08  0.0000E+00  0.0000E+00  0.0000E+00  0.0000E+00  0.0000E+00  0.0000E+00  0.0000E+00  0.0000E+00  0.0000E+00  0.0000E+00
  0.0000E+00  0.0000E+00  0.0000E+00  0.0000E+00  0.0000E+00  0.0000E+00  0.0000E+00  0.0000E+00  0.1808E-08  0.3895E-08  0.8360E-08  0.1574E-07  0.2061E-07  0.3328E-07  0.4812E-07  0.6404E-07  0.8288E-07  0.1081E-06  0.1355E-06  0.1678E-06  0.2093E-06  0.2544E-06  0.3111E-06  0.3697E-06  0.4463E-06  0.5303E-06  0.6286E-06  0.7462E-06  0.8771E-06  0.1327E-05  0.2116E-05  0.3714E-05  0.6410E-05  0.1029E-04  0.1555E-04  0.2210E-04  0.2957E-04  0.3742E-04  0.4527E-04  0.5333E-04  0.6090E-04  0.6826E-04  0.7452E-04  0.7929E-04  0.8204E-04  0.8232E-04  0.7975E-04  0.7446E-04  0.6651E-04  0.5690E-04  0.4627E-04  0.3571E-04  0.2612E-04  0.1806E-04  0.1175E-04  0.7269E-05  0.4379E-05  0.2579E-05  0.1508E-05  0.8854E-06  0.5391E-06  0.3563E-06  0.2291E-06  0.1462E-06  0.9027E-07  0.5295E-07  0.2996E-07  0.1364E-07  0.4182E-08  0.0000E+00  0.0000E+00  0.0000E+00  0.0000E+00  0.0000E+00  0.0000E+00  0.0000E+00  0.0000E+00  0.0000E+00  0.0000E+00
  0.0000E+00  0.0000E+00  0.0000E+00  0.0000E+00  0.0000E+00  0.0000E+00  0.0000E+00  0.0000E+00  0.1854E-08  0.5737E-08  0.8572E-08  0.1613E-07  0.2308E-07  0.3606E-07  0.4927E-07  0.6554E-07  0.8479E-07  0.1106E-06  0.1385E-06  0.1743E-06  0.2136E-06  0.2596E-06  0.3171E-06  0.3766E-06  0.4541E-06  0.5391E-06  0.6383E-06  0.7567E-06  0.8882E-06  0.1435E-05  0.2401E-05  0.4222E-05  0.7665E-05  0.1240E-04  0.1892E-04  0.2681E-04  0.3544E-04  0.4461E-04  0.5394E-04  0.6316E-04  0.7202E-04  0.7996E-04  0.8639E-04  0.9051E-04  0.9200E-04  0.9039E-04  0.8536E-04  0.7742E-04  0.6727E-04  0.5574E-04  0.4408E-04  0.3320E-04  0.2379E-04  0.1618E-04  0.1046E-04  0.6499E-05  0.3975E-05  0.2381E-05  0.1423E-05  0.8794E-06  0.5537E-06  0.3656E-06  0.2400E-06  0.1542E-06  0.9584E-07  0.5814E-07  0.3209E-07  0.1575E-07  0.5090E-08  0.0000E+00  0.0000E+00  0.0000E+00  0.0000E+00  0.0000E+00  0.0000E+00  0.0000E+00  0.0000E+00  0.0000E+00  0.0000E+00
  0.0000E+00  0.0000E+00  0.0000E+00  0.0000E+00  0.0000E+00  0.0000E+00  0.0000E+00  0.0000E+00  0.1890E-08  0.5848E-08  0.8741E-08  0.1644E-07  0.2544E-07  0.3672E-07  0.5015E-07  0.6668E-07  0.8622E-07  0.1123E-06  0.1406E-06  0.1769E-06  0.2195E-06  0.2630E-06  0.3210E-06  0.3810E-06  0.4587E-06  0.5430E-06  0.6525E-06  0.7695E-06  0.9070E-06  0.1584E-05  0.2912E-05  0.5018E-05  0.9160E-05  0.1508E-04  0.2292E-04  0.3236E-04  0.4246E-04  0.5334E-04  0.6413E-04  0.7466E-04  0.8437E-04  0.9254E-04  0.9829E-04  0.1010E-03  0.1002E-03  0.9544E-04  0.8744E-04  0.7657E-04  0.6415E-04  0.5141E-04  0.3944E-04  0.2896E-04  0.2036E-04  0.1371E-04  0.8836E-05  0.5532E-05  0.3436E-05  0.2096E-05  0.1302E-05  0.7998E-06  0.5476E-06  0.3671E-06  0.2436E-06  0.1571E-06  0.9974E-07  0.6084E-07  0.3375E-07  0.1727E-07  0.6430E-08  0.9288E-09  0.0000E+00  0.0000E+00  0.0000E+00  0.0000E+00  0.0000E+00  0.0000E+00  0.0000E+00  0.0000E+00  0.0000E+00
  0.0000E+00  0.0000E+00  0.0000E+00  0.0000E+00  0.0000E+00  0.0000E+00  0.0000E+00  0.1601E-08  0.1916E-08  0.5927E-08  0.8864E-08  0.1665E-07  0.2577E-07  0.3717E-07  0.5075E-07  0.6743E-07  0.8961E-07  0.1134E-06  0.1419E-06  0.1783E-06  0.2211E-06  0.2647E-06  0.3256E-06  0.3921E-06  0.4765E-06  0.5651E-06  0.6785E-06  0.8011E-06  0.9419E-06  0.1786E-05  0.3336E-05  0.5834E-05  0.1099E-04  0.1838E-04  0.2767E-04  0.3920E-04  0.5102E-04  0.6379E-04  0.7608E-04  0.8789E-04  0.9793E-04  0.1055E-03  0.1096E-03  0.1095E-03  0.1050E-03  0.9650E-04  0.8480E-04  0.7130E-04  0.5748E-04  0.4449E-04  0.3311E-04  0.2374E-04  0.1645E-04  0.1100E-04  0.7103E-05  0.4511E-05  0.2874E-05  0.1804E-05  0.1167E-05  0.7756E-06  0.5341E-06  0.3624E-06  0.2422E-06  0.1592E-06  0.1018E-06  0.6246E-07  0.3553E-07  0.1794E-07  0.6711E-08  0.9728E-09  0.0000E+00  0.0000E+00  0.0000E+00  0.0000E+00  0.0000E+00  0.0000E+00  0.0000E+00  0.0000E+00  0.0000E+00
  0.0000E+00  0.0000E+00  0.0000E+00  0.0000E+00  0.0000E+00  0.0000E+00  0.0000E+00  0.1615E-08  0.1933E-08  0.5974E-08  0.8938E-08  0.1678E-07  0.2596E-07  0.3742E-07  0.5105E-07  0.6779E-07  0.9002E-07  0.1139E-06  0.1423E-06  0.1786E-06  0.2213E-06  0.2776E-06  0.3392E-06  0.4134E-06  0.5048E-06  0.6093E-06  0.7240E-06  0.8536E-06  0.9998E-06  0.1966E-05  0.3862E-05  0.7054E-05  0.1346E-04  0.2221E-04  0.3391E-04  0.4739E-04  0.6173E-04  0.7628E-04  0.9037E-04  0.1029E-03  0.1124E-03  0.1180E-03  0.1187E-03  0.1143E-03  0.1051E-03  0.9208E-04  0.7720E-04  0.6208E-04  0.4808E-04  0.3594E-04  0.2605E-04  0.1839E-04  0.1260E-04  0.8447E-05  0.5522E-05  0.3586E-05  0.2314E-05  0.1523E-05  0.1027E-05  0.7302E-06  0.5134E-06  0.3534E-06  0.2373E-06  0.1571E-06  0.1018E-06  0.6293E-07  0.3605E-07  0.1832E-07  0.8405E-08  0.1002E-08  0.0000E+00  0.0000E+00  0.0000E+00  0.0000E+00  0.0000E+00  0.0000E+00  0.0000E+00  0.0000E+00  0.0000E+00
  0.0000E+00  0.0000E+00  0.0000E+00  0.0000E+00  0.0000E+00  0.0000E+00  0.0000E+00  0.1621E-08  0.1939E-08  0.5988E-08  0.8963E-08  0.1681E-07  0.2599E-07  0.3745E-07  0.5106E-07  0.6775E-07  0.8743E-07  0.1136E-06  0.1449E-06  0.1876E-06  0.2348E-06  0.3016E-06  0.3715E-06  0.4553E-06  0.5468E-06  0.6544E-06  0.7915E-06  0.9411E-06  0.1115E-05  0.2354E-05  0.4790E-05  0.8787E-05  0.1672E-04  0.2797E-04  0.4206E-04  0.5816E-04  0.7528E-04  0.9207E-04  0.1073E-03  0.1193E-03  0.1265E-03  0.1282E-03  0.1237E-03  0.1133E-03  0.9866E-04  0.8199E-04  0.6524E-04  0.5014E-04  0.3736E-04  0.2718E-04  0.1936E-04  0.1352E-04  0.9276E-05  0.6289E-05  0.4212E-05  0.2817E-05  0.1881E-05  0.1290E-05  0.9500E-06  0.6794E-06  0.4765E-06  0.3321E-06  0.2272E-06  0.1513E-06  0.9841E-07  0.6079E-07  0.3593E-07  0.1839E-07  0.8478E-08  0.1919E-08  0.0000E+00  0.0000E+00  0.0000E+00  0.0000E+00  0.0000E+00  0.0000E+00  0.0000E+00  0.0000E+00  0.0000E+00
  0.0000E+00  0.0000E+00  0.0000E+00  0.0000E+00  0.0000E+00  0.0000E+00  0.0000E+00  0.1617E-08  0.1935E-08  0.5970E-08  0.8938E-08  0.1674E-07  0.2588E-07  0.3727E-07  0.5078E-07  0.6732E-07  0.8679E-07  0.1200E-06  0.1576E-06  0.2057E-06  0.2669E-06  0.3306E-06  0.4221E-06  0.5174E-06  0.6343E-06  0.7722E-06  0.9369E-06  0.1108E-05  0.1396E-05  0.2930E-05  0.5963E-05  0.1160E-04  0.2163E-04  0.3528E-04  0.5319E-04  0.7276E-04  0.9289E-04  0.1114E-03  0.1264E-03  0.1358E-03  0.1382E-03  0.1335E-03  0.1217E-03  0.1050E-03  0.8592E-04  0.6722E-04  0.5083E-04  0.3751E-04  0.2715E-04  0.1940E-04  0.1373E-04  0.9582E-05  0.6678E-05  0.4609E-05  0.3160E-05  0.2136E-05  0.1534E-05  0.1158E-05  0.8530E-06  0.6215E-06  0.4427E-06  0.3089E-06  0.2104E-06  0.1401E-06  0.9075E-07  0.5681E-07  0.3324E-07  0.1815E-07  0.7456E-08  0.1912E-08  0.0000E+00  0.0000E+00  0.0000E+00  0.0000E+00  0.0000E+00  0.0000E+00  0.0000E+00  0.0000E+00  0.0000E+00
  0.0000E+00  0.0000E+00  0.0000E+00  0.0000E+00  0.0000E+00  0.0000E+00  0.0000E+00  0.1605E-08  0.1921E-08  0.5918E-08  0.8864E-08  0.1658E-07  0.2374E-07  0.3688E-07  0.5020E-07  0.6919E-07  0.9720E-07  0.1343E-06  0.1772E-06  0.2385E-06  0.3080E-06  0.3995E-06  0.5018E-06  0.6295E-06  0.8289E-06  0.1032E-05  0.1256E-05  0.1480E-05  0.1708E-05  0.3945E-05  0.8197E-05  0.1611E-04  0.2841E-04  0.4618E-04  0.6871E-04  0.9210E-04  0.1149E-03  0.1334E-03  0.1453E-03  0.1489E-03  0.1437E-03  0.1304E-03  0.1111E-03  0.8924E-04  0.6827E-04  0.5039E-04  0.3644E-04  0.2607E-04  0.1865E-04  0.1323E-04  0.9437E-05  0.6656E-05  0.4703E-05  0.3333E-05  0.2376E-05  0.1758E-05  0.1347E-05  0.1019E-05  0.7646E-06  0.5577E-06  0.3970E-06  0.2825E-06  0.1955E-06  0.1311E-06  0.8544E-07  0.5369E-07  0.3205E-07  0.1761E-07  0.7281E-08  0.9892E-09  0.0000E+00  0.0000E+00  0.0000E+00  0.0000E+00  0.0000E+00  0.0000E+00  0.0000E+00  0.0000E+00  0.0000E+00
  0.0000E+00  0.0000E+00  0.0000E+00  0.0000E+00  0.0000E+00  0.0000E+00  0.0000E+00  0.0000E+00  0.1896E-08  0.5834E-08  0.8741E-08  0.1634E-07  0.2339E-07  0.3628E-07  0.5185E-07  0.7810E-07  0.1096E-06  0.1561E-06  0.2121E-06  0.2871E-06  0.3737E-06  0.5187E-06  0.6746E-06  0.8459E-06  0.1080E-05  0.1323E-05  0.1576E-05  0.1840E-05  0.2419E-05  0.5053E-05  0.1099E-04  0.2193E-04  0.3887E-04  0.6213E-04  0.8917E-04  0.1161E-03  0.1389E-03  0.1539E-03  0.1589E-03  0.1536E-03  0.1386E-03  0.1165E-03  0.9193E-04  0.6852E-04  0.4928E-04  0.3475E-04  0.2444E-04  0.1729E-04  0.1234E-04  0.8860E-05  0.6432E-05  0.4585E-05  0.3351E-05  0.2570E-05  0.1971E-05  0.1526E-05  0.1168E-05  0.8912E-06  0.6686E-06  0.4949E-06  0.3575E-06  0.2523E-06  0.1749E-06  0.1198E-06  0.7833E-07  0.5052E-07  0.2923E-07  0.1579E-07  0.5479E-08  0.9525E-09  0.0000E+00  0.0000E+00  0.0000E+00  0.0000E+00  0.0000E+00  0.0000E+00  0.0000E+00  0.0000E+00  0.0000E+00
  0.0000E+00  0.0000E+00  0.0000E+00  0.0000E+00  0.0000E+00  0.0000E+00  0.0000E+00  0.0000E+00  0.1862E-08  0.4020E-08  0.8573E-08  0.1414E-07  0.2291E-07  0.3894E-07  0.6101E-07  0.9205E-07  0.1324E-06  0.1839E-06  0.2706E-06  0.3728E-06  0.4952E-06  0.6632E-06  0.8523E-06  0.1053E-05  0.1268E-05  0.1505E-05  0.1746E-05  0.2015E-05  0.3483E-05  0.7320E-05  0.1609E-04  0.3157E-04  0.5442E-04  0.8371E-04  0.1148E-03  0.1416E-03  0.1598E-03  0.1663E-03  0.1612E-03  0.1451E-03  0.1206E-03  0.9319E-04  0.6782E-04  0.4733E-04  0.3252E-04  0.2252E-04  0.1586E-04  0.1146E-04  0.8166E-05  0.5908E-05  0.4356E-05  0.3382E-05  0.2672E-05  0.2095E-05  0.1670E-05  0.1321E-05  0.1011E-05  0.7646E-06  0.5822E-06  0.4301E-06  0.3105E-06  0.2254E-06  0.1557E-06  0.1053E-06  0.6830E-07  0.4361E-07  0.2548E-07  0.1323E-07  0.5183E-08  0.0000E+00  0.0000E+00  0.0000E+00  0.0000E+00  0.0000E+00  0.0000E+00  0.0000E+00  0.0000E+00  0.0000E+00  0.0000E+00
  0.0000E+00  0.0000E+00  0.0000E+00  0.0000E+00  0.0000E+00  0.0000E+00  0.0000E+00  0.0000E+00  0.1819E-08  0.3926E-08  0.8360E-08  0.1510E-07  0.2674E-07  0.4431E-07  0.7397E-07  0.1100E-06  0.1673E-06  0.2448E-06  0.3386E-06  0.4635E-06  0.6091E-06  0.7727E-06  0.9519E-06  0.1151E-05  0.1374E-05  0.1620E-05  0.1895E-05  0.2575E-05  0.5182E-05  0.1187E-04  0.2457E-04  0.4628E-04  0.7603E-04  0.1100E-03  0.1407E-03  0.1618E-03  0.1701E-03  0.1652E-03  0.1487E-03  0.1227E-03  0.9309E-04  0.6583E-04  0.4444E-04  0.2971E-04  0.2031E-04  0.1438E-04  0.1033E-04  0.7624E-05  0.5843E-05  0.4373E-05  0.3501E-05  0.2694E-05  0.2171E-05  0.1762E-05  0.1452E-05  0.1143E-05  0.8717E-06  0.6591E-06  0.4954E-06  0.3710E-06  0.2717E-06  0.1931E-06  0.1362E-06  0.9384E-07  0.6114E-07  0.3784E-07  0.2230E-07  0.1122E-07  0.3885E-08  0.0000E+00  0.0000E+00  0.0000E+00  0.0000E+00  0.0000E+00  0.0000E+00  0.0000E+00  0.0000E+00  0.0000E+00  0.0000E+00
  0.0000E+00  0.0000E+00  0.0000E+00  0.0000E+00  0.0000E+00  0.0000E+00  0.0000E+00  0.0000E+00  0.1767E-08  0.3814E-08  0.9115E-08  0.1493E-07  0.3167E-07  0.5453E-07  0.8919E-07  0.1406E-06  0.2042E-06  0.3007E-06  0.4013E-06  0.5217E-06  0.6611E-06  0.8280E-06  0.1013E-05  0.1237E-05  0.1488E-05  0.1774E-05  0.2096E-05  0.3656E-05  0.8399E-05  0.1939E-04  0.3837E-04  0.6708E-04  0.1017E-03  0.1349E-03  0.1589E-03  0.1689E-03  0.1650E-03  0.1487E-03  0.1225E-03  0.9136E-04  0.6295E-04  0.4118E-04  0.2673E-04  0.1783E-04  0.1260E-04  0.9271E-05  0.7324E-05  0.5903E-05  0.4712E-05  0.3790E-05  0.3018E-05  0.2358E-05  0.1801E-05  0.1526E-05  0.1253E-05  0.9944E-06  0.7524E-06  0.5652E-06  0.4240E-06  0.3132E-06  0.2286E-06  0.1667E-06  0.1160E-06  0.7810E-07  0.5260E-07  0.3340E-07  0.1961E-07  0.9690E-08  0.3060E-08  0.0000E+00  0.0000E+00  0.0000E+00  0.0000E+00  0.0000E+00  0.0000E+00  0.0000E+00  0.0000E+00  0.0000E+00  0.0000E+00
  0.0000E+00  0.0000E+00  0.0000E+00  0.0000E+00  0.0000E+00  0.0000E+00  0.0000E+00  0.0000E+00  0.1708E-08  0.3685E-08  0.8750E-08  0.2037E-07  0.3706E-07  0.6617E-07  0.1102E-06  0.1682E-06  0.2466E-06  0.3300E-06  0.4372E-06  0.5581E-06  0.7110E-06  0.8897E-06  0.1104E-05  0.1350E-05  0.1641E-05  0.1971E-05  0.3043E-05  0.6529E-05  0.1524E-04  0.3198E-04  0.5832E-04  0.9237E-04  0.1258E-03  0.1512E-03  0.1626E-03  0.1605E-03  0.1451E-03  0.1194E-03  0.8806E-04  0.5904E-04  0.3735E-04  0.2342E-04  0.1573E-04  0.1120E-04  0.8629E-05  0.7011E-05  0.5796E-05  0.4879E-05  0.4170E-05  0.3502E-05  0.2742E-05  0.2224E-05  0.1755E-05  0.1323E-05  0.1087E-05  0.8667E-06  0.6588E-06  0.4821E-06  0.3646E-06  0.2650E-06  0.1938E-06  0.1379E-06  0.9971E-07  0.6675E-07  0.4320E-07  0.2557E-07  0.1494E-07  0.7314E-08  0.1931E-08  0.0000E+00  0.0000E+00  0.0000E+00  0.0000E+00  0.0000E+00  0.0000E+00  0.0000E+00  0.0000E+00  0.0000E+00  0.0000E+00
  0.0000E+00  0.0000E+00  0.0000E+00  0.0000E+00  0.0000E+00  0.0000E+00  0.0000E+00  0.0000E+00  0.1642E-08  0.3254E-08  0.1074E-07  0.2154E-07  0.4440E-07  0.8338E-07  0.1295E-06  0.1923E-06  0.2665E-06  0.3556E-06  0.4657E-06  0.6047E-06  0.7696E-06  0.9670E-06  0.1201E-05  0.1475E-05  0.1795E-05  0.2458E-05  0.4901E-05  0.1162E-04  0.2630E-04  0.5089E-04  0.8303E-04  0.1162E-03  0.1412E-03  0.1531E-03  0.1516E-03  0.1383E-03  0.1141E-03  0.8367E-04  0.5475E-04  0.3352E-04  0.2068E-04  0.1391E-04  0.9817E-05  0.7997E-05  0.6757E-05  0.5855E-05  0.5010E-05  0.4309E-05  0.3691E-05  0.3223E-05  0.2757E-05  0.2178E-05  0.1756E-05  0.1328E-05  0.9761E-06  0.7501E-06  0.5722E-06  0.4245E-06  0.3133E-06  0.2298E-06  0.1608E-06  0.1165E-06  0.8070E-07  0.5498E-07  0.3685E-07  0.2175E-07  0.1164E-07  0.4137E-08  0.0000E+00  0.0000E+00  0.0000E+00  0.0000E+00  0.0000E+00  0.0000E+00  0.0000E+00  0.0000E+00  0.0000E+00  0.0000E+00  0.0000E+00
  0.0000E+00  0.0000E+00  0.0000E+00  0.0000E+00  0.0000E+00  0.0000E+00  0.0000E+00  0.0000E+00  0.4849E-09  0.4785E-08  0.1082E-07  0.2839E-07  0.5731E-07  0.9592E-07  0.1479E-06  0.2058E-06  0.2844E-06  0.3773E-06  0.4960E-06  0.6462E-06  0.8243E-06  0.1043E-05  0.1296E-05  0.1597E-05  0.1935E-05  0.3491E-05  0.8728E-05  0.2127E-04  0.4366E-04  0.7469E-04  0.1073E-03  0.1310E-03  0.1418E-03  0.1405E-03  0.1289E-03  0.1071E-03  0.7828E-04  0.5025E-04  0.3065E-04  0.2017E-04  0.1437E-04  0.9960E-05  0.8044E-05  0.6994E-05  0.6215E-05  0.5540E-05  0.4882E-05  0.4323E-05  0.3781E-05  0.3191E-05  0.2774E-05  0.2299E-05  0.1771E-05  0.1366E-05  0.9838E-06  0.6837E-06  0.5035E-06  0.3729E-06  0.2796E-06  0.1970E-06  0.1398E-06  0.9581E-07  0.6672E-07  0.4438E-07  0.2768E-07  0.1609E-07  0.9573E-08  0.3091E-08  0.0000E+00  0.0000E+00  0.0000E+00  0.0000E+00  0.0000E+00  0.0000E+00  0.0000E+00  0.0000E+00  0.0000E+00  0.0000E+00  0.0000E+00
  0.0000E+00  0.0000E+00  0.0000E+00  0.0000E+00  0.0000E+00  0.0000E+00  0.0000E+00  0.0000E+00  0.9136E-09  0.6276E-08  0.1404E-07  0.3820E-07  0.6423E-07  0.1017E-06  0.1532E-06  0.2146E-06  0.2961E-06  0.4013E-06  0.5332E-06  0.6952E-06  0.8902E-06  0.1126E-05  0.1396E-05  0.1726E-05  0.2667E-05  0.6380E-05  0.1661E-04  0.3673E-04  0.6683E-04  0.9907E-04  0.1222E-03  0.1309E-03  0.1285E-03  0.1185E-03  0.9944E-04  0.7236E-04  0.4636E-04  0.2951E-04  0.2280E-04  0.2176E-04  0.1777E-04  0.1240E-04  0.8693E-05  0.7210E-05  0.6516E-05  0.5917E-05  0.5296E-05  0.4598E-05  0.4041E-05  0.3428E-05  0.2900E-05  0.2372E-05  0.1912E-05  0.1424E-05  0.1044E-05  0.7062E-06  0.4643E-06  0.3316E-06  0.2450E-06  0.1808E-06  0.1224E-06  0.8508E-07  0.5148E-07  0.3546E-07  0.2288E-07  0.1217E-07  0.4996E-08  0.9617E-09  0.0000E+00  0.0000E+00  0.0000E+00  0.0000E+00  0.0000E+00  0.0000E+00  0.0000E+00  0.0000E+00  0.0000E+00  0.0000E+00  0.0000E+00
  0.0000E+00  0.0000E+00  0.0000E+00  0.0000E+00  0.0000E+00  0.0000E+00  0.0000E+00  0.0000E+00  0.3033E-08  0.8768E-08  0.1986E-07  0.4074E-07  0.6770E-07  0.1087E-06  0.1612E-06  0.2303E-06  0.3189E-06  0.4319E-06  0.5722E-06  0.7471E-06  0.9579E-06  0.1209E-05  0.1510E-05  0.1953E-05  0.4242E-05  0.1202E-04  0.2990E-04  0.5855E-04  0.9070E-04  0.1132E-03  0.1197E-03  0.1156E-03  0.1072E-03  0.9102E-04  0.6631E-04  0.4179E-04  0.2756E-04  0.2516E-04  0.3202E-04  0.3781E-04  0.3042E-04  0.1849E-04  0.1105E-04  0.8135E-05  0.7091E-05  0.6379E-05  0.5700E-05  0.5057E-05  0.4281E-05  0.3729E-05  0.3060E-05  0.2559E-05  0.1999E-05  0.1569E-05  0.1110E-05  0.7768E-06  0.5131E-06  0.3066E-06  0.2221E-06  0.1621E-06  0.1147E-06  0.7119E-07  0.4727E-07  0.2686E-07  0.1547E-07  0.9691E-08  0.3756E-08  0.0000E+00  0.0000E+00  0.0000E+00  0.0000E+00  0.0000E+00  0.0000E+00  0.0000E+00  0.0000E+00  0.0000E+00  0.0000E+00  0.0000E+00  0.0000E+00
  0.0000E+00  0.0000E+00  0.0000E+00  0.0000E+00  0.0000E+00  0.0000E+00  0.0000E+00  0.2198E-08  0.4898E-08  0.1028E-07  0.2224E-07  0.4399E-07  0.7743E-07  0.1169E-06  0.1746E-06  0.2455E-06  0.3399E-06  0.4599E-06  0.6137E-06  0.8038E-06  0.1035E-05  0.1308E-05  0.1635E-05  0.2931E-05  0.8499E-05  0.2350E-04  0.5073E-04  0.8187E-04  0.1037E-03  0.1075E-03  0.1008E-03  0.9334E-04  0.8131E-04  0.5994E-04  0.3711E-04  0.2325E-04  0.2226E-04  0.3419E-04  0.4956E-04  0.5243E-04  0.4070E-04  0.2408E-04  0.1343E-04  0.9219E-05  0.7742E-05  0.6902E-05  0.6138E-05  0.5407E-05  0.4728E-05  0.4025E-05  0.3370E-05  0.2701E-05  0.2189E-05  0.1660E-05  0.1244E-05  0.8605E-06  0.5612E-06  0.3573E-06  0.2047E-06  0.1549E-06  0.1063E-06  0.7291E-07  0.4029E-07  0.2278E-07  0.1175E-07  0.4952E-08  0.9481E-09  0.0000E+00  0.0000E+00  0.0000E+00  0.0000E+00  0.0000E+00  0.0000E+00  0.0000E+00  0.0000E+00  0.0000E+00  0.0000E+00  0.0000E+00  0.0000E+00
  0.0000E+00  0.0000E+00  0.0000E+00  0.0000E+00  0.0000E+00  0.0000E+00  0.2179E-08  0.4864E-08  0.8148E-08  0.1406E-07  0.2587E-07  0.5021E-07  0.8321E-07  0.1241E-06  0.1827E-06  0.2577E-06  0.3637E-06  0.4978E-06  0.6639E-06  0.8668E-06  0.1117E-05  0.1412E-05  0.1894E-05  0.4665E-05  0.1590E-04  0.4333E-04  0.8111E-04  0.1049E-03  0.1014E-03  0.8602E-04  0.7705E-04  0.6946E-04  0.5217E-04  0.3253E-04  0.2013E-04  0.1676E-04  0.2633E-04  0.4326E-04  0.5044E-04  0.4857E-04  0.3732E-04  0.2289E-04  0.1369E-04  0.9974E-05  0.8439E-05  0.7483E-05  0.6621E-05  0.5811E-05  0.5052E-05  0.4360E-05  0.3679E-05  0.2992E-05  0.2358E-05  0.1852E-05  0.1347E-05  0.9735E-06  0.6483E-06  0.4014E-06  0.2455E-06  0.1449E-06  0.1038E-06  0.6884E-07  0.4353E-07  0.2005E-07  0.6185E-08  0.3589E-08  0.0000E+00  0.0000E+00  0.0000E+00  0.0000E+00  0.0000E+00  0.0000E+00  0.0000E+00  0.0000E+00  0.0000E+00  0.0000E+00  0.0000E+00  0.0000E+00  0.0000E+00
  0.0000E+00  0.0000E+00  0.0000E+00  0.0000E+00  0.0000E+00  0.1115E-08  0.3738E-08  0.7962E-08  0.1187E-07  0.1762E-07  0.3097E-07  0.5590E-07  0.8918E-07  0.1345E-06  0.1966E-06  0.2793E-06  0.3945E-06  0.5347E-06  0.7117E-06  0.9345E-06  0.1205E-05  0.1530E-05  0.2241E-05  0.5845E-05  0.2093E-04  0.5784E-04  0.1065E-03  0.1311E-03  0.1181E-03  0.9416E-04  0.7123E-04  0.4618E-04  0.2730E-04  0.1752E-04  0.1442E-04  0.1786E-04  0.2858E-04  0.3245E-04  0.3128E-04  0.2785E-04  0.2265E-04  0.1694E-04  0.1278E-04  0.1051E-04  0.9140E-05  0.8088E-05  0.7130E-05  0.6237E-05  0.5413E-05  0.4657E-05  0.3972E-05  0.3287E-05  0.2627E-05  0.2030E-05  0.1529E-05  0.1087E-05  0.7748E-06  0.4913E-06  0.2923E-06  0.1706E-06  0.1038E-06  0.7035E-07  0.4337E-07  0.1895E-07  0.7599E-08  0.0000E+00  0.0000E+00  0.0000E+00  0.0000E+00  0.0000E+00  0.0000E+00  0.0000E+00  0.0000E+00  0.0000E+00  0.0000E+00  0.0000E+00  0.0000E+00  0.0000E+00  0.0000E+00
  0.0000E+00  0.0000E+00  0.0000E+00  0.0000E+00  0.1074E-08  0.3600E-08  0.6714E-08  0.1053E-07  0.1516E-07  0.2166E-07  0.3740E-07  0.6246E-07  0.9701E-07  0.1464E-06  0.2100E-06  0.2990E-06  0.4222E-06  0.5743E-06  0.7688E-06  0.1008E-05  0.1302E-05  0.1654E-05  0.2268E-05  0.4992E-05  0.1548E-04  0.4034E-04  0.7363E-04  0.9715E-04  0.1053E-03  0.1024E-03  0.8406E-04  0.5579E-04  0.2982E-04  0.1436E-04  0.1569E-04  0.1569E-04  0.1660E-04  0.1736E-04  0.1782E-04  0.1764E-04  0.1647E-04  0.1450E-04  0.1263E-04  0.1112E-04  0.9831E-05  0.8694E-05  0.7658E-05  0.6689E-05  0.5789E-05  0.4976E-05  0.4238E-05  0.3548E-05  0.2901E-05  0.2271E-05  0.1703E-05  0.1243E-05  0.8538E-06  0.5796E-06  0.3617E-06  0.2091E-06  0.1180E-06  0.7176E-07  0.4427E-07  0.2255E-07  0.6407E-08  0.0000E+00  0.0000E+00  0.0000E+00  0.0000E+00  0.0000E+00  0.0000E+00  0.0000E+00  0.0000E+00  0.0000E+00  0.0000E+00  0.0000E+00  0.0000E+00  0.0000E+00  0.0000E+00
  0.0000E+00  0.0000E+00  0.0000E+00  0.0000E+00  0.2400E-08  0.5369E-08  0.9022E-08  0.1348E-07  0.1889E-07  0.2624E-07  0.4341E-07  0.6984E-07  0.1056E-06  0.1556E-06  0.2281E-06  0.3242E-06  0.4564E-06  0.6187E-06  0.8287E-06  0.1088E-05  0.1408E-05  0.1790E-05  0.2253E-05  0.3400E-05  0.6710E-05  0.1358E-04  0.2266E-04  0.3261E-04  0.4134E-04  0.4013E-04  0.2860E-04  0.1925E-04  0.1770E-04  0.1654E-04  0.1469E-04  0.1550E-04  0.1625E-04  0.1688E-04  0.1724E-04  0.1702E-04  0.1609E-04  0.1467E-04  0.1316E-04  0.1176E-04  0.1048E-04  0.9288E-05  0.8172E-05  0.7134E-05  0.6174E-05  0.5298E-05  0.4511E-05  0.3804E-05  0.3138E-05  0.2492E-05  0.1887E-05  0.1383E-05  0.1003E-05  0.6706E-06  0.4350E-06  0.2554E-06  0.1481E-06  0.7418E-07  0.4786E-07  0.2622E-07  0.1001E-07  0.3045E-08  0.0000E+00  0.0000E+00  0.0000E+00  0.0000E+00  0.0000E+00  0.0000E+00  0.0000E+00  0.0000E+00  0.0000E+00  0.0000E+00  0.0000E+00  0.0000E+00  0.0000E+00
  0.0000E+00  0.0000E+00  0.1870E-10  0.2304E-08  0.5126E-08  0.8594E-08  0.1280E-07  0.1710E-07  0.2340E-07  0.3227E-07  0.5024E-07  0.7549E-07  0.1174E-06  0.1691E-06  0.2484E-06  0.3513E-06  0.4895E-06  0.6698E-06  0.8984E-06  0.1176E-05  0.1526E-05  0.1941E-05  0.2432E-05  0.3021E-05  0.3876E-05  0.5265E-05  0.7370E-05  0.1280E-04  0.1874E-04  0.2266E-04  0.3103E-04  0.4133E-04  0.2788E-04  0.1663E-04  0.1562E-04  0.1612E-04  0.1683E-04  0.1731E-04  0.1746E-04  0.1708E-04  0.1619E-04  0.1498E-04  0.1366E-04  0.1233E-04  0.1105E-04  0.9825E-05  0.8666E-05  0.7567E-05  0.6547E-05  0.5620E-05  0.4788E-05  0.4039E-05  0.3357E-05  0.2704E-05  0.2107E-05  0.1565E-05  0.1110E-05  0.7789E-06  0.5108E-06  0.3289E-06  0.1774E-06  0.1007E-06  0.5489E-07  0.3269E-07  0.1685E-07  0.6308E-08  0.0000E+00  0.0000E+00  0.0000E+00  0.0000E+00  0.0000E+00  0.0000E+00  0.0000E+00  0.0000E+00  0.0000E+00  0.0000E+00  0.0000E+00  0.0000E+00  0.0000E+00
  0.0000E+00  0.2623E-10  0.1153E-08  0.3796E-08  0.7015E-08  0.1100E-07  0.1586E-07  0.2097E-07  0.2823E-07  0.3990E-07  0.5809E-07  0.8827E-07  0.1295E-06  0.1891E-06  0.2720E-06  0.3873E-06  0.5378E-06  0.7267E-06  0.9725E-06  0.1275E-05  0.1645E-05  0.2098E-05  0.2634E-05  0.3261E-05  0.3995E-05  0.5305E-05  0.8822E-05  0.1825E-04  0.3534E-04  0.5472E-04  0.5925E-04  0.3826E-04  0.2319E-04  0.1709E-04  0.1678E-04  0.1688E-04  0.1738E-04  0.1772E-04  0.1770E-04  0.1724E-04  0.1640E-04  0.1531E-04  0.1409E-04  0.1282E-04  0.1155E-04  0.1031E-04  0.9108E-05  0.7969E-05  0.6904E-05  0.5930E-05  0.5054E-05  0.4264E-05  0.3565E-05  0.2898E-05  0.2277E-05  0.1731E-05  0.1272E-05  0.9011E-06  0.6055E-06  0.3934E-06  0.2335E-06  0.1270E-06  0.5760E-07  0.3769E-07  0.2403E-07  0.9735E-08  0.2968E-08  0.0000E+00  0.0000E+00  0.0000E+00  0.0000E+00  0.0000E+00  0.0000E+00  0.0000E+00  0.0000E+00  0.0000E+00  0.0000E+00  0.0000E+00  0.0000E+00
  0.0000E+00  0.3684E-10  0.2489E-08  0.5509E-08  0.9217E-08  0.1369E-07  0.1838E-07  0.2511E-07  0.3525E-07  0.4972E-07  0.7208E-07  0.1053E-06  0.1503E-06  0.2157E-06  0.3048E-06  0.4248E-06  0.5842E-06  0.7905E-06  0.1051E-05  0.1380E-05  0.1781E-05  0.2263E-05  0.2842E-05  0.3520E-05  0.4434E-05  0.7134E-05  0.1689E-04  0.4119E-04  0.7003E-04  0.6980E-04  0.4417E-04  0.3118E-04  0.2402E-04  0.1926E-04  0.1864E-04  0.1813E-04  0.1815E-04  0.1822E-04  0.1801E-04  0.1747E-04  0.1668E-04  0.1566E-04  0.1450E-04  0.1326E-04  0.1199E-04  0.1074E-04  0.9507E-05  0.8325E-05  0.7226E-05  0.6215E-05  0.5304E-05  0.4480E-05  0.3740E-05  0.3070E-05  0.2455E-05  0.1886E-05  0.1400E-05  0.1011E-05  0.6949E-06  0.4618E-06  0.2819E-06  0.1509E-06  0.8053E-07  0.4303E-07  0.2525E-07  0.1022E-07  0.3119E-08  0.0000E+00  0.0000E+00  0.0000E+00  0.0000E+00  0.0000E+00  0.0000E+00  0.0000E+00  0.0000E+00  0.0000E+00  0.0000E+00  0.0000E+00  0.0000E+00
  0.4607E-10  0.1234E-08  0.4011E-08  0.7358E-08  0.1152E-07  0.1575E-07  0.2205E-07  0.2965E-07  0.4260E-07  0.6040E-07  0.9053E-07  0.1274E-06  0.1753E-06  0.2450E-06  0.3409E-06  0.4693E-06  0.6372E-06  0.8589E-06  0.1138E-05  0.1489E-05  0.1921E-05  0.2443E-05  0.3059E-05  0.3786E-05  0.4952E-05  0.9261E-05  0.2424E-04  0.5456E-04  0.7617E-04  0.6056E-04  0.3761E-04  0.3194E-04  0.2756E-04  0.2402E-04  0.2204E-04  0.2055E-04  0.1978E-04  0.1930E-04  0.1875E-04  0.1802E-04  0.1711E-04  0.1606E-04  0.1490E-04  0.1366E-04  0.1238E-04  0.1111E-04  0.9854E-05  0.8647E-05  0.7515E-05  0.6471E-05  0.5524E-05  0.4679E-05  0.3924E-05  0.3217E-05  0.2572E-05  0.2027E-05  0.1544E-05  0.1122E-05  0.7949E-06  0.5360E-06  0.3326E-06  0.1967E-06  0.1100E-06  0.5380E-07  0.2960E-07  0.1695E-07  0.6350E-08  0.0000E+00  0.0000E+00  0.0000E+00  0.0000E+00  0.0000E+00  0.0000E+00  0.0000E+00  0.0000E+00  0.0000E+00  0.0000E+00  0.0000E+00  0.0000E+00
  0.5937E-10  0.2592E-08  0.5695E-08  0.9406E-08  0.1315E-07  0.1880E-07  0.2507E-07  0.3577E-07  0.5154E-07  0.7724E-07  0.1082E-06  0.1519E-06  0.2053E-06  0.2803E-06  0.3814E-06  0.5184E-06  0.6986E-06  0.9342E-06  0.1233E-05  0.1610E-05  0.2068E-05  0.2626E-05  0.3285E-05  0.4056E-05  0.5338E-05  0.9709E-05  0.2424E-04  0.5099E-04  0.7159E-04  0.6446E-04  0.4474E-04  0.3405E-04  0.3087E-04  0.2941E-04  0.2738E-04  0.2498E-04  0.2299E-04  0.2151E-04  0.2024E-04  0.1903E-04  0.1783E-04  0.1660E-04  0.1534E-04  0.1406E-04  0.1274E-04  0.1143E-04  0.1015E-04  0.8919E-05  0.7761E-05  0.6690E-05  0.5722E-05  0.4847E-05  0.4061E-05  0.3347E-05  0.2705E-05  0.2140E-05  0.1656E-05  0.1240E-05  0.8850E-06  0.6093E-06  0.3955E-06  0.2392E-06  0.1319E-06  0.6995E-07  0.3417E-07  0.2070E-07  0.6610E-08  0.0000E+00  0.0000E+00  0.0000E+00  0.0000E+00  0.0000E+00  0.0000E+00  0.0000E+00  0.0000E+00  0.0000E+00  0.0000E+00  0.0000E+00  0.0000E+00
  0.1276E-08  0.3997E-08  0.7407E-08  0.1068E-07  0.1587E-07  0.2122E-07  0.2990E-07  0.4319E-07  0.6221E-07  0.9282E-07  0.1282E-06  0.1752E-06  0.2364E-06  0.3190E-06  0.4268E-06  0.5723E-06  0.7646E-06  0.1017E-05  0.1336E-05  0.1733E-05  0.2222E-05  0.2813E-05  0.3511E-05  0.4327E-05  0.5477E-05  0.9185E-05  0.2098E-04  0.4350E-04  0.6698E-04  0.7184E-04  0.5693E-04  0.3992E-04  0.3323E-04  0.3227E-04  0.3181E-04  0.3029E-04  0.2791E-04  0.2538E-04  0.2306E-04  0.2102E-04  0.1918E-04  0.1753E-04  0.1599E-04  0.1453E-04  0.1311E-04  0.1173E-04  0.1040E-04  0.9147E-05  0.7965E-05  0.6875E-05  0.5881E-05  0.4988E-05  0.4192E-05  0.3464E-05  0.2812E-05  0.2241E-05  0.1757E-05  0.1337E-05  0.9735E-06  0.6868E-06  0.4494E-06  0.2792E-06  0.1541E-06  0.8688E-07  0.3863E-07  0.2146E-07  0.9970E-08  0.3057E-08  0.0000E+00  0.0000E+00  0.0000E+00  0.0000E+00  0.0000E+00  0.0000E+00  0.0000E+00  0.0000E+00  0.0000E+00  0.0000E+00  0.0000E+00
  0.2600E-08  0.5554E-08  0.8255E-08  0.1287E-07  0.1765E-07  0.2476E-07  0.3446E-07  0.5064E-07  0.7436E-07  0.1065E-06  0.1471E-06  0.2018E-06  0.2681E-06  0.3609E-06  0.4775E-06  0.6346E-06  0.8397E-06  0.1102E-05  0.1439E-05  0.1862E-05  0.2378E-05  0.3001E-05  0.3737E-05  0.4593E-05  0.5571E-05  0.8571E-05  0.1764E-04  0.3657E-04  0.6092E-04  0.7523E-04  0.6842E-04  0.4996E-04  0.3698E-04  0.3332E-04  0.3325E-04  0.3319E-04  0.3192E-04  0.2951E-04  0.2664E-04  0.2381E-04  0.2124E-04  0.1897E-04  0.1698E-04  0.1519E-04  0.1356E-04  0.1205E-04  0.1065E-04  0.9341E-05  0.8129E-05  0.7017E-05  0.6007E-05  0.5098E-05  0.4277E-05  0.3550E-05  0.2892E-05  0.2330E-05  0.1830E-05  0.1414E-05  0.1062E-05  0.7487E-06  0.5092E-06  0.3230E-06  0.1829E-06  0.1011E-06  0.4555E-07  0.2539E-07  0.1330E-07  0.3157E-08  0.0000E+00  0.0000E+00  0.0000E+00  0.0000E+00  0.0000E+00  0.0000E+00  0.0000E+00  0.0000E+00  0.0000E+00  0.0000E+00  0.0000E+00
  0.2885E-08  0.6260E-08  0.1021E-07  0.1418E-07  0.2032E-07  0.2810E-07  0.4023E-07  0.5885E-07  0.8531E-07  0.1217E-06  0.1683E-06  0.2258E-06  0.3043E-06  0.4053E-06  0.5341E-06  0.6994E-06  0.9167E-06  0.1195E-05  0.1548E-05  0.1991E-05  0.2532E-05  0.3184E-05  0.3954E-05  0.4843E-05  0.5852E-05  0.8140E-05  0.1509E-04  0.3048E-04  0.5345E-04  0.7338E-04  0.7631E-04  0.6173E-04  0.4403E-04  0.3482E-04  0.3259E-04  0.3268E-04  0.3250E-04  0.3117E-04  0.2887E-04  0.2611E-04  0.2326E-04  0.2059E-04  0.1818E-04  0.1603E-04  0.1412E-04  0.1240E-04  0.1087E-04  0.9496E-05  0.8248E-05  0.7120E-05  0.6095E-05  0.5176E-05  0.4348E-05  0.3621E-05  0.2963E-05  0.2384E-05  0.1889E-05  0.1490E-05  0.1131E-05  0.8210E-06  0.5714E-06  0.3708E-06  0.2163E-06  0.1155E-06  0.5743E-07  0.2921E-07  0.1367E-07  0.6279E-08  0.0000E+00  0.0000E+00  0.0000E+00  0.0000E+00  0.0000E+00  0.0000E+00  0.0000E+00  0.0000E+00  0.0000E+00  0.0000E+00  0.0000E+00
  0.4256E-08  0.6862E-08  0.1132E-07  0.1564E-07  0.2232E-07  0.3169E-07  0.4559E-07  0.6841E-07  0.9865E-07  0.1381E-06  0.1865E-06  0.2538E-06  0.3406E-06  0.4496E-06  0.5891E-06  0.7688E-06  0.9967E-06  0.1288E-05  0.1660E-05  0.2120E-05  0.2683E-05  0.3360E-05  0.4156E-05  0.5072E-05  0.6104E-05  0.8043E-05  0.1326E-04  0.2557E-04  0.4599E-04  0.6814E-04  0.7939E-04  0.7206E-04  0.5407E-04  0.3903E-04  0.3249E-04  0.3070E-04  0.3050E-04  0.2998E-04  0.2867E-04  0.2665E-04  0.2422E-04  0.2167E-04  0.1917E-04  0.1684E-04  0.1471E-04  0.1280E-04  0.1109E-04  0.9616E-05  0.8324E-05  0.7170E-05  0.6128E-05  0.5198E-05  0.4366E-05  0.3630E-05  0.3003E-05  0.2441E-05  0.1960E-05  0.1536E-05  0.1175E-05  0.8719E-06  0.6126E-06  0.4069E-06  0.2442E-06  0.1358E-06  0.7291E-07  0.2984E-07  0.1398E-07  0.6421E-08  0.0000E+00  0.0000E+00  0.0000E+00  0.0000E+00  0.0000E+00  0.0000E+00  0.0000E+00  0.0000E+00  0.0000E+00  0.0000E+00  0.0000E+00
  0.4624E-08  0.8487E-08  0.1225E-07  0.1783E-07  0.2425E-07  0.3443E-07  0.5261E-07  0.7627E-07  0.1099E-06  0.1518E-06  0.2076E-06  0.2813E-06  0.3741E-06  0.4939E-06  0.6437E-06  0.8358E-06  0.1078E-05  0.1382E-05  0.1767E-05  0.2244E-05  0.2827E-05  0.3521E-05  0.4334E-05  0.5268E-05  0.6317E-05  0.8015E-05  0.1212E-04  0.2218E-04  0.4001E-04  0.6214E-04  0.7853E-04  0.7958E-04  0.6505E-04  0.4681E-04  0.3493E-04  0.2990E-04  0.2829E-04  0.2776E-04  0.2705E-04  0.2575E-04  0.2392E-04  0.2182E-04  0.1956E-04  0.1730E-04  0.1513E-04  0.1312E-04  0.1129E-04  0.9704E-05  0.8344E-05  0.7182E-05  0.6143E-05  0.5214E-05  0.4397E-05  0.3671E-05  0.3022E-05  0.2451E-05  0.1987E-05  0.1566E-05  0.1228E-05  0.9175E-06  0.6540E-06  0.4409E-06  0.2722E-06  0.1499E-06  0.7469E-07  0.3604E-07  0.1424E-07  0.6536E-08  0.0000E+00  0.0000E+00  0.0000E+00  0.0000E+00  0.0000E+00  0.0000E+00  0.0000E+00  0.0000E+00  0.0000E+00  0.0000E+00  0.0000E+00
  0.6152E-08  0.9109E-08  0.1404E-07  0.1922E-07  0.2674E-07  0.3864E-07  0.5802E-07  0.8730E-07  0.1201E-06  0.1660E-06  0.2285E-06  0.3067E-06  0.4086E-06  0.5339E-06  0.6942E-06  0.8993E-06  0.1154E-05  0.1471E-05  0.1867E-05  0.2356E-05  0.2952E-05  0.3663E-05  0.4489E-05  0.5426E-05  0.6482E-05  0.7907E-05  0.1174E-04  0.2033E-04  0.3566E-04  0.5622E-04  0.7526E-04  0.8339E-04  0.7539E-04  0.5750E-04  0.4099E-04  0.3171E-04  0.2776E-04  0.2612E-04  0.2511E-04  0.2424E-04  0.2290E-04  0.2120E-04  0.1929E-04  0.1726E-04  0.1522E-04  0.1324E-04  0.1140E-04  0.9754E-05  0.8332E-05  0.7122E-05  0.6088E-05  0.5171E-05  0.4360E-05  0.3641E-05  0.3019E-05  0.2473E-05  0.2004E-05  0.1594E-05  0.1250E-05  0.9465E-06  0.7009E-06  0.4678E-06  0.2918E-06  0.1641E-06  0.8705E-07  0.3661E-07  0.2068E-07  0.6624E-08  0.0000E+00  0.0000E+00  0.0000E+00  0.0000E+00  0.0000E+00  0.0000E+00  0.0000E+00  0.0000E+00  0.0000E+00  0.0000E+00  0.0000E+00
  0.6538E-08  0.9666E-08  0.1485E-07  0.2057E-07  0.2971E-07  0.4349E-07  0.6605E-07  0.9384E-07  0.1314E-06  0.1813E-06  0.2470E-06  0.3308E-06  0.4384E-06  0.5726E-06  0.7416E-06  0.9551E-06  0.1221E-05  0.1551E-05  0.1957E-05  0.2453E-05  0.3058E-05  0.3775E-05  0.4605E-05  0.5545E-05  0.6595E-05  0.7807E-05  0.1164E-04  0.1915E-04  0.3209E-04  0.5008E-04  0.6968E-04  0.8302E-04  0.8268E-04  0.6867E-04  0.5016E-04  0.3628E-04  0.2902E-04  0.2576E-04  0.2408E-04  0.2279E-04  0.2151E-04  0.2015E-04  0.1853E-04  0.1677E-04  0.1493E-04  0.1310E-04  0.1134E-04  0.9719E-05  0.8280E-05  0.7047E-05  0.6006E-05  0.5108E-05  0.4309E-05  0.3619E-05  0.3010E-05  0.2460E-05  0.2003E-05  0.1618E-05  0.1269E-05  0.9687E-06  0.7126E-06  0.4947E-06  0.3211E-06  0.1836E-06  0.9433E-07  0.4280E-07  0.2085E-07  0.6683E-08  0.2996E-08  0.0000E+00  0.0000E+00  0.0000E+00  0.0000E+00  0.0000E+00  0.0000E+00  0.0000E+00  0.0000E+00  0.0000E+00  0.0000E+00
  0.7023E-08  0.1030E-07  0.1555E-07  0.2261E-07  0.3292E-07  0.4673E-07  0.7052E-07  0.1012E-06  0.1397E-06  0.1953E-06  0.2640E-06  0.3517E-06  0.4655E-06  0.6067E-06  0.7825E-06  0.1001E-05  0.1277E-05  0.1617E-05  0.2030E-05  0.2535E-05  0.3140E-05  0.3855E-05  0.4680E-05  0.5618E-05  0.6652E-05  0.8472E-05  0.1221E-04  0.1904E-04  0.2918E-04  0.4394E-04  0.6142E-04  0.7685E-04  0.8328E-04  0.7683E-04  0.6054E-04  0.4366E-04  0.3246E-04  0.2666E-04  0.2374E-04  0.2198E-04  0.2054E-04  0.1901E-04  0.1750E-04  0.1597E-04  0.1435E-04  0.1270E-04  0.1108E-04  0.9553E-05  0.8163E-05  0.6948E-05  0.5904E-05  0.5012E-05  0.4242E-05  0.3554E-05  0.2961E-05  0.2440E-05  0.1993E-05  0.1603E-05  0.1267E-05  0.9747E-06  0.7247E-06  0.5082E-06  0.3262E-06  0.1882E-06  0.1003E-06  0.4799E-07  0.1777E-07  0.6713E-08  0.3013E-08  0.0000E+00  0.0000E+00  0.0000E+00  0.0000E+00  0.0000E+00  0.0000E+00  0.0000E+00  0.0000E+00  0.0000E+00  0.0000E+00
  0.7302E-08  0.1231E-07  0.1726E-07  0.2397E-07  0.3499E-07  0.5128E-07  0.7508E-07  0.1072E-06  0.1506E-06  0.2069E-06  0.2794E-06  0.3713E-06  0.4888E-06  0.6338E-06  0.8129E-06  0.1037E-05  0.1317E-05  0.1662E-05  0.2085E-05  0.2591E-05  0.3192E-05  0.3900E-05  0.4716E-05  0.5637E-05  0.6653E-05  0.8864E-05  0.1259E-04  0.1853E-04  0.2703E-04  0.3891E-04  0.5317E-04  0.6741E-04  0.7703E-04  0.7745E-04  0.6746E-04  0.5196E-04  0.3796E-04  0.2920E-04  0.2437E-04  0.2162E-04  0.1975E-04  0.1812E-04  0.1661E-04  0.1508E-04  0.1359E-04  0.1213E-04  0.1067E-04  0.9262E-05  0.7958E-05  0.6795E-05  0.5772E-05  0.4888E-05  0.4116E-05  0.3466E-05  0.2894E-05  0.2396E-05  0.1968E-05  0.1594E-05  0.1255E-05  0.9838E-06  0.7330E-06  0.5168E-06  0.3428E-06  0.2066E-06  0.1118E-06  0.4827E-07  0.1777E-07  0.6713E-08  0.3018E-08  0.0000E+00  0.0000E+00  0.0000E+00  0.0000E+00  0.0000E+00  0.0000E+00  0.0000E+00  0.0000E+00  0.0000E+00  0.0000E+00
  0.8006E-08  0.1309E-07  0.1823E-07  0.2551E-07  0.3700E-07  0.5410E-07  0.7994E-07  0.1118E-06  0.1579E-06  0.2163E-06  0.2917E-06  0.3867E-06  0.5052E-06  0.6533E-06  0.8360E-06  0.1061E-05  0.1344E-05  0.1692E-05  0.2113E-05  0.2619E-05  0.3213E-05  0.3907E-05  0.4705E-05  0.5605E-05  0.7103E-05  0.9407E-05  0.1304E-04  0.1806E-04  0.2540E-04  0.3509E-04  0.4660E-04  0.5851E-04  0.6822E-04  0.7234E-04  0.6866E-04  0.5772E-04  0.4415E-04  0.3309E-04  0.2621E-04  0.2208E-04  0.1943E-04  0.1748E-04  0.1580E-04  0.1430E-04  0.1284E-04  0.1146E-04  0.1015E-04  0.8875E-05  0.7674E-05  0.6585E-05  0.5610E-05  0.4763E-05  0.4026E-05  0.3379E-05  0.2823E-05  0.2348E-05  0.1942E-05  0.1573E-05  0.1245E-05  0.9709E-06  0.7247E-06  0.5301E-06  0.3475E-06  0.2133E-06  0.1142E-06  0.4833E-07  0.2333E-07  0.6683E-08  0.3008E-08  0.0000E+00  0.0000E+00  0.0000E+00  0.0000E+00  0.0000E+00  0.0000E+00  0.0000E+00  0.0000E+00  0.0000E+00  0.0000E+00
  0.8393E-08  0.1379E-07  0.1947E-07  0.2715E-07  0.4066E-07  0.5973E-07  0.8477E-07  0.1187E-06  0.1648E-06  0.2242E-06  0.3010E-06  0.3963E-06  0.5151E-06  0.6660E-06  0.8492E-06  0.1075E-05  0.1355E-05  0.1697E-05  0.2114E-05  0.2613E-05  0.3198E-05  0.3874E-05  0.4650E-05  0.5517E-05  0.7234E-05  0.9650E-05  0.1296E-04  0.1760E-04  0.2399E-04  0.3206E-04  0.4156E-04  0.5142E-04  0.6022E-04  0.6563E-04  0.6556E-04  0.5934E-04  0.4888E-04  0.3772E-04  0.2899E-04  0.2336E-04  0.1969E-04  0.1716E-04  0.1520E-04  0.1356E-04  0.1213E-04  0.1081E-04  0.9572E-05  0.8418E-05  0.7329E-05  0.6311E-05  0.5397E-05  0.4584E-05  0.3877E-05  0.3259E-05  0.2728E-05  0.2270E-05  0.1877E-05  0.1531E-05  0.1222E-05  0.9599E-06  0.7260E-06  0.5325E-06  0.3494E-06  0.2213E-06  0.1146E-06  0.5077E-07  0.2325E-07  0.6623E-08  0.0000E+00  0.0000E+00  0.0000E+00  0.0000E+00  0.0000E+00  0.0000E+00  0.0000E+00  0.0000E+00  0.0000E+00  0.0000E+00  0.0000E+00
  0.8766E-08  0.1447E-07  0.2041E-07  0.2927E-07  0.4250E-07  0.6213E-07  0.8689E-07  0.1228E-06  0.1697E-06  0.2301E-06  0.3070E-06  0.4014E-06  0.5208E-06  0.6702E-06  0.8521E-06  0.1076E-05  0.1350E-05  0.1686E-05  0.2091E-05  0.2576E-05  0.3145E-05  0.3804E-05  0.4549E-05  0.5678E-05  0.7378E-05  0.9685E-05  0.1278E-04  0.1698E-04  0.2256E-04  0.2944E-04  0.3739E-04  0.4579E-04  0.5350E-04  0.5908E-04  0.6091E-04  0.5824E-04  0.5108E-04  0.4143E-04  0.3219E-04  0.2518E-04  0.2048E-04  0.1717E-04  0.1482E-04  0.1299E-04  0.1147E-04  0.1019E-04  0.9016E-05  0.7931E-05  0.6939E-05  0.6005E-05  0.5161E-05  0.4404E-05  0.3754E-05  0.3160E-05  0.2648E-05  0.2205E-05  0.1816E-05  0.1485E-05  0.1195E-05  0.9396E-06  0.7172E-06  0.5253E-06  0.3568E-06  0.2226E-06  0.1162E-06  0.5049E-07  0.1999E-07  0.6535E-08  0.0000E+00  0.0000E+00  0.0000E+00  0.0000E+00  0.0000E+00  0.0000E+00  0.0000E+00  0.0000E+00  0.0000E+00  0.0000E+00  0.0000E+00
  0.9120E-08  0.1513E-07  0.2130E-07  0.3044E-07  0.4427E-07  0.6416E-07  0.8824E-07  0.1252E-06  0.1721E-06  0.2334E-06  0.3083E-06  0.4028E-06  0.5212E-06  0.6651E-06  0.8468E-06  0.1065E-05  0.1330E-05  0.1653E-05  0.2045E-05  0.2512E-05  0.3058E-05  0.3692E-05  0.4403E-05  0.5618E-05  0.7246E-05  0.9557E-05  0.1237E-04  0.1621E-04  0.2105E-04  0.2696E-04  0.3369E-04  0.4080E-04  0.4758E-04  0.5294E-04  0.5574E-04  0.5509E-04  0.5079E-04  0.4350E-04  0.3494E-04  0.2722E-04  0.2147E-04  0.1751E-04  0.1463E-04  0.1256E-04  0.1093E-04  0.9600E-05  0.8479E-05  0.7449E-05  0.6518E-05  0.5672E-05  0.4895E-05  0.4203E-05  0.3575E-05  0.3015E-05  0.2525E-05  0.2115E-05  0.1749E-05  0.1429E-05  0.1155E-05  0.9144E-06  0.6916E-06  0.5155E-06  0.3465E-06  0.2176E-06  0.1158E-06  0.5000E-07  0.1976E-07  0.3362E-08  0.0000E+00  0.0000E+00  0.0000E+00  0.0000E+00  0.0000E+00  0.0000E+00  0.0000E+00  0.0000E+00  0.0000E+00  0.0000E+00  0.0000E+00
  0.9295E-08  0.1468E-07  0.2213E-07  0.3132E-07  0.4446E-07  0.6411E-07  0.9001E-07  0.1251E-06  0.1724E-06  0.2313E-06  0.3044E-06  0.3963E-06  0.5102E-06  0.6538E-06  0.8285E-06  0.1043E-05  0.1299E-05  0.1606E-05  0.1976E-05  0.2421E-05  0.2943E-05  0.3541E-05  0.4358E-05  0.5541E-05  0.7128E-05  0.9154E-05  0.1186E-04  0.1529E-04  0.1942E-04  0.2468E-04  0.3026E-04  0.3628E-04  0.4211E-04  0.4709E-04  0.5024E-04  0.5082E-04  0.4846E-04  0.4337E-04  0.3639E-04  0.2892E-04  0.2256E-04  0.1788E-04  0.1460E-04  0.1219E-04  0.1044E-04  0.9063E-05  0.7941E-05  0.6962E-05  0.6095E-05  0.5320E-05  0.4614E-05  0.3968E-05  0.3399E-05  0.2882E-05  0.2420E-05  0.2015E-05  0.1671E-05  0.1371E-05  0.1100E-05  0.8702E-06  0.6753E-06  0.4983E-06  0.3488E-06  0.2160E-06  0.1149E-06  0.4521E-07  0.1633E-07  0.3294E-08  0.0000E+00  0.0000E+00  0.0000E+00  0.0000E+00  0.0000E+00  0.0000E+00  0.0000E+00  0.0000E+00  0.0000E+00  0.0000E+00  0.0000E+00
  0.9594E-08  0.1483E-07  0.2199E-07  0.3135E-07  0.4294E-07  0.6269E-07  0.9018E-07  0.1263E-06  0.1708E-06  0.2282E-06  0.3004E-06  0.3872E-06  0.4979E-06  0.6366E-06  0.8063E-06  0.1007E-05  0.1251E-05  0.1542E-05  0.1893E-05  0.2309E-05  0.2799E-05  0.3363E-05  0.4192E-05  0.5354E-05  0.6800E-05  0.8794E-05  0.1123E-04  0.1423E-04  0.1805E-04  0.2231E-04  0.2724E-04  0.3225E-04  0.3722E-04  0.4164E-04  0.4480E-04  0.4601E-04  0.4495E-04  0.4149E-04  0.3612E-04  0.2964E-04  0.2335E-04  0.1821E-04  0.1449E-04  0.1187E-04  0.9958E-05  0.8556E-05  0.7427E-05  0.6499E-05  0.5678E-05  0.4959E-05  0.4326E-05  0.3744E-05  0.3214E-05  0.2731E-05  0.2302E-05  0.1926E-05  0.1589E-05  0.1299E-05  0.1046E-05  0.8386E-06  0.6409E-06  0.4768E-06  0.3295E-06  0.1989E-06  0.1118E-06  0.4138E-07  0.1605E-07  0.3213E-08  0.0000E+00  0.0000E+00  0.0000E+00  0.0000E+00  0.0000E+00  0.0000E+00  0.0000E+00  0.0000E+00  0.0000E+00  0.0000E+00  0.0000E+00
  0.9856E-08  0.1475E-07  0.2268E-07  0.3114E-07  0.4378E-07  0.6335E-07  0.8894E-07  0.1222E-06  0.1662E-06  0.2227E-06  0.2874E-06  0.3726E-06  0.4791E-06  0.6107E-06  0.7710E-06  0.9646E-06  0.1196E-05  0.1466E-05  0.1794E-05  0.2182E-05  0.2634E-05  0.3185E-05  0.3982E-05  0.5059E-05  0.6469E-05  0.8211E-05  0.1044E-04  0.1310E-04  0.1638E-04  0.2017E-04  0.2431E-04  0.2852E-04  0.3270E-04  0.3663E-04  0.3947E-04  0.4090E-04  0.4064E-04  0.3844E-04  0.3438E-04  0.2912E-04  0.2343E-04  0.1829E-04  0.1431E-04  0.1149E-04  0.9479E-05  0.8021E-05  0.6919E-05  0.6038E-05  0.5275E-05  0.4605E-05  0.4023E-05  0.3491E-05  0.3008E-05  0.2566E-05  0.2167E-05  0.1807E-05  0.1503E-05  0.1235E-05  0.9926E-06  0.7739E-06  0.6059E-06  0.4533E-06  0.3146E-06  0.1878E-06  0.1052E-06  0.4065E-07  0.1569E-07  0.3121E-08  0.0000E+00  0.0000E+00  0.0000E+00  0.0000E+00  0.0000E+00  0.0000E+00  0.0000E+00  0.0000E+00  0.0000E+00  0.0000E+00  0.0000E+00
  0.1007E-07  0.1506E-07  0.2165E-07  0.3180E-07  0.4435E-07  0.6324E-07  0.8728E-07  0.1186E-06  0.1603E-06  0.2116E-06  0.2765E-06  0.3569E-06  0.4558E-06  0.5804E-06  0.7315E-06  0.9112E-06  0.1128E-05  0.1383E-05  0.1681E-05  0.2036E-05  0.2454E-05  0.2995E-05  0.3722E-05  0.4708E-05  0.5976E-05  0.7581E-05  0.9514E-05  0.1199E-04  0.1468E-04  0.1804E-04  0.2145E-04  0.2507E-04  0.2856E-04  0.3181E-04  0.3442E-04  0.3595E-04  0.3605E-04  0.3463E-04  0.3169E-04  0.2750E-04  0.2268E-04  0.1791E-04  0.1392E-04  0.1099E-04  0.8941E-05  0.7484E-05  0.6396E-05  0.5567E-05  0.4872E-05  0.4253E-05  0.3721E-05  0.3245E-05  0.2811E-05  0.2409E-05  0.2047E-05  0.1717E-05  0.1416E-05  0.1161E-05  0.9375E-06  0.7399E-06  0.5737E-06  0.4222E-06  0.2946E-06  0.1877E-06  0.9739E-07  0.3496E-07  0.1228E-07  0.0000E+00  0.0000E+00  0.0000E+00  0.0000E+00  0.0000E+00  0.0000E+00  0.0000E+00  0.0000E+00  0.0000E+00  0.0000E+00  0.0000E+00  0.0000E+00
  0.1010E-07  0.1531E-07  0.2194E-07  0.3043E-07  0.4236E-07  0.5873E-07  0.8356E-07  0.1145E-06  0.1532E-06  0.2030E-06  0.2626E-06  0.3360E-06  0.4305E-06  0.5460E-06  0.6876E-06  0.8559E-06  0.1055E-05  0.1290E-05  0.1563E-05  0.1884E-05  0.2263E-05  0.2761E-05  0.3474E-05  0.4318E-05  0.5543E-05  0.6956E-05  0.8678E-05  0.1073E-04  0.1325E-04  0.1590E-04  0.1892E-04  0.2188E-04  0.2478E-04  0.2749E-04  0.2972E-04  0.3115E-04  0.3141E-04  0.3053E-04  0.2840E-04  0.2514E-04  0.2117E-04  0.1703E-04  0.1324E-04  0.1036E-04  0.8331E-05  0.6911E-05  0.5889E-05  0.5094E-05  0.4465E-05  0.3905E-05  0.3433E-05  0.3001E-05  0.2593E-05  0.2232E-05  0.1897E-05  0.1594E-05  0.1319E-05  0.1086E-05  0.8671E-06  0.6797E-06  0.5204E-06  0.3915E-06  0.2625E-06  0.1593E-06  0.7792E-07  0.2801E-07  0.3349E-08  0.0000E+00  0.0000E+00  0.0000E+00  0.0000E+00  0.0000E+00  0.0000E+00  0.0000E+00  0.0000E+00  0.0000E+00  0.0000E+00  0.0000E+00  0.0000E+00
  0.1023E-07  0.1548E-07  0.2104E-07  0.2955E-07  0.4023E-07  0.5659E-07  0.7902E-07  0.1066E-06  0.1440E-06  0.1883E-06  0.2444E-06  0.3136E-06  0.4004E-06  0.5092E-06  0.6370E-06  0.7912E-06  0.9763E-06  0.1191E-05  0.1440E-05  0.1730E-05  0.2069E-05  0.2523E-05  0.3144E-05  0.3962E-05  0.5030E-05  0.6255E-05  0.7776E-05  0.9602E-05  0.1164E-04  0.1400E-04  0.1649E-04  0.1895E-04  0.2141E-04  0.2363E-04  0.2550E-04  0.2673E-04  0.2706E-04  0.2645E-04  0.2482E-04  0.2234E-04  0.1915E-04  0.1569E-04  0.1236E-04  0.9593E-05  0.7646E-05  0.6306E-05  0.5349E-05  0.4627E-05  0.4046E-05  0.3559E-05  0.3140E-05  0.2737E-05  0.2389E-05  0.2062E-05  0.1766E-05  0.1496E-05  0.1242E-05  0.1010E-05  0.8101E-06  0.6376E-06  0.4934E-06  0.3547E-06  0.2412E-06  0.1480E-06  0.6998E-07  0.2681E-07  0.3210E-08  0.0000E+00  0.0000E+00  0.0000E+00  0.0000E+00  0.0000E+00  0.0000E+00  0.0000E+00  0.0000E+00  0.0000E+00  0.0000E+00  0.0000E+00  0.0000E+00
  0.7805E-08  0.1364E-07  0.2098E-07  0.2901E-07  0.3889E-07  0.5392E-07  0.7408E-07  0.9903E-07  0.1330E-06  0.1755E-06  0.2263E-06  0.2909E-06  0.3679E-06  0.4678E-06  0.5844E-06  0.7260E-06  0.8923E-06  0.1088E-05  0.1313E-05  0.1573E-05  0.1874E-05  0.2282E-05  0.2851E-05  0.3512E-05  0.4480E-05  0.5596E-05  0.6869E-05  0.8453E-05  0.1011E-04  0.1217E-04  0.1418E-04  0.1627E-04  0.1830E-04  0.2010E-04  0.2163E-04  0.2267E-04  0.2297E-04  0.2259E-04  0.2137E-04  0.1936E-04  0.1688E-04  0.1405E-04  0.1125E-04  0.8778E-05  0.6899E-05  0.5686E-05  0.4819E-05  0.4171E-05  0.3656E-05  0.3211E-05  0.2847E-05  0.2504E-05  0.2180E-05  0.1891E-05  0.1614E-05  0.1366E-05  0.1132E-05  0.9358E-06  0.7476E-06  0.5857E-06  0.4477E-06  0.3249E-06  0.2116E-06  0.1261E-06  0.6083E-07  0.1961E-07  0.2822E-08  0.0000E+00  0.0000E+00  0.0000E+00  0.0000E+00  0.0000E+00  0.0000E+00  0.0000E+00  0.0000E+00  0.0000E+00  0.0000E+00  0.0000E+00  0.0000E+00
  0.7756E-08  0.1261E-07  0.1875E-07  0.2636E-07  0.3485E-07  0.4673E-07  0.6623E-07  0.9070E-07  0.1205E-06  0.1578E-06  0.2065E-06  0.2650E-06  0.3369E-06  0.4273E-06  0.5326E-06  0.6585E-06  0.8098E-06  0.9835E-06  0.1187E-05  0.1415E-05  0.1680E-05  0.2045E-05  0.2492E-05  0.3149E-05  0.3931E-05  0.4909E-05  0.5998E-05  0.7295E-05  0.8847E-05  0.1040E-04  0.1217E-04  0.1384E-04  0.1551E-04  0.1696E-04  0.1817E-04  0.1896E-04  0.1928E-04  0.1901E-04  0.1806E-04  0.1653E-04  0.1451E-04  0.1229E-04  0.9987E-05  0.7904E-05  0.6208E-05  0.5036E-05  0.4299E-05  0.3732E-05  0.3280E-05  0.2892E-05  0.2560E-05  0.2262E-05  0.1973E-05  0.1715E-05  0.1484E-05  0.1265E-05  0.1060E-05  0.8608E-06  0.6839E-06  0.5320E-06  0.4031E-06  0.2883E-06  0.1812E-06  0.1009E-06  0.4327E-07  0.1342E-07  0.0000E+00  0.0000E+00  0.0000E+00  0.0000E+00  0.0000E+00  0.0000E+00  0.0000E+00  0.0000E+00  0.0000E+00  0.0000E+00  0.0000E+00  0.0000E+00  0.0000E+00
  0.7370E-08  0.1199E-07  0.1795E-07  0.2381E-07  0.3228E-07  0.4407E-07  0.5949E-07  0.8130E-07  0.1101E-06  0.1430E-06  0.1870E-06  0.2368E-06  0.3055E-06  0.3842E-06  0.4799E-06  0.5922E-06  0.7272E-06  0.8830E-06  0.1062E-05  0.1266E-05  0.1494E-05  0.1790E-05  0.2212E-05  0.2757E-05  0.3405E-05  0.4207E-05  0.5214E-05  0.6312E-05  0.7521E-05  0.8888E-05  0.1031E-04  0.1168E-04  0.1303E-04  0.1419E-04  0.1515E-04  0.1584E-04  0.1610E-04  0.1584E-04  0.1506E-04  0.1389E-04  0.1232E-04  0.1052E-04  0.8680E-05  0.6968E-05  0.5543E-05  0.4473E-05  0.3762E-05  0.3314E-05  0.2914E-05  0.2587E-05  0.2300E-05  0.2026E-05  0.1782E-05  0.1559E-05  0.1345E-05  0.1138E-05  0.9443E-06  0.7857E-06  0.6232E-06  0.4809E-06  0.3591E-06  0.2555E-06  0.1709E-06  0.9100E-07  0.3056E-07  0.8023E-08  0.0000E+00  0.0000E+00  0.0000E+00  0.0000E+00  0.0000E+00  0.0000E+00  0.0000E+00  0.0000E+00  0.0000E+00  0.0000E+00  0.0000E+00  0.0000E+00  0.0000E+00
