DSAA
          79         109
    318.3670    342.0670
   7336.5760   7369.2760
  0.0000E+00  0.2464E-03
  0.0000E+00  0.0000E+00  0.0000E+00  0.0000E+00  0.0000E+00  0.0000E+00  0.0000E+00  0.0000E+00  0.0000E+00  0.0000E+00  0.0000E+00  0.0000E+00  0.0000E+00  0.0000E+00  0.0000E+00  0.0000E+00  0.0000E+00  0.0000E+00  0.0000E+00  0.0000E+00  0.0000E+00  0.0000E+00  0.0000E+00  0.0000E+00  0.0000E+00  0.0000E+00  0.0000E+00  0.0000E+00  0.0000E+00  0.0000E+00  0.0000E+00  0.0000E+00  0.0000E+00  0.0000E+00  0.0000E+00  0.0000E+00  0.0000E+00  0.0000E+00  0.0000E+00  0.0000E+00  0.0000E+00  0.0000E+00  0.0000E+00  0.0000E+00  0.0000E+00  0.0000E+00  0.0000E+00  0.0000E+00  0.0000E+00  0.0000E+00  0.0000E+00  0.0000E+00  0.0000E+00  0.0000E+00  0.0000E+00  0.0000E+00  0.0000E+00  0.0000E+00  0.0000E+00  0.0000E+00  0.0000E+00  0.0000E+00  0.0000E+00  0.0000E+00  0.0000E+00  0.0000E+00  0.0000E+00  0.0000E+00  0.0000E+00  0.0000E+00  0.0000E+00  0.0000E+00  0.0000E+00  0.0000E+00  0.0000E+00  0.0000E+00  0.0000E+00  0.0000E+00  0.0000E+00
  0.0000E+00  0.0000E+00  0.0000E+00  0.0000E+00  0.0000E+00  0.0000E+00  0.0000E+00  0.0000E+00  0.0000E+00  0.0000E+00  0.0000E+00  0.0000E+00  0.0000E+00  0.0000E+00  0.0000E+00  0.0000E+00  0.0000E+00  0.0000E+00  0.0000E+00  0.0000E+00  0.0000E+00  0.0000E+00  0.0000E+00  0.0000E+00  0.0000E+00  0.0000E+00  0.0000E+00  0.0000E+00  0.0000E+00  0.0000E+00  0.0000E+00  0.0000E+00  0.0000E+00  0.0000E+00  0.0000E+00  0.0000E+00  0.0000E+00  0.0000E+00  0.0000E+00  0.0000E+00  0.0000E+00  0.0000E+00  0.0000E+00  0.0000E+00  0.0000E+00  0.0000E+00  0.0000E+00  0.0000E+00  0.0000E+00  0.0000E+00  0.0000E+00  0.0000E+00  0.0000E+00  0.0000E+00  0.0000E+00  0.0000E+00  0.0000E+00  0.0000E+00  0.0000E+00  0.0000E+00  0.0000E+00  0.0000E+00  0.0000E+00  0.0000E+00  0.0000E+00  0.0000E+00  0.0000E+00  0.0000E+00  0.0000E+00  0.0000E+00  0.0000E+00  0.0000E+00  0.0000E+00  0.0000E+00  0.0000E+00  0.0000E+00  0.0000E+00  0.0000E+00  0.0000E+00
  0.0000E+00  0.0000E+00  0.0000E+00  0.0000E+00  0.0000E+00  0.0000E+00  0.0000E+00  0.0000E+00  0.0000E+00  0.0000E+00  0.0000E+00  0.0000E+00  0.0000E+00  0.0000E+00  0.0000E+00  0.0000E+00  0.0000E+00  0.0000E+00  0.0000E+00  0.0000E+00  0.0000E+00  0.0000E+00  0.0000E+00  0.0000E+00  0.0000E+00  0.0000E+00  0.0000E+00  0.0000E+00  0.0000E+00  0.0000E+00  0.0000E+00  0.0000E+00  0.0000E+00  0.0000E+00  0.0000E+00  0.0000E+00  0.0000E+00  0.0000E+00  0.0000E+00  0.0000E+00  0.0000E+00  0.0000E+00  0.0000E+00  0.0000E+00  0.0000E+00  0.0000E+00  0.0000E+00  0.0000E+00  0.0000E+00  0.0000E+00  0.0000E+00  0.0000E+00  0.0000E+00  0.0000E+00  0.0000E+00  0.0000E+00  0.0000E+00  0.0000E+00  0.0000E+00  0.0000E+00  0.0000E+00  0.0000E+00  0.0000E+00  0.0000E+00  0.0000E+00  0.0000E+00  0.0000E+00  0.0000E+00  0.0000E+00  0.0000E+00  0.0000E+00  0.0000E+00  0.0000E+00  0.0000E+00  0.0000E+00  0.0000E+00  0.0000E+00  0.0000E+00  0.0000E+00
  0.0000E+00  0.0000E+00  0.0000E+00  0.0000E+00  0.0000E+00  0.0000E+00  0.0000E+00  0.0000E+00  0.0000E+00  0.0000E+00  0.0000E+00  0.0000E+00  0.0000E+00  0.0000E+00  0.0000E+00  0.0000E+00  0.0000E+00  0.0000E+00  0.0000E+00  0.0000E+00  0.0000E+00  0.0000E+00  0.0000E+00  0.0000E+00  0.0000E+00  0.0000E+00  0.0000E+00  0.0000E+00  0.0000E+00  0.0000E+00  0.0000E+00  0.0000E+00  0.0000E+00  0.0000E+00  0.0000E+00  0.0000E+00  0.0000E+00  0.0000E+00  0.0000E+00  0.0000E+00  0.0000E+00  0.0000E+00  0.0000E+00  0.0000E+00  0.0000E+00  0.0000E+00  0.0000E+00  0.0000E+00  0.0000E+00  0.0000E+00  0.0000E+00  0.0000E+00  0.0000E+00  0.0000E+00  0.0000E+00  0.0000E+00  0.0000E+00  0.0000E+00  0.0000E+00  0.0000E+00  0.0000E+00  0.0000E+00  0.0000E+00  0.0000E+00  0.0000E+00  0.0000E+00  0.0000E+00  0.0000E+00  0.0000E+00  0.0000E+00  0.0000E+00  0.0000E+00  0.0000E+00  0.0000E+00  0.0000E+00  0.0000E+00  0.0000E+00  0.0000E+00  0.0000E+00
  0.0000E+00  0.0000E+00  0.0000E+00  0.0000E+00  0.0000E+00  0.0000E+00  0.0000E+00  0.0000E+00  0.0000E+00  0.0000E+00  0.0000E+00  0.0000E+00  0.0000E+00  0.0000E+00  0.0000E+00  0.0000E+00  0.0000E+00  0.0000E+00  0.0000E+00  0.0000E+00  0.0000E+00  0.0000E+00  0.0000E+00  0.0000E+00  0.0000E+00  0.0000E+00  0.0000E+00  0.0000E+00  0.0000E+00  0.0000E+00  0.0000E+00  0.0000E+00  0.0000E+00  0.0000E+00  0.0000E+00  0.0000E+00  0.0000E+00  0.0000E+00  0.0000E+00  0.0000E+00  0.0000E+00  0.0000E+00  0.0000E+00  0.0000E+00  0.0000E+00  0.0000E+00  0.0000E+00  0.0000E+00  0.0000E+00  0.0000E+00  0.0000E+00  0.0000E+00  0.0000E+00  0.0000E+00  0.0000E+00  0.0000E+00  0.0000E+00  0.0000E+00  0.0000E+00  0.0000E+00  0.0000E+00  0.0000E+00  0.0000E+00  0.0000E+00  0.0000E+00  0.0000E+00  0.0000E+00  0.0000E+00  0.0000E+00  0.0000E+00  0.0000E+00  0.0000E+00  0.0000E+00  0.0000E+00  0.0000E+00  0.0000E+00  0.0000E+00  0.0000E+00  0.0000E+00
  0.0000E+00  0.0000E+00  0.0000E+00  0.0000E+00  0.0000E+00  0.0000E+00  0.0000E+00  0.0000E+00  0.0000E+00  0.0000E+00  0.0000E+00  0.0000E+00  0.0000E+00  0.0000E+00  0.0000E+00  0.0000E+00  0.0000E+00  0.0000E+00  0.0000E+00  0.0000E+00  0.0000E+00  0.0000E+00  0.0000E+00  0.0000E+00  0.0000E+00  0.0000E+00  0.0000E+00  0.0000E+00  0.0000E+00  0.0000E+00  0.0000E+00  0.0000E+00  0.0000E+00  0.0000E+00  0.0000E+00  0.0000E+00  0.0000E+00  0.0000E+00  0.0000E+00  0.0000E+00  0.0000E+00  0.0000E+00  0.0000E+00  0.0000E+00  0.0000E+00  0.0000E+00  0.0000E+00  0.0000E+00  0.0000E+00  0.0000E+00  0.0000E+00  0.0000E+00  0.0000E+00  0.0000E+00  0.0000E+00  0.0000E+00  0.0000E+00  0.0000E+00  0.0000E+00  0.0000E+00  0.0000E+00  0.0000E+00  0.0000E+00  0.0000E+00  0.0000E+00  0.0000E+00  0.0000E+00  0.0000E+00  0.0000E+00  0.0000E+00  0.0000E+00  0.0000E+00  0.0000E+00  0.0000E+00  0.0000E+00  0.0000E+00  0.0000E+00  0.0000E+00  0.0000E+00
  0.0000E+00  0.0000E+00  0.0000E+00  0.0000E+00  0.0000E+00  0.0000E+00  0.0000E+00  0.0000E+00  0.0000E+00  0.0000E+00  0.0000E+00  0.0000E+00  0.0000E+00  0.0000E+00  0.0000E+00  0.0000E+00  0.0000E+00  0.0000E+00  0.0000E+00  0.0000E+00  0.0000E+00  0.0000E+00  0.0000E+00  0.0000E+00  0.0000E+00  0.0000E+00  0.0000E+00  0.0000E+00  0.0000E+00  0.0000E+00  0.0000E+00  0.0000E+00  0.0000E+00  0.0000E+00  0.0000E+00  0.0000E+00  0.0000E+00  0.0000E+00  0.0000E+00  0.0000E+00  0.0000E+00  0.0000E+00  0.0000E+00  0.0000E+00  0.0000E+00  0.0000E+00  0.0000E+00  0.0000E+00  0.0000E+00  0.0000E+00  0.0000E+00  0.0000E+00  0.0000E+00  0.0000E+00  0.0000E+00  0.0000E+00  0.0000E+00  0.0000E+00  0.0000E+00  0.0000E+00  0.0000E+00  0.0000E+00  0.0000E+00  0.0000E+00  0.0000E+00  0.0000E+00  0.0000E+00  0.0000E+00  0.0000E+00  0.0000E+00  0.0000E+00  0.0000E+00  0.0000E+00  0.0000E+00  0.0000E+00  0.0000E+00  0.0000E+00  0.0000E+00  0.0000E+00
  0.0000E+00  0.0000E+00  0.0000E+00  0.0000E+00  0.0000E+00  0.0000E+00  0.0000E+00  0.0000E+00  0.0000E+00  0.0000E+00  0.0000E+00  0.0000E+00  0.0000E+00  0.0000E+00  0.0000E+00  0.0000E+00  0.0000E+00  0.0000E+00  0.0000E+00  0.0000E+00  0.0000E+00  0.0000E+00  0.0000E+00  0.0000E+00  0.0000E+00  0.0000E+00  0.0000E+00  0.0000E+00  0.0000E+00  0.0000E+00  0.0000E+00  0.0000E+00  0.0000E+00  0.0000E+00  0.0000E+00  0.0000E+00  0.0000E+00  0.0000E+00  0.0000E+00  0.0000E+00  0.0000E+00  0.0000E+00  0.0000E+00  0.0000E+00  0.0000E+00  0.0000E+00  0.0000E+00  0.0000E+00  0.0000E+00  0.0000E+00  0.0000E+00  0.0000E+00  0.0000E+00  0.0000E+00  0.0000E+00  0.0000E+00  0.0000E+00  0.0000E+00  0.0000E+00  0.0000E+00  0.0000E+00  0.0000E+00  0.0000E+00  0.0000E+00  0.0000E+00  0.0000E+00  0.0000E+00  0.0000E+00  0.0000E+00  0.0000E+00  0.0000E+00  0.0000E+00  0.0000E+00  0.0000E+00  0.0000E+00  0.0000E+00  0.0000E+00  0.0000E+00  0.0000E+00
  0.0000E+00  0.0000E+00  0.0000E+00  0.0000E+00  0.0000E+00  0.0000E+00  0.0000E+00  0.0000E+00  0.0000E+00  0.0000E+00  0.0000E+00  0.0000E+00  0.0000E+00  0.0000E+00  0.0000E+00  0.0000E+00  0.0000E+00  0.0000E+00  0.0000E+00  0.0000E+00  0.0000E+00  0.0000E+00  0.0000E+00  0.0000E+00  0.0000E+00  0.0000E+00  0.0000E+00  0.0000E+00  0.0000E+00  0.0000E+00  0.0000E+00  0.0000E+00  0.0000E+00  0.0000E+00  0.0000E+00  0.0000E+00  0.0000E+00  0.0000E+00  0.0000E+00  0.0000E+00  0.0000E+00  0.0000E+00  0.0000E+00  0.0000E+00  0.0000E+00  0.0000E+00  0.0000E+00  0.0000E+00  0.0000E+00  0.0000E+00  0.0000E+00  0.0000E+00  0.0000E+00  0.0000E+00  0.0000E+00  0.0000E+00  0.0000E+00  0.0000E+00  0.0000E+00  0.0000E+00  0.0000E+00  0.0000E+00  0.0000E+00  0.0000E+00  0.0000E+00  0.0000E+00  0.0000E+00  0.0000E+00  0.0000E+00  0.0000E+00  0.0000E+00  0.0000E+00  0.0000E+00  0.0000E+00  0.0000E+00  0.0000E+00  0.0000E+00  0.0000E+00  0.0000E+00
  0.0000E+00  0.0000E+00  0.0000E+00  0.0000E+00  0.0000E+00  0.0000E+00  0.0000E+00  0.0000E+00  0.0000E+00  0.0000E+00  0.0000E+00  0.0000E+00  0.0000E+00  0.0000E+00  0.0000E+00  0.0000E+00  0.0000E+00  0.0000E+00  0.0000E+00  0.0000E+00  0.0000E+00  0.0000E+00  0.0000E+00  0.0000E+00  0.0000E+00  0.0000E+00  0.0000E+00  0.0000E+00  0.0000E+00  0.0000E+00  0.0000E+00  0.0000E+00  0.0000E+00  0.0000E+00  0.0000E+00  0.0000E+00  0.0000E+00  0.0000E+00  0.0000E+00  0.0000E+00  0.0000E+00  0.0000E+00  0.0000E+00  0.0000E+00  0.0000E+00  0.0000E+00  0.0000E+00  0.0000E+00  0.0000E+00  0.0000E+00  0.0000E+00  0.0000E+00  0.0000E+00  0.0000E+00  0.0000E+00  0.0000E+00  0.0000E+00  0.0000E+00  0.0000E+00  0.0000E+00  0.0000E+00  0.0000E+00  0.0000E+00  0.0000E+00  0.0000E+00  0.0000E+00  0.0000E+00  0.0000E+00  0.0000E+00  0.0000E+00  0.0000E+00  0.0000E+00  0.0000E+00  0.0000E+00  0.0000E+00  0.0000E+00  0.0000E+00  0.0000E+00  0.0000E+00
  0.0000E+00  0.0000E+00  0.0000E+00  0.0000E+00  0.0000E+00  0.0000E+00  0.0000E+00  0.0000E+00  0.0000E+00  0.0000E+00  0.0000E+00  0.0000E+00  0.0000E+00  0.0000E+00  0.0000E+00  0.0000E+00  0.0000E+00  0.0000E+00  0.0000E+00  0.0000E+00  0.0000E+00  0.0000E+00  0.0000E+00  0.0000E+00  0.0000E+00  0.0000E+00  0.0000E+00  0.0000E+00  0.0000E+00  0.0000E+00  0.0000E+00  0.0000E+00  0.0000E+00  0.0000E+00  0.0000E+00  0.0000E+00  0.0000E+00  0.0000E+00  0.0000E+00  0.0000E+00  0.0000E+00  0.0000E+00  0.0000E+00  0.0000E+00  0.0000E+00  0.0000E+00  0.0000E+00  0.0000E+00  0.0000E+00  0.0000E+00  0.0000E+00  0.0000E+00  0.0000E+00  0.0000E+00  0.0000E+00  0.0000E+00  0.0000E+00  0.0000E+00  0.0000E+00  0.0000E+00  0.0000E+00  0.0000E+00  0.0000E+00  0.0000E+00  0.0000E+00  0.0000E+00  0.0000E+00  0.0000E+00  0.0000E+00  0.0000E+00  0.0000E+00  0.0000E+00  0.0000E+00  0.0000E+00  0.0000E+00  0.0000E+00  0.0000E+00  0.0000E+00  0.0000E+00
  0.0000E+00  0.0000E+00  0.0000E+00  0.0000E+00  0.0000E+00  0.0000E+00  0.0000E+00  0.0000E+00  0.0000E+00  0.0000E+00  0.0000E+00  0.0000E+00  0.0000E+00  0.0000E+00  0.0000E+00  0.0000E+00  0.0000E+00  0.0000E+00  0.0000E+00  0.0000E+00  0.0000E+00  0.0000E+00  0.0000E+00  0.0000E+00  0.0000E+00  0.0000E+00  0.0000E+00  0.0000E+00  0.0000E+00  0.0000E+00  0.0000E+00  0.0000E+00  0.0000E+00  0.0000E+00  0.0000E+00  0.0000E+00  0.0000E+00  0.0000E+00  0.0000E+00  0.0000E+00  0.0000E+00  0.0000E+00  0.0000E+00  0.0000E+00  0.0000E+00  0.0000E+00  0.0000E+00  0.0000E+00  0.0000E+00  0.0000E+00  0.0000E+00  0.0000E+00  0.0000E+00  0.0000E+00  0.0000E+00  0.0000E+00  0.0000E+00  0.0000E+00  0.0000E+00  0.0000E+00  0.0000E+00  0.0000E+00  0.0000E+00  0.0000E+00  0.0000E+00  0.0000E+00  0.0000E+00  0.0000E+00  0.0000E+00  0.0000E+00  0.0000E+00  0.0000E+00  0.0000E+00  0.0000E+00  0.0000E+00  0.0000E+00  0.0000E+00  0.0000E+00  0.0000E+00
  0.0000E+00  0.0000E+00  0.0000E+00  0.0000E+00  0.0000E+00  0.0000E+00  0.0000E+00  0.0000E+00  0.0000E+00  0.0000E+00  0.0000E+00  0.0000E+00  0.0000E+00  0.0000E+00  0.0000E+00  0.0000E+00  0.0000E+00  0.0000E+00  0.0000E+00  0.0000E+00  0.0000E+00  0.0000E+00  0.0000E+00  0.0000E+00  0.0000E+00  0.0000E+00  0.0000E+00  0.0000E+00  0.0000E+00  0.0000E+00  0.0000E+00  0.0000E+00  0.0000E+00  0.0000E+00  0.0000E+00  0.0000E+00  0.0000E+00  0.0000E+00  0.0000E+00  0.0000E+00  0.0000E+00  0.0000E+00  0.0000E+00  0.0000E+00  0.0000E+00  0.0000E+00  0.0000E+00  0.0000E+00  0.0000E+00  0.0000E+00  0.0000E+00  0.0000E+00  0.0000E+00  0.0000E+00  0.0000E+00  0.0000E+00  0.0000E+00  0.0000E+00  0.0000E+00  0.0000E+00  0.0000E+00  0.0000E+00  0.0000E+00  0.0000E+00  0.0000E+00  0.0000E+00  0.0000E+00  0.0000E+00  0.0000E+00  0.0000E+00  0.0000E+00  0.0000E+00  0.0000E+00  0.0000E+00  0.0000E+00  0.0000E+00  0.0000E+00  0.0000E+00  0.0000E+00
  0.0000E+00  0.0000E+00  0.0000E+00  0.0000E+00  0.0000E+00  0.0000E+00  0.0000E+00  0.0000E+00  0.0000E+00  0.0000E+00  0.0000E+00  0.0000E+00  0.0000E+00  0.0000E+00  0.0000E+00  0.0000E+00  0.0000E+00  0.0000E+00  0.0000E+00  0.0000E+00  0.0000E+00  0.0000E+00  0.0000E+00  0.0000E+00  0.0000E+00  0.0000E+00  0.0000E+00  0.0000E+00  0.0000E+00  0.0000E+00  0.0000E+00  0.0000E+00  0.0000E+00  0.0000E+00  0.0000E+00  0.0000E+00  0.0000E+00  0.0000E+00  0.0000E+00  0.0000E+00  0.0000E+00  0.0000E+00  0.0000E+00  0.0000E+00  0.0000E+00  0.0000E+00  0.0000E+00  0.0000E+00  0.0000E+00  0.0000E+00  0.0000E+00  0.0000E+00  0.0000E+00  0.0000E+00  0.0000E+00  0.0000E+00  0.0000E+00  0.0000E+00  0.0000E+00  0.0000E+00  0.0000E+00  0.0000E+00  0.0000E+00  0.0000E+00  0.0000E+00  0.0000E+00  0.0000E+00  0.0000E+00  0.0000E+00  0.0000E+00  0.0000E+00  0.0000E+00  0.0000E+00  0.0000E+00  0.0000E+00  0.0000E+00  0.0000E+00  0.0000E+00  0.0000E+00
  0.0000E+00  0.0000E+00  0.0000E+00  0.0000E+00  0.0000E+00  0.0000E+00  0.0000E+00  0.0000E+00  0.0000E+00  0.0000E+00  0.0000E+00  0.0000E+00  0.0000E+00  0.0000E+00  0.0000E+00  0.0000E+00  0.0000E+00  0.0000E+00  0.0000E+00  0.0000E+00  0.0000E+00  0.0000E+00  0.0000E+00  0.0000E+00  0.0000E+00  0.0000E+00  0.0000E+00  0.0000E+00  0.0000E+00  0.0000E+00  0.0000E+00  0.0000E+00  0.0000E+00  0.0000E+00  0.0000E+00  0.0000E+00  0.0000E+00  0.0000E+00  0.0000E+00  0.0000E+00  0.0000E+00  0.0000E+00  0.0000E+00  0.0000E+00  0.0000E+00  0.0000E+00  0.0000E+00  0.0000E+00  0.0000E+00  0.0000E+00  0.0000E+00  0.0000E+00  0.0000E+00  0.0000E+00  0.0000E+00  0.0000E+00  0.0000E+00  0.0000E+00  0.0000E+00  0.0000E+00  0.0000E+00  0.0000E+00  0.0000E+00  0.0000E+00  0.0000E+00  0.0000E+00  0.0000E+00  0.0000E+00  0.0000E+00  0.0000E+00  0.0000E+00  0.0000E+00  0.0000E+00  0.0000E+00  0.0000E+00  0.0000E+00  0.0000E+00  0.0000E+00  0.0000E+00
  0.0000E+00  0.0000E+00  0.0000E+00  0.0000E+00  0.0000E+00  0.0000E+00  0.0000E+00  0.0000E+00  0.0000E+00  0.0000E+00  0.0000E+00  0.0000E+00  0.0000E+00  0.0000E+00  0.0000E+00  0.0000E+00  0.0000E+00  0.0000E+00  0.0000E+00  0.0000E+00  0.0000E+00  0.0000E+00  0.0000E+00  0.0000E+00  0.0000E+00  0.0000E+00  0.0000E+00  0.0000E+00  0.0000E+00  0.0000E+00  0.0000E+00  0.0000E+00  0.0000E+00  0.0000E+00  0.0000E+00  0.0000E+00  0.0000E+00  0.0000E+00  0.0000E+00  0.0000E+00  0.0000E+00  0.0000E+00  0.0000E+00  0.0000E+00  0.0000E+00  0.0000E+00  0.0000E+00  0.0000E+00  0.0000E+00  0.0000E+00  0.0000E+00  0.0000E+00  0.0000E+00  0.0000E+00  0.0000E+00  0.0000E+00  0.0000E+00  0.0000E+00  0.0000E+00  0.0000E+00  0.0000E+00  0.0000E+00  0.0000E+00  0.0000E+00  0.0000E+00  0.0000E+00  0.0000E+00  0.0000E+00  0.0000E+00  0.0000E+00  0.0000E+00  0.0000E+00  0.0000E+00  0.0000E+00  0.0000E+00  0.0000E+00  0.0000E+00  0.0000E+00  0.0000E+00
  0.0000E+00  0.0000E+00  0.0000E+00  0.0000E+00  0.0000E+00  0.0000E+00  0.0000E+00  0.0000E+00  0.0000E+00  0.0000E+00  0.0000E+00  0.0000E+00  0.0000E+00  0.0000E+00  0.0000E+00  0.0000E+00  0.0000E+00  0.0000E+00  0.0000E+00  0.0000E+00  0.0000E+00  0.0000E+00  0.0000E+00  0.0000E+00  0.0000E+00  0.0000E+00  0.0000E+00  0.0000E+00  0.0000E+00  0.0000E+00  0.0000E+00  0.0000E+00  0.0000E+00  0.0000E+00  0.0000E+00  0.0000E+00  0.0000E+00  0.0000E+00  0.0000E+00  0.0000E+00  0.0000E+00  0.0000E+00  0.0000E+00  0.0000E+00  0.0000E+00  0.0000E+00  0.0000E+00  0.0000E+00  0.0000E+00  0.0000E+00  0.0000E+00  0.0000E+00  0.0000E+00  0.0000E+00  0.0000E+00  0.0000E+00  0.0000E+00  0.0000E+00  0.0000E+00  0.0000E+00  0.0000E+00  0.0000E+00  0.0000E+00  0.0000E+00  0.0000E+00  0.0000E+00  0.0000E+00  0.0000E+00  0.0000E+00  0.0000E+00  0.0000E+00  0.0000E+00  0.0000E+00  0.0000E+00  0.0000E+00  0.0000E+00  0.0000E+00  0.0000E+00  0.0000E+00
  0.0000E+00  0.0000E+00  0.0000E+00  0.0000E+00  0.0000E+00  0.0000E+00  0.0000E+00  0.0000E+00  0.0000E+00  0.0000E+00  0.0000E+00  0.0000E+00  0.0000E+00  0.0000E+00  0.0000E+00  0.0000E+00  0.0000E+00  0.0000E+00  0.0000E+00  0.0000E+00  0.0000E+00  0.0000E+00  0.0000E+00  0.0000E+00  0.0000E+00  0.0000E+00  0.0000E+00  0.0000E+00  0.0000E+00  0.0000E+00  0.0000E+00  0.0000E+00  0.0000E+00  0.0000E+00  0.0000E+00  0.0000E+00  0.0000E+00  0.0000E+00  0.0000E+00  0.0000E+00  0.0000E+00  0.0000E+00  0.0000E+00  0.0000E+00  0.0000E+00  0.0000E+00  0.0000E+00  0.0000E+00  0.0000E+00  0.0000E+00  0.0000E+00  0.0000E+00  0.0000E+00  0.0000E+00  0.0000E+00  0.0000E+00  0.0000E+00  0.0000E+00  0.0000E+00  0.0000E+00  0.0000E+00  0.0000E+00  0.0000E+00  0.0000E+00  0.0000E+00  0.0000E+00  0.0000E+00  0.0000E+00  0.0000E+00  0.0000E+00  0.0000E+00  0.0000E+00  0.0000E+00  0.0000E+00  0.0000E+00  0.0000E+00  0.0000E+00  0.0000E+00  0.0000E+00
  0.0000E+00  0.0000E+00  0.0000E+00  0.0000E+00  0.0000E+00  0.0000E+00  0.0000E+00  0.0000E+00  0.0000E+00  0.0000E+00  0.0000E+00  0.0000E+00  0.0000E+00  0.0000E+00  0.0000E+00  0.0000E+00  0.0000E+00  0.0000E+00  0.0000E+00  0.0000E+00  0.0000E+00  0.0000E+00  0.0000E+00  0.0000E+00  0.0000E+00  0.0000E+00  0.0000E+00  0.0000E+00  0.0000E+00  0.0000E+00  0.0000E+00  0.0000E+00  0.0000E+00  0.0000E+00  0.0000E+00  0.0000E+00  0.0000E+00  0.0000E+00  0.0000E+00  0.0000E+00  0.0000E+00  0.0000E+00  0.0000E+00  0.0000E+00  0.0000E+00  0.0000E+00  0.0000E+00  0.0000E+00  0.0000E+00  0.0000E+00  0.0000E+00  0.0000E+00  0.0000E+00  0.0000E+00  0.0000E+00  0.0000E+00  0.0000E+00  0.0000E+00  0.0000E+00  0.0000E+00  0.0000E+00  0.0000E+00  0.0000E+00  0.0000E+00  0.0000E+00  0.0000E+00  0.0000E+00  0.0000E+00  0.0000E+00  0.0000E+00  0.0000E+00  0.0000E+00  0.0000E+00  0.0000E+00  0.0000E+00  0.0000E+00  0.0000E+00  0.0000E+00  0.0000E+00
  0.0000E+00  0.0000E+00  0.0000E+00  0.0000E+00  0.0000E+00  0.0000E+00  0.0000E+00  0.0000E+00  0.0000E+00  0.0000E+00  0.0000E+00  0.0000E+00  0.0000E+00  0.0000E+00  0.0000E+00  0.0000E+00  0.0000E+00  0.0000E+00  0.0000E+00  0.0000E+00  0.0000E+00  0.0000E+00  0.0000E+00  0.0000E+00  0.0000E+00  0.0000E+00  0.0000E+00  0.0000E+00  0.0000E+00  0.0000E+00  0.0000E+00  0.0000E+00  0.0000E+00  0.0000E+00  0.0000E+00  0.0000E+00  0.0000E+00  0.0000E+00  0.0000E+00  0.0000E+00  0.0000E+00  0.0000E+00  0.0000E+00  0.0000E+00  0.0000E+00  0.0000E+00  0.0000E+00  0.0000E+00  0.0000E+00  0.0000E+00  0.0000E+00  0.0000E+00  0.0000E+00  0.0000E+00  0.0000E+00  0.0000E+00  0.0000E+00  0.0000E+00  0.0000E+00  0.0000E+00  0.0000E+00  0.0000E+00  0.0000E+00  0.0000E+00  0.0000E+00  0.0000E+00  0.0000E+00  0.0000E+00  0.0000E+00  0.0000E+00  0.0000E+00  0.0000E+00  0.0000E+00  0.0000E+00  0.0000E+00  0.0000E+00  0.0000E+00  0.0000E+00  0.0000E+00
  0.0000E+00  0.0000E+00  0.0000E+00  0.0000E+00  0.0000E+00  0.0000E+00  0.0000E+00  0.0000E+00  0.0000E+00  0.0000E+00  0.0000E+00  0.0000E+00  0.0000E+00  0.0000E+00  0.0000E+00  0.0000E+00  0.0000E+00  0.0000E+00  0.0000E+00  0.0000E+00  0.0000E+00  0.0000E+00  0.0000E+00  0.0000E+00  0.0000E+00  0.0000E+00  0.0000E+00  0.0000E+00  0.0000E+00  0.0000E+00  0.0000E+00  0.0000E+00  0.0000E+00  0.0000E+00  0.0000E+00  0.0000E+00  0.0000E+00  0.0000E+00  0.0000E+00  0.0000E+00  0.0000E+00  0.0000E+00  0.0000E+00  0.0000E+00  0.0000E+00  0.0000E+00  0.0000E+00  0.0000E+00  0.0000E+00  0.0000E+00  0.0000E+00  0.0000E+00  0.0000E+00  0.0000E+00  0.0000E+00  0.0000E+00  0.0000E+00  0.0000E+00  0.0000E+00  0.0000E+00  0.0000E+00  0.0000E+00  0.0000E+00  0.0000E+00  0.0000E+00  0.0000E+00  0.0000E+00  0.0000E+00  0.0000E+00  0.0000E+00  0.0000E+00  0.0000E+00  0.0000E+00  0.0000E+00  0.0000E+00  0.0000E+00  0.0000E+00  0.0000E+00  0.0000E+00
  0.0000E+00  0.0000E+00  0.0000E+00  0.0000E+00  0.0000E+00  0.0000E+00  0.0000E+00  0.0000E+00  0.0000E+00  0.0000E+00  0.0000E+00  0.0000E+00  0.0000E+00  0.0000E+00  0.0000E+00  0.0000E+00  0.0000E+00  0.0000E+00  0.0000E+00  0.0000E+00  0.0000E+00  0.0000E+00  0.0000E+00  0.0000E+00  0.0000E+00  0.0000E+00  0.0000E+00  0.0000E+00  0.0000E+00  0.0000E+00  0.0000E+00  0.0000E+00  0.0000E+00  0.0000E+00  0.0000E+00  0.0000E+00  0.0000E+00  0.0000E+00  0.0000E+00  0.0000E+00  0.0000E+00  0.0000E+00  0.0000E+00  0.0000E+00  0.0000E+00  0.0000E+00  0.0000E+00  0.0000E+00  0.0000E+00  0.0000E+00  0.0000E+00  0.0000E+00  0.0000E+00  0.0000E+00  0.0000E+00  0.0000E+00  0.0000E+00  0.0000E+00  0.0000E+00  0.0000E+00  0.0000E+00  0.0000E+00  0.0000E+00  0.0000E+00  0.0000E+00  0.0000E+00  0.0000E+00  0.0000E+00  0.0000E+00  0.0000E+00  0.0000E+00  0.0000E+00  0.0000E+00  0.0000E+00  0.0000E+00  0.0000E+00  0.0000E+00  0.0000E+00  0.0000E+00
  0.0000E+00  0.0000E+00  0.0000E+00  0.0000E+00  0.0000E+00  0.0000E+00  0.0000E+00  0.0000E+00  0.0000E+00  0.0000E+00  0.0000E+00  0.0000E+00  0.0000E+00  0.0000E+00  0.0000E+00  0.0000E+00  0.0000E+00  0.0000E+00  0.0000E+00  0.0000E+00  0.0000E+00  0.0000E+00  0.0000E+00  0.0000E+00  0.0000E+00  0.0000E+00  0.0000E+00  0.0000E+00  0.0000E+00  0.0000E+00  0.0000E+00  0.0000E+00  0.0000E+00  0.0000E+00  0.0000E+00  0.0000E+00  0.0000E+00  0.0000E+00  0.0000E+00  0.0000E+00  0.0000E+00  0.0000E+00  0.0000E+00  0.0000E+00  0.0000E+00  0.0000E+00  0.0000E+00  0.0000E+00  0.0000E+00  0.0000E+00  0.0000E+00  0.0000E+00  0.0000E+00  0.0000E+00  0.0000E+00  0.0000E+00  0.0000E+00  0.0000E+00  0.0000E+00  0.0000E+00  0.0000E+00  0.0000E+00  0.0000E+00  0.0000E+00  0.0000E+00  0.0000E+00  0.0000E+00  0.0000E+00  0.0000E+00  0.0000E+00  0.0000E+00  0.0000E+00  0.0000E+00  0.0000E+00  0.0000E+00  0.0000E+00  0.0000E+00  0.0000E+00  0.0000E+00
  0.0000E+00  0.0000E+00  0.0000E+00  0.0000E+00  0.0000E+00  0.0000E+00  0.0000E+00  0.0000E+00  0.0000E+00  0.0000E+00  0.0000E+00  0.0000E+00  0.0000E+00  0.0000E+00  0.0000E+00  0.0000E+00  0.0000E+00  0.0000E+00  0.0000E+00  0.0000E+00  0.0000E+00  0.0000E+00  0.0000E+00  0.0000E+00  0.0000E+00  0.0000E+00  0.0000E+00  0.0000E+00  0.0000E+00  0.0000E+00  0.0000E+00  0.0000E+00  0.0000E+00  0.0000E+00  0.0000E+00  0.0000E+00  0.0000E+00  0.0000E+00  0.0000E+00  0.0000E+00  0.0000E+00  0.0000E+00  0.0000E+00  0.0000E+00  0.0000E+00  0.0000E+00  0.0000E+00  0.0000E+00  0.0000E+00  0.0000E+00  0.0000E+00  0.0000E+00  0.0000E+00  0.0000E+00  0.0000E+00  0.0000E+00  0.0000E+00  0.0000E+00  0.0000E+00  0.0000E+00  0.0000E+00  0.0000E+00  0.0000E+00  0.0000E+00  0.0000E+00  0.0000E+00  0.0000E+00  0.0000E+00  0.0000E+00  0.0000E+00  0.0000E+00  0.0000E+00  0.0000E+00  0.0000E+00  0.0000E+00  0.0000E+00  0.0000E+00  0.0000E+00  0.0000E+00
  0.0000E+00  0.0000E+00  0.0000E+00  0.0000E+00  0.0000E+00  0.0000E+00  0.0000E+00  0.0000E+00  0.0000E+00  0.0000E+00  0.0000E+00  0.0000E+00  0.0000E+00  0.0000E+00  0.0000E+00  0.0000E+00  0.0000E+00  0.0000E+00  0.0000E+00  0.0000E+00  0.0000E+00  0.0000E+00  0.0000E+00  0.0000E+00  0.0000E+00  0.0000E+00  0.0000E+00  0.0000E+00  0.0000E+00  0.0000E+00  0.0000E+00  0.0000E+00  0.0000E+00  0.0000E+00  0.0000E+00  0.0000E+00  0.0000E+00  0.0000E+00  0.0000E+00  0.0000E+00  0.0000E+00  0.0000E+00  0.0000E+00  0.0000E+00  0.0000E+00  0.0000E+00  0.0000E+00  0.0000E+00  0.0000E+00  0.0000E+00  0.0000E+00  0.0000E+00  0.0000E+00  0.0000E+00  0.0000E+00  0.0000E+00  0.0000E+00  0.0000E+00  0.0000E+00  0.0000E+00  0.0000E+00  0.0000E+00  0.0000E+00  0.0000E+00  0.0000E+00  0.0000E+00  0.0000E+00  0.0000E+00  0.0000E+00  0.0000E+00  0.0000E+00  0.0000E+00  0.0000E+00  0.0000E+00  0.0000E+00  0.0000E+00  0.0000E+00  0.0000E+00  0.0000E+00
  0.0000E+00  0.0000E+00  0.0000E+00  0.0000E+00  0.0000E+00  0.0000E+00  0.0000E+00  0.0000E+00  0.0000E+00  0.0000E+00  0.0000E+00  0.0000E+00  0.0000E+00  0.0000E+00  0.0000E+00  0.0000E+00  0.0000E+00  0.0000E+00  0.0000E+00  0.0000E+00  0.0000E+00  0.0000E+00  0.0000E+00  0.0000E+00  0.0000E+00  0.0000E+00  0.0000E+00  0.0000E+00  0.0000E+00  0.0000E+00  0.0000E+00  0.0000E+00  0.0000E+00  0.0000E+00  0.0000E+00  0.0000E+00  0.0000E+00  0.0000E+00  0.0000E+00  0.0000E+00  0.0000E+00  0.0000E+00  0.0000E+00  0.0000E+00  0.0000E+00  0.0000E+00  0.0000E+00  0.0000E+00  0.0000E+00  0.0000E+00  0.0000E+00  0.0000E+00  0.0000E+00  0.0000E+00  0.0000E+00  0.0000E+00  0.0000E+00  0.0000E+00  0.0000E+00  0.0000E+00  0.0000E+00  0.0000E+00  0.0000E+00  0.0000E+00  0.0000E+00  0.0000E+00  0.0000E+00  0.0000E+00  0.0000E+00  0.0000E+00  0.0000E+00  0.0000E+00  0.0000E+00  0.0000E+00  0.0000E+00  0.0000E+00  0.0000E+00  0.0000E+00  0.0000E+00
  0.0000E+00  0.0000E+00  0.0000E+00  0.0000E+00  0.0000E+00  0.0000E+00  0.0000E+00  0.0000E+00  0.0000E+00  0.0000E+00  0.0000E+00  0.0000E+00  0.0000E+00  0.0000E+00  0.0000E+00  0.0000E+00  0.0000E+00  0.0000E+00  0.0000E+00  0.0000E+00  0.0000E+00  0.0000E+00  0.0000E+00  0.0000E+00  0.0000E+00  0.0000E+00  0.0000E+00  0.0000E+00  0.0000E+00  0.0000E+00  0.0000E+00  0.0000E+00  0.0000E+00  0.0000E+00  0.0000E+00  0.0000E+00  0.0000E+00  0.0000E+00  0.0000E+00  0.0000E+00  0.0000E+00  0.0000E+00  0.0000E+00  0.0000E+00  0.0000E+00  0.0000E+00  0.0000E+00  0.0000E+00  0.0000E+00  0.0000E+00  0.0000E+00  0.0000E+00  0.0000E+00  0.0000E+00  0.0000E+00  0.0000E+00  0.0000E+00  0.0000E+00  0.0000E+00  0.0000E+00  0.0000E+00  0.0000E+00  0.0000E+00  0.0000E+00  0.0000E+00  0.0000E+00  0.0000E+00  0.0000E+00  0.0000E+00  0.0000E+00  0.0000E+00  0.0000E+00  0.0000E+00  0.0000E+00  0.0000E+00  0.0000E+00  0.0000E+00  0.0000E+00  0.0000E+00
  0.0000E+00  0.0000E+00  0.0000E+00  0.0000E+00  0.0000E+00  0.0000E+00  0.0000E+00  0.0000E+00  0.0000E+00  0.0000E+00  0.0000E+00  0.0000E+00  0.0000E+00  0.0000E+00  0.0000E+00  0.0000E+00  0.0000E+00  0.0000E+00  0.0000E+00  0.0000E+00  0.0000E+00  0.0000E+00  0.0000E+00  0.0000E+00  0.0000E+00  0.0000E+00  0.0000E+00  0.0000E+00  0.0000E+00  0.0000E+00  0.0000E+00  0.0000E+00  0.0000E+00  0.0000E+00  0.0000E+00  0.0000E+00  0.0000E+00  0.0000E+00  0.0000E+00  0.0000E+00  0.0000E+00  0.0000E+00  0.0000E+00  0.0000E+00  0.0000E+00  0.0000E+00  0.0000E+00  0.0000E+00  0.0000E+00  0.0000E+00  0.0000E+00  0.0000E+00  0.0000E+00  0.0000E+00  0.0000E+00  0.0000E+00  0.0000E+00  0.0000E+00  0.0000E+00  0.0000E+00  0.0000E+00  0.0000E+00  0.0000E+00  0.0000E+00  0.0000E+00  0.0000E+00  0.0000E+00  0.0000E+00  0.0000E+00  0.0000E+00  0.0000E+00  0.0000E+00  0.0000E+00  0.0000E+00  0.0000E+00  0.0000E+00  0.0000E+00  0.0000E+00  0.0000E+00
  0.0000E+00  0.0000E+00  0.0000E+00  0.0000E+00  0.0000E+00  0.0000E+00  0.0000E+00  0.0000E+00  0.0000E+00  0.0000E+00  0.0000E+00  0.0000E+00  0.0000E+00  0.0000E+00  0.0000E+00  0.0000E+00  0.0000E+00  0.0000E+00  0.0000E+00  0.0000E+00  0.0000E+00  0.0000E+00  0.0000E+00  0.0000E+00  0.0000E+00  0.0000E+00  0.0000E+00  0.0000E+00  0.0000E+00  0.0000E+00  0.0000E+00  0.0000E+00  0.0000E+00  0.0000E+00  0.0000E+00  0.0000E+00  0.0000E+00  0.0000E+00  0.0000E+00  0.0000E+00  0.0000E+00  0.0000E+00  0.0000E+00  0.0000E+00  0.0000E+00  0.0000E+00  0.0000E+00  0.0000E+00  0.0000E+00  0.0000E+00  0.0000E+00  0.0000E+00  0.0000E+00  0.0000E+00  0.0000E+00  0.0000E+00  0.0000E+00  0.0000E+00  0.0000E+00  0.0000E+00  0.0000E+00  0.0000E+00  0.0000E+00  0.0000E+00  0.0000E+00  0.0000E+00  0.0000E+00  0.0000E+00  0.0000E+00  0.0000E+00  0.0000E+00  0.0000E+00  0.0000E+00  0.0000E+00  0.0000E+00  0.0000E+00  0.0000E+00  0.0000E+00  0.0000E+00
  0.0000E+00  0.0000E+00  0.0000E+00  0.0000E+00  0.0000E+00  0.0000E+00  0.0000E+00  0.0000E+00  0.0000E+00  0.0000E+00  0.0000E+00  0.0000E+00  0.0000E+00  0.0000E+00  0.0000E+00  0.0000E+00  0.0000E+00  0.0000E+00  0.0000E+00  0.0000E+00  0.0000E+00  0.0000E+00  0.0000E+00  0.0000E+00  0.0000E+00  0.0000E+00  0.0000E+00  0.0000E+00  0.0000E+00  0.0000E+00  0.0000E+00  0.0000E+00  0.0000E+00  0.0000E+00  0.0000E+00  0.0000E+00  0.0000E+00  0.0000E+00  0.0000E+00  0.0000E+00  0.0000E+00  0.0000E+00  0.0000E+00  0.0000E+00  0.0000E+00  0.0000E+00  0.0000E+00  0.0000E+00  0.0000E+00  0.0000E+00  0.0000E+00  0.0000E+00  0.0000E+00  0.0000E+00  0.0000E+00  0.0000E+00  0.0000E+00  0.0000E+00  0.0000E+00  0.0000E+00  0.0000E+00  0.0000E+00  0.0000E+00  0.0000E+00  0.0000E+00  0.0000E+00  0.0000E+00  0.0000E+00  0.0000E+00  0.0000E+00  0.0000E+00  0.0000E+00  0.0000E+00  0.0000E+00  0.0000E+00  0.0000E+00  0.0000E+00  0.0000E+00  0.0000E+00
  0.0000E+00  0.0000E+00  0.0000E+00  0.0000E+00  0.0000E+00  0.0000E+00  0.0000E+00  0.0000E+00  0.0000E+00  0.0000E+00  0.0000E+00  0.0000E+00  0.0000E+00  0.0000E+00  0.0000E+00  0.0000E+00  0.0000E+00  0.0000E+00  0.0000E+00  0.0000E+00  0.0000E+00  0.0000E+00  0.0000E+00  0.0000E+00  0.0000E+00  0.0000E+00  0.0000E+00  0.0000E+00  0.0000E+00  0.0000E+00  0.0000E+00  0.0000E+00  0.0000E+00  0.0000E+00  0.0000E+00  0.0000E+00  0.0000E+00  0.0000E+00  0.0000E+00  0.0000E+00  0.0000E+00  0.0000E+00  0.0000E+00  0.0000E+00  0.0000E+00  0.0000E+00  0.0000E+00  0.0000E+00  0.0000E+00  0.0000E+00  0.0000E+00  0.0000E+00  0.0000E+00  0.0000E+00  0.0000E+00  0.0000E+00  0.0000E+00  0.0000E+00  0.0000E+00  0.0000E+00  0.0000E+00  0.0000E+00  0.0000E+00  0.0000E+00  0.0000E+00  0.0000E+00  0.0000E+00  0.0000E+00  0.0000E+00  0.0000E+00  0.0000E+00  0.0000E+00  0.0000E+00  0.0000E+00  0.0000E+00  0.0000E+00  0.0000E+00  0.0000E+00  0.0000E+00
  0.0000E+00  0.0000E+00  0.0000E+00  0.0000E+00  0.0000E+00  0.0000E+00  0.0000E+00  0.0000E+00  0.0000E+00  0.0000E+00  0.0000E+00  0.0000E+00  0.0000E+00  0.0000E+00  0.0000E+00  0.0000E+00  0.0000E+00  0.0000E+00  0.0000E+00  0.0000E+00  0.0000E+00  0.0000E+00  0.0000E+00  0.0000E+00  0.0000E+00  0.0000E+00  0.0000E+00  0.0000E+00  0.0000E+00  0.0000E+00  0.0000E+00  0.0000E+00  0.0000E+00  0.0000E+00  0.0000E+00  0.0000E+00  0.0000E+00  0.0000E+00  0.0000E+00  0.0000E+00  0.0000E+00  0.0000E+00  0.0000E+00  0.0000E+00  0.0000E+00  0.0000E+00  0.0000E+00  0.0000E+00  0.0000E+00  0.0000E+00  0.0000E+00  0.0000E+00  0.0000E+00  0.0000E+00  0.0000E+00  0.0000E+00  0.0000E+00  0.0000E+00  0.0000E+00  0.0000E+00  0.0000E+00  0.0000E+00  0.0000E+00  0.0000E+00  0.0000E+00  0.0000E+00  0.0000E+00  0.0000E+00  0.0000E+00  0.0000E+00  0.0000E+00  0.0000E+00  0.0000E+00  0.0000E+00  0.0000E+00  0.0000E+00  0.0000E+00  0.0000E+00  0.0000E+00
  0.0000E+00  0.0000E+00  0.0000E+00  0.0000E+00  0.0000E+00  0.0000E+00  0.0000E+00  0.0000E+00  0.0000E+00  0.0000E+00  0.0000E+00  0.0000E+00  0.0000E+00  0.0000E+00  0.0000E+00  0.0000E+00  0.0000E+00  0.0000E+00  0.0000E+00  0.0000E+00  0.0000E+00  0.0000E+00  0.0000E+00  0.0000E+00  0.0000E+00  0.0000E+00  0.0000E+00  0.0000E+00  0.0000E+00  0.0000E+00  0.0000E+00  0.0000E+00  0.0000E+00  0.0000E+00  0.0000E+00  0.0000E+00  0.0000E+00  0.0000E+00  0.0000E+00  0.0000E+00  0.0000E+00  0.0000E+00  0.0000E+00  0.0000E+00  0.0000E+00  0.0000E+00  0.0000E+00  0.0000E+00  0.0000E+00  0.0000E+00  0.0000E+00  0.0000E+00  0.0000E+00  0.0000E+00  0.0000E+00  0.0000E+00  0.0000E+00  0.0000E+00  0.0000E+00  0.0000E+00  0.0000E+00  0.0000E+00  0.0000E+00  0.0000E+00  0.0000E+00  0.0000E+00  0.0000E+00  0.0000E+00  0.0000E+00  0.0000E+00  0.0000E+00  0.0000E+00  0.0000E+00  0.0000E+00  0.0000E+00  0.0000E+00  0.0000E+00  0.0000E+00  0.0000E+00
  0.0000E+00  0.0000E+00  0.0000E+00  0.0000E+00  0.0000E+00  0.0000E+00  0.0000E+00  0.0000E+00  0.0000E+00  0.0000E+00  0.0000E+00  0.0000E+00  0.0000E+00  0.0000E+00  0.0000E+00  0.0000E+00  0.0000E+00  0.0000E+00  0.0000E+00  0.0000E+00  0.0000E+00  0.0000E+00  0.0000E+00  0.0000E+00  0.0000E+00  0.0000E+00  0.0000E+00  0.0000E+00  0.0000E+00  0.0000E+00  0.0000E+00  0.0000E+00  0.0000E+00  0.0000E+00  0.0000E+00  0.0000E+00  0.0000E+00  0.0000E+00  0.0000E+00  0.0000E+00  0.0000E+00  0.0000E+00  0.0000E+00  0.0000E+00  0.0000E+00  0.0000E+00  0.0000E+00  0.0000E+00  0.0000E+00  0.0000E+00  0.0000E+00  0.0000E+00  0.0000E+00  0.0000E+00  0.0000E+00  0.0000E+00  0.0000E+00  0.0000E+00  0.0000E+00  0.0000E+00  0.0000E+00  0.0000E+00  0.0000E+00  0.0000E+00  0.0000E+00  0.0000E+00  0.0000E+00  0.0000E+00  0.0000E+00  0.0000E+00  0.0000E+00  0.0000E+00  0.0000E+00  0.0000E+00  0.0000E+00  0.0000E+00  0.0000E+00  0.0000E+00  0.0000E+00
  0.0000E+00  0.0000E+00  0.0000E+00  0.0000E+00  0.0000E+00  0.0000E+00  0.0000E+00  0.0000E+00  0.0000E+00  0.0000E+00  0.0000E+00  0.0000E+00  0.0000E+00  0.0000E+00  0.0000E+00  0.0000E+00  0.0000E+00  0.0000E+00  0.0000E+00  0.0000E+00  0.0000E+00  0.0000E+00  0.0000E+00  0.0000E+00  0.0000E+00  0.0000E+00  0.0000E+00  0.0000E+00  0.0000E+00  0.0000E+00  0.0000E+00  0.0000E+00  0.0000E+00  0.0000E+00  0.0000E+00  0.0000E+00  0.0000E+00  0.0000E+00  0.0000E+00  0.0000E+00  0.0000E+00  0.0000E+00  0.0000E+00  0.0000E+00  0.0000E+00  0.0000E+00  0.0000E+00  0.0000E+00  0.0000E+00  0.0000E+00  0.0000E+00  0.0000E+00  0.0000E+00  0.0000E+00  0.0000E+00  0.0000E+00  0.0000E+00  0.0000E+00  0.0000E+00  0.0000E+00  0.0000E+00  0.0000E+00  0.0000E+00  0.0000E+00  0.0000E+00  0.0000E+00  0.0000E+00  0.0000E+00  0.0000E+00  0.0000E+00  0.0000E+00  0.0000E+00  0.0000E+00  0.0000E+00  0.0000E+00  0.0000E+00  0.0000E+00  0.0000E+00  0.0000E+00
  0.0000E+00  0.0000E+00  0.0000E+00  0.0000E+00  0.0000E+00  0.0000E+00  0.0000E+00  0.0000E+00  0.0000E+00  0.0000E+00  0.0000E+00  0.0000E+00  0.0000E+00  0.0000E+00  0.0000E+00  0.0000E+00  0.0000E+00  0.0000E+00  0.0000E+00  0.0000E+00  0.0000E+00  0.0000E+00  0.0000E+00  0.0000E+00  0.0000E+00  0.0000E+00  0.0000E+00  0.0000E+00  0.0000E+00  0.0000E+00  0.0000E+00  0.0000E+00  0.0000E+00  0.0000E+00  0.0000E+00  0.0000E+00  0.0000E+00  0.0000E+00  0.0000E+00  0.0000E+00  0.0000E+00  0.0000E+00  0.0000E+00  0.0000E+00  0.0000E+00  0.0000E+00  0.0000E+00  0.0000E+00  0.0000E+00  0.0000E+00  0.0000E+00  0.0000E+00  0.0000E+00  0.0000E+00  0.0000E+00  0.0000E+00  0.0000E+00  0.0000E+00  0.0000E+00  0.0000E+00  0.0000E+00  0.0000E+00  0.0000E+00  0.0000E+00  0.0000E+00  0.0000E+00  0.0000E+00  0.0000E+00  0.0000E+00  0.0000E+00  0.0000E+00  0.0000E+00  0.0000E+00  0.0000E+00  0.0000E+00  0.0000E+00  0.0000E+00  0.0000E+00  0.0000E+00
  0.0000E+00  0.0000E+00  0.0000E+00  0.0000E+00  0.0000E+00  0.0000E+00  0.0000E+00  0.0000E+00  0.0000E+00  0.0000E+00  0.0000E+00  0.0000E+00  0.0000E+00  0.0000E+00  0.0000E+00  0.0000E+00  0.0000E+00  0.0000E+00  0.0000E+00  0.0000E+00  0.0000E+00  0.0000E+00  0.0000E+00  0.0000E+00  0.0000E+00  0.0000E+00  0.0000E+00  0.0000E+00  0.0000E+00  0.0000E+00  0.0000E+00  0.0000E+00  0.0000E+00  0.0000E+00  0.0000E+00  0.0000E+00  0.0000E+00  0.0000E+00  0.0000E+00  0.0000E+00  0.0000E+00  0.0000E+00  0.0000E+00  0.0000E+00  0.0000E+00  0.0000E+00  0.0000E+00  0.0000E+00  0.0000E+00  0.0000E+00  0.0000E+00  0.0000E+00  0.0000E+00  0.0000E+00  0.0000E+00  0.0000E+00  0.0000E+00  0.0000E+00  0.0000E+00  0.0000E+00  0.0000E+00  0.0000E+00  0.0000E+00  0.0000E+00  0.0000E+00  0.0000E+00  0.0000E+00  0.0000E+00  0.0000E+00  0.0000E+00  0.0000E+00  0.0000E+00  0.0000E+00  0.0000E+00  0.0000E+00  0.0000E+00  0.0000E+00  0.0000E+00  0.0000E+00
  0.0000E+00  0.0000E+00  0.0000E+00  0.0000E+00  0.0000E+00  0.0000E+00  0.0000E+00  0.0000E+00  0.0000E+00  0.0000E+00  0.0000E+00  0.0000E+00  0.0000E+00  0.0000E+00  0.0000E+00  0.0000E+00  0.0000E+00  0.0000E+00  0.0000E+00  0.0000E+00  0.0000E+00  0.0000E+00  0.0000E+00  0.0000E+00  0.0000E+00  0.0000E+00  0.0000E+00  0.0000E+00  0.0000E+00  0.0000E+00  0.0000E+00  0.0000E+00  0.0000E+00  0.0000E+00  0.0000E+00  0.0000E+00  0.0000E+00  0.0000E+00  0.0000E+00  0.0000E+00  0.0000E+00  0.0000E+00  0.0000E+00  0.0000E+00  0.0000E+00  0.0000E+00  0.0000E+00  0.0000E+00  0.0000E+00  0.0000E+00  0.0000E+00  0.0000E+00  0.0000E+00  0.0000E+00  0.0000E+00  0.0000E+00  0.0000E+00  0.0000E+00  0.0000E+00  0.0000E+00  0.0000E+00  0.0000E+00  0.0000E+00  0.0000E+00  0.0000E+00  0.0000E+00  0.0000E+00  0.0000E+00  0.0000E+00  0.0000E+00  0.0000E+00  0.0000E+00  0.0000E+00  0.0000E+00  0.0000E+00  0.0000E+00  0.0000E+00  0.0000E+00  0.0000E+00
  0.0000E+00  0.0000E+00  0.0000E+00  0.0000E+00  0.0000E+00  0.0000E+00  0.0000E+00  0.0000E+00  0.0000E+00  0.0000E+00  0.0000E+00  0.0000E+00  0.0000E+00  0.0000E+00  0.0000E+00  0.0000E+00  0.0000E+00  0.0000E+00  0.0000E+00  0.0000E+00  0.0000E+00  0.0000E+00  0.0000E+00  0.0000E+00  0.0000E+00  0.0000E+00  0.0000E+00  0.0000E+00  0.0000E+00  0.0000E+00  0.0000E+00  0.0000E+00  0.0000E+00  0.0000E+00  0.0000E+00  0.0000E+00  0.0000E+00  0.0000E+00  0.0000E+00  0.0000E+00  0.0000E+00  0.0000E+00  0.0000E+00  0.0000E+00  0.0000E+00  0.0000E+00  0.0000E+00  0.0000E+00  0.0000E+00  0.0000E+00  0.0000E+00  0.0000E+00  0.0000E+00  0.0000E+00  0.0000E+00  0.0000E+00  0.0000E+00  0.0000E+00  0.0000E+00  0.0000E+00  0.0000E+00  0.0000E+00  0.0000E+00  0.0000E+00  0.0000E+00  0.0000E+00  0.0000E+00  0.0000E+00  0.0000E+00  0.0000E+00  0.0000E+00  0.0000E+00  0.0000E+00  0.0000E+00  0.0000E+00  0.0000E+00  0.0000E+00  0.0000E+00  0.0000E+00
  0.0000E+00  0.0000E+00  0.0000E+00  0.0000E+00  0.0000E+00  0.0000E+00  0.0000E+00  0.0000E+00  0.0000E+00  0.0000E+00  0.0000E+00  0.0000E+00  0.0000E+00  0.0000E+00  0.0000E+00  0.0000E+00  0.0000E+00  0.0000E+00  0.0000E+00  0.0000E+00  0.0000E+00  0.0000E+00  0.0000E+00  0.0000E+00  0.0000E+00  0.0000E+00  0.0000E+00  0.0000E+00  0.0000E+00  0.0000E+00  0.0000E+00  0.0000E+00  0.0000E+00  0.0000E+00  0.0000E+00  0.0000E+00  0.0000E+00  0.0000E+00  0.0000E+00  0.0000E+00  0.0000E+00  0.0000E+00  0.0000E+00  0.0000E+00  0.0000E+00  0.0000E+00  0.0000E+00  0.0000E+00  0.0000E+00  0.0000E+00  0.0000E+00  0.0000E+00  0.0000E+00  0.0000E+00  0.0000E+00  0.0000E+00  0.0000E+00  0.0000E+00  0.0000E+00  0.0000E+00  0.0000E+00  0.0000E+00  0.0000E+00  0.0000E+00  0.0000E+00  0.0000E+00  0.0000E+00  0.0000E+00  0.0000E+00  0.0000E+00  0.0000E+00  0.0000E+00  0.0000E+00  0.0000E+00  0.0000E+00  0.0000E+00  0.0000E+00  0.0000E+00  0.0000E+00
  0.0000E+00  0.0000E+00  0.0000E+00  0.0000E+00  0.0000E+00  0.0000E+00  0.0000E+00  0.0000E+00  0.0000E+00  0.0000E+00  0.0000E+00  0.0000E+00  0.0000E+00  0.0000E+00  0.0000E+00  0.0000E+00  0.0000E+00  0.0000E+00  0.0000E+00  0.0000E+00  0.0000E+00  0.0000E+00  0.0000E+00  0.0000E+00  0.0000E+00  0.0000E+00  0.0000E+00  0.0000E+00  0.0000E+00  0.0000E+00  0.0000E+00  0.0000E+00  0.0000E+00  0.0000E+00  0.0000E+00  0.0000E+00  0.0000E+00  0.0000E+00  0.0000E+00  0.0000E+00  0.0000E+00  0.0000E+00  0.0000E+00  0.0000E+00  0.0000E+00  0.0000E+00  0.0000E+00  0.0000E+00  0.0000E+00  0.0000E+00  0.0000E+00  0.0000E+00  0.0000E+00  0.0000E+00  0.0000E+00  0.0000E+00  0.0000E+00  0.0000E+00  0.0000E+00  0.0000E+00  0.0000E+00  0.0000E+00  0.0000E+00  0.0000E+00  0.0000E+00  0.0000E+00  0.0000E+00  0.0000E+00  0.0000E+00  0.0000E+00  0.0000E+00  0.0000E+00  0.0000E+00  0.0000E+00  0.0000E+00  0.0000E+00  0.0000E+00  0.0000E+00  0.0000E+00
  0.0000E+00  0.0000E+00  0.0000E+00  0.0000E+00  0.0000E+00  0.0000E+00  0.0000E+00  0.0000E+00  0.0000E+00  0.0000E+00  0.0000E+00  0.0000E+00  0.0000E+00  0.0000E+00  0.0000E+00  0.0000E+00  0.0000E+00  0.0000E+00  0.0000E+00  0.0000E+00  0.0000E+00  0.0000E+00  0.0000E+00  0.0000E+00  0.0000E+00  0.0000E+00  0.0000E+00  0.0000E+00  0.0000E+00  0.0000E+00  0.0000E+00  0.0000E+00  0.0000E+00  0.0000E+00  0.0000E+00  0.0000E+00  0.0000E+00  0.0000E+00  0.0000E+00  0.0000E+00  0.0000E+00  0.0000E+00  0.0000E+00  0.0000E+00  0.1881E-08  0.1967E-08  0.2039E-08  0.2093E-08  0.2130E-08  0.2147E-08  0.2145E-08  0.2123E-08  0.2082E-08  0.2023E-08  0.1948E-08  0.1859E-08  0.0000E+00  0.0000E+00  0.0000E+00  0.0000E+00  0.0000E+00  0.0000E+00  0.0000E+00  0.0000E+00  0.0000E+00  0.0000E+00  0.0000E+00  0.0000E+00  0.0000E+00  0.0000E+00  0.0000E+00  0.0000E+00  0.0000E+00  0.0000E+00  0.0000E+00  0.0000E+00  0.0000E+00  0.0000E+00  0.0000E+00
  0.0000E+00  0.0000E+00  0.0000E+00  0.0000E+00  0.0000E+00  0.0000E+00  0.0000E+00  0.0000E+00  0.0000E+00  0.0000E+00  0.0000E+00  0.0000E+00  0.0000E+00  0.0000E+00  0.0000E+00  0.0000E+00  0.0000E+00  0.0000E+00  0.0000E+00  0.0000E+00  0.0000E+00  0.0000E+00  0.0000E+00  0.0000E+00  0.0000E+00  0.0000E+00  0.0000E+00  0.0000E+00  0.0000E+00  0.0000E+00  0.0000E+00  0.0000E+00  0.0000E+00  0.0000E+00  0.0000E+00  0.0000E+00  0.0000E+00  0.0000E+00  0.0000E+00  0.0000E+00  0.0000E+00  0.1965E-08  0.2112E-08  0.4150E-08  0.8565E-08  0.8944E-08  0.9251E-08  0.9479E-08  0.9622E-08  0.9674E-08  0.1189E-07  0.1175E-07  0.9291E-08  0.8995E-08  0.6722E-08  0.6397E-08  0.4256E-08  0.2078E-08  0.1929E-08  0.0000E+00  0.0000E+00  0.0000E+00  0.0000E+00  0.0000E+00  0.0000E+00  0.0000E+00  0.0000E+00  0.0000E+00  0.0000E+00  0.0000E+00  0.0000E+00  0.0000E+00  0.0000E+00  0.0000E+00  0.0000E+00  0.0000E+00  0.0000E+00  0.0000E+00  0.0000E+00
  0.0000E+00  0.0000E+00  0.0000E+00  0.0000E+00  0.0000E+00  0.0000E+00  0.0000E+00  0.0000E+00  0.0000E+00  0.0000E+00  0.0000E+00  0.0000E+00  0.0000E+00  0.0000E+00  0.0000E+00  0.0000E+00  0.0000E+00  0.0000E+00  0.0000E+00  0.0000E+00  0.0000E+00  0.0000E+00  0.0000E+00  0.0000E+00  0.0000E+00  0.0000E+00  0.0000E+00  0.0000E+00  0.0000E+00  0.0000E+00  0.0000E+00  0.0000E+00  0.0000E+00  0.0000E+00  0.0000E+00  0.0000E+00  0.0000E+00  0.0000E+00  0.0000E+00  0.2068E-08  0.6312E-08  0.8977E-08  0.1155E-07  0.1442E-07  0.2201E-07  0.2300E-07  0.2380E-07  0.2837E-07  0.3366E-07  0.3387E-07  0.3373E-07  0.3140E-07  0.2663E-07  0.2355E-07  0.2012E-07  0.1701E-07  0.1418E-07  0.9327E-08  0.6576E-08  0.4261E-08  0.2022E-08  0.1826E-08  0.0000E+00  0.0000E+00  0.0000E+00  0.0000E+00  0.0000E+00  0.0000E+00  0.0000E+00  0.0000E+00  0.0000E+00  0.0000E+00  0.0000E+00  0.0000E+00  0.0000E+00  0.0000E+00  0.0000E+00  0.0000E+00  0.0000E+00
  0.0000E+00  0.0000E+00  0.0000E+00  0.0000E+00  0.0000E+00  0.0000E+00  0.0000E+00  0.0000E+00  0.0000E+00  0.0000E+00  0.0000E+00  0.0000E+00  0.0000E+00  0.0000E+00  0.0000E+00  0.0000E+00  0.0000E+00  0.0000E+00  0.0000E+00  0.0000E+00  0.0000E+00  0.0000E+00  0.0000E+00  0.0000E+00  0.0000E+00  0.0000E+00  0.0000E+00  0.0000E+00  0.0000E+00  0.0000E+00  0.0000E+00  0.0000E+00  0.0000E+00  0.0000E+00  0.0000E+00  0.0000E+00  0.0000E+00  0.1999E-08  0.6568E-08  0.1138E-07  0.1901E-07  0.2489E-07  0.2891E-07  0.3320E-07  0.4484E-07  0.4694E-07  0.5313E-07  0.5714E-07  0.6105E-07  0.6145E-07  0.6117E-07  0.5824E-07  0.5676E-07  0.4827E-07  0.4359E-07  0.3605E-07  0.2994E-07  0.2362E-07  0.1725E-07  0.1398E-07  0.6834E-08  0.4349E-08  0.2024E-08  0.1794E-08  0.0000E+00  0.0000E+00  0.0000E+00  0.0000E+00  0.0000E+00  0.0000E+00  0.0000E+00  0.0000E+00  0.0000E+00  0.0000E+00  0.0000E+00  0.0000E+00  0.0000E+00  0.0000E+00  0.0000E+00
  0.0000E+00  0.0000E+00  0.0000E+00  0.0000E+00  0.0000E+00  0.0000E+00  0.0000E+00  0.0000E+00  0.0000E+00  0.0000E+00  0.0000E+00  0.0000E+00  0.0000E+00  0.0000E+00  0.0000E+00  0.0000E+00  0.0000E+00  0.0000E+00  0.0000E+00  0.0000E+00  0.0000E+00  0.0000E+00  0.0000E+00  0.0000E+00  0.0000E+00  0.0000E+00  0.0000E+00  0.0000E+00  0.0000E+00  0.0000E+00  0.0000E+00  0.0000E+00  0.0000E+00  0.0000E+00  0.0000E+00  0.1521E-08  0.5834E-08  0.1083E-07  0.1937E-07  0.2613E-07  0.3557E-07  0.4606E-07  0.5491E-07  0.6142E-07  0.7616E-07  0.8242E-07  0.8839E-07  0.9737E-07  0.9929E-07  0.1001E-06  0.1028E-06  0.9822E-07  0.9340E-07  0.8991E-07  0.7839E-07  0.7100E-07  0.5860E-07  0.4783E-07  0.3895E-07  0.2716E-07  0.2022E-07  0.1410E-07  0.6770E-08  0.4230E-08  0.1936E-08  0.0000E+00  0.0000E+00  0.0000E+00  0.0000E+00  0.0000E+00  0.0000E+00  0.0000E+00  0.0000E+00  0.0000E+00  0.0000E+00  0.0000E+00  0.0000E+00  0.0000E+00  0.0000E+00
  0.0000E+00  0.0000E+00  0.0000E+00  0.0000E+00  0.0000E+00  0.0000E+00  0.0000E+00  0.0000E+00  0.0000E+00  0.0000E+00  0.0000E+00  0.0000E+00  0.0000E+00  0.0000E+00  0.0000E+00  0.0000E+00  0.0000E+00  0.0000E+00  0.0000E+00  0.0000E+00  0.0000E+00  0.0000E+00  0.0000E+00  0.0000E+00  0.0000E+00  0.0000E+00  0.0000E+00  0.0000E+00  0.0000E+00  0.0000E+00  0.0000E+00  0.0000E+00  0.0000E+00  0.0000E+00  0.3000E-08  0.5419E-08  0.1468E-07  0.2404E-07  0.3505E-07  0.4747E-07  0.6060E-07  0.7511E-07  0.8983E-07  0.9959E-07  0.1186E-06  0.1280E-06  0.1402E-06  0.1489E-06  0.1559E-06  0.1575E-06  0.1573E-06  0.1550E-06  0.1509E-06  0.1392E-06  0.1322E-06  0.1161E-06  0.1024E-06  0.8312E-07  0.6844E-07  0.5206E-07  0.3963E-07  0.2707E-07  0.1734E-07  0.9619E-08  0.6389E-08  0.2050E-08  0.0000E+00  0.0000E+00  0.0000E+00  0.0000E+00  0.0000E+00  0.0000E+00  0.0000E+00  0.0000E+00  0.0000E+00  0.0000E+00  0.0000E+00  0.0000E+00  0.0000E+00
  0.0000E+00  0.0000E+00  0.0000E+00  0.0000E+00  0.0000E+00  0.0000E+00  0.0000E+00  0.0000E+00  0.0000E+00  0.0000E+00  0.0000E+00  0.0000E+00  0.0000E+00  0.0000E+00  0.0000E+00  0.0000E+00  0.0000E+00  0.0000E+00  0.0000E+00  0.0000E+00  0.0000E+00  0.0000E+00  0.0000E+00  0.0000E+00  0.0000E+00  0.0000E+00  0.0000E+00  0.0000E+00  0.0000E+00  0.0000E+00  0.0000E+00  0.0000E+00  0.0000E+00  0.3804E-08  0.9260E-08  0.1880E-07  0.2880E-07  0.4141E-07  0.5894E-07  0.7643E-07  0.9500E-07  0.1155E-06  0.1331E-06  0.1473E-06  0.1718E-06  0.1898E-06  0.2070E-06  0.2196E-06  0.2299E-06  0.2368E-06  0.2369E-06  0.2302E-06  0.2294E-06  0.2153E-06  0.1974E-06  0.1817E-06  0.1592E-06  0.1343E-06  0.1115E-06  0.8804E-07  0.7168E-07  0.5124E-07  0.3821E-07  0.2341E-07  0.1436E-07  0.6715E-08  0.2132E-08  0.1822E-08  0.0000E+00  0.0000E+00  0.0000E+00  0.0000E+00  0.0000E+00  0.0000E+00  0.0000E+00  0.0000E+00  0.0000E+00  0.0000E+00  0.0000E+00
  0.0000E+00  0.0000E+00  0.0000E+00  0.0000E+00  0.0000E+00  0.0000E+00  0.0000E+00  0.0000E+00  0.0000E+00  0.0000E+00  0.0000E+00  0.0000E+00  0.0000E+00  0.0000E+00  0.0000E+00  0.0000E+00  0.0000E+00  0.0000E+00  0.0000E+00  0.0000E+00  0.0000E+00  0.0000E+00  0.0000E+00  0.0000E+00  0.0000E+00  0.0000E+00  0.0000E+00  0.0000E+00  0.0000E+00  0.0000E+00  0.0000E+00  0.0000E+00  0.3239E-08  0.9320E-08  0.1689E-07  0.2795E-07  0.4115E-07  0.5912E-07  0.7924E-07  0.1022E-06  0.1280E-06  0.1588E-06  0.1880E-06  0.2140E-06  0.2474E-06  0.2730E-06  0.2975E-06  0.3164E-06  0.3363E-06  0.3466E-06  0.3583E-06  0.3613E-06  0.3486E-06  0.3262E-06  0.3032E-06  0.2691E-06  0.2406E-06  0.2078E-06  0.1725E-06  0.1411E-06  0.1107E-06  0.8303E-07  0.6277E-07  0.4313E-07  0.2695E-07  0.1680E-07  0.6920E-08  0.4158E-08  0.1843E-08  0.0000E+00  0.0000E+00  0.0000E+00  0.0000E+00  0.0000E+00  0.0000E+00  0.0000E+00  0.0000E+00  0.0000E+00  0.0000E+00
  0.0000E+00  0.0000E+00  0.0000E+00  0.0000E+00  0.0000E+00  0.0000E+00  0.0000E+00  0.0000E+00  0.0000E+00  0.0000E+00  0.0000E+00  0.0000E+00  0.0000E+00  0.0000E+00  0.0000E+00  0.0000E+00  0.0000E+00  0.0000E+00  0.0000E+00  0.0000E+00  0.0000E+00  0.0000E+00  0.0000E+00  0.0000E+00  0.0000E+00  0.0000E+00  0.0000E+00  0.0000E+00  0.0000E+00  0.0000E+00  0.7612E-09  0.3677E-08  0.1020E-07  0.1705E-07  0.2778E-07  0.4041E-07  0.5980E-07  0.7916E-07  0.1061E-06  0.1394E-06  0.1748E-06  0.2134E-06  0.2591E-06  0.2979E-06  0.3408E-06  0.3837E-06  0.4144E-06  0.4420E-06  0.4874E-06  0.5054E-06  0.5252E-06  0.5182E-06  0.5064E-06  0.4860E-06  0.4438E-06  0.4016E-06  0.3505E-06  0.3044E-06  0.2491E-06  0.2089E-06  0.1630E-06  0.1253E-06  0.9729E-07  0.6895E-07  0.4754E-07  0.2981E-07  0.1714E-07  0.6995E-08  0.4160E-08  0.1830E-08  0.0000E+00  0.0000E+00  0.0000E+00  0.0000E+00  0.0000E+00  0.0000E+00  0.0000E+00  0.0000E+00  0.0000E+00
  0.0000E+00  0.0000E+00  0.0000E+00  0.0000E+00  0.0000E+00  0.0000E+00  0.0000E+00  0.0000E+00  0.0000E+00  0.0000E+00  0.0000E+00  0.0000E+00  0.0000E+00  0.0000E+00  0.0000E+00  0.0000E+00  0.0000E+00  0.0000E+00  0.0000E+00  0.0000E+00  0.0000E+00  0.0000E+00  0.0000E+00  0.0000E+00  0.0000E+00  0.0000E+00  0.0000E+00  0.0000E+00  0.0000E+00  0.0000E+00  0.2901E-08  0.7725E-08  0.1421E-07  0.2370E-07  0.3528E-07  0.5317E-07  0.7209E-07  0.1008E-06  0.1321E-06  0.1734E-06  0.2184E-06  0.2738E-06  0.3308E-06  0.3914E-06  0.4530E-06  0.5212E-06  0.5766E-06  0.6215E-06  0.6862E-06  0.7169E-06  0.7486E-06  0.7489E-06  0.7342E-06  0.7001E-06  0.6580E-06  0.5894E-06  0.5155E-06  0.4368E-06  0.3697E-06  0.3013E-06  0.2394E-06  0.1811E-06  0.1424E-06  0.1046E-06  0.7399E-07  0.4848E-07  0.3009E-07  0.1715E-07  0.6938E-08  0.2147E-08  0.1785E-08  0.0000E+00  0.0000E+00  0.0000E+00  0.0000E+00  0.0000E+00  0.0000E+00  0.0000E+00  0.0000E+00
  0.0000E+00  0.0000E+00  0.0000E+00  0.0000E+00  0.0000E+00  0.0000E+00  0.0000E+00  0.0000E+00  0.0000E+00  0.0000E+00  0.0000E+00  0.0000E+00  0.0000E+00  0.0000E+00  0.0000E+00  0.0000E+00  0.0000E+00  0.0000E+00  0.0000E+00  0.0000E+00  0.0000E+00  0.0000E+00  0.0000E+00  0.0000E+00  0.0000E+00  0.0000E+00  0.0000E+00  0.0000E+00  0.0000E+00  0.1279E-08  0.5446E-08  0.9455E-08  0.1881E-07  0.2959E-07  0.4392E-07  0.6336E-07  0.9025E-07  0.1215E-06  0.1618E-06  0.2108E-06  0.2706E-06  0.3424E-06  0.4168E-06  0.5084E-06  0.5982E-06  0.6919E-06  0.7855E-06  0.8675E-06  0.9599E-06  0.1016E-05  0.1056E-05  0.1153E-05  0.1150E-05  0.1114E-05  0.1041E-05  0.9350E-06  0.8066E-06  0.6255E-06  0.5187E-06  0.4201E-06  0.3332E-06  0.2576E-06  0.2005E-06  0.1502E-06  0.1065E-06  0.7451E-07  0.4835E-07  0.2974E-07  0.1681E-07  0.6749E-08  0.2074E-08  0.0000E+00  0.0000E+00  0.0000E+00  0.0000E+00  0.0000E+00  0.0000E+00  0.0000E+00  0.0000E+00
  0.0000E+00  0.0000E+00  0.0000E+00  0.0000E+00  0.0000E+00  0.0000E+00  0.0000E+00  0.0000E+00  0.0000E+00  0.0000E+00  0.0000E+00  0.0000E+00  0.0000E+00  0.0000E+00  0.0000E+00  0.0000E+00  0.0000E+00  0.0000E+00  0.0000E+00  0.0000E+00  0.0000E+00  0.0000E+00  0.0000E+00  0.0000E+00  0.0000E+00  0.0000E+00  0.0000E+00  0.0000E+00  0.0000E+00  0.2097E-08  0.5990E-08  0.1415E-07  0.2186E-07  0.3545E-07  0.5470E-07  0.7621E-07  0.1091E-06  0.1476E-06  0.1969E-06  0.2564E-06  0.3307E-06  0.4130E-06  0.5167E-06  0.6282E-06  0.7519E-06  0.8916E-06  0.1032E-05  0.1171E-05  0.1319E-05  0.1506E-05  0.1795E-05  0.1894E-05  0.2016E-05  0.1968E-05  0.1827E-05  0.1563E-05  0.1252E-05  0.9836E-06  0.7927E-06  0.5808E-06  0.4569E-06  0.3487E-06  0.2688E-06  0.1988E-06  0.1508E-06  0.1059E-06  0.7053E-07  0.4718E-07  0.2681E-07  0.1436E-07  0.6440E-08  0.1967E-08  0.0000E+00  0.0000E+00  0.0000E+00  0.0000E+00  0.0000E+00  0.0000E+00  0.0000E+00
  0.0000E+00  0.0000E+00  0.0000E+00  0.0000E+00  0.0000E+00  0.0000E+00  0.0000E+00  0.0000E+00  0.0000E+00  0.0000E+00  0.0000E+00  0.0000E+00  0.0000E+00  0.0000E+00  0.0000E+00  0.0000E+00  0.0000E+00  0.0000E+00  0.0000E+00  0.0000E+00  0.0000E+00  0.0000E+00  0.0000E+00  0.0000E+00  0.0000E+00  0.0000E+00  0.0000E+00  0.0000E+00  0.0000E+00  0.2286E-08  0.7945E-08  0.1558E-07  0.2522E-07  0.3957E-07  0.6247E-07  0.8870E-07  0.1241E-06  0.1735E-06  0.2282E-06  0.3014E-06  0.3895E-06  0.4929E-06  0.6197E-06  0.7655E-06  0.9308E-06  0.1125E-05  0.1328E-05  0.1544E-05  0.1891E-05  0.2492E-05  0.3079E-05  0.3387E-05  0.3781E-05  0.3427E-05  0.3152E-05  0.2664E-05  0.2130E-05  0.1584E-05  0.1112E-05  0.8613E-06  0.6122E-06  0.4695E-06  0.3571E-06  0.2688E-06  0.1966E-06  0.1403E-06  0.9629E-07  0.6215E-07  0.3755E-07  0.2082E-07  0.1158E-07  0.4253E-08  0.1832E-08  0.0000E+00  0.0000E+00  0.0000E+00  0.0000E+00  0.0000E+00  0.0000E+00
  0.0000E+00  0.0000E+00  0.0000E+00  0.0000E+00  0.0000E+00  0.0000E+00  0.0000E+00  0.0000E+00  0.0000E+00  0.0000E+00  0.0000E+00  0.0000E+00  0.0000E+00  0.0000E+00  0.0000E+00  0.0000E+00  0.0000E+00  0.0000E+00  0.0000E+00  0.0000E+00  0.0000E+00  0.0000E+00  0.0000E+00  0.0000E+00  0.0000E+00  0.0000E+00  0.0000E+00  0.0000E+00  0.0000E+00  0.2476E-08  0.9369E-08  0.1703E-07  0.2857E-07  0.4684E-07  0.6977E-07  0.1018E-06  0.1442E-06  0.1975E-06  0.2676E-06  0.3507E-06  0.4569E-06  0.5863E-06  0.7326E-06  0.9187E-06  0.1135E-05  0.1378E-05  0.1670E-05  0.2087E-05  0.2922E-05  0.4284E-05  0.5501E-05  0.6234E-05  0.6511E-05  0.6295E-05  0.5585E-05  0.4623E-05  0.3392E-05  0.2478E-05  0.1798E-05  0.1159E-05  0.8773E-06  0.6148E-06  0.4601E-06  0.3416E-06  0.2543E-06  0.1865E-06  0.1315E-06  0.9144E-07  0.5865E-07  0.3523E-07  0.1740E-07  0.6850E-08  0.2071E-08  0.0000E+00  0.0000E+00  0.0000E+00  0.0000E+00  0.0000E+00  0.0000E+00
  0.0000E+00  0.0000E+00  0.0000E+00  0.0000E+00  0.0000E+00  0.0000E+00  0.0000E+00  0.0000E+00  0.0000E+00  0.0000E+00  0.0000E+00  0.0000E+00  0.0000E+00  0.0000E+00  0.0000E+00  0.0000E+00  0.0000E+00  0.0000E+00  0.0000E+00  0.0000E+00  0.0000E+00  0.0000E+00  0.0000E+00  0.0000E+00  0.0000E+00  0.0000E+00  0.0000E+00  0.0000E+00  0.0000E+00  0.3888E-08  0.1010E-07  0.1848E-07  0.3286E-07  0.5162E-07  0.7741E-07  0.1159E-06  0.1622E-06  0.2234E-06  0.3062E-06  0.4039E-06  0.5268E-06  0.6842E-06  0.8660E-06  0.1089E-05  0.1367E-05  0.1679E-05  0.2072E-05  0.3044E-05  0.5005E-05  0.7401E-05  0.9654E-05  0.1122E-04  0.1156E-04  0.1098E-04  0.9547E-05  0.7632E-05  0.5532E-05  0.4005E-05  0.2569E-05  0.1784E-05  0.1133E-05  0.7739E-06  0.5782E-06  0.4280E-06  0.3142E-06  0.2276E-06  0.1613E-06  0.1107E-06  0.7524E-07  0.4548E-07  0.2676E-07  0.1410E-07  0.6229E-08  0.1877E-08  0.0000E+00  0.0000E+00  0.0000E+00  0.0000E+00  0.0000E+00
  0.0000E+00  0.0000E+00  0.0000E+00  0.0000E+00  0.0000E+00  0.0000E+00  0.0000E+00  0.0000E+00  0.0000E+00  0.0000E+00  0.0000E+00  0.0000E+00  0.0000E+00  0.0000E+00  0.0000E+00  0.0000E+00  0.0000E+00  0.0000E+00  0.0000E+00  0.0000E+00  0.0000E+00  0.0000E+00  0.0000E+00  0.0000E+00  0.0000E+00  0.0000E+00  0.0000E+00  0.0000E+00  0.6290E-09  0.4731E-08  0.1078E-07  0.2069E-07  0.3639E-07  0.5642E-07  0.8628E-07  0.1284E-06  0.1810E-06  0.2509E-06  0.3460E-06  0.4595E-06  0.6032E-06  0.7889E-06  0.1006E-05  0.1276E-05  0.1618E-05  0.2021E-05  0.2516E-05  0.4555E-05  0.8275E-05  0.1265E-04  0.1678E-04  0.1931E-04  0.1965E-04  0.1812E-04  0.1533E-04  0.1184E-04  0.8662E-05  0.5807E-05  0.3813E-05  0.2388E-05  0.1493E-05  0.1039E-05  0.7206E-06  0.5315E-06  0.3905E-06  0.2843E-06  0.2038E-06  0.1428E-06  0.9638E-07  0.6122E-07  0.3645E-07  0.1781E-07  0.6944E-08  0.2083E-08  0.0000E+00  0.0000E+00  0.0000E+00  0.0000E+00  0.0000E+00
  0.0000E+00  0.0000E+00  0.0000E+00  0.0000E+00  0.0000E+00  0.0000E+00  0.0000E+00  0.0000E+00  0.0000E+00  0.0000E+00  0.0000E+00  0.0000E+00  0.0000E+00  0.0000E+00  0.0000E+00  0.0000E+00  0.0000E+00  0.0000E+00  0.0000E+00  0.0000E+00  0.0000E+00  0.0000E+00  0.0000E+00  0.0000E+00  0.0000E+00  0.0000E+00  0.0000E+00  0.0000E+00  0.1286E-08  0.4959E-08  0.1140E-07  0.2286E-07  0.3905E-07  0.6110E-07  0.9524E-07  0.1410E-06  0.2003E-06  0.2826E-06  0.3877E-06  0.5204E-06  0.6897E-06  0.9019E-06  0.1166E-05  0.1490E-05  0.1897E-05  0.2405E-05  0.3264E-05  0.6953E-05  0.1349E-04  0.2138E-04  0.2846E-04  0.3217E-04  0.3200E-04  0.2863E-04  0.2322E-04  0.1761E-04  0.1227E-04  0.8201E-05  0.5147E-05  0.3080E-05  0.1987E-05  0.1244E-05  0.8527E-06  0.6250E-06  0.4573E-06  0.3323E-06  0.2384E-06  0.1675E-06  0.1140E-06  0.7358E-07  0.4320E-07  0.2208E-07  0.1399E-07  0.6135E-08  0.1836E-08  0.0000E+00  0.0000E+00  0.0000E+00  0.0000E+00
  0.0000E+00  0.0000E+00  0.0000E+00  0.0000E+00  0.0000E+00  0.0000E+00  0.0000E+00  0.0000E+00  0.0000E+00  0.0000E+00  0.0000E+00  0.0000E+00  0.0000E+00  0.0000E+00  0.0000E+00  0.0000E+00  0.0000E+00  0.0000E+00  0.0000E+00  0.0000E+00  0.0000E+00  0.0000E+00  0.0000E+00  0.0000E+00  0.0000E+00  0.0000E+00  0.0000E+00  0.0000E+00  0.1331E-08  0.5713E-08  0.1192E-07  0.2408E-07  0.4144E-07  0.6548E-07  0.1028E-06  0.1532E-06  0.2207E-06  0.3115E-06  0.4300E-06  0.5811E-06  0.7751E-06  0.1020E-05  0.1328E-05  0.1711E-05  0.2198E-05  0.2816E-05  0.4146E-05  0.1079E-04  0.2228E-04  0.3575E-04  0.4690E-04  0.5180E-04  0.4975E-04  0.4248E-04  0.3345E-04  0.2420E-04  0.1658E-04  0.1065E-04  0.6422E-05  0.3967E-05  0.2335E-05  0.1438E-05  0.9874E-06  0.7275E-06  0.5317E-06  0.3920E-06  0.2880E-06  0.2052E-06  0.1429E-06  0.9585E-07  0.6049E-07  0.3580E-07  0.1736E-07  0.6708E-08  0.2001E-08  0.0000E+00  0.0000E+00  0.0000E+00  0.0000E+00
  0.0000E+00  0.0000E+00  0.0000E+00  0.0000E+00  0.0000E+00  0.0000E+00  0.0000E+00  0.0000E+00  0.0000E+00  0.0000E+00  0.0000E+00  0.0000E+00  0.0000E+00  0.0000E+00  0.0000E+00  0.0000E+00  0.0000E+00  0.0000E+00  0.0000E+00  0.0000E+00  0.0000E+00  0.0000E+00  0.0000E+00  0.0000E+00  0.0000E+00  0.0000E+00  0.0000E+00  0.0000E+00  0.1358E-08  0.5252E-08  0.1230E-07  0.2504E-07  0.4345E-07  0.7027E-07  0.1097E-06  0.1646E-06  0.2390E-06  0.3395E-06  0.4715E-06  0.6413E-06  0.8606E-06  0.1139E-05  0.1490E-05  0.1937E-05  0.2508E-05  0.3252E-05  0.6885E-05  0.1787E-04  0.3623E-04  0.5785E-04  0.7412E-04  0.7901E-04  0.7253E-04  0.5979E-04  0.4463E-04  0.3144E-04  0.2061E-04  0.1308E-04  0.7888E-05  0.4619E-05  0.2639E-05  0.1635E-05  0.1120E-05  0.8254E-06  0.6029E-06  0.4452E-06  0.3265E-06  0.2334E-06  0.1634E-06  0.1107E-06  0.7113E-07  0.4153E-07  0.2109E-07  0.9288E-08  0.2160E-08  0.0000E+00  0.0000E+00  0.0000E+00  0.0000E+00
  0.0000E+00  0.0000E+00  0.0000E+00  0.0000E+00  0.0000E+00  0.0000E+00  0.0000E+00  0.0000E+00  0.0000E+00  0.0000E+00  0.0000E+00  0.0000E+00  0.0000E+00  0.0000E+00  0.0000E+00  0.0000E+00  0.0000E+00  0.0000E+00  0.0000E+00  0.0000E+00  0.0000E+00  0.0000E+00  0.0000E+00  0.0000E+00  0.0000E+00  0.0000E+00  0.0000E+00  0.0000E+00  0.1366E-08  0.5289E-08  0.1251E-07  0.2567E-07  0.4419E-07  0.7340E-07  0.1155E-06  0.1747E-06  0.2554E-06  0.3654E-06  0.5107E-06  0.6985E-06  0.9429E-06  0.1255E-05  0.1660E-05  0.2163E-05  0.2812E-05  0.3671E-05  0.1208E-04  0.2937E-04  0.5841E-04  0.9066E-04  0.1113E-03  0.1133E-03  0.9919E-04  0.7774E-04  0.5570E-04  0.3715E-04  0.2386E-04  0.1461E-04  0.8670E-05  0.4967E-05  0.2837E-05  0.1775E-05  0.1248E-05  0.9120E-06  0.6802E-06  0.4969E-06  0.3602E-06  0.2577E-06  0.1808E-06  0.1229E-06  0.8188E-07  0.5151E-07  0.2877E-07  0.1391E-07  0.6176E-08  0.1836E-08  0.0000E+00  0.0000E+00  0.0000E+00
  0.0000E+00  0.0000E+00  0.0000E+00  0.0000E+00  0.0000E+00  0.0000E+00  0.0000E+00  0.0000E+00  0.0000E+00  0.0000E+00  0.0000E+00  0.0000E+00  0.0000E+00  0.0000E+00  0.0000E+00  0.0000E+00  0.0000E+00  0.0000E+00  0.0000E+00  0.0000E+00  0.0000E+00  0.0000E+00  0.0000E+00  0.0000E+00  0.0000E+00  0.0000E+00  0.0000E+00  0.0000E+00  0.1351E-08  0.5239E-08  0.1253E-07  0.2594E-07  0.4591E-07  0.7464E-07  0.1200E-06  0.1831E-06  0.2705E-06  0.3895E-06  0.5458E-06  0.7566E-06  0.1021E-05  0.1363E-05  0.1810E-05  0.2367E-05  0.3089E-05  0.8184E-05  0.2177E-04  0.4966E-04  0.9229E-04  0.1350E-03  0.1556E-03  0.1490E-03  0.1233E-03  0.9137E-04  0.6237E-04  0.4028E-04  0.2491E-04  0.1485E-04  0.8733E-05  0.5019E-05  0.2930E-05  0.1875E-05  0.1334E-05  0.9922E-06  0.7275E-06  0.5383E-06  0.3948E-06  0.2837E-06  0.2035E-06  0.1403E-06  0.9573E-07  0.5989E-07  0.3567E-07  0.1714E-07  0.6561E-08  0.1946E-08  0.0000E+00  0.0000E+00  0.0000E+00
  0.0000E+00  0.0000E+00  0.0000E+00  0.0000E+00  0.0000E+00  0.0000E+00  0.0000E+00  0.0000E+00  0.0000E+00  0.0000E+00  0.0000E+00  0.0000E+00  0.0000E+00  0.0000E+00  0.0000E+00  0.0000E+00  0.0000E+00  0.0000E+00  0.0000E+00  0.0000E+00  0.0000E+00  0.0000E+00  0.0000E+00  0.0000E+00  0.0000E+00  0.0000E+00  0.0000E+00  0.0000E+00  0.1311E-08  0.5788E-08  0.1239E-07  0.2672E-07  0.4642E-07  0.7959E-07  0.1243E-06  0.1896E-06  0.2848E-06  0.4085E-06  0.5758E-06  0.8019E-06  0.1087E-05  0.1459E-05  0.1939E-05  0.2546E-05  0.4773E-05  0.1608E-04  0.4017E-04  0.8289E-04  0.1385E-03  0.1850E-03  0.1986E-03  0.1755E-03  0.1360E-03  0.9529E-04  0.6222E-04  0.3858E-04  0.2320E-04  0.1369E-04  0.8009E-05  0.4683E-05  0.2900E-05  0.1869E-05  0.1395E-05  0.1045E-05  0.7687E-06  0.5743E-06  0.4184E-06  0.3049E-06  0.2159E-06  0.1523E-06  0.1015E-06  0.6638E-07  0.3773E-07  0.1809E-07  0.6904E-08  0.2045E-08  0.0000E+00  0.0000E+00  0.0000E+00
  0.0000E+00  0.0000E+00  0.0000E+00  0.0000E+00  0.0000E+00  0.0000E+00  0.0000E+00  0.0000E+00  0.0000E+00  0.0000E+00  0.0000E+00  0.0000E+00  0.0000E+00  0.0000E+00  0.0000E+00  0.0000E+00  0.0000E+00  0.0000E+00  0.0000E+00  0.0000E+00  0.0000E+00  0.0000E+00  0.0000E+00  0.0000E+00  0.0000E+00  0.0000E+00  0.0000E+00  0.0000E+00  0.1888E-08  0.5898E-08  0.1507E-07  0.2683E-07  0.4679E-07  0.8069E-07  0.1268E-06  0.1942E-06  0.2937E-06  0.4250E-06  0.6028E-06  0.8377E-06  0.1141E-05  0.1534E-05  0.2033E-05  0.2668E-05  0.1095E-04  0.3136E-04  0.7129E-04  0.1293E-03  0.1894E-03  0.2260E-03  0.2191E-03  0.1796E-03  0.1286E-03  0.8497E-04  0.5320E-04  0.3218E-04  0.1910E-04  0.1138E-04  0.6763E-05  0.4139E-05  0.2652E-05  0.1890E-05  0.1433E-05  0.1071E-05  0.7983E-06  0.5915E-06  0.4369E-06  0.3190E-06  0.2262E-06  0.1596E-06  0.1065E-06  0.7229E-07  0.4198E-07  0.2117E-07  0.9277E-08  0.2128E-08  0.0000E+00  0.0000E+00  0.0000E+00
  0.0000E+00  0.0000E+00  0.0000E+00  0.0000E+00  0.0000E+00  0.0000E+00  0.0000E+00  0.0000E+00  0.0000E+00  0.0000E+00  0.0000E+00  0.0000E+00  0.0000E+00  0.0000E+00  0.0000E+00  0.0000E+00  0.0000E+00  0.0000E+00  0.0000E+00  0.0000E+00  0.0000E+00  0.0000E+00  0.0000E+00  0.0000E+00  0.0000E+00  0.0000E+00  0.0000E+00  0.0000E+00  0.2031E-08  0.6199E-08  0.1562E-07  0.2747E-07  0.4997E-07  0.8160E-07  0.1292E-06  0.2011E-06  0.2991E-06  0.4346E-06  0.6184E-06  0.8606E-06  0.1174E-05  0.1578E-05  0.2086E-05  0.6698E-05  0.2288E-04  0.5881E-04  0.1168E-03  0.1821E-03  0.2291E-03  0.2377E-03  0.2071E-03  0.1526E-03  0.1010E-03  0.6314E-04  0.3816E-04  0.2288E-04  0.1376E-04  0.8418E-05  0.5326E-05  0.3489E-05  0.2401E-05  0.1864E-05  0.1413E-05  0.1079E-05  0.8152E-06  0.6071E-06  0.4496E-06  0.3292E-06  0.2340E-06  0.1653E-06  0.1135E-06  0.7745E-07  0.4788E-07  0.2594E-07  0.1146E-07  0.2195E-08  0.0000E+00  0.0000E+00  0.0000E+00
  0.0000E+00  0.0000E+00  0.0000E+00  0.0000E+00  0.0000E+00  0.0000E+00  0.0000E+00  0.0000E+00  0.0000E+00  0.0000E+00  0.0000E+00  0.0000E+00  0.0000E+00  0.0000E+00  0.0000E+00  0.0000E+00  0.0000E+00  0.0000E+00  0.0000E+00  0.0000E+00  0.0000E+00  0.0000E+00  0.0000E+00  0.0000E+00  0.0000E+00  0.0000E+00  0.0000E+00  0.0000E+00  0.2234E-08  0.8733E-08  0.1646E-07  0.2989E-07  0.5109E-07  0.8231E-07  0.1310E-06  0.2019E-06  0.3008E-06  0.4377E-06  0.6237E-06  0.8669E-06  0.1183E-05  0.1587E-05  0.2871E-05  0.1568E-04  0.4646E-04  0.1028E-03  0.1725E-03  0.2267E-03  0.2412E-03  0.2137E-03  0.1618E-03  0.1073E-03  0.6494E-04  0.3805E-04  0.2281E-04  0.1389E-04  0.8931E-05  0.5891E-05  0.3826E-05  0.2925E-05  0.2278E-05  0.1789E-05  0.1393E-05  0.1068E-05  0.8129E-06  0.6137E-06  0.4510E-06  0.3352E-06  0.2391E-06  0.1692E-06  0.1218E-06  0.8410E-07  0.5128E-07  0.2871E-07  0.1176E-07  0.4087E-08  0.0000E+00  0.0000E+00  0.0000E+00
  0.0000E+00  0.0000E+00  0.0000E+00  0.0000E+00  0.0000E+00  0.0000E+00  0.0000E+00  0.0000E+00  0.0000E+00  0.0000E+00  0.0000E+00  0.0000E+00  0.0000E+00  0.0000E+00  0.0000E+00  0.0000E+00  0.0000E+00  0.0000E+00  0.0000E+00  0.0000E+00  0.0000E+00  0.0000E+00  0.0000E+00  0.0000E+00  0.0000E+00  0.0000E+00  0.0000E+00  0.0000E+00  0.3543E-08  0.9288E-08  0.1728E-07  0.3101E-07  0.5216E-07  0.8303E-07  0.1309E-06  0.2007E-06  0.2980E-06  0.4337E-06  0.6174E-06  0.8561E-06  0.1168E-05  0.1557E-05  0.9513E-05  0.3445E-04  0.8740E-04  0.1605E-03  0.2228E-03  0.2431E-03  0.2164E-03  0.1624E-03  0.1059E-03  0.6178E-04  0.3395E-04  0.1953E-04  0.1146E-04  0.7402E-05  0.5513E-05  0.4220E-05  0.3221E-05  0.2596E-05  0.2105E-05  0.1684E-05  0.1330E-05  0.1032E-05  0.7974E-06  0.6010E-06  0.4519E-06  0.3330E-06  0.2413E-06  0.1772E-06  0.1236E-06  0.8538E-07  0.5214E-07  0.2920E-07  0.1195E-07  0.4148E-08  0.0000E+00  0.0000E+00  0.0000E+00
  0.0000E+00  0.0000E+00  0.0000E+00  0.0000E+00  0.0000E+00  0.0000E+00  0.0000E+00  0.0000E+00  0.0000E+00  0.0000E+00  0.0000E+00  0.0000E+00  0.0000E+00  0.0000E+00  0.0000E+00  0.0000E+00  0.0000E+00  0.0000E+00  0.0000E+00  0.0000E+00  0.0000E+00  0.0000E+00  0.0000E+00  0.0000E+00  0.0000E+00  0.0000E+00  0.0000E+00  0.5674E-09  0.3710E-08  0.9662E-08  0.1865E-07  0.3187E-07  0.5297E-07  0.8318E-07  0.1288E-06  0.1972E-06  0.2901E-06  0.4208E-06  0.5979E-06  0.8274E-06  0.1126E-05  0.4649E-05  0.2406E-04  0.7155E-04  0.1467E-03  0.2173E-03  0.2450E-03  0.2190E-03  0.1617E-03  0.1023E-03  0.5771E-04  0.3049E-04  0.1599E-04  0.8440E-05  0.6294E-05  0.4681E-05  0.3991E-05  0.3356E-05  0.2806E-05  0.2326E-05  0.1908E-05  0.1550E-05  0.1239E-05  0.9855E-06  0.7586E-06  0.5849E-06  0.4466E-06  0.3263E-06  0.2405E-06  0.1708E-06  0.1208E-06  0.8292E-07  0.5248E-07  0.2941E-07  0.1204E-07  0.4171E-08  0.0000E+00  0.0000E+00  0.0000E+00
  0.0000E+00  0.0000E+00  0.0000E+00  0.0000E+00  0.0000E+00  0.0000E+00  0.0000E+00  0.0000E+00  0.0000E+00  0.0000E+00  0.0000E+00  0.0000E+00  0.0000E+00  0.0000E+00  0.0000E+00  0.0000E+00  0.0000E+00  0.0000E+00  0.0000E+00  0.0000E+00  0.0000E+00  0.0000E+00  0.0000E+00  0.0000E+00  0.0000E+00  0.0000E+00  0.0000E+00  0.1153E-08  0.3801E-08  0.9830E-08  0.1888E-07  0.3216E-07  0.5305E-07  0.8243E-07  0.1263E-06  0.1902E-06  0.2781E-06  0.4025E-06  0.5659E-06  0.7830E-06  0.1058E-05  0.1467E-04  0.5488E-04  0.1300E-03  0.2099E-03  0.2461E-03  0.2217E-03  0.1605E-03  0.9777E-04  0.5234E-04  0.2615E-04  0.1296E-04  0.6855E-05  0.4999E-05  0.4495E-05  0.3954E-05  0.3417E-05  0.2913E-05  0.2447E-05  0.2055E-05  0.1697E-05  0.1407E-05  0.1143E-05  0.9056E-06  0.7248E-06  0.5608E-06  0.4224E-06  0.3202E-06  0.2296E-06  0.1689E-06  0.1198E-06  0.8250E-07  0.5228E-07  0.2933E-07  0.1200E-07  0.4156E-08  0.0000E+00  0.0000E+00  0.0000E+00
  0.0000E+00  0.0000E+00  0.0000E+00  0.0000E+00  0.0000E+00  0.0000E+00  0.0000E+00  0.0000E+00  0.0000E+00  0.0000E+00  0.0000E+00  0.0000E+00  0.0000E+00  0.0000E+00  0.0000E+00  0.0000E+00  0.0000E+00  0.0000E+00  0.0000E+00  0.0000E+00  0.0000E+00  0.0000E+00  0.0000E+00  0.0000E+00  0.0000E+00  0.0000E+00  0.0000E+00  0.1169E-08  0.3811E-08  0.9782E-08  0.1873E-07  0.3105E-07  0.5210E-07  0.7964E-07  0.1211E-06  0.1808E-06  0.2622E-06  0.3767E-06  0.5270E-06  0.7246E-06  0.7551E-05  0.3864E-04  0.1106E-03  0.1994E-03  0.2464E-03  0.2245E-03  0.1594E-03  0.9296E-04  0.4705E-04  0.2181E-04  0.1033E-04  0.5543E-05  0.4462E-05  0.4129E-05  0.3738E-05  0.3310E-05  0.2885E-05  0.2481E-05  0.2115E-05  0.1785E-05  0.1500E-05  0.1245E-05  0.1028E-05  0.8319E-06  0.6693E-06  0.5235E-06  0.4019E-06  0.3065E-06  0.2238E-06  0.1623E-06  0.1148E-06  0.7608E-07  0.4904E-07  0.2896E-07  0.1186E-07  0.4102E-08  0.0000E+00  0.0000E+00  0.0000E+00
  0.0000E+00  0.0000E+00  0.0000E+00  0.0000E+00  0.0000E+00  0.0000E+00  0.0000E+00  0.0000E+00  0.0000E+00  0.0000E+00  0.0000E+00  0.0000E+00  0.0000E+00  0.0000E+00  0.0000E+00  0.0000E+00  0.0000E+00  0.0000E+00  0.0000E+00  0.0000E+00  0.0000E+00  0.0000E+00  0.0000E+00  0.0000E+00  0.0000E+00  0.0000E+00  0.4276E-10  0.1332E-08  0.4091E-08  0.9894E-08  0.1859E-07  0.3043E-07  0.4964E-07  0.7575E-07  0.1154E-06  0.1682E-06  0.2435E-06  0.3452E-06  0.4796E-06  0.2081E-05  0.2420E-04  0.8895E-04  0.1852E-03  0.2456E-03  0.2266E-03  0.1570E-03  0.8696E-04  0.4093E-04  0.1773E-04  0.7531E-05  0.3888E-05  0.3821E-05  0.3649E-05  0.3397E-05  0.3094E-05  0.2766E-05  0.2434E-05  0.2110E-05  0.1806E-05  0.1540E-05  0.1296E-05  0.1086E-05  0.9012E-06  0.7433E-06  0.6025E-06  0.4797E-06  0.3715E-06  0.2854E-06  0.2157E-06  0.1509E-06  0.1087E-06  0.7157E-07  0.4795E-07  0.2629E-07  0.1161E-07  0.2179E-08  0.0000E+00  0.0000E+00  0.0000E+00
  0.0000E+00  0.0000E+00  0.0000E+00  0.0000E+00  0.0000E+00  0.0000E+00  0.0000E+00  0.0000E+00  0.0000E+00  0.0000E+00  0.0000E+00  0.0000E+00  0.0000E+00  0.0000E+00  0.0000E+00  0.0000E+00  0.0000E+00  0.0000E+00  0.0000E+00  0.0000E+00  0.0000E+00  0.0000E+00  0.0000E+00  0.4169E-10  0.1806E-09  0.3838E-09  0.6849E-09  0.1510E-08  0.4180E-08  0.1025E-07  0.1726E-07  0.2898E-07  0.4678E-07  0.7089E-07  0.1071E-06  0.1552E-06  0.2222E-06  0.3111E-06  0.4295E-06  0.1216E-04  0.6514E-04  0.1662E-03  0.2420E-03  0.2286E-03  0.1540E-03  0.8013E-04  0.3436E-04  0.1335E-04  0.4845E-05  0.3134E-05  0.3169E-05  0.3111E-05  0.2970E-05  0.2776E-05  0.2542E-05  0.2277E-05  0.2018E-05  0.1765E-05  0.1527E-05  0.1311E-05  0.1115E-05  0.9412E-06  0.7877E-06  0.6535E-06  0.5334E-06  0.4273E-06  0.3445E-06  0.2611E-06  0.1950E-06  0.1446E-06  0.9910E-07  0.6659E-07  0.4394E-07  0.2326E-07  0.1125E-07  0.2108E-08  0.0000E+00  0.0000E+00  0.0000E+00
  0.0000E+00  0.0000E+00  0.0000E+00  0.0000E+00  0.0000E+00  0.0000E+00  0.0000E+00  0.0000E+00  0.0000E+00  0.0000E+00  0.0000E+00  0.0000E+00  0.0000E+00  0.0000E+00  0.0000E+00  0.0000E+00  0.0000E+00  0.0000E+00  0.0000E+00  0.0000E+00  0.0000E+00  0.4216E-10  0.3195E-09  0.5515E-09  0.9415E-09  0.1194E-08  0.1518E-08  0.2479E-08  0.4611E-08  0.1027E-07  0.1678E-07  0.2822E-07  0.4289E-07  0.6550E-07  0.9683E-07  0.1396E-06  0.1983E-06  0.2752E-06  0.3601E-05  0.4142E-04  0.1413E-03  0.2352E-03  0.2291E-03  0.1490E-03  0.7167E-04  0.2789E-04  0.9331E-05  0.3289E-05  0.2442E-05  0.2532E-05  0.2552E-05  0.2504E-05  0.2398E-05  0.2248E-05  0.2069E-05  0.1870E-05  0.1664E-05  0.1463E-05  0.1274E-05  0.1096E-05  0.9363E-06  0.7956E-06  0.6734E-06  0.5600E-06  0.4674E-06  0.3785E-06  0.2989E-06  0.2376E-06  0.1792E-06  0.1305E-06  0.9193E-07  0.6366E-07  0.3786E-07  0.2237E-07  0.6919E-08  0.2020E-08  0.0000E+00  0.0000E+00  0.0000E+00
  0.0000E+00  0.0000E+00  0.0000E+00  0.0000E+00  0.0000E+00  0.0000E+00  0.0000E+00  0.0000E+00  0.0000E+00  0.0000E+00  0.0000E+00  0.0000E+00  0.0000E+00  0.0000E+00  0.0000E+00  0.0000E+00  0.0000E+00  0.0000E+00  0.0000E+00  0.0000E+00  0.3157E-09  0.5581E-09  0.9770E-09  0.1396E-08  0.1799E-08  0.2357E-08  0.2784E-08  0.3285E-08  0.5891E-08  0.1075E-07  0.1679E-07  0.2700E-07  0.3940E-07  0.5984E-07  0.8652E-07  0.1243E-06  0.1739E-06  0.2404E-06  0.2048E-04  0.1094E-03  0.2225E-03  0.2277E-03  0.1418E-03  0.6162E-04  0.2091E-04  0.5442E-05  0.1677E-05  0.1834E-05  0.1950E-05  0.2017E-05  0.2030E-05  0.1995E-05  0.1915E-05  0.1802E-05  0.1657E-05  0.1509E-05  0.1354E-05  0.1199E-05  0.1051E-05  0.9122E-06  0.7798E-06  0.6682E-06  0.5650E-06  0.4737E-06  0.3938E-06  0.3257E-06  0.2632E-06  0.2052E-06  0.1585E-06  0.1186E-06  0.8644E-07  0.5328E-07  0.3377E-07  0.1724E-07  0.6603E-08  0.1918E-08  0.0000E+00  0.0000E+00  0.0000E+00
  0.0000E+00  0.0000E+00  0.0000E+00  0.0000E+00  0.0000E+00  0.0000E+00  0.0000E+00  0.0000E+00  0.0000E+00  0.0000E+00  0.0000E+00  0.0000E+00  0.0000E+00  0.0000E+00  0.0000E+00  0.0000E+00  0.0000E+00  0.0000E+00  0.1744E-09  0.4809E-09  0.7728E-09  0.1261E-08  0.1824E-08  0.2459E-08  0.3810E-08  0.6297E-08  0.8054E-08  0.1072E-07  0.1531E-07  0.1930E-07  0.2690E-07  0.3617E-07  0.4757E-07  0.6344E-07  0.8514E-07  0.1149E-06  0.1547E-06  0.6103E-05  0.7249E-04  0.2012E-03  0.2228E-03  0.1316E-03  0.5044E-04  0.1399E-04  0.2920E-05  0.1188E-05  0.1331E-05  0.1452E-05  0.1539E-05  0.1588E-05  0.1597E-05  0.1570E-05  0.1510E-05  0.1426E-05  0.1319E-05  0.1207E-05  0.1087E-05  0.9663E-06  0.8498E-06  0.7384E-06  0.6397E-06  0.5507E-06  0.4677E-06  0.3955E-06  0.3299E-06  0.2698E-06  0.2233E-06  0.1763E-06  0.1369E-06  0.1005E-06  0.7232E-07  0.4989E-07  0.2956E-07  0.1224E-07  0.4230E-08  0.0000E+00  0.0000E+00  0.0000E+00  0.0000E+00
  0.0000E+00  0.0000E+00  0.0000E+00  0.0000E+00  0.0000E+00  0.0000E+00  0.0000E+00  0.0000E+00  0.0000E+00  0.0000E+00  0.0000E+00  0.0000E+00  0.0000E+00  0.0000E+00  0.0000E+00  0.0000E+00  0.0000E+00  0.1876E-09  0.5724E-09  0.1037E-08  0.1543E-08  0.2200E-08  0.5534E-08  0.8318E-08  0.1147E-07  0.1498E-07  0.1867E-07  0.2236E-07  0.2712E-07  0.3230E-07  0.3993E-07  0.4753E-07  0.5880E-07  0.7102E-07  0.8933E-07  0.1127E-06  0.1447E-06  0.3508E-04  0.1680E-03  0.2125E-03  0.1160E-03  0.3708E-04  0.8110E-05  0.6945E-06  0.8134E-06  0.9321E-06  0.1036E-05  0.1124E-05  0.1189E-05  0.1226E-05  0.1234E-05  0.1214E-05  0.1171E-05  0.1108E-05  0.1030E-05  0.9473E-06  0.8594E-06  0.7700E-06  0.6822E-06  0.5986E-06  0.5163E-06  0.4465E-06  0.3812E-06  0.3221E-06  0.2714E-06  0.2254E-06  0.1815E-06  0.1471E-06  0.1129E-06  0.8965E-07  0.6092E-07  0.4106E-07  0.2359E-07  0.1142E-07  0.2119E-08  0.0000E+00  0.0000E+00  0.0000E+00  0.0000E+00
  0.0000E+00  0.0000E+00  0.0000E+00  0.0000E+00  0.0000E+00  0.0000E+00  0.0000E+00  0.0000E+00  0.0000E+00  0.0000E+00  0.0000E+00  0.0000E+00  0.0000E+00  0.0000E+00  0.0000E+00  0.0000E+00  0.3272E-09  0.7331E-09  0.1234E-08  0.2544E-08  0.5098E-08  0.8184E-08  0.1255E-07  0.1665E-07  0.2643E-07  0.3870E-07  0.5216E-07  0.6470E-07  0.7595E-07  0.8527E-07  0.9378E-07  0.1010E-06  0.1086E-06  0.1165E-06  0.1249E-06  0.1271E-06  0.8340E-05  0.1178E-03  0.1923E-03  0.9422E-04  0.2297E-04  0.2572E-05  0.4604E-06  0.5436E-06  0.6305E-06  0.7144E-06  0.7930E-06  0.8592E-06  0.9071E-06  0.9336E-06  0.9393E-06  0.9258E-06  0.8954E-06  0.8460E-06  0.7929E-06  0.7325E-06  0.6651E-06  0.5991E-06  0.5322E-06  0.4681E-06  0.4095E-06  0.3557E-06  0.3056E-06  0.2601E-06  0.2193E-06  0.1822E-06  0.1498E-06  0.1226E-06  0.9210E-07  0.7121E-07  0.5193E-07  0.3307E-07  0.1712E-07  0.6802E-08  0.1958E-08  0.0000E+00  0.0000E+00  0.0000E+00  0.0000E+00
  0.0000E+00  0.0000E+00  0.0000E+00  0.0000E+00  0.0000E+00  0.0000E+00  0.0000E+00  0.0000E+00  0.0000E+00  0.0000E+00  0.0000E+00  0.0000E+00  0.0000E+00  0.0000E+00  0.0000E+00  0.3329E-09  0.7526E-09  0.1280E-08  0.3735E-08  0.7375E-08  0.1102E-07  0.2673E-07  0.4952E-07  0.7517E-07  0.1003E-06  0.1261E-06  0.1494E-06  0.2136E-06  0.2444E-06  0.2616E-06  0.2698E-06  0.2706E-06  0.2486E-06  0.2238E-06  0.1934E-06  0.1742E-06  0.5487E-04  0.1578E-03  0.6480E-04  0.1030E-04  0.2607E-06  0.3102E-06  0.3637E-06  0.4237E-06  0.4836E-06  0.5424E-06  0.5956E-06  0.6412E-06  0.6749E-06  0.6937E-06  0.6994E-06  0.6902E-06  0.6681E-06  0.6348E-06  0.5977E-06  0.5552E-06  0.5094E-06  0.4617E-06  0.4122E-06  0.3626E-06  0.3187E-06  0.2781E-06  0.2367E-06  0.2026E-06  0.1727E-06  0.1433E-06  0.1183E-06  0.9450E-07  0.7571E-07  0.5715E-07  0.3857E-07  0.2511E-07  0.1336E-07  0.6089E-08  0.0000E+00  0.0000E+00  0.0000E+00  0.0000E+00  0.0000E+00
  0.0000E+00  0.0000E+00  0.0000E+00  0.0000E+00  0.0000E+00  0.0000E+00  0.0000E+00  0.0000E+00  0.0000E+00  0.0000E+00  0.0000E+00  0.0000E+00  0.0000E+00  0.0000E+00  0.3291E-09  0.7497E-09  0.2140E-08  0.4672E-08  0.2005E-07  0.3760E-07  0.6139E-07  0.8536E-07  0.1278E-06  0.1825E-06  0.2334E-06  0.2794E-06  0.3231E-06  0.3627E-06  0.3973E-06  0.4264E-06  0.4479E-06  0.4599E-06  0.4596E-06  0.4414E-06  0.4025E-06  0.6363E-05  0.1004E-03  0.3073E-04  0.1742E-05  0.2216E-06  0.2346E-06  0.2566E-06  0.2897E-06  0.3284E-06  0.3679E-06  0.4060E-06  0.4420E-06  0.4735E-06  0.4954E-06  0.5093E-06  0.5125E-06  0.5062E-06  0.4905E-06  0.4675E-06  0.4423E-06  0.4131E-06  0.3778E-06  0.3443E-06  0.3088E-06  0.2754E-06  0.2432E-06  0.2130E-06  0.1854E-06  0.1575E-06  0.1358E-06  0.1101E-06  0.9307E-07  0.7367E-07  0.5710E-07  0.4406E-07  0.2934E-07  0.1933E-07  0.8100E-08  0.1717E-08  0.0000E+00  0.0000E+00  0.0000E+00  0.0000E+00  0.0000E+00
  0.0000E+00  0.0000E+00  0.0000E+00  0.0000E+00  0.0000E+00  0.0000E+00  0.0000E+00  0.0000E+00  0.0000E+00  0.0000E+00  0.0000E+00  0.0000E+00  0.0000E+00  0.1906E-09  0.6034E-09  0.5936E-08  0.1903E-07  0.3688E-07  0.5832E-07  0.8994E-07  0.1373E-06  0.1877E-06  0.2429E-06  0.3055E-06  0.3671E-06  0.4314E-06  0.4962E-06  0.5598E-06  0.6196E-06  0.6736E-06  0.7235E-06  0.7711E-06  0.8152E-06  0.8255E-06  0.7207E-06  0.2816E-04  0.4474E-05  0.3905E-06  0.3142E-06  0.2281E-06  0.2290E-06  0.2330E-06  0.2437E-06  0.2574E-06  0.2828E-06  0.3066E-06  0.3264E-06  0.3428E-06  0.3564E-06  0.3639E-06  0.3654E-06  0.3614E-06  0.3509E-06  0.3365E-06  0.3201E-06  0.2996E-06  0.2781E-06  0.2536E-06  0.2283E-06  0.2050E-06  0.1819E-06  0.1581E-06  0.1362E-06  0.1183E-06  0.1013E-06  0.8537E-07  0.6990E-07  0.5557E-07  0.4344E-07  0.3097E-07  0.2090E-07  0.1128E-07  0.5200E-08  0.0000E+00  0.0000E+00  0.0000E+00  0.0000E+00  0.0000E+00  0.0000E+00
  0.0000E+00  0.0000E+00  0.0000E+00  0.0000E+00  0.0000E+00  0.0000E+00  0.0000E+00  0.0000E+00  0.0000E+00  0.0000E+00  0.0000E+00  0.0000E+00  0.1373E-09  0.3610E-08  0.1312E-07  0.2664E-07  0.4709E-07  0.7841E-07  0.1231E-06  0.1715E-06  0.2334E-06  0.2975E-06  0.3718E-06  0.4550E-06  0.5455E-06  0.6419E-06  0.7431E-06  0.8451E-06  0.9453E-06  0.1046E-05  0.1158E-05  0.1319E-05  0.1614E-05  0.2344E-05  0.4263E-05  0.1008E-05  0.6874E-06  0.5460E-06  0.4545E-06  0.3689E-06  0.2834E-06  0.2245E-06  0.2213E-06  0.2202E-06  0.2221E-06  0.2305E-06  0.2423E-06  0.2500E-06  0.2560E-06  0.2582E-06  0.2585E-06  0.2543E-06  0.2471E-06  0.2389E-06  0.2279E-06  0.2107E-06  0.1972E-06  0.1817E-06  0.1654E-06  0.1489E-06  0.1332E-06  0.1177E-06  0.1001E-06  0.8711E-07  0.7553E-07  0.6105E-07  0.5164E-07  0.4095E-07  0.3201E-07  0.2260E-07  0.1412E-07  0.6308E-08  0.1309E-08  0.0000E+00  0.0000E+00  0.0000E+00  0.0000E+00  0.0000E+00  0.0000E+00
  0.0000E+00  0.0000E+00  0.0000E+00  0.0000E+00  0.0000E+00  0.0000E+00  0.0000E+00  0.0000E+00  0.0000E+00  0.0000E+00  0.0000E+00  0.0000E+00  0.7027E-08  0.1756E-07  0.3440E-07  0.6034E-07  0.9748E-07  0.1451E-06  0.1981E-06  0.2655E-06  0.3436E-06  0.4339E-06  0.5383E-06  0.6555E-06  0.7865E-06  0.9301E-06  0.1083E-05  0.1240E-05  0.1398E-05  0.1566E-05  0.1783E-05  0.2141E-05  0.2894E-05  0.5039E-05  0.5986E-05  0.2339E-05  0.1498E-05  0.1061E-05  0.7779E-06  0.5830E-06  0.4388E-06  0.2860E-06  0.2228E-06  0.1989E-06  0.1902E-06  0.1852E-06  0.1808E-06  0.1835E-06  0.1849E-06  0.1839E-06  0.1818E-06  0.1797E-06  0.1741E-06  0.1679E-06  0.1590E-06  0.1494E-06  0.1391E-06  0.1290E-06  0.1180E-06  0.1057E-06  0.9366E-07  0.8118E-07  0.7197E-07  0.6270E-07  0.5325E-07  0.4434E-07  0.3627E-07  0.2871E-07  0.2162E-07  0.1538E-07  0.7479E-08  0.3880E-08  0.0000E+00  0.0000E+00  0.0000E+00  0.0000E+00  0.0000E+00  0.0000E+00  0.0000E+00
  0.0000E+00  0.0000E+00  0.0000E+00  0.0000E+00  0.0000E+00  0.0000E+00  0.0000E+00  0.0000E+00  0.0000E+00  0.0000E+00  0.3083E-08  0.1070E-07  0.1874E-07  0.3674E-07  0.6803E-07  0.1088E-06  0.1574E-06  0.2197E-06  0.2925E-06  0.3784E-06  0.4842E-06  0.6073E-06  0.7527E-06  0.9182E-06  0.1105E-05  0.1312E-05  0.1532E-05  0.1760E-05  0.1991E-05  0.2239E-05  0.2552E-05  0.3055E-05  0.3925E-05  0.4876E-05  0.4518E-05  0.7366E-05  0.3007E-05  0.2827E-05  0.2252E-05  0.1614E-05  0.1110E-05  0.7472E-06  0.4834E-06  0.3146E-06  0.2106E-06  0.1600E-06  0.1511E-06  0.1425E-06  0.1424E-06  0.1401E-06  0.1372E-06  0.1319E-06  0.1262E-06  0.1214E-06  0.1148E-06  0.1044E-06  0.9762E-07  0.9029E-07  0.8377E-07  0.7574E-07  0.6776E-07  0.5830E-07  0.5034E-07  0.4377E-07  0.3783E-07  0.3038E-07  0.2427E-07  0.2025E-07  0.1362E-07  0.7830E-08  0.3469E-08  0.0000E+00  0.0000E+00  0.0000E+00  0.0000E+00  0.0000E+00  0.0000E+00  0.0000E+00  0.0000E+00
  0.0000E+00  0.0000E+00  0.0000E+00  0.0000E+00  0.0000E+00  0.0000E+00  0.0000E+00  0.0000E+00  0.0000E+00  0.3238E-08  0.1106E-07  0.2196E-07  0.3742E-07  0.7353E-07  0.1167E-06  0.1645E-06  0.2281E-06  0.3069E-06  0.4043E-06  0.5178E-06  0.6599E-06  0.8275E-06  0.1024E-05  0.1251E-05  0.1509E-05  0.1795E-05  0.2099E-05  0.2412E-05  0.2723E-05  0.3042E-05  0.3414E-05  0.3907E-05  0.4472E-05  0.4622E-05  0.4233E-05  0.1340E-04  0.8682E-05  0.3999E-05  0.4125E-05  0.3743E-05  0.2926E-05  0.2112E-05  0.1434E-05  0.9346E-06  0.6035E-06  0.3943E-06  0.2662E-06  0.2074E-06  0.1973E-06  0.1776E-06  0.1506E-06  0.1196E-06  0.1006E-06  0.9216E-07  0.8463E-07  0.7782E-07  0.7141E-07  0.6452E-07  0.5779E-07  0.5187E-07  0.4676E-07  0.4049E-07  0.3532E-07  0.3052E-07  0.2611E-07  0.1999E-07  0.1749E-07  0.1262E-07  0.8110E-08  0.5054E-08  0.7720E-09  0.0000E+00  0.0000E+00  0.0000E+00  0.0000E+00  0.0000E+00  0.0000E+00  0.0000E+00  0.0000E+00
  0.0000E+00  0.0000E+00  0.0000E+00  0.0000E+00  0.0000E+00  0.0000E+00  0.0000E+00  0.0000E+00  0.3308E-08  0.1118E-07  0.1908E-07  0.4097E-07  0.7209E-07  0.1150E-06  0.1677E-06  0.2310E-06  0.3143E-06  0.4143E-06  0.5400E-06  0.6903E-06  0.8757E-06  0.1096E-05  0.1358E-05  0.1660E-05  0.2003E-05  0.2381E-05  0.2782E-05  0.3189E-05  0.3585E-05  0.3965E-05  0.4343E-05  0.4718E-05  0.4952E-05  0.4747E-05  0.4346E-05  0.1352E-04  0.2068E-04  0.8364E-05  0.4668E-05  0.5176E-05  0.5104E-05  0.4377E-05  0.3405E-05  0.2458E-05  0.1669E-05  0.1091E-05  0.7038E-06  0.5618E-06  0.3886E-06  0.2813E-06  0.2415E-06  0.1703E-06  0.1123E-06  0.8242E-07  0.7035E-07  0.6071E-07  0.5652E-07  0.5041E-07  0.4487E-07  0.3892E-07  0.3334E-07  0.2820E-07  0.2422E-07  0.2169E-07  0.1577E-07  0.1301E-07  0.9808E-08  0.6805E-08  0.4241E-08  0.1556E-08  0.0000E+00  0.0000E+00  0.0000E+00  0.0000E+00  0.0000E+00  0.0000E+00  0.0000E+00  0.0000E+00  0.0000E+00
  0.0000E+00  0.0000E+00  0.0000E+00  0.0000E+00  0.0000E+00  0.0000E+00  0.0000E+00  0.3289E-08  0.1112E-07  0.1807E-07  0.3969E-07  0.6823E-07  0.1085E-06  0.1581E-06  0.2253E-06  0.3073E-06  0.4129E-06  0.5413E-06  0.7012E-06  0.8958E-06  0.1135E-05  0.1418E-05  0.1754E-05  0.2142E-05  0.2582E-05  0.3064E-05  0.3571E-05  0.4079E-05  0.4559E-05  0.4993E-05  0.5355E-05  0.5595E-05  0.5586E-05  0.5208E-05  0.4710E-05  0.1158E-04  0.2768E-04  0.1996E-04  0.7636E-05  0.5191E-05  0.5965E-05  0.6225E-05  0.5695E-05  0.4697E-05  0.3559E-05  0.2498E-05  0.1710E-05  0.1177E-05  0.7762E-06  0.5206E-06  0.3405E-06  0.2146E-06  0.1246E-06  0.9761E-07  0.6747E-07  0.5632E-07  0.4767E-07  0.3890E-07  0.3333E-07  0.2781E-07  0.2520E-07  0.2129E-07  0.1781E-07  0.1472E-07  0.9965E-08  0.7799E-08  0.6853E-08  0.2144E-08  0.7600E-09  0.0000E+00  0.0000E+00  0.0000E+00  0.0000E+00  0.0000E+00  0.0000E+00  0.0000E+00  0.0000E+00  0.0000E+00  0.0000E+00
  0.0000E+00  0.0000E+00  0.0000E+00  0.0000E+00  0.0000E+00  0.0000E+00  0.3181E-08  0.7718E-08  0.1744E-07  0.2947E-07  0.6331E-07  0.9999E-07  0.1507E-06  0.2137E-06  0.2946E-06  0.3970E-06  0.5262E-06  0.6884E-06  0.8890E-06  0.1135E-05  0.1432E-05  0.1787E-05  0.2206E-05  0.2689E-05  0.3234E-05  0.3826E-05  0.4444E-05  0.5059E-05  0.5626E-05  0.6106E-05  0.6447E-05  0.6578E-05  0.6402E-05  0.5908E-05  0.5227E-05  0.9876E-05  0.2757E-04  0.3213E-04  0.1666E-04  0.6959E-05  0.5459E-05  0.6557E-05  0.7051E-05  0.6686E-05  0.5657E-05  0.4116E-05  0.2689E-05  0.1755E-05  0.1140E-05  0.7044E-06  0.4406E-06  0.3061E-06  0.1864E-06  0.1076E-06  0.6708E-07  0.5376E-07  0.4299E-07  0.3777E-07  0.3063E-07  0.2532E-07  0.2018E-07  0.1640E-07  0.1315E-07  0.9232E-08  0.6960E-08  0.5079E-08  0.3527E-08  0.4683E-09  0.0000E+00  0.0000E+00  0.0000E+00  0.0000E+00  0.0000E+00  0.0000E+00  0.0000E+00  0.0000E+00  0.0000E+00  0.0000E+00  0.0000E+00
  0.0000E+00  0.0000E+00  0.0000E+00  0.0000E+00  0.0000E+00  0.0000E+00  0.7303E-08  0.1336E-07  0.2693E-07  0.5264E-07  0.8871E-07  0.1336E-06  0.1938E-06  0.2749E-06  0.3712E-06  0.4972E-06  0.6596E-06  0.8562E-06  0.1101E-05  0.1402E-05  0.1765E-05  0.2199E-05  0.2709E-05  0.3294E-05  0.3949E-05  0.4655E-05  0.5389E-05  0.6111E-05  0.6766E-05  0.7300E-05  0.7625E-05  0.7654E-05  0.7342E-05  0.6742E-05  0.5974E-05  0.8781E-05  0.2396E-04  0.3833E-04  0.2938E-04  0.1341E-04  0.6393E-05  0.5616E-05  0.6882E-05  0.7407E-05  0.6703E-05  0.4751E-05  0.3178E-05  0.2084E-05  0.1362E-05  0.8310E-06  0.5648E-06  0.3503E-06  0.2075E-06  0.1167E-06  0.7103E-07  0.5884E-07  0.4498E-07  0.3506E-07  0.2787E-07  0.2211E-07  0.1739E-07  0.1505E-07  0.1164E-07  0.8209E-08  0.4793E-08  0.3043E-08  0.1634E-08  0.5037E-09  0.4281E-09  0.0000E+00  0.0000E+00  0.0000E+00  0.0000E+00  0.0000E+00  0.0000E+00  0.0000E+00  0.0000E+00  0.0000E+00  0.0000E+00
  0.0000E+00  0.0000E+00  0.0000E+00  0.0000E+00  0.0000E+00  0.3666E-08  0.1235E-07  0.2020E-07  0.4601E-07  0.7451E-07  0.1143E-06  0.1736E-06  0.2466E-06  0.3403E-06  0.4569E-06  0.6129E-06  0.8017E-06  0.1039E-05  0.1335E-05  0.1695E-05  0.2133E-05  0.2654E-05  0.3261E-05  0.3952E-05  0.4723E-05  0.5555E-05  0.6406E-05  0.7244E-05  0.7998E-05  0.8590E-05  0.8908E-05  0.8845E-05  0.8371E-05  0.7620E-05  0.6748E-05  0.8249E-05  0.1976E-04  0.3827E-04  0.4000E-04  0.2420E-04  0.1075E-04  0.5935E-05  0.5683E-05  0.6675E-05  0.5892E-05  0.4445E-05  0.3130E-05  0.2124E-05  0.1427E-05  0.8953E-06  0.6066E-06  0.3793E-06  0.2265E-06  0.1272E-06  0.7649E-07  0.6126E-07  0.4754E-07  0.3644E-07  0.2816E-07  0.2174E-07  0.1841E-07  0.1402E-07  0.1040E-07  0.7476E-08  0.5139E-08  0.3258E-08  0.2754E-08  0.1481E-08  0.4573E-09  0.0000E+00  0.0000E+00  0.0000E+00  0.0000E+00  0.0000E+00  0.0000E+00  0.0000E+00  0.0000E+00  0.0000E+00  0.0000E+00
  0.0000E+00  0.0000E+00  0.0000E+00  0.0000E+00  0.3309E-08  0.8114E-08  0.1824E-07  0.3320E-07  0.6150E-07  0.1004E-06  0.1480E-06  0.2149E-06  0.2993E-06  0.4118E-06  0.5531E-06  0.7319E-06  0.9561E-06  0.1240E-05  0.1593E-05  0.2024E-05  0.2541E-05  0.3150E-05  0.3861E-05  0.4669E-05  0.5562E-05  0.6520E-05  0.7500E-05  0.8456E-05  0.9301E-05  0.9936E-05  0.1022E-04  0.1004E-04  0.9426E-05  0.8515E-05  0.7514E-05  0.7984E-05  0.1612E-04  0.3433E-04  0.4537E-04  0.3598E-04  0.1911E-04  0.8622E-05  0.5345E-05  0.4948E-05  0.4592E-05  0.3695E-05  0.2752E-05  0.1957E-05  0.1343E-05  0.8938E-06  0.5663E-06  0.3887E-06  0.2356E-06  0.1351E-06  0.8520E-07  0.6649E-07  0.5158E-07  0.3980E-07  0.3077E-07  0.2580E-07  0.1990E-07  0.1504E-07  0.1114E-07  0.7994E-08  0.6696E-08  0.4610E-08  0.2927E-08  0.1572E-08  0.4851E-09  0.0000E+00  0.0000E+00  0.0000E+00  0.0000E+00  0.0000E+00  0.0000E+00  0.0000E+00  0.0000E+00  0.0000E+00  0.0000E+00
  0.0000E+00  0.0000E+00  0.0000E+00  0.0000E+00  0.7155E-08  0.1322E-07  0.2172E-07  0.4896E-07  0.8194E-07  0.1220E-06  0.1809E-06  0.2606E-06  0.3586E-06  0.4879E-06  0.6515E-06  0.8597E-06  0.1129E-05  0.1469E-05  0.1884E-05  0.2385E-05  0.2987E-05  0.3696E-05  0.4510E-05  0.5434E-05  0.6454E-05  0.7543E-05  0.8648E-05  0.9704E-05  0.1062E-04  0.1125E-04  0.1147E-04  0.1117E-04  0.1041E-04  0.9371E-05  0.8227E-05  0.8012E-05  0.1341E-04  0.2907E-04  0.4542E-04  0.4515E-04  0.3006E-04  0.1488E-04  0.7054E-05  0.4297E-05  0.3453E-05  0.2913E-05  0.2274E-05  0.1712E-05  0.1226E-05  0.8425E-06  0.5522E-06  0.3797E-06  0.2379E-06  0.1406E-06  0.8893E-07  0.7103E-07  0.5529E-07  0.4267E-07  0.3548E-07  0.2761E-07  0.2116E-07  0.1601E-07  0.1179E-07  0.9845E-08  0.7066E-08  0.4863E-08  0.3087E-08  0.1657E-08  0.1394E-08  0.4316E-09  0.0000E+00  0.0000E+00  0.0000E+00  0.0000E+00  0.0000E+00  0.0000E+00  0.0000E+00  0.0000E+00  0.0000E+00
  0.0000E+00  0.0000E+00  0.0000E+00  0.3416E-08  0.8404E-08  0.1877E-07  0.3430E-07  0.6241E-07  0.9667E-07  0.1511E-06  0.2183E-06  0.3044E-06  0.4164E-06  0.5676E-06  0.7630E-06  0.1013E-05  0.1330E-05  0.1721E-05  0.2202E-05  0.2783E-05  0.3469E-05  0.4271E-05  0.5195E-05  0.6239E-05  0.7382E-05  0.8591E-05  0.9801E-05  0.1093E-04  0.1187E-04  0.1245E-04  0.1256E-04  0.1214E-04  0.1128E-04  0.1012E-04  0.8846E-05  0.8079E-05  0.1152E-04  0.2391E-04  0.4184E-04  0.4989E-04  0.4068E-04  0.2410E-04  0.1161E-04  0.5543E-05  0.3070E-05  0.2289E-05  0.1869E-05  0.1437E-05  0.1043E-05  0.7574E-06  0.5128E-06  0.3248E-06  0.2329E-06  0.1444E-06  0.9388E-07  0.7533E-07  0.5808E-07  0.4529E-07  0.3729E-07  0.2903E-07  0.2234E-07  0.1682E-07  0.1400E-07  0.1031E-07  0.7391E-08  0.5089E-08  0.3230E-08  0.2710E-08  0.1459E-08  0.4517E-09  0.0000E+00  0.0000E+00  0.0000E+00  0.0000E+00  0.0000E+00  0.0000E+00  0.0000E+00  0.0000E+00  0.0000E+00
  0.0000E+00  0.0000E+00  0.0000E+00  0.7103E-08  0.1317E-07  0.2170E-07  0.4303E-07  0.7619E-07  0.1201E-06  0.1776E-06  0.2516E-06  0.3497E-06  0.4856E-06  0.6647E-06  0.8993E-06  0.1187E-05  0.1552E-05  0.2004E-05  0.2550E-05  0.3205E-05  0.3976E-05  0.4878E-05  0.5911E-05  0.7064E-05  0.8316E-05  0.9611E-05  0.1089E-04  0.1206E-04  0.1296E-04  0.1347E-04  0.1347E-04  0.1295E-04  0.1197E-04  0.1071E-04  0.9345E-05  0.8181E-05  0.1022E-04  0.1949E-04  0.3651E-04  0.5016E-04  0.4868E-04  0.3447E-04  0.1891E-04  0.8866E-05  0.4038E-05  0.1841E-05  0.1528E-05  0.1183E-05  0.9084E-06  0.6413E-06  0.4654E-06  0.3109E-06  0.1905E-06  0.1443E-06  0.9611E-07  0.7622E-07  0.5991E-07  0.4696E-07  0.3752E-07  0.3013E-07  0.2323E-07  0.1763E-07  0.1456E-07  0.1080E-07  0.7664E-08  0.5281E-08  0.3869E-08  0.2815E-08  0.1516E-08  0.4695E-09  0.0000E+00  0.0000E+00  0.0000E+00  0.0000E+00  0.0000E+00  0.0000E+00  0.0000E+00  0.0000E+00  0.0000E+00
  0.0000E+00  0.0000E+00  0.3292E-08  0.8111E-08  0.1501E-07  0.2812E-07  0.5831E-07  0.9179E-07  0.1400E-06  0.2025E-06  0.2908E-06  0.4157E-06  0.5812E-06  0.7872E-06  0.1049E-05  0.1387E-05  0.1800E-05  0.2307E-05  0.2920E-05  0.3647E-05  0.4506E-05  0.5504E-05  0.6632E-05  0.7880E-05  0.9213E-05  0.1057E-04  0.1188E-04  0.1303E-04  0.1385E-04  0.1427E-04  0.1416E-04  0.1353E-04  0.1248E-04  0.1116E-04  0.9728E-05  0.8316E-05  0.9383E-05  0.1600E-04  0.3074E-04  0.4712E-04  0.5284E-04  0.4387E-04  0.2807E-04  0.1448E-04  0.6535E-05  0.2827E-05  0.1283E-05  0.9779E-06  0.7591E-06  0.5728E-06  0.3946E-06  0.2939E-06  0.1904E-06  0.1283E-06  0.9953E-07  0.7663E-07  0.6118E-07  0.4795E-07  0.3853E-07  0.3087E-07  0.2389E-07  0.1818E-07  0.1498E-07  0.1113E-07  0.7989E-08  0.5436E-08  0.4550E-08  0.2901E-08  0.1564E-08  0.4846E-09  0.0000E+00  0.0000E+00  0.0000E+00  0.0000E+00  0.0000E+00  0.0000E+00  0.0000E+00  0.0000E+00  0.0000E+00
  0.0000E+00  0.0000E+00  0.3713E-08  0.9132E-08  0.2015E-07  0.4009E-07  0.6529E-07  0.1075E-06  0.1630E-06  0.2445E-06  0.3556E-06  0.5012E-06  0.6839E-06  0.9276E-06  0.1228E-05  0.1603E-05  0.2067E-05  0.2632E-05  0.3304E-05  0.4106E-05  0.5049E-05  0.6127E-05  0.7336E-05  0.8652E-05  0.1003E-04  0.1141E-04  0.1271E-04  0.1379E-04  0.1454E-04  0.1483E-04  0.1462E-04  0.1390E-04  0.1279E-04  0.1143E-04  0.9970E-05  0.8526E-05  0.8709E-05  0.1333E-04  0.2538E-04  0.4205E-04  0.5318E-04  0.5066E-04  0.3730E-04  0.2187E-04  0.1068E-04  0.4646E-05  0.2107E-05  0.9070E-06  0.6661E-06  0.5075E-06  0.3786E-06  0.2572E-06  0.1958E-06  0.1345E-06  0.1053E-06  0.8035E-07  0.6478E-07  0.5044E-07  0.3902E-07  0.3165E-07  0.2430E-07  0.1856E-07  0.1526E-07  0.1136E-07  0.8161E-08  0.5551E-08  0.4646E-08  0.2966E-08  0.1601E-08  0.4969E-09  0.4167E-09  0.0000E+00  0.0000E+00  0.0000E+00  0.0000E+00  0.0000E+00  0.0000E+00  0.0000E+00  0.0000E+00
  0.0000E+00  0.0000E+00  0.7295E-08  0.1351E-07  0.2540E-07  0.4613E-07  0.8066E-07  0.1359E-06  0.2068E-06  0.3061E-06  0.4331E-06  0.6024E-06  0.8133E-06  0.1084E-05  0.1422E-05  0.1840E-05  0.2353E-05  0.2966E-05  0.3701E-05  0.4575E-05  0.5586E-05  0.6731E-05  0.7996E-05  0.9359E-05  0.1074E-04  0.1212E-04  0.1337E-04  0.1435E-04  0.1499E-04  0.1516E-04  0.1485E-04  0.1408E-04  0.1293E-04  0.1155E-04  0.1009E-04  0.8654E-05  0.8264E-05  0.1136E-04  0.2077E-04  0.3617E-04  0.5022E-04  0.5375E-04  0.4475E-04  0.2961E-04  0.1636E-04  0.8316E-05  0.4090E-05  0.1967E-05  0.1049E-05  0.4939E-06  0.3708E-06  0.2777E-06  0.1963E-06  0.1460E-06  0.1119E-06  0.8679E-07  0.6703E-07  0.5417E-07  0.4204E-07  0.3310E-07  0.2594E-07  0.1938E-07  0.1558E-07  0.1148E-07  0.8265E-08  0.5622E-08  0.4706E-08  0.3011E-08  0.1628E-08  0.5060E-09  0.4243E-09  0.0000E+00  0.0000E+00  0.0000E+00  0.0000E+00  0.0000E+00  0.0000E+00  0.0000E+00  0.0000E+00
  0.0000E+00  0.3249E-08  0.7985E-08  0.1649E-07  0.3422E-07  0.6575E-07  0.1127E-06  0.1828E-06  0.2666E-06  0.3821E-06  0.5299E-06  0.7179E-06  0.9568E-06  0.1258E-05  0.1632E-05  0.2092E-05  0.2644E-05  0.3310E-05  0.4108E-05  0.5038E-05  0.6101E-05  0.7291E-05  0.8594E-05  0.9955E-05  0.1134E-04  0.1266E-04  0.1382E-04  0.1471E-04  0.1522E-04  0.1529E-04  0.1488E-04  0.1406E-04  0.1290E-04  0.1154E-04  0.1010E-04  0.8678E-05  0.7877E-05  0.9903E-05  0.1691E-04  0.3011E-04  0.4488E-04  0.5259E-04  0.4625E-04  0.3323E-04  0.2076E-04  0.1180E-04  0.6332E-05  0.3180E-05  0.1584E-05  0.8137E-06  0.4318E-06  0.2930E-06  0.2191E-06  0.1618E-06  0.1233E-06  0.9619E-07  0.7359E-07  0.5759E-07  0.4607E-07  0.3521E-07  0.2823E-07  0.2141E-07  0.1632E-07  0.1234E-07  0.8298E-08  0.5647E-08  0.4728E-08  0.3032E-08  0.1644E-08  0.5118E-09  0.4291E-09  0.0000E+00  0.0000E+00  0.0000E+00  0.0000E+00  0.0000E+00  0.0000E+00  0.0000E+00  0.0000E+00
  0.0000E+00  0.5167E-08  0.1475E-07  0.2878E-07  0.5684E-07  0.1087E-06  0.1630E-06  0.2372E-06  0.3362E-06  0.4669E-06  0.6316E-06  0.8420E-06  0.1107E-05  0.1437E-05  0.1844E-05  0.2331E-05  0.2922E-05  0.3641E-05  0.4482E-05  0.5451E-05  0.6549E-05  0.7772E-05  0.9085E-05  0.1044E-04  0.1179E-04  0.1304E-04  0.1408E-04  0.1486E-04  0.1524E-04  0.1521E-04  0.1475E-04  0.1389E-04  0.1273E-04  0.1139E-04  0.9990E-05  0.8627E-05  0.7502E-05  0.8787E-05  0.1378E-04  0.2429E-04  0.3656E-04  0.4253E-04  0.3957E-04  0.3090E-04  0.2115E-04  0.1321E-04  0.7670E-05  0.4205E-05  0.2308E-05  0.1192E-05  0.5962E-06  0.3358E-06  0.2474E-06  0.1835E-06  0.1374E-06  0.1035E-06  0.8100E-07  0.6172E-07  0.4998E-07  0.3829E-07  0.3052E-07  0.2279E-07  0.1682E-07  0.1311E-07  0.8767E-08  0.5835E-08  0.4712E-08  0.3031E-08  0.1647E-08  0.9335E-09  0.4311E-09  0.0000E+00  0.0000E+00  0.0000E+00  0.0000E+00  0.0000E+00  0.0000E+00  0.0000E+00  0.0000E+00
  0.2142E-08  0.1157E-07  0.2526E-07  0.5403E-07  0.9161E-07  0.1386E-06  0.2025E-06  0.2877E-06  0.4025E-06  0.5444E-06  0.7251E-06  0.9521E-06  0.1235E-05  0.1585E-05  0.2004E-05  0.2514E-05  0.3139E-05  0.3875E-05  0.4732E-05  0.5712E-05  0.6823E-05  0.8038E-05  0.9335E-05  0.1067E-04  0.1197E-04  0.1316E-04  0.1414E-04  0.1481E-04  0.1510E-04  0.1497E-04  0.1445E-04  0.1358E-04  0.1244E-04  0.1115E-04  0.9803E-05  0.8500E-05  0.7309E-05  0.8019E-05  0.1194E-04  0.1952E-04  0.2756E-04  0.3188E-04  0.3068E-04  0.2541E-04  0.1865E-04  0.1249E-04  0.7806E-05  0.4540E-05  0.2595E-05  0.1457E-05  0.7339E-06  0.3807E-06  0.2861E-06  0.2100E-06  0.1541E-06  0.1153E-06  0.8784E-07  0.6962E-07  0.5376E-07  0.4138E-07  0.3142E-07  0.2457E-07  0.1768E-07  0.1355E-07  0.9513E-08  0.5853E-08  0.4658E-08  0.3006E-08  0.1639E-08  0.5129E-09  0.4301E-09  0.0000E+00  0.0000E+00  0.0000E+00  0.0000E+00  0.0000E+00  0.0000E+00  0.0000E+00  0.0000E+00
  0.3399E-08  0.2031E-07  0.4449E-07  0.7392E-07  0.1150E-06  0.1693E-06  0.2414E-06  0.3355E-06  0.4572E-06  0.6123E-06  0.8028E-06  0.1040E-05  0.1330E-05  0.1679E-05  0.2108E-05  0.2635E-05  0.3260E-05  0.3988E-05  0.4829E-05  0.5794E-05  0.6864E-05  0.8031E-05  0.9268E-05  0.1053E-04  0.1176E-04  0.1288E-04  0.1380E-04  0.1443E-04  0.1470E-04  0.1456E-04  0.1403E-04  0.1315E-04  0.1205E-04  0.1081E-04  0.9523E-05  0.8288E-05  0.7196E-05  0.7870E-05  0.1068E-04  0.1536E-04  0.2023E-04  0.2289E-04  0.2247E-04  0.1940E-04  0.1501E-04  0.1072E-04  0.6986E-05  0.4450E-05  0.2669E-05  0.1550E-05  0.8154E-06  0.5018E-06  0.3204E-06  0.2335E-06  0.1713E-06  0.1299E-06  0.9959E-07  0.7643E-07  0.5883E-07  0.4579E-07  0.3398E-07  0.2748E-07  0.1978E-07  0.1342E-07  0.1022E-07  0.6229E-08  0.4035E-08  0.2959E-08  0.1619E-08  0.5083E-09  0.4262E-09  0.0000E+00  0.0000E+00  0.0000E+00  0.0000E+00  0.0000E+00  0.0000E+00  0.0000E+00  0.0000E+00
  0.1462E-07  0.3262E-07  0.5653E-07  0.9088E-07  0.1374E-06  0.1977E-06  0.2760E-06  0.3765E-06  0.5021E-06  0.6608E-06  0.8556E-06  0.1093E-05  0.1380E-05  0.1728E-05  0.2163E-05  0.2677E-05  0.3276E-05  0.3978E-05  0.4787E-05  0.5693E-05  0.6694E-05  0.7779E-05  0.8915E-05  0.1007E-04  0.1119E-04  0.1221E-04  0.1306E-04  0.1366E-04  0.1394E-04  0.1386E-04  0.1340E-04  0.1261E-04  0.1158E-04  0.1040E-04  0.9201E-05  0.8059E-05  0.7300E-05  0.7516E-05  0.9168E-05  0.1194E-04  0.1465E-04  0.1620E-04  0.1595E-04  0.1422E-04  0.1144E-04  0.8548E-05  0.5890E-05  0.3910E-05  0.2421E-05  0.1442E-05  0.8375E-06  0.5307E-06  0.3474E-06  0.2590E-06  0.1889E-06  0.1426E-06  0.1099E-06  0.8303E-07  0.6468E-07  0.4890E-07  0.3880E-07  0.2814E-07  0.2093E-07  0.1485E-07  0.1063E-07  0.6781E-08  0.3865E-08  0.2891E-08  0.1587E-08  0.5002E-09  0.4194E-09  0.0000E+00  0.0000E+00  0.0000E+00  0.0000E+00  0.0000E+00  0.0000E+00  0.0000E+00  0.0000E+00
  0.1884E-07  0.4026E-07  0.6791E-07  0.1064E-06  0.1572E-06  0.2217E-06  0.3039E-06  0.4063E-06  0.5338E-06  0.6922E-06  0.8833E-06  0.1112E-05  0.1392E-05  0.1742E-05  0.2158E-05  0.2642E-05  0.3211E-05  0.3877E-05  0.4623E-05  0.5458E-05  0.6375E-05  0.7351E-05  0.8371E-05  0.9397E-05  0.1038E-04  0.1129E-04  0.1204E-04  0.1259E-04  0.1287E-04  0.1285E-04  0.1251E-04  0.1186E-04  0.1097E-04  0.9929E-05  0.8841E-05  0.7792E-05  0.7056E-05  0.7046E-05  0.7896E-05  0.9249E-05  0.1064E-04  0.1139E-04  0.1125E-04  0.1014E-04  0.8433E-05  0.6513E-05  0.4722E-05  0.3245E-05  0.2077E-05  0.1270E-05  0.7547E-06  0.4794E-06  0.3665E-06  0.2713E-06  0.2016E-06  0.1552E-06  0.1189E-06  0.9206E-07  0.7053E-07  0.5389E-07  0.4216E-07  0.3047E-07  0.2328E-07  0.1583E-07  0.1059E-07  0.7571E-08  0.3870E-08  0.2803E-08  0.1546E-08  0.4889E-09  0.4100E-09  0.0000E+00  0.0000E+00  0.0000E+00  0.0000E+00  0.0000E+00  0.0000E+00  0.0000E+00  0.0000E+00
  0.2283E-07  0.4723E-07  0.7795E-07  0.1195E-06  0.1731E-06  0.2399E-06  0.3231E-06  0.4257E-06  0.5520E-06  0.7039E-06  0.8840E-06  0.1105E-05  0.1384E-05  0.1715E-05  0.2099E-05  0.2554E-05  0.3090E-05  0.3695E-05  0.4377E-05  0.5134E-05  0.5954E-05  0.6825E-05  0.7722E-05  0.8617E-05  0.9479E-05  0.1025E-04  0.1090E-04  0.1139E-04  0.1165E-04  0.1168E-04  0.1143E-04  0.1093E-04  0.1022E-04  0.9341E-05  0.8384E-05  0.7447E-05  0.6711E-05  0.6488E-05  0.6776E-05  0.7303E-05  0.7786E-05  0.8137E-05  0.7962E-05  0.7193E-05  0.6179E-05  0.4901E-05  0.3658E-05  0.2601E-05  0.1718E-05  0.1086E-05  0.7308E-06  0.4879E-06  0.3718E-06  0.2798E-06  0.2113E-06  0.1637E-06  0.1259E-06  0.9893E-07  0.7411E-07  0.6000E-07  0.4457E-07  0.3392E-07  0.2367E-07  0.1780E-07  0.1208E-07  0.7886E-08  0.4490E-08  0.1776E-08  0.1494E-08  0.4747E-09  0.0000E+00  0.0000E+00  0.0000E+00  0.0000E+00  0.0000E+00  0.0000E+00  0.0000E+00  0.0000E+00  0.0000E+00
  0.2637E-07  0.5318E-07  0.8618E-07  0.1297E-06  0.1847E-06  0.2515E-06  0.3339E-06  0.4346E-06  0.5543E-06  0.6946E-06  0.8661E-06  0.1086E-05  0.1343E-05  0.1646E-05  0.2005E-05  0.2433E-05  0.2917E-05  0.3465E-05  0.4081E-05  0.4757E-05  0.5485E-05  0.6250E-05  0.7033E-05  0.7808E-05  0.8537E-05  0.9202E-05  0.9762E-05  0.1017E-04  0.1040E-04  0.1044E-04  0.1027E-04  0.9896E-05  0.9334E-05  0.8631E-05  0.7835E-05  0.7011E-05  0.6274E-05  0.5909E-05  0.5825E-05  0.5866E-05  0.5887E-05  0.5932E-05  0.5681E-05  0.5193E-05  0.4417E-05  0.3546E-05  0.2701E-05  0.1971E-05  0.1398E-05  0.9132E-06  0.6878E-06  0.4767E-06  0.3665E-06  0.2849E-06  0.2194E-06  0.1686E-06  0.1316E-06  0.1027E-06  0.7860E-07  0.6260E-07  0.4693E-07  0.3628E-07  0.2540E-07  0.1947E-07  0.1289E-07  0.8521E-08  0.4591E-08  0.1704E-08  0.1434E-08  0.4577E-09  0.0000E+00  0.0000E+00  0.0000E+00  0.0000E+00  0.0000E+00  0.0000E+00  0.0000E+00  0.0000E+00  0.0000E+00
  0.2935E-07  0.5797E-07  0.9249E-07  0.1366E-06  0.1912E-06  0.2570E-06  0.3373E-06  0.4316E-06  0.5397E-06  0.6720E-06  0.8443E-06  0.1043E-05  0.1279E-05  0.1559E-05  0.1897E-05  0.2277E-05  0.2713E-05  0.3208E-05  0.3757E-05  0.4364E-05  0.4995E-05  0.5663E-05  0.6340E-05  0.6996E-05  0.7625E-05  0.8188E-05  0.8651E-05  0.8996E-05  0.9196E-05  0.9246E-05  0.9122E-05  0.8834E-05  0.8391E-05  0.7832E-05  0.7187E-05  0.6502E-05  0.5848E-05  0.5330E-05  0.5036E-05  0.4816E-05  0.4567E-05  0.4423E-05  0.4118E-05  0.3716E-05  0.3149E-05  0.2631E-05  0.2053E-05  0.1546E-05  0.1138E-05  0.8298E-06  0.5900E-06  0.4636E-06  0.3589E-06  0.2798E-06  0.2143E-06  0.1671E-06  0.1331E-06  0.1052E-06  0.8156E-07  0.6448E-07  0.4911E-07  0.3681E-07  0.2684E-07  0.1991E-07  0.1349E-07  0.8529E-08  0.4684E-08  0.2390E-08  0.9363E-09  0.4383E-09  0.0000E+00  0.0000E+00  0.0000E+00  0.0000E+00  0.0000E+00  0.0000E+00  0.0000E+00  0.0000E+00  0.0000E+00
  0.3172E-07  0.6150E-07  0.9621E-07  0.1400E-06  0.1919E-06  0.2574E-06  0.3318E-06  0.4134E-06  0.5140E-06  0.6458E-06  0.8040E-06  0.9860E-06  0.1203E-05  0.1463E-05  0.1762E-05  0.2104E-05  0.2505E-05  0.2935E-05  0.3430E-05  0.3947E-05  0.4505E-05  0.5083E-05  0.5663E-05  0.6232E-05  0.6755E-05  0.7221E-05  0.7615E-05  0.7906E-05  0.8082E-05  0.8123E-05  0.8030E-05  0.7805E-05  0.7456E-05  0.7011E-05  0.6478E-05  0.5913E-05  0.5324E-05  0.4818E-05  0.4387E-05  0.4027E-05  0.3733E-05  0.3417E-05  0.3092E-05  0.2741E-05  0.2370E-05  0.1930E-05  0.1517E-05  0.1165E-05  0.9384E-06  0.6889E-06  0.5505E-06  0.4357E-06  0.3419E-06  0.2694E-06  0.2096E-06  0.1651E-06  0.1309E-06  0.1042E-06  0.8134E-07  0.6416E-07  0.4949E-07  0.3776E-07  0.2692E-07  0.2065E-07  0.1346E-07  0.8885E-08  0.3842E-08  0.2418E-08  0.4938E-09  0.4169E-09  0.0000E+00  0.0000E+00  0.0000E+00  0.0000E+00  0.0000E+00  0.0000E+00  0.0000E+00  0.0000E+00  0.0000E+00
  0.3332E-07  0.6315E-07  0.9755E-07  0.1405E-06  0.1909E-06  0.2495E-06  0.3128E-06  0.3876E-06  0.4932E-06  0.6158E-06  0.7551E-06  0.9210E-06  0.1121E-05  0.1353E-05  0.1619E-05  0.1934E-05  0.2272E-05  0.2670E-05  0.3086E-05  0.3553E-05  0.4028E-05  0.4526E-05  0.5024E-05  0.5495E-05  0.5944E-05  0.6338E-05  0.6666E-05  0.6903E-05  0.7044E-05  0.7079E-05  0.7009E-05  0.6832E-05  0.6558E-05  0.6200E-05  0.5774E-05  0.5297E-05  0.4807E-05  0.4302E-05  0.3883E-05  0.3444E-05  0.3113E-05  0.2745E-05  0.2401E-05  0.2088E-05  0.1788E-05  0.1512E-05  0.1213E-05  0.1006E-05  0.7666E-06  0.6267E-06  0.5041E-06  0.4060E-06  0.3253E-06  0.2577E-06  0.2008E-06  0.1592E-06  0.1272E-06  0.1031E-06  0.8150E-07  0.6376E-07  0.4928E-07  0.3813E-07  0.2673E-07  0.2087E-07  0.1311E-07  0.8928E-08  0.4821E-08  0.2379E-08  0.4665E-09  0.0000E+00  0.0000E+00  0.0000E+00  0.0000E+00  0.0000E+00  0.0000E+00  0.0000E+00  0.0000E+00  0.0000E+00  0.0000E+00
  0.3359E-07  0.6319E-07  0.9709E-07  0.1389E-06  0.1715E-06  0.2308E-06  0.2899E-06  0.3733E-06  0.4686E-06  0.5748E-06  0.6997E-06  0.8545E-06  0.1033E-05  0.1237E-05  0.1483E-05  0.1747E-05  0.2061E-05  0.2389E-05  0.2770E-05  0.3157E-05  0.3573E-05  0.3998E-05  0.4409E-05  0.4819E-05  0.5198E-05  0.5521E-05  0.5786E-05  0.5983E-05  0.6107E-05  0.6137E-05  0.6080E-05  0.5930E-05  0.5709E-05  0.5421E-05  0.5082E-05  0.4691E-05  0.4273E-05  0.3850E-05  0.3418E-05  0.3018E-05  0.2691E-05  0.2337E-05  0.2026E-05  0.1735E-05  0.1474E-05  0.1241E-05  0.9742E-06  0.8263E-06  0.6858E-06  0.5687E-06  0.4622E-06  0.3715E-06  0.2990E-06  0.2392E-06  0.1897E-06  0.1543E-06  0.1225E-06  0.1002E-06  0.7824E-07  0.6053E-07  0.4861E-07  0.3717E-07  0.2633E-07  0.2009E-07  0.1297E-07  0.8295E-08  0.4722E-08  0.1460E-08  0.4376E-09  0.0000E+00  0.0000E+00  0.0000E+00  0.0000E+00  0.0000E+00  0.0000E+00  0.0000E+00  0.0000E+00  0.0000E+00  0.0000E+00
  0.3326E-07  0.6228E-07  0.9535E-07  0.1200E-06  0.1672E-06  0.2131E-06  0.2790E-06  0.3538E-06  0.4326E-06  0.5261E-06  0.6488E-06  0.7851E-06  0.9409E-06  0.1131E-05  0.1334E-05  0.1578E-05  0.1838E-05  0.2141E-05  0.2450E-05  0.2801E-05  0.3146E-05  0.3505E-05  0.3866E-05  0.4199E-05  0.4505E-05  0.4782E-05  0.5005E-05  0.5176E-05  0.5268E-05  0.5294E-05  0.5247E-05  0.5132E-05  0.4945E-05  0.4711E-05  0.4421E-05  0.4109E-05  0.3758E-05  0.3397E-05  0.3044E-05  0.2681E-05  0.2345E-05  0.2026E-05  0.1731E-05  0.1460E-05  0.1228E-05  0.1031E-05  0.8614E-06  0.7259E-06  0.6063E-06  0.5037E-06  0.4130E-06  0.3366E-06  0.2758E-06  0.2220E-06  0.1786E-06  0.1430E-06  0.1160E-06  0.9248E-07  0.7469E-07  0.5892E-07  0.4534E-07  0.3420E-07  0.2566E-07  0.1786E-07  0.1262E-07  0.7656E-08  0.4594E-08  0.1425E-08  0.4078E-09  0.0000E+00  0.0000E+00  0.0000E+00  0.0000E+00  0.0000E+00  0.0000E+00  0.0000E+00  0.0000E+00  0.0000E+00  0.0000E+00
