DSAA
          79         109
    318.3670    342.0670
   7336.5760   7369.2760
  0.0000E+00  0.3633E-03
  0.0000E+00  0.0000E+00  0.0000E+00  0.0000E+00  0.0000E+00  0.0000E+00  0.0000E+00  0.0000E+00  0.0000E+00  0.0000E+00  0.0000E+00  0.0000E+00  0.0000E+00  0.0000E+00  0.0000E+00  0.0000E+00  0.0000E+00  0.0000E+00  0.0000E+00  0.0000E+00  0.0000E+00  0.0000E+00  0.0000E+00  0.0000E+00  0.0000E+00  0.0000E+00  0.0000E+00  0.0000E+00  0.0000E+00  0.0000E+00  0.0000E+00  0.0000E+00  0.0000E+00  0.0000E+00  0.0000E+00  0.0000E+00  0.0000E+00  0.0000E+00  0.0000E+00  0.0000E+00  0.0000E+00  0.0000E+00  0.0000E+00  0.0000E+00  0.0000E+00  0.0000E+00  0.0000E+00  0.0000E+00  0.0000E+00  0.0000E+00  0.0000E+00  0.0000E+00  0.0000E+00  0.0000E+00  0.0000E+00  0.0000E+00  0.0000E+00  0.0000E+00  0.0000E+00  0.0000E+00  0.0000E+00  0.0000E+00  0.0000E+00  0.0000E+00  0.0000E+00  0.0000E+00  0.0000E+00  0.0000E+00  0.0000E+00  0.0000E+00  0.0000E+00  0.0000E+00  0.0000E+00  0.0000E+00  0.0000E+00  0.0000E+00  0.0000E+00  0.0000E+00  0.0000E+00
  0.0000E+00  0.0000E+00  0.0000E+00  0.0000E+00  0.0000E+00  0.0000E+00  0.0000E+00  0.0000E+00  0.0000E+00  0.0000E+00  0.0000E+00  0.0000E+00  0.0000E+00  0.0000E+00  0.0000E+00  0.0000E+00  0.0000E+00  0.0000E+00  0.0000E+00  0.0000E+00  0.0000E+00  0.0000E+00  0.0000E+00  0.0000E+00  0.0000E+00  0.0000E+00  0.0000E+00  0.0000E+00  0.0000E+00  0.0000E+00  0.0000E+00  0.0000E+00  0.0000E+00  0.0000E+00  0.0000E+00  0.0000E+00  0.0000E+00  0.0000E+00  0.0000E+00  0.0000E+00  0.0000E+00  0.0000E+00  0.0000E+00  0.0000E+00  0.0000E+00  0.0000E+00  0.0000E+00  0.0000E+00  0.0000E+00  0.0000E+00  0.0000E+00  0.0000E+00  0.0000E+00  0.0000E+00  0.0000E+00  0.0000E+00  0.0000E+00  0.0000E+00  0.0000E+00  0.0000E+00  0.0000E+00  0.0000E+00  0.0000E+00  0.0000E+00  0.0000E+00  0.0000E+00  0.0000E+00  0.0000E+00  0.0000E+00  0.0000E+00  0.0000E+00  0.0000E+00  0.0000E+00  0.0000E+00  0.0000E+00  0.0000E+00  0.0000E+00  0.0000E+00  0.0000E+00
  0.0000E+00  0.0000E+00  0.0000E+00  0.0000E+00  0.0000E+00  0.0000E+00  0.0000E+00  0.0000E+00  0.0000E+00  0.0000E+00  0.0000E+00  0.0000E+00  0.0000E+00  0.0000E+00  0.0000E+00  0.0000E+00  0.0000E+00  0.0000E+00  0.0000E+00  0.0000E+00  0.0000E+00  0.0000E+00  0.0000E+00  0.0000E+00  0.0000E+00  0.0000E+00  0.0000E+00  0.0000E+00  0.0000E+00  0.0000E+00  0.0000E+00  0.0000E+00  0.0000E+00  0.0000E+00  0.0000E+00  0.0000E+00  0.0000E+00  0.0000E+00  0.0000E+00  0.0000E+00  0.0000E+00  0.0000E+00  0.0000E+00  0.0000E+00  0.0000E+00  0.0000E+00  0.0000E+00  0.0000E+00  0.0000E+00  0.0000E+00  0.0000E+00  0.0000E+00  0.0000E+00  0.0000E+00  0.0000E+00  0.0000E+00  0.0000E+00  0.0000E+00  0.0000E+00  0.0000E+00  0.0000E+00  0.0000E+00  0.0000E+00  0.0000E+00  0.0000E+00  0.0000E+00  0.0000E+00  0.0000E+00  0.0000E+00  0.0000E+00  0.0000E+00  0.0000E+00  0.0000E+00  0.0000E+00  0.0000E+00  0.0000E+00  0.0000E+00  0.0000E+00  0.0000E+00
  0.0000E+00  0.0000E+00  0.0000E+00  0.0000E+00  0.0000E+00  0.0000E+00  0.0000E+00  0.0000E+00  0.0000E+00  0.0000E+00  0.0000E+00  0.0000E+00  0.0000E+00  0.0000E+00  0.0000E+00  0.0000E+00  0.0000E+00  0.0000E+00  0.0000E+00  0.0000E+00  0.0000E+00  0.0000E+00  0.0000E+00  0.0000E+00  0.0000E+00  0.0000E+00  0.0000E+00  0.0000E+00  0.0000E+00  0.0000E+00  0.0000E+00  0.0000E+00  0.0000E+00  0.0000E+00  0.0000E+00  0.0000E+00  0.0000E+00  0.0000E+00  0.0000E+00  0.0000E+00  0.0000E+00  0.0000E+00  0.0000E+00  0.0000E+00  0.0000E+00  0.0000E+00  0.0000E+00  0.0000E+00  0.0000E+00  0.0000E+00  0.0000E+00  0.0000E+00  0.0000E+00  0.0000E+00  0.0000E+00  0.0000E+00  0.0000E+00  0.0000E+00  0.0000E+00  0.0000E+00  0.0000E+00  0.0000E+00  0.0000E+00  0.0000E+00  0.0000E+00  0.0000E+00  0.0000E+00  0.0000E+00  0.0000E+00  0.0000E+00  0.0000E+00  0.0000E+00  0.0000E+00  0.0000E+00  0.0000E+00  0.0000E+00  0.0000E+00  0.0000E+00  0.0000E+00
  0.0000E+00  0.0000E+00  0.0000E+00  0.0000E+00  0.0000E+00  0.0000E+00  0.0000E+00  0.0000E+00  0.0000E+00  0.0000E+00  0.0000E+00  0.0000E+00  0.0000E+00  0.0000E+00  0.0000E+00  0.0000E+00  0.0000E+00  0.0000E+00  0.0000E+00  0.0000E+00  0.0000E+00  0.0000E+00  0.0000E+00  0.0000E+00  0.0000E+00  0.0000E+00  0.0000E+00  0.0000E+00  0.0000E+00  0.0000E+00  0.0000E+00  0.0000E+00  0.0000E+00  0.0000E+00  0.0000E+00  0.0000E+00  0.0000E+00  0.0000E+00  0.0000E+00  0.0000E+00  0.0000E+00  0.0000E+00  0.0000E+00  0.0000E+00  0.0000E+00  0.0000E+00  0.0000E+00  0.0000E+00  0.0000E+00  0.0000E+00  0.0000E+00  0.0000E+00  0.0000E+00  0.0000E+00  0.0000E+00  0.0000E+00  0.0000E+00  0.0000E+00  0.0000E+00  0.0000E+00  0.0000E+00  0.0000E+00  0.0000E+00  0.0000E+00  0.0000E+00  0.0000E+00  0.0000E+00  0.0000E+00  0.0000E+00  0.0000E+00  0.0000E+00  0.0000E+00  0.0000E+00  0.0000E+00  0.0000E+00  0.0000E+00  0.0000E+00  0.0000E+00  0.0000E+00
  0.0000E+00  0.0000E+00  0.0000E+00  0.0000E+00  0.0000E+00  0.0000E+00  0.0000E+00  0.0000E+00  0.0000E+00  0.0000E+00  0.0000E+00  0.0000E+00  0.0000E+00  0.0000E+00  0.0000E+00  0.0000E+00  0.0000E+00  0.0000E+00  0.0000E+00  0.0000E+00  0.0000E+00  0.0000E+00  0.0000E+00  0.0000E+00  0.0000E+00  0.0000E+00  0.0000E+00  0.0000E+00  0.0000E+00  0.0000E+00  0.0000E+00  0.0000E+00  0.0000E+00  0.0000E+00  0.0000E+00  0.0000E+00  0.0000E+00  0.0000E+00  0.0000E+00  0.0000E+00  0.0000E+00  0.0000E+00  0.0000E+00  0.0000E+00  0.0000E+00  0.0000E+00  0.0000E+00  0.0000E+00  0.0000E+00  0.0000E+00  0.0000E+00  0.0000E+00  0.0000E+00  0.0000E+00  0.0000E+00  0.0000E+00  0.0000E+00  0.0000E+00  0.0000E+00  0.0000E+00  0.0000E+00  0.0000E+00  0.0000E+00  0.0000E+00  0.0000E+00  0.0000E+00  0.0000E+00  0.0000E+00  0.0000E+00  0.0000E+00  0.0000E+00  0.0000E+00  0.0000E+00  0.0000E+00  0.0000E+00  0.0000E+00  0.0000E+00  0.0000E+00  0.0000E+00
  0.0000E+00  0.0000E+00  0.0000E+00  0.0000E+00  0.0000E+00  0.0000E+00  0.0000E+00  0.0000E+00  0.0000E+00  0.0000E+00  0.0000E+00  0.0000E+00  0.0000E+00  0.0000E+00  0.0000E+00  0.0000E+00  0.0000E+00  0.0000E+00  0.0000E+00  0.0000E+00  0.0000E+00  0.0000E+00  0.0000E+00  0.0000E+00  0.0000E+00  0.0000E+00  0.0000E+00  0.0000E+00  0.0000E+00  0.0000E+00  0.0000E+00  0.0000E+00  0.0000E+00  0.0000E+00  0.0000E+00  0.0000E+00  0.0000E+00  0.0000E+00  0.0000E+00  0.0000E+00  0.0000E+00  0.0000E+00  0.0000E+00  0.0000E+00  0.0000E+00  0.0000E+00  0.0000E+00  0.0000E+00  0.0000E+00  0.0000E+00  0.0000E+00  0.0000E+00  0.0000E+00  0.0000E+00  0.0000E+00  0.0000E+00  0.0000E+00  0.0000E+00  0.0000E+00  0.0000E+00  0.0000E+00  0.0000E+00  0.0000E+00  0.0000E+00  0.0000E+00  0.0000E+00  0.0000E+00  0.0000E+00  0.0000E+00  0.0000E+00  0.0000E+00  0.0000E+00  0.0000E+00  0.0000E+00  0.0000E+00  0.0000E+00  0.0000E+00  0.0000E+00  0.0000E+00
  0.0000E+00  0.0000E+00  0.0000E+00  0.0000E+00  0.0000E+00  0.0000E+00  0.0000E+00  0.0000E+00  0.0000E+00  0.0000E+00  0.0000E+00  0.0000E+00  0.0000E+00  0.0000E+00  0.0000E+00  0.0000E+00  0.0000E+00  0.0000E+00  0.0000E+00  0.0000E+00  0.0000E+00  0.0000E+00  0.0000E+00  0.0000E+00  0.0000E+00  0.0000E+00  0.0000E+00  0.0000E+00  0.0000E+00  0.0000E+00  0.0000E+00  0.0000E+00  0.0000E+00  0.0000E+00  0.0000E+00  0.0000E+00  0.0000E+00  0.0000E+00  0.0000E+00  0.0000E+00  0.0000E+00  0.0000E+00  0.0000E+00  0.0000E+00  0.0000E+00  0.0000E+00  0.0000E+00  0.0000E+00  0.0000E+00  0.0000E+00  0.0000E+00  0.0000E+00  0.0000E+00  0.0000E+00  0.0000E+00  0.0000E+00  0.0000E+00  0.0000E+00  0.0000E+00  0.0000E+00  0.0000E+00  0.0000E+00  0.0000E+00  0.0000E+00  0.0000E+00  0.0000E+00  0.0000E+00  0.0000E+00  0.0000E+00  0.0000E+00  0.0000E+00  0.0000E+00  0.0000E+00  0.0000E+00  0.0000E+00  0.0000E+00  0.0000E+00  0.0000E+00  0.0000E+00
  0.0000E+00  0.0000E+00  0.0000E+00  0.0000E+00  0.0000E+00  0.0000E+00  0.0000E+00  0.0000E+00  0.0000E+00  0.0000E+00  0.0000E+00  0.0000E+00  0.0000E+00  0.0000E+00  0.0000E+00  0.0000E+00  0.0000E+00  0.0000E+00  0.0000E+00  0.0000E+00  0.0000E+00  0.0000E+00  0.0000E+00  0.0000E+00  0.0000E+00  0.0000E+00  0.0000E+00  0.0000E+00  0.0000E+00  0.0000E+00  0.0000E+00  0.0000E+00  0.0000E+00  0.0000E+00  0.0000E+00  0.0000E+00  0.0000E+00  0.0000E+00  0.0000E+00  0.0000E+00  0.0000E+00  0.0000E+00  0.0000E+00  0.0000E+00  0.0000E+00  0.0000E+00  0.0000E+00  0.0000E+00  0.0000E+00  0.0000E+00  0.0000E+00  0.0000E+00  0.0000E+00  0.0000E+00  0.0000E+00  0.0000E+00  0.0000E+00  0.0000E+00  0.0000E+00  0.0000E+00  0.0000E+00  0.0000E+00  0.0000E+00  0.0000E+00  0.0000E+00  0.0000E+00  0.0000E+00  0.0000E+00  0.0000E+00  0.0000E+00  0.0000E+00  0.0000E+00  0.0000E+00  0.0000E+00  0.0000E+00  0.0000E+00  0.0000E+00  0.0000E+00  0.0000E+00
  0.0000E+00  0.0000E+00  0.0000E+00  0.0000E+00  0.0000E+00  0.0000E+00  0.0000E+00  0.0000E+00  0.0000E+00  0.0000E+00  0.0000E+00  0.0000E+00  0.0000E+00  0.0000E+00  0.0000E+00  0.0000E+00  0.0000E+00  0.0000E+00  0.0000E+00  0.0000E+00  0.0000E+00  0.0000E+00  0.0000E+00  0.0000E+00  0.0000E+00  0.0000E+00  0.0000E+00  0.0000E+00  0.0000E+00  0.0000E+00  0.0000E+00  0.0000E+00  0.0000E+00  0.0000E+00  0.0000E+00  0.0000E+00  0.0000E+00  0.0000E+00  0.0000E+00  0.0000E+00  0.0000E+00  0.0000E+00  0.0000E+00  0.0000E+00  0.0000E+00  0.0000E+00  0.0000E+00  0.0000E+00  0.0000E+00  0.0000E+00  0.0000E+00  0.0000E+00  0.0000E+00  0.0000E+00  0.0000E+00  0.0000E+00  0.0000E+00  0.0000E+00  0.0000E+00  0.0000E+00  0.0000E+00  0.0000E+00  0.0000E+00  0.0000E+00  0.0000E+00  0.0000E+00  0.0000E+00  0.0000E+00  0.0000E+00  0.0000E+00  0.0000E+00  0.0000E+00  0.0000E+00  0.0000E+00  0.0000E+00  0.0000E+00  0.0000E+00  0.0000E+00  0.0000E+00
  0.0000E+00  0.0000E+00  0.0000E+00  0.0000E+00  0.0000E+00  0.0000E+00  0.0000E+00  0.0000E+00  0.0000E+00  0.0000E+00  0.0000E+00  0.0000E+00  0.0000E+00  0.0000E+00  0.0000E+00  0.0000E+00  0.0000E+00  0.0000E+00  0.0000E+00  0.0000E+00  0.0000E+00  0.0000E+00  0.0000E+00  0.0000E+00  0.0000E+00  0.0000E+00  0.0000E+00  0.0000E+00  0.0000E+00  0.0000E+00  0.0000E+00  0.0000E+00  0.0000E+00  0.0000E+00  0.0000E+00  0.0000E+00  0.0000E+00  0.0000E+00  0.0000E+00  0.0000E+00  0.0000E+00  0.0000E+00  0.0000E+00  0.0000E+00  0.0000E+00  0.0000E+00  0.0000E+00  0.0000E+00  0.0000E+00  0.0000E+00  0.0000E+00  0.0000E+00  0.0000E+00  0.0000E+00  0.0000E+00  0.0000E+00  0.0000E+00  0.0000E+00  0.0000E+00  0.0000E+00  0.0000E+00  0.0000E+00  0.0000E+00  0.0000E+00  0.0000E+00  0.0000E+00  0.0000E+00  0.0000E+00  0.0000E+00  0.0000E+00  0.0000E+00  0.0000E+00  0.0000E+00  0.0000E+00  0.0000E+00  0.0000E+00  0.0000E+00  0.0000E+00  0.0000E+00
  0.0000E+00  0.0000E+00  0.0000E+00  0.0000E+00  0.0000E+00  0.0000E+00  0.0000E+00  0.0000E+00  0.0000E+00  0.0000E+00  0.0000E+00  0.0000E+00  0.0000E+00  0.0000E+00  0.0000E+00  0.0000E+00  0.0000E+00  0.0000E+00  0.0000E+00  0.0000E+00  0.0000E+00  0.0000E+00  0.0000E+00  0.0000E+00  0.0000E+00  0.0000E+00  0.0000E+00  0.0000E+00  0.0000E+00  0.0000E+00  0.0000E+00  0.0000E+00  0.0000E+00  0.0000E+00  0.0000E+00  0.0000E+00  0.0000E+00  0.0000E+00  0.0000E+00  0.0000E+00  0.0000E+00  0.0000E+00  0.0000E+00  0.0000E+00  0.0000E+00  0.0000E+00  0.0000E+00  0.0000E+00  0.0000E+00  0.0000E+00  0.0000E+00  0.0000E+00  0.0000E+00  0.0000E+00  0.0000E+00  0.0000E+00  0.0000E+00  0.0000E+00  0.0000E+00  0.0000E+00  0.0000E+00  0.0000E+00  0.0000E+00  0.0000E+00  0.0000E+00  0.0000E+00  0.0000E+00  0.0000E+00  0.0000E+00  0.0000E+00  0.0000E+00  0.0000E+00  0.0000E+00  0.0000E+00  0.0000E+00  0.0000E+00  0.0000E+00  0.0000E+00  0.0000E+00
  0.0000E+00  0.0000E+00  0.0000E+00  0.0000E+00  0.0000E+00  0.0000E+00  0.0000E+00  0.0000E+00  0.0000E+00  0.0000E+00  0.0000E+00  0.0000E+00  0.0000E+00  0.0000E+00  0.0000E+00  0.0000E+00  0.0000E+00  0.0000E+00  0.0000E+00  0.0000E+00  0.0000E+00  0.0000E+00  0.0000E+00  0.0000E+00  0.0000E+00  0.0000E+00  0.0000E+00  0.0000E+00  0.0000E+00  0.0000E+00  0.0000E+00  0.0000E+00  0.0000E+00  0.0000E+00  0.0000E+00  0.0000E+00  0.0000E+00  0.0000E+00  0.0000E+00  0.0000E+00  0.0000E+00  0.0000E+00  0.0000E+00  0.0000E+00  0.0000E+00  0.0000E+00  0.0000E+00  0.0000E+00  0.0000E+00  0.0000E+00  0.0000E+00  0.0000E+00  0.0000E+00  0.0000E+00  0.0000E+00  0.0000E+00  0.0000E+00  0.0000E+00  0.0000E+00  0.0000E+00  0.0000E+00  0.0000E+00  0.0000E+00  0.0000E+00  0.0000E+00  0.0000E+00  0.0000E+00  0.0000E+00  0.0000E+00  0.0000E+00  0.0000E+00  0.0000E+00  0.0000E+00  0.0000E+00  0.0000E+00  0.0000E+00  0.0000E+00  0.0000E+00  0.0000E+00
  0.0000E+00  0.0000E+00  0.0000E+00  0.0000E+00  0.0000E+00  0.0000E+00  0.0000E+00  0.0000E+00  0.0000E+00  0.0000E+00  0.0000E+00  0.0000E+00  0.0000E+00  0.0000E+00  0.0000E+00  0.0000E+00  0.0000E+00  0.0000E+00  0.0000E+00  0.0000E+00  0.0000E+00  0.0000E+00  0.0000E+00  0.0000E+00  0.0000E+00  0.0000E+00  0.0000E+00  0.0000E+00  0.0000E+00  0.0000E+00  0.0000E+00  0.0000E+00  0.0000E+00  0.0000E+00  0.0000E+00  0.0000E+00  0.0000E+00  0.0000E+00  0.0000E+00  0.0000E+00  0.0000E+00  0.0000E+00  0.0000E+00  0.0000E+00  0.0000E+00  0.0000E+00  0.0000E+00  0.0000E+00  0.0000E+00  0.0000E+00  0.0000E+00  0.0000E+00  0.0000E+00  0.0000E+00  0.0000E+00  0.0000E+00  0.0000E+00  0.0000E+00  0.0000E+00  0.0000E+00  0.0000E+00  0.0000E+00  0.0000E+00  0.0000E+00  0.0000E+00  0.0000E+00  0.0000E+00  0.0000E+00  0.0000E+00  0.0000E+00  0.0000E+00  0.0000E+00  0.0000E+00  0.0000E+00  0.0000E+00  0.0000E+00  0.0000E+00  0.0000E+00  0.0000E+00
  0.0000E+00  0.0000E+00  0.0000E+00  0.0000E+00  0.0000E+00  0.0000E+00  0.0000E+00  0.0000E+00  0.0000E+00  0.0000E+00  0.0000E+00  0.0000E+00  0.0000E+00  0.0000E+00  0.0000E+00  0.0000E+00  0.0000E+00  0.0000E+00  0.0000E+00  0.0000E+00  0.0000E+00  0.0000E+00  0.0000E+00  0.0000E+00  0.0000E+00  0.0000E+00  0.0000E+00  0.0000E+00  0.0000E+00  0.0000E+00  0.0000E+00  0.0000E+00  0.0000E+00  0.0000E+00  0.0000E+00  0.0000E+00  0.0000E+00  0.0000E+00  0.0000E+00  0.0000E+00  0.0000E+00  0.0000E+00  0.0000E+00  0.0000E+00  0.0000E+00  0.0000E+00  0.0000E+00  0.0000E+00  0.0000E+00  0.0000E+00  0.0000E+00  0.0000E+00  0.0000E+00  0.0000E+00  0.0000E+00  0.0000E+00  0.0000E+00  0.0000E+00  0.0000E+00  0.0000E+00  0.0000E+00  0.0000E+00  0.0000E+00  0.0000E+00  0.0000E+00  0.0000E+00  0.0000E+00  0.0000E+00  0.0000E+00  0.0000E+00  0.0000E+00  0.0000E+00  0.0000E+00  0.0000E+00  0.0000E+00  0.0000E+00  0.0000E+00  0.0000E+00  0.0000E+00
  0.0000E+00  0.0000E+00  0.0000E+00  0.0000E+00  0.0000E+00  0.0000E+00  0.0000E+00  0.0000E+00  0.0000E+00  0.0000E+00  0.0000E+00  0.0000E+00  0.0000E+00  0.0000E+00  0.0000E+00  0.0000E+00  0.0000E+00  0.0000E+00  0.0000E+00  0.0000E+00  0.0000E+00  0.0000E+00  0.0000E+00  0.0000E+00  0.0000E+00  0.0000E+00  0.0000E+00  0.0000E+00  0.0000E+00  0.0000E+00  0.0000E+00  0.0000E+00  0.0000E+00  0.0000E+00  0.0000E+00  0.0000E+00  0.0000E+00  0.0000E+00  0.0000E+00  0.0000E+00  0.0000E+00  0.0000E+00  0.0000E+00  0.0000E+00  0.0000E+00  0.0000E+00  0.0000E+00  0.0000E+00  0.0000E+00  0.0000E+00  0.0000E+00  0.0000E+00  0.0000E+00  0.0000E+00  0.0000E+00  0.0000E+00  0.0000E+00  0.0000E+00  0.0000E+00  0.0000E+00  0.0000E+00  0.0000E+00  0.0000E+00  0.0000E+00  0.0000E+00  0.0000E+00  0.0000E+00  0.0000E+00  0.0000E+00  0.0000E+00  0.0000E+00  0.0000E+00  0.0000E+00  0.0000E+00  0.0000E+00  0.0000E+00  0.0000E+00  0.0000E+00  0.0000E+00
  0.0000E+00  0.0000E+00  0.0000E+00  0.0000E+00  0.0000E+00  0.0000E+00  0.0000E+00  0.0000E+00  0.0000E+00  0.0000E+00  0.0000E+00  0.0000E+00  0.0000E+00  0.0000E+00  0.0000E+00  0.0000E+00  0.0000E+00  0.0000E+00  0.0000E+00  0.0000E+00  0.0000E+00  0.0000E+00  0.0000E+00  0.0000E+00  0.0000E+00  0.0000E+00  0.0000E+00  0.0000E+00  0.0000E+00  0.0000E+00  0.0000E+00  0.0000E+00  0.0000E+00  0.0000E+00  0.0000E+00  0.0000E+00  0.0000E+00  0.0000E+00  0.0000E+00  0.0000E+00  0.0000E+00  0.0000E+00  0.0000E+00  0.0000E+00  0.0000E+00  0.0000E+00  0.0000E+00  0.0000E+00  0.0000E+00  0.0000E+00  0.0000E+00  0.0000E+00  0.0000E+00  0.0000E+00  0.0000E+00  0.0000E+00  0.0000E+00  0.0000E+00  0.0000E+00  0.0000E+00  0.0000E+00  0.0000E+00  0.0000E+00  0.0000E+00  0.0000E+00  0.0000E+00  0.0000E+00  0.0000E+00  0.0000E+00  0.0000E+00  0.0000E+00  0.0000E+00  0.0000E+00  0.0000E+00  0.0000E+00  0.0000E+00  0.0000E+00  0.0000E+00  0.0000E+00
  0.0000E+00  0.0000E+00  0.0000E+00  0.0000E+00  0.0000E+00  0.0000E+00  0.0000E+00  0.0000E+00  0.0000E+00  0.0000E+00  0.0000E+00  0.0000E+00  0.0000E+00  0.0000E+00  0.0000E+00  0.0000E+00  0.0000E+00  0.0000E+00  0.0000E+00  0.0000E+00  0.0000E+00  0.0000E+00  0.0000E+00  0.0000E+00  0.0000E+00  0.0000E+00  0.0000E+00  0.0000E+00  0.0000E+00  0.0000E+00  0.0000E+00  0.0000E+00  0.0000E+00  0.0000E+00  0.0000E+00  0.0000E+00  0.0000E+00  0.0000E+00  0.0000E+00  0.0000E+00  0.0000E+00  0.0000E+00  0.0000E+00  0.0000E+00  0.0000E+00  0.0000E+00  0.0000E+00  0.0000E+00  0.0000E+00  0.0000E+00  0.0000E+00  0.0000E+00  0.0000E+00  0.0000E+00  0.0000E+00  0.0000E+00  0.0000E+00  0.0000E+00  0.0000E+00  0.0000E+00  0.0000E+00  0.0000E+00  0.0000E+00  0.0000E+00  0.0000E+00  0.0000E+00  0.0000E+00  0.0000E+00  0.0000E+00  0.0000E+00  0.0000E+00  0.0000E+00  0.0000E+00  0.0000E+00  0.0000E+00  0.0000E+00  0.0000E+00  0.0000E+00  0.0000E+00
  0.0000E+00  0.0000E+00  0.0000E+00  0.0000E+00  0.0000E+00  0.0000E+00  0.0000E+00  0.0000E+00  0.0000E+00  0.0000E+00  0.0000E+00  0.0000E+00  0.0000E+00  0.0000E+00  0.0000E+00  0.0000E+00  0.0000E+00  0.0000E+00  0.0000E+00  0.0000E+00  0.0000E+00  0.0000E+00  0.0000E+00  0.0000E+00  0.0000E+00  0.0000E+00  0.0000E+00  0.0000E+00  0.0000E+00  0.0000E+00  0.0000E+00  0.0000E+00  0.0000E+00  0.0000E+00  0.0000E+00  0.0000E+00  0.0000E+00  0.0000E+00  0.0000E+00  0.0000E+00  0.0000E+00  0.0000E+00  0.0000E+00  0.0000E+00  0.0000E+00  0.0000E+00  0.0000E+00  0.0000E+00  0.0000E+00  0.0000E+00  0.0000E+00  0.0000E+00  0.0000E+00  0.0000E+00  0.0000E+00  0.0000E+00  0.0000E+00  0.0000E+00  0.0000E+00  0.0000E+00  0.0000E+00  0.0000E+00  0.0000E+00  0.0000E+00  0.0000E+00  0.0000E+00  0.0000E+00  0.0000E+00  0.0000E+00  0.0000E+00  0.0000E+00  0.0000E+00  0.0000E+00  0.0000E+00  0.0000E+00  0.0000E+00  0.0000E+00  0.0000E+00  0.0000E+00
  0.0000E+00  0.0000E+00  0.0000E+00  0.0000E+00  0.0000E+00  0.0000E+00  0.0000E+00  0.0000E+00  0.0000E+00  0.0000E+00  0.0000E+00  0.0000E+00  0.0000E+00  0.0000E+00  0.0000E+00  0.0000E+00  0.0000E+00  0.0000E+00  0.0000E+00  0.0000E+00  0.0000E+00  0.0000E+00  0.0000E+00  0.0000E+00  0.0000E+00  0.0000E+00  0.0000E+00  0.0000E+00  0.0000E+00  0.0000E+00  0.0000E+00  0.0000E+00  0.0000E+00  0.0000E+00  0.0000E+00  0.0000E+00  0.0000E+00  0.0000E+00  0.0000E+00  0.0000E+00  0.0000E+00  0.0000E+00  0.0000E+00  0.0000E+00  0.0000E+00  0.0000E+00  0.0000E+00  0.0000E+00  0.0000E+00  0.0000E+00  0.0000E+00  0.0000E+00  0.0000E+00  0.0000E+00  0.0000E+00  0.0000E+00  0.0000E+00  0.0000E+00  0.0000E+00  0.0000E+00  0.0000E+00  0.0000E+00  0.0000E+00  0.0000E+00  0.0000E+00  0.0000E+00  0.0000E+00  0.0000E+00  0.0000E+00  0.0000E+00  0.0000E+00  0.0000E+00  0.0000E+00  0.0000E+00  0.0000E+00  0.0000E+00  0.0000E+00  0.0000E+00  0.0000E+00
  0.0000E+00  0.0000E+00  0.0000E+00  0.0000E+00  0.0000E+00  0.0000E+00  0.0000E+00  0.0000E+00  0.0000E+00  0.0000E+00  0.0000E+00  0.0000E+00  0.0000E+00  0.0000E+00  0.0000E+00  0.0000E+00  0.0000E+00  0.0000E+00  0.0000E+00  0.0000E+00  0.0000E+00  0.0000E+00  0.0000E+00  0.0000E+00  0.0000E+00  0.0000E+00  0.0000E+00  0.0000E+00  0.0000E+00  0.0000E+00  0.0000E+00  0.0000E+00  0.0000E+00  0.0000E+00  0.0000E+00  0.0000E+00  0.0000E+00  0.0000E+00  0.0000E+00  0.0000E+00  0.0000E+00  0.0000E+00  0.0000E+00  0.0000E+00  0.0000E+00  0.0000E+00  0.0000E+00  0.0000E+00  0.0000E+00  0.0000E+00  0.0000E+00  0.0000E+00  0.0000E+00  0.0000E+00  0.0000E+00  0.0000E+00  0.0000E+00  0.0000E+00  0.0000E+00  0.0000E+00  0.0000E+00  0.0000E+00  0.0000E+00  0.0000E+00  0.0000E+00  0.0000E+00  0.0000E+00  0.0000E+00  0.0000E+00  0.0000E+00  0.0000E+00  0.0000E+00  0.0000E+00  0.0000E+00  0.0000E+00  0.0000E+00  0.0000E+00  0.0000E+00  0.0000E+00
  0.0000E+00  0.0000E+00  0.0000E+00  0.0000E+00  0.0000E+00  0.0000E+00  0.0000E+00  0.0000E+00  0.0000E+00  0.0000E+00  0.0000E+00  0.0000E+00  0.0000E+00  0.0000E+00  0.0000E+00  0.0000E+00  0.0000E+00  0.0000E+00  0.0000E+00  0.0000E+00  0.0000E+00  0.0000E+00  0.0000E+00  0.0000E+00  0.0000E+00  0.0000E+00  0.0000E+00  0.0000E+00  0.0000E+00  0.0000E+00  0.0000E+00  0.0000E+00  0.0000E+00  0.0000E+00  0.0000E+00  0.0000E+00  0.0000E+00  0.0000E+00  0.0000E+00  0.0000E+00  0.0000E+00  0.0000E+00  0.0000E+00  0.0000E+00  0.0000E+00  0.0000E+00  0.0000E+00  0.0000E+00  0.0000E+00  0.0000E+00  0.0000E+00  0.0000E+00  0.0000E+00  0.0000E+00  0.0000E+00  0.0000E+00  0.0000E+00  0.0000E+00  0.0000E+00  0.0000E+00  0.0000E+00  0.0000E+00  0.0000E+00  0.0000E+00  0.0000E+00  0.0000E+00  0.0000E+00  0.0000E+00  0.0000E+00  0.0000E+00  0.0000E+00  0.0000E+00  0.0000E+00  0.0000E+00  0.0000E+00  0.0000E+00  0.0000E+00  0.0000E+00  0.0000E+00
  0.0000E+00  0.0000E+00  0.0000E+00  0.0000E+00  0.0000E+00  0.0000E+00  0.0000E+00  0.0000E+00  0.0000E+00  0.0000E+00  0.0000E+00  0.0000E+00  0.0000E+00  0.0000E+00  0.0000E+00  0.0000E+00  0.0000E+00  0.0000E+00  0.0000E+00  0.0000E+00  0.0000E+00  0.0000E+00  0.0000E+00  0.0000E+00  0.0000E+00  0.0000E+00  0.0000E+00  0.0000E+00  0.0000E+00  0.0000E+00  0.0000E+00  0.0000E+00  0.0000E+00  0.0000E+00  0.0000E+00  0.0000E+00  0.0000E+00  0.0000E+00  0.0000E+00  0.0000E+00  0.0000E+00  0.0000E+00  0.0000E+00  0.0000E+00  0.0000E+00  0.0000E+00  0.0000E+00  0.0000E+00  0.0000E+00  0.0000E+00  0.0000E+00  0.0000E+00  0.0000E+00  0.0000E+00  0.0000E+00  0.0000E+00  0.0000E+00  0.0000E+00  0.0000E+00  0.0000E+00  0.0000E+00  0.0000E+00  0.0000E+00  0.0000E+00  0.0000E+00  0.0000E+00  0.0000E+00  0.0000E+00  0.0000E+00  0.0000E+00  0.0000E+00  0.0000E+00  0.0000E+00  0.0000E+00  0.0000E+00  0.0000E+00  0.0000E+00  0.0000E+00  0.0000E+00
  0.0000E+00  0.0000E+00  0.0000E+00  0.0000E+00  0.0000E+00  0.0000E+00  0.0000E+00  0.0000E+00  0.0000E+00  0.0000E+00  0.0000E+00  0.0000E+00  0.0000E+00  0.0000E+00  0.0000E+00  0.0000E+00  0.0000E+00  0.0000E+00  0.0000E+00  0.0000E+00  0.0000E+00  0.0000E+00  0.0000E+00  0.0000E+00  0.0000E+00  0.0000E+00  0.0000E+00  0.0000E+00  0.0000E+00  0.0000E+00  0.0000E+00  0.0000E+00  0.0000E+00  0.0000E+00  0.0000E+00  0.0000E+00  0.0000E+00  0.0000E+00  0.0000E+00  0.0000E+00  0.0000E+00  0.0000E+00  0.0000E+00  0.0000E+00  0.0000E+00  0.0000E+00  0.0000E+00  0.0000E+00  0.0000E+00  0.0000E+00  0.0000E+00  0.0000E+00  0.0000E+00  0.0000E+00  0.0000E+00  0.0000E+00  0.0000E+00  0.0000E+00  0.0000E+00  0.0000E+00  0.0000E+00  0.0000E+00  0.0000E+00  0.0000E+00  0.0000E+00  0.0000E+00  0.0000E+00  0.0000E+00  0.0000E+00  0.0000E+00  0.0000E+00  0.0000E+00  0.0000E+00  0.0000E+00  0.0000E+00  0.0000E+00  0.0000E+00  0.0000E+00  0.0000E+00
  0.0000E+00  0.0000E+00  0.0000E+00  0.0000E+00  0.0000E+00  0.0000E+00  0.0000E+00  0.0000E+00  0.0000E+00  0.0000E+00  0.0000E+00  0.0000E+00  0.0000E+00  0.0000E+00  0.0000E+00  0.0000E+00  0.0000E+00  0.0000E+00  0.0000E+00  0.0000E+00  0.0000E+00  0.0000E+00  0.0000E+00  0.0000E+00  0.0000E+00  0.0000E+00  0.0000E+00  0.0000E+00  0.0000E+00  0.0000E+00  0.0000E+00  0.0000E+00  0.0000E+00  0.0000E+00  0.0000E+00  0.0000E+00  0.0000E+00  0.0000E+00  0.0000E+00  0.0000E+00  0.0000E+00  0.0000E+00  0.0000E+00  0.0000E+00  0.0000E+00  0.0000E+00  0.0000E+00  0.0000E+00  0.0000E+00  0.0000E+00  0.0000E+00  0.0000E+00  0.0000E+00  0.0000E+00  0.0000E+00  0.0000E+00  0.0000E+00  0.0000E+00  0.0000E+00  0.0000E+00  0.0000E+00  0.0000E+00  0.0000E+00  0.0000E+00  0.0000E+00  0.0000E+00  0.0000E+00  0.0000E+00  0.0000E+00  0.0000E+00  0.0000E+00  0.0000E+00  0.0000E+00  0.0000E+00  0.0000E+00  0.0000E+00  0.0000E+00  0.0000E+00  0.0000E+00
  0.0000E+00  0.0000E+00  0.0000E+00  0.0000E+00  0.0000E+00  0.0000E+00  0.0000E+00  0.0000E+00  0.0000E+00  0.0000E+00  0.0000E+00  0.0000E+00  0.0000E+00  0.0000E+00  0.0000E+00  0.0000E+00  0.0000E+00  0.0000E+00  0.0000E+00  0.0000E+00  0.0000E+00  0.0000E+00  0.0000E+00  0.0000E+00  0.0000E+00  0.0000E+00  0.0000E+00  0.0000E+00  0.0000E+00  0.0000E+00  0.0000E+00  0.0000E+00  0.0000E+00  0.0000E+00  0.0000E+00  0.0000E+00  0.0000E+00  0.0000E+00  0.0000E+00  0.0000E+00  0.0000E+00  0.0000E+00  0.0000E+00  0.0000E+00  0.0000E+00  0.0000E+00  0.0000E+00  0.0000E+00  0.0000E+00  0.0000E+00  0.0000E+00  0.0000E+00  0.0000E+00  0.0000E+00  0.0000E+00  0.0000E+00  0.0000E+00  0.0000E+00  0.0000E+00  0.0000E+00  0.0000E+00  0.0000E+00  0.0000E+00  0.0000E+00  0.0000E+00  0.0000E+00  0.0000E+00  0.0000E+00  0.0000E+00  0.0000E+00  0.0000E+00  0.0000E+00  0.0000E+00  0.0000E+00  0.0000E+00  0.0000E+00  0.0000E+00  0.0000E+00  0.0000E+00
  0.0000E+00  0.0000E+00  0.0000E+00  0.0000E+00  0.0000E+00  0.0000E+00  0.0000E+00  0.0000E+00  0.0000E+00  0.0000E+00  0.0000E+00  0.0000E+00  0.0000E+00  0.0000E+00  0.0000E+00  0.0000E+00  0.0000E+00  0.0000E+00  0.0000E+00  0.0000E+00  0.0000E+00  0.0000E+00  0.0000E+00  0.0000E+00  0.0000E+00  0.0000E+00  0.0000E+00  0.0000E+00  0.0000E+00  0.0000E+00  0.0000E+00  0.0000E+00  0.0000E+00  0.0000E+00  0.0000E+00  0.0000E+00  0.0000E+00  0.0000E+00  0.0000E+00  0.0000E+00  0.0000E+00  0.0000E+00  0.0000E+00  0.0000E+00  0.0000E+00  0.0000E+00  0.0000E+00  0.0000E+00  0.0000E+00  0.0000E+00  0.0000E+00  0.0000E+00  0.0000E+00  0.0000E+00  0.0000E+00  0.0000E+00  0.0000E+00  0.0000E+00  0.0000E+00  0.0000E+00  0.0000E+00  0.0000E+00  0.0000E+00  0.0000E+00  0.0000E+00  0.0000E+00  0.0000E+00  0.0000E+00  0.0000E+00  0.0000E+00  0.0000E+00  0.0000E+00  0.0000E+00  0.0000E+00  0.0000E+00  0.0000E+00  0.0000E+00  0.0000E+00  0.0000E+00
  0.0000E+00  0.0000E+00  0.0000E+00  0.0000E+00  0.0000E+00  0.0000E+00  0.0000E+00  0.0000E+00  0.0000E+00  0.0000E+00  0.0000E+00  0.0000E+00  0.0000E+00  0.0000E+00  0.0000E+00  0.0000E+00  0.0000E+00  0.0000E+00  0.0000E+00  0.0000E+00  0.0000E+00  0.0000E+00  0.0000E+00  0.0000E+00  0.0000E+00  0.0000E+00  0.0000E+00  0.0000E+00  0.0000E+00  0.0000E+00  0.0000E+00  0.0000E+00  0.0000E+00  0.0000E+00  0.0000E+00  0.0000E+00  0.0000E+00  0.0000E+00  0.0000E+00  0.0000E+00  0.0000E+00  0.0000E+00  0.0000E+00  0.0000E+00  0.0000E+00  0.0000E+00  0.0000E+00  0.0000E+00  0.0000E+00  0.0000E+00  0.0000E+00  0.0000E+00  0.0000E+00  0.0000E+00  0.0000E+00  0.0000E+00  0.0000E+00  0.0000E+00  0.0000E+00  0.0000E+00  0.0000E+00  0.0000E+00  0.0000E+00  0.0000E+00  0.0000E+00  0.0000E+00  0.0000E+00  0.0000E+00  0.0000E+00  0.0000E+00  0.0000E+00  0.0000E+00  0.0000E+00  0.0000E+00  0.0000E+00  0.0000E+00  0.0000E+00  0.0000E+00  0.0000E+00
  0.0000E+00  0.0000E+00  0.0000E+00  0.0000E+00  0.0000E+00  0.0000E+00  0.0000E+00  0.0000E+00  0.0000E+00  0.0000E+00  0.0000E+00  0.0000E+00  0.0000E+00  0.0000E+00  0.0000E+00  0.0000E+00  0.0000E+00  0.0000E+00  0.0000E+00  0.0000E+00  0.0000E+00  0.0000E+00  0.0000E+00  0.0000E+00  0.0000E+00  0.0000E+00  0.0000E+00  0.0000E+00  0.0000E+00  0.0000E+00  0.0000E+00  0.0000E+00  0.0000E+00  0.0000E+00  0.0000E+00  0.0000E+00  0.0000E+00  0.0000E+00  0.0000E+00  0.0000E+00  0.0000E+00  0.0000E+00  0.0000E+00  0.0000E+00  0.0000E+00  0.0000E+00  0.0000E+00  0.0000E+00  0.0000E+00  0.0000E+00  0.0000E+00  0.0000E+00  0.0000E+00  0.0000E+00  0.0000E+00  0.0000E+00  0.0000E+00  0.0000E+00  0.0000E+00  0.0000E+00  0.0000E+00  0.0000E+00  0.0000E+00  0.0000E+00  0.0000E+00  0.0000E+00  0.0000E+00  0.0000E+00  0.0000E+00  0.0000E+00  0.0000E+00  0.0000E+00  0.0000E+00  0.0000E+00  0.0000E+00  0.0000E+00  0.0000E+00  0.0000E+00  0.0000E+00
  0.0000E+00  0.0000E+00  0.0000E+00  0.0000E+00  0.0000E+00  0.0000E+00  0.0000E+00  0.0000E+00  0.0000E+00  0.0000E+00  0.0000E+00  0.0000E+00  0.0000E+00  0.0000E+00  0.0000E+00  0.0000E+00  0.0000E+00  0.0000E+00  0.0000E+00  0.0000E+00  0.0000E+00  0.0000E+00  0.0000E+00  0.0000E+00  0.0000E+00  0.0000E+00  0.0000E+00  0.0000E+00  0.0000E+00  0.0000E+00  0.0000E+00  0.0000E+00  0.0000E+00  0.0000E+00  0.0000E+00  0.0000E+00  0.0000E+00  0.0000E+00  0.0000E+00  0.0000E+00  0.0000E+00  0.0000E+00  0.0000E+00  0.0000E+00  0.0000E+00  0.0000E+00  0.0000E+00  0.0000E+00  0.0000E+00  0.0000E+00  0.0000E+00  0.0000E+00  0.0000E+00  0.0000E+00  0.0000E+00  0.0000E+00  0.0000E+00  0.0000E+00  0.0000E+00  0.0000E+00  0.0000E+00  0.0000E+00  0.0000E+00  0.0000E+00  0.0000E+00  0.0000E+00  0.0000E+00  0.0000E+00  0.0000E+00  0.0000E+00  0.0000E+00  0.0000E+00  0.0000E+00  0.0000E+00  0.0000E+00  0.0000E+00  0.0000E+00  0.0000E+00  0.0000E+00
  0.0000E+00  0.0000E+00  0.0000E+00  0.0000E+00  0.0000E+00  0.0000E+00  0.0000E+00  0.0000E+00  0.0000E+00  0.0000E+00  0.0000E+00  0.0000E+00  0.0000E+00  0.0000E+00  0.0000E+00  0.0000E+00  0.0000E+00  0.0000E+00  0.0000E+00  0.0000E+00  0.0000E+00  0.0000E+00  0.0000E+00  0.0000E+00  0.0000E+00  0.0000E+00  0.0000E+00  0.0000E+00  0.0000E+00  0.0000E+00  0.0000E+00  0.0000E+00  0.0000E+00  0.0000E+00  0.0000E+00  0.0000E+00  0.0000E+00  0.0000E+00  0.0000E+00  0.0000E+00  0.0000E+00  0.0000E+00  0.0000E+00  0.0000E+00  0.0000E+00  0.0000E+00  0.0000E+00  0.0000E+00  0.0000E+00  0.0000E+00  0.0000E+00  0.0000E+00  0.0000E+00  0.0000E+00  0.0000E+00  0.0000E+00  0.0000E+00  0.0000E+00  0.0000E+00  0.0000E+00  0.0000E+00  0.0000E+00  0.0000E+00  0.0000E+00  0.0000E+00  0.0000E+00  0.0000E+00  0.0000E+00  0.0000E+00  0.0000E+00  0.0000E+00  0.0000E+00  0.0000E+00  0.0000E+00  0.0000E+00  0.0000E+00  0.0000E+00  0.0000E+00  0.0000E+00
  0.0000E+00  0.0000E+00  0.0000E+00  0.0000E+00  0.0000E+00  0.0000E+00  0.0000E+00  0.0000E+00  0.1709E-08  0.8911E-08  0.1675E-07  0.2528E-07  0.3228E-07  0.4229E-07  0.5326E-07  0.5426E-07  0.5466E-07  0.5495E-07  0.5515E-07  0.5523E-07  0.5521E-07  0.5509E-07  0.5485E-07  0.5451E-07  0.4889E-07  0.4104E-07  0.3467E-07  0.2578E-07  0.1861E-07  0.8547E-08  0.4957E-09  0.0000E+00  0.0000E+00  0.0000E+00  0.0000E+00  0.0000E+00  0.0000E+00  0.0000E+00  0.0000E+00  0.0000E+00  0.0000E+00  0.0000E+00  0.0000E+00  0.0000E+00  0.0000E+00  0.0000E+00  0.0000E+00  0.0000E+00  0.0000E+00  0.0000E+00  0.0000E+00  0.0000E+00  0.0000E+00  0.0000E+00  0.0000E+00  0.0000E+00  0.0000E+00  0.0000E+00  0.0000E+00  0.0000E+00  0.0000E+00  0.0000E+00  0.0000E+00  0.0000E+00  0.0000E+00  0.0000E+00  0.0000E+00  0.0000E+00  0.0000E+00  0.0000E+00  0.0000E+00  0.0000E+00  0.0000E+00  0.0000E+00  0.0000E+00  0.0000E+00  0.0000E+00  0.0000E+00  0.0000E+00
  0.0000E+00  0.1709E-08  0.7103E-08  0.1292E-07  0.1921E-07  0.2599E-07  0.3332E-07  0.4124E-07  0.4981E-07  0.5679E-07  0.5787E-07  0.5886E-07  0.5975E-07  0.6054E-07  0.6175E-07  0.6234E-07  0.6280E-07  0.6315E-07  0.6338E-07  0.6349E-07  0.6347E-07  0.6333E-07  0.6307E-07  0.6269E-07  0.6219E-07  0.6157E-07  0.6083E-07  0.5999E-07  0.5905E-07  0.5800E-07  0.5687E-07  0.4870E-07  0.3761E-07  0.2842E-07  0.1872E-07  0.5923E-08  0.0000E+00  0.0000E+00  0.0000E+00  0.0000E+00  0.0000E+00  0.0000E+00  0.0000E+00  0.0000E+00  0.0000E+00  0.0000E+00  0.0000E+00  0.0000E+00  0.0000E+00  0.0000E+00  0.0000E+00  0.0000E+00  0.0000E+00  0.0000E+00  0.0000E+00  0.0000E+00  0.0000E+00  0.0000E+00  0.0000E+00  0.0000E+00  0.0000E+00  0.0000E+00  0.0000E+00  0.0000E+00  0.0000E+00  0.0000E+00  0.0000E+00  0.0000E+00  0.0000E+00  0.0000E+00  0.0000E+00  0.0000E+00  0.0000E+00  0.0000E+00  0.0000E+00  0.0000E+00  0.0000E+00  0.0000E+00  0.0000E+00
  0.2169E-07  0.2880E-07  0.3418E-07  0.4239E-07  0.5131E-07  0.5871E-07  0.6028E-07  0.6178E-07  0.6320E-07  0.6506E-07  0.6631E-07  0.6745E-07  0.6849E-07  0.6996E-07  0.7077E-07  0.7145E-07  0.7200E-07  0.7241E-07  0.7268E-07  0.7281E-07  0.7338E-07  0.7323E-07  0.7294E-07  0.7250E-07  0.7193E-07  0.7122E-07  0.7038E-07  0.6884E-07  0.6776E-07  0.6656E-07  0.6526E-07  0.6385E-07  0.6236E-07  0.6023E-07  0.5859E-07  0.5346E-07  0.4274E-07  0.3086E-07  0.1878E-07  0.5897E-08  0.0000E+00  0.0000E+00  0.0000E+00  0.0000E+00  0.0000E+00  0.0000E+00  0.0000E+00  0.0000E+00  0.0000E+00  0.0000E+00  0.0000E+00  0.0000E+00  0.0000E+00  0.0000E+00  0.0000E+00  0.0000E+00  0.0000E+00  0.0000E+00  0.0000E+00  0.0000E+00  0.0000E+00  0.0000E+00  0.0000E+00  0.0000E+00  0.0000E+00  0.0000E+00  0.0000E+00  0.0000E+00  0.0000E+00  0.0000E+00  0.0000E+00  0.0000E+00  0.0000E+00  0.0000E+00  0.0000E+00  0.0000E+00  0.0000E+00  0.0000E+00  0.0000E+00
  0.4622E-07  0.5300E-07  0.6080E-07  0.6278E-07  0.6471E-07  0.6709E-07  0.6891E-07  0.7063E-07  0.7282E-07  0.7437E-07  0.7581E-07  0.7714E-07  0.7891E-07  0.7999E-07  0.8093E-07  0.8172E-07  0.8236E-07  0.8284E-07  0.8378E-07  0.8395E-07  0.8395E-07  0.8379E-07  0.8347E-07  0.8298E-07  0.8233E-07  0.8152E-07  0.8056E-07  0.7946E-07  0.7821E-07  0.7623E-07  0.7474E-07  0.7313E-07  0.7141E-07  0.6960E-07  0.6712E-07  0.6516E-07  0.6313E-07  0.6104E-07  0.5838E-07  0.4749E-07  0.3608E-07  0.2132E-07  0.5923E-08  0.0000E+00  0.0000E+00  0.0000E+00  0.0000E+00  0.0000E+00  0.0000E+00  0.0000E+00  0.0000E+00  0.0000E+00  0.0000E+00  0.0000E+00  0.0000E+00  0.0000E+00  0.0000E+00  0.0000E+00  0.0000E+00  0.0000E+00  0.0000E+00  0.0000E+00  0.0000E+00  0.0000E+00  0.0000E+00  0.0000E+00  0.0000E+00  0.0000E+00  0.0000E+00  0.0000E+00  0.0000E+00  0.0000E+00  0.0000E+00  0.0000E+00  0.0000E+00  0.0000E+00  0.0000E+00  0.0000E+00  0.1049E-08
  0.6416E-07  0.6650E-07  0.6933E-07  0.7161E-07  0.7382E-07  0.7652E-07  0.7860E-07  0.8059E-07  0.8306E-07  0.8485E-07  0.8651E-07  0.8804E-07  0.9005E-07  0.9130E-07  0.9238E-07  0.9330E-07  0.9405E-07  0.9527E-07  0.9566E-07  0.9587E-07  0.9588E-07  0.9571E-07  0.9535E-07  0.9480E-07  0.9407E-07  0.9315E-07  0.9206E-07  0.9080E-07  0.8938E-07  0.8781E-07  0.8609E-07  0.8360E-07  0.8164E-07  0.7956E-07  0.7738E-07  0.7451E-07  0.7219E-07  0.6980E-07  0.6735E-07  0.6431E-07  0.6182E-07  0.5877E-07  0.4754E-07  0.3332E-07  0.1876E-07  0.4957E-09  0.0000E+00  0.0000E+00  0.0000E+00  0.0000E+00  0.0000E+00  0.0000E+00  0.0000E+00  0.0000E+00  0.0000E+00  0.0000E+00  0.0000E+00  0.0000E+00  0.0000E+00  0.0000E+00  0.0000E+00  0.0000E+00  0.0000E+00  0.0000E+00  0.0000E+00  0.0000E+00  0.0000E+00  0.0000E+00  0.0000E+00  0.0000E+00  0.0000E+00  0.0000E+00  0.0000E+00  0.0000E+00  0.5645E-09  0.1747E-08  0.3567E-08  0.4904E-08  0.5726E-08
  0.7299E-07  0.7568E-07  0.7887E-07  0.8148E-07  0.8402E-07  0.8706E-07  0.8945E-07  0.9174E-07  0.9452E-07  0.9658E-07  0.9850E-07  0.1009E-06  0.1025E-06  0.1040E-06  0.1052E-06  0.1063E-06  0.1079E-06  0.1085E-06  0.1090E-06  0.1093E-06  0.1093E-06  0.1091E-06  0.1087E-06  0.1081E-06  0.1073E-06  0.1062E-06  0.1050E-06  0.1036E-06  0.1019E-06  0.1001E-06  0.9819E-07  0.9607E-07  0.9313E-07  0.9076E-07  0.8827E-07  0.8568E-07  0.8236E-07  0.7962E-07  0.7683E-07  0.7338E-07  0.7053E-07  0.6766E-07  0.6422E-07  0.6137E-07  0.5629E-07  0.4287E-07  0.2609E-07  0.5917E-08  0.0000E+00  0.0000E+00  0.0000E+00  0.0000E+00  0.0000E+00  0.0000E+00  0.0000E+00  0.0000E+00  0.0000E+00  0.0000E+00  0.0000E+00  0.0000E+00  0.0000E+00  0.0000E+00  0.0000E+00  0.0000E+00  0.0000E+00  0.0000E+00  0.0000E+00  0.0000E+00  0.0000E+00  0.0000E+00  0.0000E+00  0.1209E-08  0.2532E-08  0.3962E-08  0.5489E-08  0.7104E-08  0.8796E-08  0.1055E-07  0.1236E-07
  0.8287E-07  0.8594E-07  0.8953E-07  0.9252E-07  0.9543E-07  0.9887E-07  0.1016E-06  0.1042E-06  0.1074E-06  0.1097E-06  0.1119E-06  0.1147E-06  0.1165E-06  0.1182E-06  0.1197E-06  0.1216E-06  0.1227E-06  0.1234E-06  0.1240E-06  0.1243E-06  0.1244E-06  0.1242E-06  0.1245E-06  0.1238E-06  0.1229E-06  0.1217E-06  0.1203E-06  0.1179E-06  0.1161E-06  0.1140E-06  0.1118E-06  0.1094E-06  0.1068E-06  0.1041E-06  0.1005E-06  0.9757E-07  0.9450E-07  0.9068E-07  0.8749E-07  0.8424E-07  0.8033E-07  0.7705E-07  0.7315E-07  0.6989E-07  0.6607E-07  0.6289E-07  0.5920E-07  0.4739E-07  0.2861E-07  0.8558E-08  0.0000E+00  0.0000E+00  0.0000E+00  0.0000E+00  0.0000E+00  0.0000E+00  0.0000E+00  0.0000E+00  0.0000E+00  0.0000E+00  0.0000E+00  0.0000E+00  0.0000E+00  0.0000E+00  0.0000E+00  0.0000E+00  0.0000E+00  0.0000E+00  0.6646E-09  0.2741E-08  0.4330E-08  0.6054E-08  0.8616E-08  0.1060E-07  0.1267E-07  0.1483E-07  0.1706E-07  0.1934E-07  0.2164E-07
  0.9386E-07  0.9736E-07  0.1014E-06  0.1048E-06  0.1081E-06  0.1120E-06  0.1152E-06  0.1182E-06  0.1217E-06  0.1244E-06  0.1270E-06  0.1300E-06  0.1322E-06  0.1341E-06  0.1365E-06  0.1380E-06  0.1392E-06  0.1401E-06  0.1408E-06  0.1412E-06  0.1421E-06  0.1419E-06  0.1414E-06  0.1407E-06  0.1396E-06  0.1383E-06  0.1367E-06  0.1349E-06  0.1328E-06  0.1304E-06  0.1271E-06  0.1243E-06  0.1214E-06  0.1183E-06  0.1150E-06  0.1109E-06  0.1074E-06  0.1038E-06  0.9943E-07  0.9572E-07  0.9129E-07  0.8755E-07  0.8379E-07  0.7942E-07  0.7572E-07  0.7147E-07  0.6788E-07  0.6380E-07  0.5982E-07  0.5134E-07  0.3079E-07  0.5921E-08  0.0000E+00  0.0000E+00  0.0000E+00  0.0000E+00  0.0000E+00  0.0000E+00  0.0000E+00  0.0000E+00  0.0000E+00  0.0000E+00  0.0000E+00  0.0000E+00  0.0000E+00  0.6966E-09  0.2211E-08  0.4629E-08  0.6544E-08  0.9405E-08  0.1168E-07  0.1410E-07  0.1746E-07  0.2015E-07  0.2292E-07  0.2576E-07  0.3285E-07  0.3420E-07  0.3807E-07
  0.1061E-06  0.1101E-06  0.1140E-06  0.1185E-06  0.1223E-06  0.1267E-06  0.1302E-06  0.1337E-06  0.1377E-06  0.1408E-06  0.1437E-06  0.1472E-06  0.1496E-06  0.1519E-06  0.1546E-06  0.1563E-06  0.1577E-06  0.1588E-06  0.1596E-06  0.1609E-06  0.1611E-06  0.1609E-06  0.1604E-06  0.1595E-06  0.1584E-06  0.1569E-06  0.1551E-06  0.1530E-06  0.1506E-06  0.1480E-06  0.1451E-06  0.1411E-06  0.1378E-06  0.1342E-06  0.1305E-06  0.1266E-06  0.1218E-06  0.1177E-06  0.1128E-06  0.1086E-06  0.1043E-06  0.9929E-07  0.9501E-07  0.9007E-07  0.8586E-07  0.8106E-07  0.7697E-07  0.7236E-07  0.6846E-07  0.6409E-07  0.5986E-07  0.5115E-07  0.2835E-07  0.4949E-09  0.0000E+00  0.0000E+00  0.0000E+00  0.0000E+00  0.0000E+00  0.0000E+00  0.0000E+00  0.0000E+00  0.0000E+00  0.1529E-08  0.4080E-08  0.6121E-08  0.9207E-08  0.1260E-07  0.1538E-07  0.1836E-07  0.2242E-07  0.2575E-07  0.2921E-07  0.3757E-07  0.3946E-07  0.4729E-07  0.4920E-07  0.5362E-07  0.5800E-07
  0.1196E-06  0.1242E-06  0.1286E-06  0.1337E-06  0.1380E-06  0.1430E-06  0.1471E-06  0.1510E-06  0.1555E-06  0.1591E-06  0.1632E-06  0.1663E-06  0.1692E-06  0.1717E-06  0.1749E-06  0.1768E-06  0.1784E-06  0.1797E-06  0.1816E-06  0.1822E-06  0.1824E-06  0.1822E-06  0.1816E-06  0.1807E-06  0.1794E-06  0.1778E-06  0.1757E-06  0.1734E-06  0.1707E-06  0.1677E-06  0.1644E-06  0.1609E-06  0.1570E-06  0.1521E-06  0.1479E-06  0.1434E-06  0.1380E-06  0.1334E-06  0.1286E-06  0.1230E-06  0.1181E-06  0.1124E-06  0.1076E-06  0.1027E-06  0.9719E-07  0.9176E-07  0.8788E-07  0.8347E-07  0.8066E-07  0.7584E-07  0.7339E-07  0.6890E-07  0.6627E-07  0.5572E-07  0.2824E-07  0.8930E-08  0.8945E-08  0.8916E-08  0.8844E-08  0.6983E-08  0.6855E-08  0.5905E-08  0.5425E-08  0.8708E-08  0.1145E-07  0.1541E-07  0.1975E-07  0.2342E-07  0.2834E-07  0.3250E-07  0.4218E-07  0.4481E-07  0.5420E-07  0.5693E-07  0.6562E-07  0.6818E-07  0.7320E-07  0.7809E-07  0.7993E-07
  0.1340E-06  0.1398E-06  0.1449E-06  0.1506E-06  0.1555E-06  0.1610E-06  0.1657E-06  0.1702E-06  0.1753E-06  0.1793E-06  0.1840E-06  0.1876E-06  0.1908E-06  0.1947E-06  0.1973E-06  0.1996E-06  0.2015E-06  0.2093E-06  0.2106E-06  0.2115E-06  0.2120E-06  0.2120E-06  0.2115E-06  0.2105E-06  0.2092E-06  0.2073E-06  0.2050E-06  0.2023E-06  0.1992E-06  0.1957E-06  0.1919E-06  0.1877E-06  0.1832E-06  0.1783E-06  0.1672E-06  0.1622E-06  0.1570E-06  0.1508E-06  0.1454E-06  0.1399E-06  0.1335E-06  0.1279E-06  0.1215E-06  0.1176E-06  0.1131E-06  0.1095E-06  0.1046E-06  0.9987E-07  0.9694E-07  0.9360E-07  0.8924E-07  0.8635E-07  0.8171E-07  0.7982E-07  0.7549E-07  0.5906E-07  0.2557E-07  0.1970E-07  0.1961E-07  0.1941E-07  0.1917E-07  0.1935E-07  0.1808E-07  0.1960E-07  0.2369E-07  0.2927E-07  0.3412E-07  0.4615E-07  0.4973E-07  0.6081E-07  0.6465E-07  0.7527E-07  0.7898E-07  0.8866E-07  0.9195E-07  0.9763E-07  0.1031E-06  0.1052E-06  0.1095E-06
  0.1505E-06  0.1571E-06  0.1628E-06  0.1692E-06  0.1748E-06  0.1811E-06  0.1864E-06  0.1914E-06  0.1972E-06  0.2018E-06  0.2071E-06  0.2112E-06  0.2150E-06  0.2247E-06  0.2281E-06  0.2310E-06  0.2335E-06  0.2421E-06  0.2438E-06  0.2451E-06  0.2458E-06  0.2459E-06  0.2455E-06  0.2446E-06  0.2431E-06  0.2410E-06  0.2384E-06  0.2353E-06  0.2316E-06  0.2275E-06  0.2230E-06  0.2180E-06  0.2063E-06  0.2009E-06  0.1952E-06  0.1892E-06  0.1830E-06  0.1766E-06  0.1641E-06  0.1579E-06  0.1522E-06  0.1476E-06  0.1423E-06  0.1381E-06  0.1333E-06  0.1287E-06  0.1245E-06  0.1203E-06  0.1166E-06  0.1132E-06  0.1098E-06  0.1059E-06  0.1033E-06  0.1005E-06  0.9718E-07  0.9706E-07  0.9764E-07  0.6715E-07  0.4148E-07  0.4137E-07  0.4157E-07  0.4237E-07  0.4380E-07  0.4596E-07  0.4907E-07  0.5358E-07  0.6636E-07  0.7165E-07  0.8444E-07  0.8974E-07  0.1018E-06  0.1067E-06  0.1175E-06  0.1216E-06  0.1280E-06  0.1340E-06  0.1365E-06  0.1410E-06  0.1451E-06
  0.1688E-06  0.1761E-06  0.1826E-06  0.1898E-06  0.1961E-06  0.2023E-06  0.2092E-06  0.2150E-06  0.2215E-06  0.2268E-06  0.2380E-06  0.2431E-06  0.2478E-06  0.2588E-06  0.2630E-06  0.2667E-06  0.2699E-06  0.2793E-06  0.2816E-06  0.2833E-06  0.2843E-06  0.2846E-06  0.2843E-06  0.2833E-06  0.2816E-06  0.2792E-06  0.2762E-06  0.2726E-06  0.2684E-06  0.2635E-06  0.2515E-06  0.2459E-06  0.2398E-06  0.2334E-06  0.2266E-06  0.2195E-06  0.2057E-06  0.2000E-06  0.1936E-06  0.1879E-06  0.1824E-06  0.1712E-06  0.1665E-06  0.1602E-06  0.1560E-06  0.1513E-06  0.1470E-06  0.1438E-06  0.1403E-06  0.1378E-06  0.1368E-06  0.1363E-06  0.1318E-06  0.1279E-06  0.1321E-06  0.1280E-06  0.1242E-06  0.1199E-06  0.1066E-06  0.6196E-07  0.6303E-07  0.6473E-07  0.6717E-07  0.7060E-07  0.7677E-07  0.8783E-07  0.9922E-07  0.1141E-06  0.1211E-06  0.1349E-06  0.1411E-06  0.1532E-06  0.1582E-06  0.1653E-06  0.1719E-06  0.1747E-06  0.1794E-06  0.1835E-06  0.1843E-06
  0.1889E-06  0.1970E-06  0.2044E-06  0.2116E-06  0.2196E-06  0.2266E-06  0.2344E-06  0.2409E-06  0.2537E-06  0.2603E-06  0.2731E-06  0.2794E-06  0.2852E-06  0.2976E-06  0.3028E-06  0.3075E-06  0.3115E-06  0.3218E-06  0.3247E-06  0.3268E-06  0.3282E-06  0.3287E-06  0.3284E-06  0.3273E-06  0.3254E-06  0.3227E-06  0.3192E-06  0.3149E-06  0.3099E-06  0.2976E-06  0.2915E-06  0.2848E-06  0.2776E-06  0.2700E-06  0.2619E-06  0.2485E-06  0.2419E-06  0.2352E-06  0.2286E-06  0.2158E-06  0.2099E-06  0.2043E-06  0.1989E-06  0.1879E-06  0.1826E-06  0.1779E-06  0.1746E-06  0.1738E-06  0.1726E-06  0.1683E-06  0.1724E-06  0.1681E-06  0.1645E-06  0.1691E-06  0.1651E-06  0.1609E-06  0.1570E-06  0.1524E-06  0.1482E-06  0.1448E-06  0.1049E-06  0.9426E-07  0.9813E-07  0.1058E-06  0.1196E-06  0.1336E-06  0.1509E-06  0.1601E-06  0.1758E-06  0.1836E-06  0.1971E-06  0.2031E-06  0.2110E-06  0.2181E-06  0.2212E-06  0.2259E-06  0.2299E-06  0.2303E-06  0.2323E-06
  0.2109E-06  0.2192E-06  0.2284E-06  0.2365E-06  0.2455E-06  0.2534E-06  0.2677E-06  0.2757E-06  0.2904E-06  0.2983E-06  0.3130E-06  0.3207E-06  0.3348E-06  0.3418E-06  0.3482E-06  0.3539E-06  0.3589E-06  0.3703E-06  0.3738E-06  0.3765E-06  0.3782E-06  0.3789E-06  0.3787E-06  0.3775E-06  0.3753E-06  0.3721E-06  0.3680E-06  0.3560E-06  0.3504E-06  0.3439E-06  0.3367E-06  0.3288E-06  0.3202E-06  0.3050E-06  0.2976E-06  0.2907E-06  0.2830E-06  0.2752E-06  0.2612E-06  0.2542E-06  0.2475E-06  0.2410E-06  0.2290E-06  0.2239E-06  0.2193E-06  0.2153E-06  0.2103E-06  0.2137E-06  0.2090E-06  0.2144E-06  0.2106E-06  0.2069E-06  0.2129E-06  0.2093E-06  0.2054E-06  0.2013E-06  0.1974E-06  0.1932E-06  0.1897E-06  0.1872E-06  0.1860E-06  0.1692E-06  0.1420E-06  0.1591E-06  0.1762E-06  0.1964E-06  0.2081E-06  0.2261E-06  0.2357E-06  0.2508E-06  0.2579E-06  0.2667E-06  0.2742E-06  0.2774E-06  0.2821E-06  0.2858E-06  0.2856E-06  0.2869E-06  0.2874E-06
  0.2351E-06  0.2444E-06  0.2546E-06  0.2638E-06  0.2794E-06  0.2889E-06  0.3053E-06  0.3218E-06  0.3318E-06  0.3485E-06  0.3583E-06  0.3676E-06  0.3836E-06  0.3920E-06  0.3998E-06  0.4068E-06  0.4129E-06  0.4180E-06  0.4297E-06  0.4329E-06  0.4350E-06  0.4360E-06  0.4358E-06  0.4344E-06  0.4318E-06  0.4209E-06  0.4163E-06  0.4106E-06  0.4039E-06  0.3962E-06  0.3876E-06  0.3783E-06  0.3629E-06  0.3544E-06  0.3464E-06  0.3375E-06  0.3285E-06  0.3131E-06  0.3048E-06  0.2968E-06  0.2824E-06  0.2769E-06  0.2707E-06  0.2712E-06  0.2627E-06  0.2618E-06  0.2661E-06  0.2566E-06  0.2619E-06  0.2598E-06  0.2614E-06  0.2631E-06  0.2612E-06  0.2581E-06  0.2546E-06  0.2548E-06  0.2561E-06  0.2529E-06  0.2462E-06  0.2404E-06  0.2400E-06  0.2455E-06  0.2611E-06  0.2282E-06  0.2519E-06  0.2666E-06  0.2873E-06  0.2989E-06  0.3157E-06  0.3240E-06  0.3336E-06  0.3416E-06  0.3448E-06  0.3492E-06  0.3524E-06  0.3513E-06  0.3516E-06  0.3509E-06  0.3467E-06
  0.2606E-06  0.2720E-06  0.2824E-06  0.2996E-06  0.3175E-06  0.3359E-06  0.3478E-06  0.3669E-06  0.3789E-06  0.3980E-06  0.4097E-06  0.4209E-06  0.4391E-06  0.4493E-06  0.4586E-06  0.4670E-06  0.4744E-06  0.4806E-06  0.4857E-06  0.4972E-06  0.4998E-06  0.4933E-06  0.4932E-06  0.4917E-06  0.4888E-06  0.4847E-06  0.4792E-06  0.4724E-06  0.4644E-06  0.4553E-06  0.4393E-06  0.4304E-06  0.4210E-06  0.4111E-06  0.4008E-06  0.3835E-06  0.3736E-06  0.3638E-06  0.3542E-06  0.3383E-06  0.3301E-06  0.3268E-06  0.3200E-06  0.3177E-06  0.3210E-06  0.3254E-06  0.3206E-06  0.3230E-06  0.3153E-06  0.3235E-06  0.3222E-06  0.3208E-06  0.3198E-06  0.3262E-06  0.3234E-06  0.3206E-06  0.3189E-06  0.3171E-06  0.3160E-06  0.3114E-06  0.3127E-06  0.3316E-06  0.3514E-06  0.3739E-06  0.3374E-06  0.3611E-06  0.3752E-06  0.3939E-06  0.4035E-06  0.4138E-06  0.4222E-06  0.4252E-06  0.4292E-06  0.4315E-06  0.4293E-06  0.4282E-06  0.4259E-06  0.4200E-06  0.4130E-06
  0.2893E-06  0.3075E-06  0.3267E-06  0.3466E-06  0.3605E-06  0.3816E-06  0.4031E-06  0.4178E-06  0.4321E-06  0.4540E-06  0.4681E-06  0.4814E-06  0.5021E-06  0.5142E-06  0.5254E-06  0.5355E-06  0.5443E-06  0.5518E-06  0.5579E-06  0.5630E-06  0.5665E-06  0.5680E-06  0.5684E-06  0.5671E-06  0.5637E-06  0.5588E-06  0.5522E-06  0.5442E-06  0.5347E-06  0.5176E-06  0.5074E-06  0.4968E-06  0.4856E-06  0.4740E-06  0.4551E-06  0.4436E-06  0.4332E-06  0.4219E-06  0.4043E-06  0.3945E-06  0.3916E-06  0.3840E-06  0.3855E-06  0.3886E-06  0.3822E-06  0.3887E-06  0.3919E-06  0.3851E-06  0.3944E-06  0.3953E-06  0.3902E-06  0.3902E-06  0.3995E-06  0.3984E-06  0.3972E-06  0.3962E-06  0.3964E-06  0.3964E-06  0.3970E-06  0.3987E-06  0.4153E-06  0.4395E-06  0.4624E-06  0.4829E-06  0.5046E-06  0.4660E-06  0.4869E-06  0.4978E-06  0.5090E-06  0.5176E-06  0.5202E-06  0.5235E-06  0.5247E-06  0.5209E-06  0.5180E-06  0.5138E-06  0.5055E-06  0.4961E-06  0.4906E-06
  0.3264E-06  0.3474E-06  0.3695E-06  0.3924E-06  0.4161E-06  0.4332E-06  0.4579E-06  0.4754E-06  0.5003E-06  0.5176E-06  0.5342E-06  0.5581E-06  0.5736E-06  0.5881E-06  0.6023E-06  0.6148E-06  0.6258E-06  0.6353E-06  0.6432E-06  0.6493E-06  0.6535E-06  0.6559E-06  0.6563E-06  0.6543E-06  0.6508E-06  0.6449E-06  0.6376E-06  0.6209E-06  0.6118E-06  0.6008E-06  0.5887E-06  0.5771E-06  0.5553E-06  0.5422E-06  0.5278E-06  0.5133E-06  0.4916E-06  0.4783E-06  0.4664E-06  0.4663E-06  0.4619E-06  0.4627E-06  0.4611E-06  0.4636E-06  0.4619E-06  0.4702E-06  0.4645E-06  0.4753E-06  0.4779E-06  0.4746E-06  0.4820E-06  0.4828E-06  0.4855E-06  0.4870E-06  0.4886E-06  0.4901E-06  0.4922E-06  0.4954E-06  0.5029E-06  0.5222E-06  0.5466E-06  0.5739E-06  0.5982E-06  0.6236E-06  0.6377E-06  0.6516E-06  0.6117E-06  0.6236E-06  0.6323E-06  0.6343E-06  0.6365E-06  0.6361E-06  0.6303E-06  0.6251E-06  0.6182E-06  0.6069E-06  0.5942E-06  0.5856E-06  0.5715E-06
  0.3748E-06  0.3992E-06  0.4247E-06  0.4440E-06  0.4713E-06  0.4915E-06  0.5200E-06  0.5406E-06  0.5693E-06  0.5897E-06  0.6099E-06  0.6377E-06  0.6570E-06  0.6753E-06  0.6916E-06  0.7065E-06  0.7202E-06  0.7315E-06  0.7408E-06  0.7481E-06  0.7531E-06  0.7559E-06  0.7564E-06  0.7553E-06  0.7518E-06  0.7447E-06  0.7283E-06  0.7206E-06  0.7097E-06  0.6974E-06  0.6831E-06  0.6607E-06  0.6458E-06  0.6277E-06  0.6112E-06  0.5874E-06  0.5712E-06  0.5598E-06  0.5559E-06  0.5441E-06  0.5473E-06  0.5530E-06  0.5510E-06  0.5497E-06  0.5588E-06  0.5549E-06  0.5684E-06  0.5673E-06  0.5729E-06  0.5883E-06  0.5880E-06  0.5935E-06  0.5986E-06  0.5982E-06  0.6030E-06  0.6079E-06  0.6123E-06  0.6230E-06  0.6449E-06  0.6740E-06  0.7067E-06  0.7355E-06  0.7602E-06  0.7805E-06  0.7965E-06  0.8079E-06  0.8147E-06  0.7759E-06  0.7682E-06  0.7688E-06  0.7664E-06  0.7580E-06  0.7496E-06  0.7393E-06  0.7246E-06  0.7086E-06  0.6963E-06  0.6782E-06  0.6595E-06
  0.4217E-06  0.4498E-06  0.4792E-06  0.5097E-06  0.5334E-06  0.5654E-06  0.5900E-06  0.6226E-06  0.6482E-06  0.6734E-06  0.6979E-06  0.7296E-06  0.7525E-06  0.7735E-06  0.7934E-06  0.8110E-06  0.8272E-06  0.8406E-06  0.8529E-06  0.8622E-06  0.8682E-06  0.8715E-06  0.8721E-06  0.8724E-06  0.8616E-06  0.8554E-06  0.8468E-06  0.8360E-06  0.8232E-06  0.8086E-06  0.7848E-06  0.7680E-06  0.7502E-06  0.7317E-06  0.7067E-06  0.6823E-06  0.6662E-06  0.6569E-06  0.6577E-06  0.6547E-06  0.6467E-06  0.6498E-06  0.6525E-06  0.6560E-06  0.6606E-06  0.6762E-06  0.6777E-06  0.6866E-06  0.7050E-06  0.7088E-06  0.7174E-06  0.7205E-06  0.7301E-06  0.7393E-06  0.7421E-06  0.7504E-06  0.7627E-06  0.7885E-06  0.8234E-06  0.8623E-06  0.8964E-06  0.9248E-06  0.9479E-06  0.9651E-06  0.9771E-06  0.9806E-06  0.9860E-06  0.9800E-06  0.9391E-06  0.9174E-06  0.9055E-06  0.8935E-06  0.8796E-06  0.8608E-06  0.8402E-06  0.8235E-06  0.8002E-06  0.7768E-06  0.7529E-06
  0.4818E-06  0.5066E-06  0.5405E-06  0.5756E-06  0.6035E-06  0.6408E-06  0.6707E-06  0.7088E-06  0.7390E-06  0.7686E-06  0.7976E-06  0.8345E-06  0.8609E-06  0.8862E-06  0.9097E-06  0.9318E-06  0.9509E-06  0.9667E-06  0.9797E-06  0.9956E-06  0.1002E-05  0.1005E-05  0.9998E-06  0.1000E-05  0.9956E-06  0.9882E-06  0.9780E-06  0.9652E-06  0.9417E-06  0.9251E-06  0.9067E-06  0.8868E-06  0.8577E-06  0.8378E-06  0.8164E-06  0.7918E-06  0.7804E-06  0.7810E-06  0.7808E-06  0.7691E-06  0.7680E-06  0.7724E-06  0.7747E-06  0.7816E-06  0.8001E-06  0.8033E-06  0.8161E-06  0.8345E-06  0.8482E-06  0.8640E-06  0.8707E-06  0.8844E-06  0.8913E-06  0.9048E-06  0.9174E-06  0.9281E-06  0.9577E-06  0.9970E-06  0.1038E-05  0.1083E-05  0.1117E-05  0.1143E-05  0.1162E-05  0.1175E-05  0.1177E-05  0.1181E-05  0.1172E-05  0.1163E-05  0.1148E-05  0.1094E-05  0.1061E-05  0.1042E-05  0.1018E-05  0.9925E-06  0.9704E-06  0.9422E-06  0.9132E-06  0.8837E-06  0.8573E-06
  0.5411E-06  0.5785E-06  0.6092E-06  0.6501E-06  0.6924E-06  0.7274E-06  0.7625E-06  0.8064E-06  0.8419E-06  0.8768E-06  0.9108E-06  0.9530E-06  0.9853E-06  0.1015E-05  0.1043E-05  0.1067E-05  0.1095E-05  0.1113E-05  0.1134E-05  0.1145E-05  0.1153E-05  0.1152E-05  0.1155E-05  0.1153E-05  0.1148E-05  0.1139E-05  0.1127E-05  0.1104E-05  0.1086E-05  0.1067E-05  0.1045E-05  0.1013E-05  0.9889E-06  0.9652E-06  0.9364E-06  0.9254E-06  0.9270E-06  0.9238E-06  0.9130E-06  0.9080E-06  0.9139E-06  0.9128E-06  0.9238E-06  0.9307E-06  0.9487E-06  0.9638E-06  0.9859E-06  0.1004E-05  0.1025E-05  0.1038E-05  0.1057E-05  0.1070E-05  0.1089E-05  0.1100E-05  0.1122E-05  0.1157E-05  0.1196E-05  0.1245E-05  0.1297E-05  0.1336E-05  0.1366E-05  0.1388E-05  0.1402E-05  0.1403E-05  0.1405E-05  0.1393E-05  0.1379E-05  0.1360E-05  0.1334E-05  0.1310E-05  0.1242E-05  0.1197E-05  0.1165E-05  0.1137E-05  0.1102E-05  0.1067E-05  0.1031E-05  0.9981E-06  0.9595E-06
  0.6075E-06  0.6509E-06  0.6967E-06  0.7350E-06  0.7838E-06  0.8247E-06  0.8659E-06  0.9170E-06  0.9587E-06  0.9996E-06  0.1040E-05  0.1079E-05  0.1125E-05  0.1163E-05  0.1197E-05  0.1229E-05  0.1257E-05  0.1282E-05  0.1303E-05  0.1307E-05  0.1317E-05  0.1328E-05  0.1330E-05  0.1328E-05  0.1322E-05  0.1302E-05  0.1288E-05  0.1271E-05  0.1250E-05  0.1227E-05  0.1192E-05  0.1165E-05  0.1137E-05  0.1099E-05  0.1089E-05  0.1091E-05  0.1072E-05  0.1070E-05  0.1066E-05  0.1059E-05  0.1065E-05  0.1081E-05  0.1090E-05  0.1111E-05  0.1129E-05  0.1156E-05  0.1182E-05  0.1199E-05  0.1225E-05  0.1251E-05  0.1271E-05  0.1297E-05  0.1315E-05  0.1342E-05  0.1376E-05  0.1428E-05  0.1485E-05  0.1542E-05  0.1583E-05  0.1623E-05  0.1647E-05  0.1661E-05  0.1662E-05  0.1661E-05  0.1645E-05  0.1626E-05  0.1602E-05  0.1569E-05  0.1538E-05  0.1498E-05  0.1452E-05  0.1373E-05  0.1325E-05  0.1283E-05  0.1240E-05  0.1197E-05  0.1157E-05  0.1111E-05  0.1067E-05
  0.6916E-06  0.7334E-06  0.7861E-06  0.8314E-06  0.8877E-06  0.9356E-06  0.9936E-06  0.1043E-05  0.1092E-05  0.1140E-05  0.1187E-05  0.1234E-05  0.1290E-05  0.1336E-05  0.1376E-05  0.1413E-05  0.1433E-05  0.1465E-05  0.1486E-05  0.1502E-05  0.1517E-05  0.1527E-05  0.1529E-05  0.1527E-05  0.1509E-05  0.1497E-05  0.1481E-05  0.1460E-05  0.1426E-05  0.1399E-05  0.1370E-05  0.1337E-05  0.1295E-05  0.1276E-05  0.1277E-05  0.1261E-05  0.1252E-05  0.1247E-05  0.1234E-05  0.1243E-05  0.1260E-05  0.1265E-05  0.1293E-05  0.1307E-05  0.1346E-05  0.1378E-05  0.1402E-05  0.1434E-05  0.1461E-05  0.1506E-05  0.1540E-05  0.1567E-05  0.1602E-05  0.1637E-05  0.1691E-05  0.1751E-05  0.1822E-05  0.1871E-05  0.1911E-05  0.1936E-05  0.1956E-05  0.1956E-05  0.1952E-05  0.1932E-05  0.1906E-05  0.1875E-05  0.1836E-05  0.1797E-05  0.1748E-05  0.1696E-05  0.1642E-05  0.1582E-05  0.1496E-05  0.1436E-05  0.1384E-05  0.1336E-05  0.1282E-05  0.1230E-05  0.1179E-05
  0.7772E-06  0.8353E-06  0.8866E-06  0.9493E-06  0.1004E-05  0.1060E-05  0.1127E-05  0.1185E-05  0.1241E-05  0.1297E-05  0.1357E-05  0.1415E-05  0.1469E-05  0.1519E-05  0.1569E-05  0.1609E-05  0.1650E-05  0.1681E-05  0.1705E-05  0.1727E-05  0.1743E-05  0.1752E-05  0.1745E-05  0.1741E-05  0.1732E-05  0.1718E-05  0.1698E-05  0.1665E-05  0.1636E-05  0.1604E-05  0.1569E-05  0.1522E-05  0.1503E-05  0.1491E-05  0.1471E-05  0.1461E-05  0.1456E-05  0.1443E-05  0.1447E-05  0.1458E-05  0.1469E-05  0.1498E-05  0.1516E-05  0.1559E-05  0.1596E-05  0.1627E-05  0.1669E-05  0.1716E-05  0.1763E-05  0.1808E-05  0.1845E-05  0.1889E-05  0.1939E-05  0.2008E-05  0.2064E-05  0.2143E-05  0.2196E-05  0.2248E-05  0.2269E-05  0.2291E-05  0.2289E-05  0.2282E-05  0.2256E-05  0.2223E-05  0.2185E-05  0.2135E-05  0.2087E-05  0.2028E-05  0.1966E-05  0.1902E-05  0.1842E-05  0.1775E-05  0.1690E-05  0.1598E-05  0.1535E-05  0.1472E-05  0.1411E-05  0.1351E-05  0.1293E-05
  0.8733E-06  0.9402E-06  0.9999E-06  0.1072E-05  0.1136E-05  0.1202E-05  0.1279E-05  0.1346E-05  0.1417E-05  0.1487E-05  0.1554E-05  0.1619E-05  0.1684E-05  0.1742E-05  0.1797E-05  0.1847E-05  0.1891E-05  0.1926E-05  0.1958E-05  0.1983E-05  0.1999E-05  0.1998E-05  0.2000E-05  0.1996E-05  0.1984E-05  0.1966E-05  0.1934E-05  0.1905E-05  0.1872E-05  0.1824E-05  0.1784E-05  0.1750E-05  0.1743E-05  0.1713E-05  0.1702E-05  0.1683E-05  0.1678E-05  0.1675E-05  0.1676E-05  0.1699E-05  0.1730E-05  0.1750E-05  0.1803E-05  0.1838E-05  0.1887E-05  0.1939E-05  0.1997E-05  0.2054E-05  0.2104E-05  0.2160E-05  0.2209E-05  0.2278E-05  0.2355E-05  0.2429E-05  0.2512E-05  0.2573E-05  0.2631E-05  0.2656E-05  0.2679E-05  0.2670E-05  0.2660E-05  0.2629E-05  0.2590E-05  0.2541E-05  0.2479E-05  0.2417E-05  0.2344E-05  0.2269E-05  0.2196E-05  0.2121E-05  0.2042E-05  0.1962E-05  0.1884E-05  0.1789E-05  0.1686E-05  0.1613E-05  0.1543E-05  0.1476E-05  0.1414E-05
  0.9910E-06  0.1058E-05  0.1127E-05  0.1210E-05  0.1285E-05  0.1361E-05  0.1449E-05  0.1531E-05  0.1614E-05  0.1696E-05  0.1777E-05  0.1856E-05  0.1925E-05  0.1996E-05  0.2056E-05  0.2116E-05  0.2164E-05  0.2204E-05  0.2244E-05  0.2259E-05  0.2278E-05  0.2288E-05  0.2290E-05  0.2284E-05  0.2259E-05  0.2238E-05  0.2210E-05  0.2176E-05  0.2126E-05  0.2081E-05  0.2033E-05  0.2016E-05  0.1997E-05  0.1979E-05  0.1955E-05  0.1944E-05  0.1940E-05  0.1939E-05  0.1961E-05  0.1993E-05  0.2025E-05  0.2077E-05  0.2126E-05  0.2179E-05  0.2241E-05  0.2300E-05  0.2366E-05  0.2426E-05  0.2494E-05  0.2555E-05  0.2635E-05  0.2715E-05  0.2811E-05  0.2902E-05  0.2974E-05  0.3042E-05  0.3074E-05  0.3101E-05  0.3094E-05  0.3084E-05  0.3045E-05  0.3001E-05  0.2945E-05  0.2873E-05  0.2799E-05  0.2711E-05  0.2620E-05  0.2529E-05  0.2437E-05  0.2341E-05  0.2246E-05  0.2154E-05  0.2067E-05  0.1971E-05  0.1860E-05  0.1756E-05  0.1677E-05  0.1605E-05  0.1527E-05
  0.1113E-05  0.1190E-05  0.1282E-05  0.1366E-05  0.1453E-05  0.1554E-05  0.1649E-05  0.1748E-05  0.1845E-05  0.1940E-05  0.2030E-05  0.2118E-05  0.2205E-05  0.2280E-05  0.2356E-05  0.2418E-05  0.2473E-05  0.2522E-05  0.2553E-05  0.2583E-05  0.2603E-05  0.2615E-05  0.2616E-05  0.2597E-05  0.2581E-05  0.2555E-05  0.2521E-05  0.2470E-05  0.2424E-05  0.2371E-05  0.2332E-05  0.2321E-05  0.2293E-05  0.2266E-05  0.2254E-05  0.2248E-05  0.2246E-05  0.2274E-05  0.2298E-05  0.2336E-05  0.2383E-05  0.2431E-05  0.2486E-05  0.2546E-05  0.2623E-05  0.2699E-05  0.2771E-05  0.2852E-05  0.2930E-05  0.3021E-05  0.3117E-05  0.3222E-05  0.3318E-05  0.3410E-05  0.3482E-05  0.3528E-05  0.3552E-05  0.3552E-05  0.3540E-05  0.3496E-05  0.3445E-05  0.3376E-05  0.3296E-05  0.3214E-05  0.3116E-05  0.3013E-05  0.2910E-05  0.2802E-05  0.2689E-05  0.2574E-05  0.2464E-05  0.2356E-05  0.2248E-05  0.2145E-05  0.2032E-05  0.1919E-05  0.1816E-05  0.1727E-05  0.1643E-05
  0.1249E-05  0.1339E-05  0.1444E-05  0.1541E-05  0.1644E-05  0.1766E-05  0.1880E-05  0.1991E-05  0.2103E-05  0.2210E-05  0.2318E-05  0.2419E-05  0.2515E-05  0.2605E-05  0.2688E-05  0.2760E-05  0.2814E-05  0.2871E-05  0.2915E-05  0.2948E-05  0.2971E-05  0.2970E-05  0.2971E-05  0.2961E-05  0.2939E-05  0.2897E-05  0.2858E-05  0.2810E-05  0.2754E-05  0.2682E-05  0.2686E-05  0.2654E-05  0.2619E-05  0.2600E-05  0.2591E-05  0.2603E-05  0.2620E-05  0.2632E-05  0.2670E-05  0.2703E-05  0.2766E-05  0.2825E-05  0.2891E-05  0.2975E-05  0.3053E-05  0.3146E-05  0.3240E-05  0.3333E-05  0.3442E-05  0.3549E-05  0.3668E-05  0.3777E-05  0.3883E-05  0.3963E-05  0.4023E-05  0.4053E-05  0.4054E-05  0.4034E-05  0.3991E-05  0.3927E-05  0.3854E-05  0.3757E-05  0.3662E-05  0.3552E-05  0.3432E-05  0.3314E-05  0.3193E-05  0.3067E-05  0.2941E-05  0.2819E-05  0.2694E-05  0.2566E-05  0.2439E-05  0.2318E-05  0.2208E-05  0.2082E-05  0.1959E-05  0.1851E-05  0.1759E-05
  0.1402E-05  0.1517E-05  0.1626E-05  0.1741E-05  0.1868E-05  0.2009E-05  0.2137E-05  0.2266E-05  0.2394E-05  0.2518E-05  0.2639E-05  0.2758E-05  0.2865E-05  0.2972E-05  0.3063E-05  0.3133E-05  0.3211E-05  0.3273E-05  0.3322E-05  0.3359E-05  0.3372E-05  0.3383E-05  0.3382E-05  0.3368E-05  0.3331E-05  0.3294E-05  0.3247E-05  0.3179E-05  0.3114E-05  0.3094E-05  0.3063E-05  0.3028E-05  0.3015E-05  0.3004E-05  0.2999E-05  0.3000E-05  0.3013E-05  0.3046E-05  0.3076E-05  0.3138E-05  0.3198E-05  0.3268E-05  0.3358E-05  0.3444E-05  0.3548E-05  0.3651E-05  0.3764E-05  0.3882E-05  0.4013E-05  0.4146E-05  0.4271E-05  0.4391E-05  0.4486E-05  0.4557E-05  0.4594E-05  0.4599E-05  0.4578E-05  0.4531E-05  0.4459E-05  0.4376E-05  0.4267E-05  0.4159E-05  0.4028E-05  0.3894E-05  0.3756E-05  0.3617E-05  0.3473E-05  0.3329E-05  0.3192E-05  0.3049E-05  0.2910E-05  0.2773E-05  0.2638E-05  0.2509E-05  0.2377E-05  0.2240E-05  0.2105E-05  0.1981E-05  0.1874E-05
  0.1573E-05  0.1705E-05  0.1833E-05  0.1975E-05  0.2119E-05  0.2281E-05  0.2428E-05  0.2577E-05  0.2721E-05  0.2867E-05  0.3006E-05  0.3139E-05  0.3265E-05  0.3382E-05  0.3474E-05  0.3574E-05  0.3655E-05  0.3724E-05  0.3778E-05  0.3807E-05  0.3833E-05  0.3844E-05  0.3840E-05  0.3811E-05  0.3779E-05  0.3734E-05  0.3667E-05  0.3600E-05  0.3528E-05  0.3525E-05  0.3503E-05  0.3487E-05  0.3455E-05  0.3446E-05  0.3428E-05  0.3442E-05  0.3464E-05  0.3493E-05  0.3552E-05  0.3602E-05  0.3681E-05  0.3775E-05  0.3868E-05  0.3982E-05  0.4098E-05  0.4228E-05  0.4360E-05  0.4508E-05  0.4651E-05  0.4799E-05  0.4928E-05  0.5047E-05  0.5124E-05  0.5173E-05  0.5180E-05  0.5167E-05  0.5109E-05  0.5038E-05  0.4938E-05  0.4823E-05  0.4694E-05  0.4552E-05  0.4396E-05  0.4242E-05  0.4082E-05  0.3919E-05  0.3755E-05  0.3598E-05  0.3436E-05  0.3277E-05  0.3122E-05  0.2969E-05  0.2829E-05  0.2688E-05  0.2553E-05  0.2414E-05  0.2260E-05  0.2120E-05  0.1990E-05
  0.1778E-05  0.1919E-05  0.2076E-05  0.2240E-05  0.2406E-05  0.2587E-05  0.2757E-05  0.2927E-05  0.3097E-05  0.3257E-05  0.3418E-05  0.3570E-05  0.3701E-05  0.3831E-05  0.3952E-05  0.4061E-05  0.4153E-05  0.4229E-05  0.4278E-05  0.4322E-05  0.4349E-05  0.4359E-05  0.4340E-05  0.4317E-05  0.4278E-05  0.4213E-05  0.4147E-05  0.4069E-05  0.4048E-05  0.4043E-05  0.3992E-05  0.3966E-05  0.3947E-05  0.3925E-05  0.3921E-05  0.3936E-05  0.3960E-05  0.4012E-05  0.4057E-05  0.4134E-05  0.4219E-05  0.4326E-05  0.4449E-05  0.4573E-05  0.4729E-05  0.4878E-05  0.5044E-05  0.5199E-05  0.5359E-05  0.5505E-05  0.5643E-05  0.5736E-05  0.5796E-05  0.5810E-05  0.5795E-05  0.5739E-05  0.5662E-05  0.5552E-05  0.5424E-05  0.5280E-05  0.5122E-05  0.4946E-05  0.4773E-05  0.4590E-05  0.4403E-05  0.4218E-05  0.4041E-05  0.3858E-05  0.3678E-05  0.3503E-05  0.3331E-05  0.3171E-05  0.3012E-05  0.2859E-05  0.2710E-05  0.2565E-05  0.2423E-05  0.2268E-05  0.2118E-05
  0.1997E-05  0.2169E-05  0.2350E-05  0.2535E-05  0.2727E-05  0.2933E-05  0.3127E-05  0.3323E-05  0.3513E-05  0.3702E-05  0.3866E-05  0.4042E-05  0.4201E-05  0.4351E-05  0.4488E-05  0.4605E-05  0.4695E-05  0.4780E-05  0.4846E-05  0.4893E-05  0.4912E-05  0.4917E-05  0.4906E-05  0.4876E-05  0.4817E-05  0.4754E-05  0.4665E-05  0.4613E-05  0.4626E-05  0.4574E-05  0.4538E-05  0.4511E-05  0.4477E-05  0.4460E-05  0.4459E-05  0.4481E-05  0.4518E-05  0.4560E-05  0.4631E-05  0.4714E-05  0.4821E-05  0.4940E-05  0.5086E-05  0.5241E-05  0.5413E-05  0.5598E-05  0.5778E-05  0.5962E-05  0.6121E-05  0.6265E-05  0.6383E-05  0.6457E-05  0.6481E-05  0.6469E-05  0.6414E-05  0.6331E-05  0.6213E-05  0.6072E-05  0.5913E-05  0.5736E-05  0.5542E-05  0.5352E-05  0.5143E-05  0.4928E-05  0.4722E-05  0.4522E-05  0.4316E-05  0.4115E-05  0.3917E-05  0.3724E-05  0.3543E-05  0.3364E-05  0.3193E-05  0.3025E-05  0.2862E-05  0.2709E-05  0.2559E-05  0.2403E-05  0.2259E-05
  0.2253E-05  0.2452E-05  0.2660E-05  0.2873E-05  0.3089E-05  0.3309E-05  0.3532E-05  0.3754E-05  0.3971E-05  0.4183E-05  0.4388E-05  0.4585E-05  0.4765E-05  0.4937E-05  0.5085E-05  0.5202E-05  0.5316E-05  0.5409E-05  0.5484E-05  0.5521E-05  0.5549E-05  0.5554E-05  0.5521E-05  0.5486E-05  0.5433E-05  0.5360E-05  0.5285E-05  0.5278E-05  0.5232E-05  0.5186E-05  0.5131E-05  0.5104E-05  0.5080E-05  0.5057E-05  0.5068E-05  0.5071E-05  0.5117E-05  0.5173E-05  0.5255E-05  0.5358E-05  0.5477E-05  0.5638E-05  0.5792E-05  0.5979E-05  0.6172E-05  0.6380E-05  0.6576E-05  0.6769E-05  0.6925E-05  0.7066E-05  0.7149E-05  0.7192E-05  0.7179E-05  0.7132E-05  0.7038E-05  0.6920E-05  0.6760E-05  0.6593E-05  0.6392E-05  0.6184E-05  0.5966E-05  0.5741E-05  0.5505E-05  0.5271E-05  0.5042E-05  0.4813E-05  0.4587E-05  0.4367E-05  0.4150E-05  0.3948E-05  0.3747E-05  0.3555E-05  0.3368E-05  0.3186E-05  0.3014E-05  0.2850E-05  0.2690E-05  0.2532E-05  0.2378E-05
  0.2542E-05  0.2770E-05  0.3008E-05  0.3249E-05  0.3500E-05  0.3754E-05  0.4015E-05  0.4276E-05  0.4537E-05  0.4786E-05  0.5021E-05  0.5241E-05  0.5446E-05  0.5619E-05  0.5785E-05  0.5931E-05  0.6047E-05  0.6139E-05  0.6198E-05  0.6245E-05  0.6264E-05  0.6245E-05  0.6222E-05  0.6182E-05  0.6117E-05  0.6036E-05  0.5940E-05  0.5954E-05  0.5904E-05  0.5841E-05  0.5794E-05  0.5758E-05  0.5717E-05  0.5711E-05  0.5703E-05  0.5733E-05  0.5764E-05  0.5845E-05  0.5939E-05  0.6055E-05  0.6215E-05  0.6376E-05  0.6572E-05  0.6782E-05  0.7009E-05  0.7225E-05  0.7439E-05  0.7622E-05  0.7780E-05  0.7885E-05  0.7944E-05  0.7941E-05  0.7897E-05  0.7797E-05  0.7676E-05  0.7506E-05  0.7324E-05  0.7105E-05  0.6877E-05  0.6637E-05  0.6387E-05  0.6125E-05  0.5861E-05  0.5609E-05  0.5347E-05  0.5097E-05  0.4852E-05  0.4614E-05  0.4386E-05  0.4162E-05  0.3947E-05  0.3739E-05  0.3536E-05  0.3344E-05  0.3162E-05  0.2984E-05  0.2814E-05  0.2656E-05  0.2490E-05
  0.2868E-05  0.3129E-05  0.3402E-05  0.3696E-05  0.4002E-05  0.4313E-05  0.4613E-05  0.4914E-05  0.5204E-05  0.5495E-05  0.5754E-05  0.6001E-05  0.6219E-05  0.6424E-05  0.6601E-05  0.6760E-05  0.6875E-05  0.6988E-05  0.7052E-05  0.7099E-05  0.7091E-05  0.7074E-05  0.7030E-05  0.6943E-05  0.6863E-05  0.6757E-05  0.6712E-05  0.6704E-05  0.6629E-05  0.6570E-05  0.6504E-05  0.6458E-05  0.6427E-05  0.6405E-05  0.6415E-05  0.6427E-05  0.6491E-05  0.6566E-05  0.6678E-05  0.6825E-05  0.6995E-05  0.7198E-05  0.7420E-05  0.7665E-05  0.7902E-05  0.8140E-05  0.8347E-05  0.8527E-05  0.8647E-05  0.8732E-05  0.8742E-05  0.8705E-05  0.8605E-05  0.8479E-05  0.8300E-05  0.8097E-05  0.7868E-05  0.7612E-05  0.7356E-05  0.7075E-05  0.6793E-05  0.6502E-05  0.6223E-05  0.5934E-05  0.5657E-05  0.5378E-05  0.5115E-05  0.4860E-05  0.4609E-05  0.4371E-05  0.4139E-05  0.3914E-05  0.3701E-05  0.3499E-05  0.3302E-05  0.3118E-05  0.2943E-05  0.2768E-05  0.2605E-05
  0.3245E-05  0.3595E-05  0.3927E-05  0.4267E-05  0.4631E-05  0.4976E-05  0.5319E-05  0.5665E-05  0.5992E-05  0.6295E-05  0.6565E-05  0.6846E-05  0.7102E-05  0.7335E-05  0.7538E-05  0.7699E-05  0.7841E-05  0.7942E-05  0.8006E-05  0.8032E-05  0.8035E-05  0.7982E-05  0.7921E-05  0.7830E-05  0.7711E-05  0.7576E-05  0.7570E-05  0.7504E-05  0.7430E-05  0.7344E-05  0.7282E-05  0.7216E-05  0.7181E-05  0.7160E-05  0.7155E-05  0.7197E-05  0.7253E-05  0.7351E-05  0.7487E-05  0.7652E-05  0.7846E-05  0.8087E-05  0.8337E-05  0.8608E-05  0.8855E-05  0.9096E-05  0.9293E-05  0.9447E-05  0.9541E-05  0.9572E-05  0.9543E-05  0.9455E-05  0.9319E-05  0.9138E-05  0.8923E-05  0.8678E-05  0.8401E-05  0.8123E-05  0.7817E-05  0.7509E-05  0.7190E-05  0.6876E-05  0.6564E-05  0.6252E-05  0.5950E-05  0.5657E-05  0.5371E-05  0.5095E-05  0.4828E-05  0.4573E-05  0.4322E-05  0.4087E-05  0.3862E-05  0.3645E-05  0.3441E-05  0.3247E-05  0.3054E-05  0.2879E-05  0.2714E-05
  0.3764E-05  0.4146E-05  0.4533E-05  0.4940E-05  0.5344E-05  0.5750E-05  0.6150E-05  0.6547E-05  0.6919E-05  0.7272E-05  0.7606E-05  0.7921E-05  0.8188E-05  0.8394E-05  0.8581E-05  0.8757E-05  0.8905E-05  0.8994E-05  0.9057E-05  0.9083E-05  0.9055E-05  0.9004E-05  0.8919E-05  0.8796E-05  0.8661E-05  0.8550E-05  0.8513E-05  0.8399E-05  0.8272E-05  0.8181E-05  0.8096E-05  0.8033E-05  0.7973E-05  0.7957E-05  0.7971E-05  0.8002E-05  0.8081E-05  0.8198E-05  0.8351E-05  0.8541E-05  0.8784E-05  0.9051E-05  0.9334E-05  0.9608E-05  0.9869E-05  0.1009E-04  0.1028E-04  0.1039E-04  0.1044E-04  0.1042E-04  0.1034E-04  0.1021E-04  0.1002E-04  0.9797E-05  0.9528E-05  0.9240E-05  0.8931E-05  0.8606E-05  0.8266E-05  0.7925E-05  0.7581E-05  0.7239E-05  0.6900E-05  0.6572E-05  0.6243E-05  0.5925E-05  0.5625E-05  0.5332E-05  0.5049E-05  0.4783E-05  0.4511E-05  0.4253E-05  0.4013E-05  0.3789E-05  0.3574E-05  0.3362E-05  0.3176E-05  0.2987E-05  0.2810E-05
  0.4348E-05  0.4794E-05  0.5237E-05  0.5711E-05  0.6187E-05  0.6636E-05  0.7108E-05  0.7563E-05  0.8001E-05  0.8412E-05  0.8801E-05  0.9168E-05  0.9468E-05  0.9727E-05  0.9945E-05  0.1010E-04  0.1009E-04  0.1020E-04  0.1025E-04  0.1025E-04  0.1021E-04  0.1012E-04  0.1001E-04  0.9869E-05  0.9683E-05  0.9618E-05  0.9516E-05  0.9366E-05  0.9234E-05  0.9071E-05  0.8973E-05  0.8888E-05  0.8841E-05  0.8806E-05  0.8824E-05  0.8862E-05  0.8967E-05  0.9089E-05  0.9276E-05  0.9521E-05  0.9790E-05  0.1009E-04  0.1038E-04  0.1067E-04  0.1092E-04  0.1112E-04  0.1128E-04  0.1133E-04  0.1134E-04  0.1126E-04  0.1114E-04  0.1094E-04  0.1071E-04  0.1043E-04  0.1013E-04  0.9795E-05  0.9447E-05  0.9083E-05  0.8717E-05  0.8337E-05  0.7964E-05  0.7597E-05  0.7228E-05  0.6881E-05  0.6530E-05  0.6196E-05  0.5875E-05  0.5563E-05  0.5265E-05  0.4987E-05  0.4714E-05  0.4432E-05  0.4164E-05  0.3927E-05  0.3700E-05  0.3488E-05  0.3281E-05  0.3087E-05  0.2907E-05
  0.5021E-05  0.5518E-05  0.6048E-05  0.6590E-05  0.7120E-05  0.7680E-05  0.8231E-05  0.8764E-05  0.9259E-05  0.9732E-05  0.1018E-04  0.1056E-04  0.1090E-04  0.1119E-04  0.1144E-04  0.1161E-04  0.1173E-04  0.1176E-04  0.1171E-04  0.1153E-04  0.1147E-04  0.1137E-04  0.1124E-04  0.1102E-04  0.1082E-04  0.1074E-04  0.1059E-04  0.1041E-04  0.1023E-04  0.1007E-04  0.9918E-05  0.9809E-05  0.9730E-05  0.9719E-05  0.9725E-05  0.9798E-05  0.9895E-05  0.1006E-04  0.1028E-04  0.1056E-04  0.1087E-04  0.1119E-04  0.1148E-04  0.1176E-04  0.1199E-04  0.1218E-04  0.1227E-04  0.1229E-04  0.1222E-04  0.1211E-04  0.1191E-04  0.1167E-04  0.1138E-04  0.1106E-04  0.1071E-04  0.1033E-04  0.9950E-05  0.9547E-05  0.9151E-05  0.8740E-05  0.8345E-05  0.7947E-05  0.7560E-05  0.7184E-05  0.6812E-05  0.6460E-05  0.6120E-05  0.5792E-05  0.5480E-05  0.5187E-05  0.4902E-05  0.4630E-05  0.4342E-05  0.4059E-05  0.3824E-05  0.3597E-05  0.3384E-05  0.3186E-05  0.3000E-05
  0.5780E-05  0.6372E-05  0.6972E-05  0.7621E-05  0.8260E-05  0.8913E-05  0.9531E-05  0.1014E-04  0.1072E-04  0.1128E-04  0.1177E-04  0.1221E-04  0.1259E-04  0.1291E-04  0.1315E-04  0.1334E-04  0.1344E-04  0.1348E-04  0.1346E-04  0.1333E-04  0.1312E-04  0.1285E-04  0.1251E-04  0.1228E-04  0.1213E-04  0.1194E-04  0.1174E-04  0.1152E-04  0.1132E-04  0.1110E-04  0.1094E-04  0.1080E-04  0.1073E-04  0.1067E-04  0.1071E-04  0.1077E-04  0.1091E-04  0.1110E-04  0.1139E-04  0.1169E-04  0.1202E-04  0.1234E-04  0.1264E-04  0.1289E-04  0.1310E-04  0.1322E-04  0.1327E-04  0.1322E-04  0.1310E-04  0.1292E-04  0.1268E-04  0.1238E-04  0.1204E-04  0.1167E-04  0.1128E-04  0.1087E-04  0.1045E-04  0.1001E-04  0.9575E-05  0.9140E-05  0.8712E-05  0.8294E-05  0.7883E-05  0.7486E-05  0.7100E-05  0.6723E-05  0.6365E-05  0.6023E-05  0.5695E-05  0.5388E-05  0.5091E-05  0.4807E-05  0.4541E-05  0.4235E-05  0.3940E-05  0.3702E-05  0.3486E-05  0.3282E-05  0.3085E-05
  0.6660E-05  0.7353E-05  0.8064E-05  0.8782E-05  0.9561E-05  0.1029E-04  0.1105E-04  0.1173E-04  0.1243E-04  0.1305E-04  0.1362E-04  0.1411E-04  0.1454E-04  0.1490E-04  0.1515E-04  0.1535E-04  0.1543E-04  0.1546E-04  0.1535E-04  0.1523E-04  0.1499E-04  0.1466E-04  0.1430E-04  0.1386E-04  0.1350E-04  0.1322E-04  0.1299E-04  0.1269E-04  0.1245E-04  0.1222E-04  0.1204E-04  0.1189E-04  0.1180E-04  0.1177E-04  0.1178E-04  0.1186E-04  0.1202E-04  0.1226E-04  0.1256E-04  0.1288E-04  0.1321E-04  0.1353E-04  0.1381E-04  0.1404E-04  0.1420E-04  0.1427E-04  0.1425E-04  0.1415E-04  0.1397E-04  0.1372E-04  0.1343E-04  0.1308E-04  0.1269E-04  0.1228E-04  0.1184E-04  0.1139E-04  0.1093E-04  0.1047E-04  0.9996E-05  0.9543E-05  0.9082E-05  0.8639E-05  0.8206E-05  0.7784E-05  0.7383E-05  0.6984E-05  0.6621E-05  0.6256E-05  0.5910E-05  0.5591E-05  0.5280E-05  0.4983E-05  0.4708E-05  0.4446E-05  0.4121E-05  0.3813E-05  0.3585E-05  0.3369E-05  0.3156E-05
  0.7629E-05  0.8428E-05  0.9279E-05  0.1016E-04  0.1103E-04  0.1193E-04  0.1277E-04  0.1363E-04  0.1439E-04  0.1511E-04  0.1577E-04  0.1635E-04  0.1681E-04  0.1721E-04  0.1750E-04  0.1767E-04  0.1776E-04  0.1772E-04  0.1759E-04  0.1740E-04  0.1711E-04  0.1669E-04  0.1625E-04  0.1585E-04  0.1542E-04  0.1502E-04  0.1455E-04  0.1407E-04  0.1376E-04  0.1346E-04  0.1324E-04  0.1307E-04  0.1296E-04  0.1292E-04  0.1294E-04  0.1307E-04  0.1326E-04  0.1353E-04  0.1384E-04  0.1417E-04  0.1448E-04  0.1479E-04  0.1503E-04  0.1521E-04  0.1530E-04  0.1530E-04  0.1522E-04  0.1505E-04  0.1481E-04  0.1451E-04  0.1416E-04  0.1376E-04  0.1333E-04  0.1288E-04  0.1240E-04  0.1191E-04  0.1141E-04  0.1093E-04  0.1042E-04  0.9942E-05  0.9455E-05  0.8990E-05  0.8534E-05  0.8086E-05  0.7671E-05  0.7256E-05  0.6867E-05  0.6493E-05  0.6132E-05  0.5798E-05  0.5472E-05  0.5164E-05  0.4874E-05  0.4601E-05  0.4319E-05  0.3984E-05  0.3678E-05  0.3443E-05  0.3237E-05
  0.8727E-05  0.9715E-05  0.1072E-04  0.1175E-04  0.1279E-04  0.1380E-04  0.1484E-04  0.1581E-04  0.1670E-04  0.1754E-04  0.1831E-04  0.1897E-04  0.1950E-04  0.1994E-04  0.2026E-04  0.2046E-04  0.2049E-04  0.2042E-04  0.2026E-04  0.1998E-04  0.1956E-04  0.1911E-04  0.1859E-04  0.1810E-04  0.1762E-04  0.1705E-04  0.1654E-04  0.1598E-04  0.1551E-04  0.1508E-04  0.1471E-04  0.1454E-04  0.1444E-04  0.1441E-04  0.1449E-04  0.1462E-04  0.1483E-04  0.1505E-04  0.1535E-04  0.1560E-04  0.1587E-04  0.1614E-04  0.1632E-04  0.1643E-04  0.1643E-04  0.1635E-04  0.1618E-04  0.1595E-04  0.1564E-04  0.1529E-04  0.1489E-04  0.1443E-04  0.1397E-04  0.1346E-04  0.1296E-04  0.1243E-04  0.1191E-04  0.1138E-04  0.1085E-04  0.1034E-04  0.9837E-05  0.9347E-05  0.8871E-05  0.8410E-05  0.7971E-05  0.7532E-05  0.7125E-05  0.6740E-05  0.6362E-05  0.6003E-05  0.5673E-05  0.5354E-05  0.5047E-05  0.4768E-05  0.4498E-05  0.4187E-05  0.3832E-05  0.3530E-05  0.3314E-05
  0.1002E-04  0.1118E-04  0.1237E-04  0.1355E-04  0.1477E-04  0.1600E-04  0.1720E-04  0.1834E-04  0.1939E-04  0.2039E-04  0.2129E-04  0.2206E-04  0.2269E-04  0.2320E-04  0.2357E-04  0.2378E-04  0.2381E-04  0.2370E-04  0.2347E-04  0.2308E-04  0.2262E-04  0.2204E-04  0.2142E-04  0.2089E-04  0.2022E-04  0.1953E-04  0.1886E-04  0.1815E-04  0.1755E-04  0.1701E-04  0.1655E-04  0.1618E-04  0.1600E-04  0.1597E-04  0.1610E-04  0.1627E-04  0.1654E-04  0.1681E-04  0.1712E-04  0.1739E-04  0.1762E-04  0.1777E-04  0.1782E-04  0.1775E-04  0.1761E-04  0.1742E-04  0.1717E-04  0.1686E-04  0.1649E-04  0.1608E-04  0.1560E-04  0.1512E-04  0.1460E-04  0.1406E-04  0.1352E-04  0.1296E-04  0.1241E-04  0.1185E-04  0.1131E-04  0.1076E-04  0.1024E-04  0.9720E-05  0.9219E-05  0.8744E-05  0.8269E-05  0.7825E-05  0.7401E-05  0.6991E-05  0.6598E-05  0.6229E-05  0.5886E-05  0.5548E-05  0.5232E-05  0.4943E-05  0.4655E-05  0.4385E-05  0.4063E-05  0.3686E-05  0.3377E-05
  0.1151E-04  0.1283E-04  0.1422E-04  0.1565E-04  0.1709E-04  0.1855E-04  0.1995E-04  0.2129E-04  0.2258E-04  0.2377E-04  0.2484E-04  0.2577E-04  0.2652E-04  0.2712E-04  0.2755E-04  0.2775E-04  0.2778E-04  0.2766E-04  0.2735E-04  0.2690E-04  0.2634E-04  0.2560E-04  0.2497E-04  0.2423E-04  0.2342E-04  0.2258E-04  0.2168E-04  0.2082E-04  0.2000E-04  0.1927E-04  0.1868E-04  0.1828E-04  0.1800E-04  0.1787E-04  0.1789E-04  0.1809E-04  0.1835E-04  0.1867E-04  0.1895E-04  0.1923E-04  0.1942E-04  0.1952E-04  0.1950E-04  0.1934E-04  0.1909E-04  0.1874E-04  0.1836E-04  0.1797E-04  0.1755E-04  0.1705E-04  0.1651E-04  0.1590E-04  0.1528E-04  0.1468E-04  0.1410E-04  0.1351E-04  0.1293E-04  0.1235E-04  0.1177E-04  0.1121E-04  0.1065E-04  0.1012E-04  0.9591E-05  0.9095E-05  0.8600E-05  0.8147E-05  0.7689E-05  0.7257E-05  0.6856E-05  0.6469E-05  0.6109E-05  0.5758E-05  0.5432E-05  0.5122E-05  0.4824E-05  0.4547E-05  0.4266E-05  0.3911E-05  0.3525E-05
  0.1317E-04  0.1474E-04  0.1639E-04  0.1808E-04  0.1980E-04  0.2149E-04  0.2316E-04  0.2491E-04  0.2652E-04  0.2807E-04  0.2900E-04  0.3011E-04  0.3102E-04  0.3172E-04  0.3218E-04  0.3240E-04  0.3245E-04  0.3229E-04  0.3191E-04  0.3140E-04  0.3069E-04  0.2989E-04  0.2918E-04  0.2828E-04  0.2732E-04  0.2628E-04  0.2518E-04  0.2408E-04  0.2305E-04  0.2215E-04  0.2143E-04  0.2079E-04  0.2030E-04  0.2006E-04  0.2001E-04  0.2015E-04  0.2038E-04  0.2070E-04  0.2099E-04  0.2122E-04  0.2134E-04  0.2135E-04  0.2125E-04  0.2101E-04  0.2073E-04  0.2034E-04  0.1990E-04  0.1941E-04  0.1890E-04  0.1832E-04  0.1772E-04  0.1708E-04  0.1643E-04  0.1575E-04  0.1502E-04  0.1422E-04  0.1349E-04  0.1287E-04  0.1228E-04  0.1168E-04  0.1111E-04  0.1055E-04  0.9994E-05  0.9470E-05  0.8964E-05  0.8476E-05  0.8007E-05  0.7550E-05  0.7135E-05  0.6727E-05  0.6347E-05  0.5989E-05  0.5636E-05  0.5318E-05  0.5009E-05  0.4722E-05  0.4452E-05  0.4124E-05  0.3734E-05
  0.1513E-04  0.1698E-04  0.1887E-04  0.2089E-04  0.2291E-04  0.2507E-04  0.2729E-04  0.2986E-04  0.3263E-04  0.3473E-04  0.3705E-04  0.3818E-04  0.3915E-04  0.4009E-04  0.4056E-04  0.4090E-04  0.4095E-04  0.4056E-04  0.4013E-04  0.3948E-04  0.3882E-04  0.3793E-04  0.3662E-04  0.3538E-04  0.3375E-04  0.3225E-04  0.2993E-04  0.2816E-04  0.2702E-04  0.2587E-04  0.2480E-04  0.2377E-04  0.2306E-04  0.2263E-04  0.2248E-04  0.2249E-04  0.2269E-04  0.2298E-04  0.2323E-04  0.2339E-04  0.2343E-04  0.2340E-04  0.2323E-04  0.2294E-04  0.2254E-04  0.2205E-04  0.2148E-04  0.2088E-04  0.2027E-04  0.1961E-04  0.1894E-04  0.1822E-04  0.1748E-04  0.1673E-04  0.1598E-04  0.1525E-04  0.1451E-04  0.1375E-04  0.1284E-04  0.1220E-04  0.1161E-04  0.1101E-04  0.1044E-04  0.9889E-05  0.9357E-05  0.8842E-05  0.8361E-05  0.7878E-05  0.7433E-05  0.7013E-05  0.6610E-05  0.6233E-05  0.5866E-05  0.5528E-05  0.5216E-05  0.4904E-05  0.4622E-05  0.4329E-05  0.3974E-05
  0.1737E-04  0.1951E-04  0.2179E-04  0.2413E-04  0.2661E-04  0.2921E-04  0.3255E-04  0.3659E-04  0.4118E-04  0.4607E-04  0.5003E-04  0.5285E-04  0.5556E-04  0.5700E-04  0.5802E-04  0.5904E-04  0.6069E-04  0.6139E-04  0.6241E-04  0.6291E-04  0.6315E-04  0.6349E-04  0.6394E-04  0.6393E-04  0.6357E-04  0.6283E-04  0.6170E-04  0.5939E-04  0.5655E-04  0.5255E-04  0.4605E-04  0.3791E-04  0.2971E-04  0.2587E-04  0.2590E-04  0.2524E-04  0.2532E-04  0.2554E-04  0.2576E-04  0.2588E-04  0.2591E-04  0.2579E-04  0.2550E-04  0.2514E-04  0.2464E-04  0.2405E-04  0.2336E-04  0.2263E-04  0.2190E-04  0.2113E-04  0.2036E-04  0.1957E-04  0.1875E-04  0.1791E-04  0.1706E-04  0.1624E-04  0.1542E-04  0.1464E-04  0.1386E-04  0.1309E-04  0.1219E-04  0.1154E-04  0.1094E-04  0.1036E-04  0.9793E-05  0.9263E-05  0.8739E-05  0.8247E-05  0.7768E-05  0.7334E-05  0.6901E-05  0.6506E-05  0.6125E-05  0.5767E-05  0.5431E-05  0.5107E-05  0.4808E-05  0.4528E-05  0.4194E-05
  0.1987E-04  0.2240E-04  0.2500E-04  0.2770E-04  0.3074E-04  0.3429E-04  0.3912E-04  0.4508E-04  0.5324E-04  0.6295E-04  0.7320E-04  0.8254E-04  0.9001E-04  0.9513E-04  0.9886E-04  0.1016E-03  0.1055E-03  0.1099E-03  0.1147E-03  0.1202E-03  0.1264E-03  0.1330E-03  0.1399E-03  0.1479E-03  0.1562E-03  0.1647E-03  0.1731E-03  0.1797E-03  0.1818E-03  0.1761E-03  0.1536E-03  0.1063E-03  0.4957E-04  0.3258E-04  0.3024E-04  0.2892E-04  0.2853E-04  0.2858E-04  0.2870E-04  0.2875E-04  0.2869E-04  0.2847E-04  0.2813E-04  0.2768E-04  0.2711E-04  0.2640E-04  0.2562E-04  0.2477E-04  0.2387E-04  0.2297E-04  0.2209E-04  0.2118E-04  0.2026E-04  0.1931E-04  0.1836E-04  0.1743E-04  0.1651E-04  0.1562E-04  0.1478E-04  0.1394E-04  0.1317E-04  0.1232E-04  0.1153E-04  0.1090E-04  0.1029E-04  0.9731E-05  0.9169E-05  0.8662E-05  0.8156E-05  0.7690E-05  0.7232E-05  0.6814E-05  0.6416E-05  0.6028E-05  0.5675E-05  0.5334E-05  0.5015E-05  0.4717E-05  0.4386E-05
  0.2267E-04  0.2553E-04  0.2854E-04  0.3175E-04  0.3529E-04  0.4006E-04  0.4671E-04  0.5627E-04  0.6890E-04  0.8631E-04  0.1069E-03  0.1291E-03  0.1475E-03  0.1585E-03  0.1646E-03  0.1704E-03  0.1770E-03  0.1848E-03  0.1948E-03  0.2052E-03  0.2163E-03  0.2272E-03  0.2374E-03  0.2459E-03  0.2511E-03  0.2494E-03  0.2388E-03  0.2147E-03  0.1745E-03  0.1220E-03  0.7550E-04  0.5220E-04  0.5578E-04  0.7823E-04  0.4606E-04  0.3329E-04  0.3345E-04  0.3275E-04  0.3236E-04  0.3216E-04  0.3195E-04  0.3164E-04  0.3124E-04  0.3070E-04  0.3001E-04  0.2924E-04  0.2835E-04  0.2736E-04  0.2630E-04  0.2524E-04  0.2418E-04  0.2315E-04  0.2209E-04  0.2102E-04  0.1994E-04  0.1889E-04  0.1785E-04  0.1684E-04  0.1586E-04  0.1494E-04  0.1408E-04  0.1325E-04  0.1241E-04  0.1158E-04  0.1088E-04  0.1026E-04  0.9679E-05  0.9117E-05  0.8595E-05  0.8078E-05  0.7617E-05  0.7160E-05  0.6740E-05  0.6325E-05  0.5955E-05  0.5597E-05  0.5246E-05  0.4928E-05  0.4619E-05
  0.2565E-04  0.2891E-04  0.3233E-04  0.3605E-04  0.4050E-04  0.4599E-04  0.5481E-04  0.6787E-04  0.8625E-04  0.1118E-03  0.1452E-03  0.1852E-03  0.2193E-03  0.2375E-03  0.2438E-03  0.2458E-03  0.2487E-03  0.2539E-03  0.2595E-03  0.2641E-03  0.2673E-03  0.2662E-03  0.2593E-03  0.2451E-03  0.2228E-03  0.1917E-03  0.1544E-03  0.1171E-03  0.8910E-04  0.7470E-04  0.6594E-04  0.7502E-04  0.1763E-03  0.1023E-03  0.7113E-04  0.3806E-04  0.3861E-04  0.3861E-04  0.3761E-04  0.3672E-04  0.3606E-04  0.3550E-04  0.3493E-04  0.3424E-04  0.3348E-04  0.3261E-04  0.3159E-04  0.3047E-04  0.2927E-04  0.2801E-04  0.2675E-04  0.2550E-04  0.2430E-04  0.2304E-04  0.2184E-04  0.2061E-04  0.1941E-04  0.1830E-04  0.1719E-04  0.1615E-04  0.1515E-04  0.1421E-04  0.1336E-04  0.1248E-04  0.1165E-04  0.1091E-04  0.1027E-04  0.9673E-05  0.9093E-05  0.8557E-05  0.8046E-05  0.7560E-05  0.7100E-05  0.6673E-05  0.6264E-05  0.5883E-05  0.5511E-05  0.5174E-05  0.4849E-05
  0.2885E-04  0.3250E-04  0.3632E-04  0.4044E-04  0.4565E-04  0.5251E-04  0.6312E-04  0.7928E-04  0.1022E-03  0.1350E-03  0.1791E-03  0.2338E-03  0.2826E-03  0.3051E-03  0.3061E-03  0.2962E-03  0.2847E-03  0.2745E-03  0.2649E-03  0.2533E-03  0.2371E-03  0.2174E-03  0.1926E-03  0.1649E-03  0.1369E-03  0.1132E-03  0.9788E-04  0.9116E-04  0.8777E-04  0.7878E-04  0.8722E-04  0.2038E-03  0.1633E-03  0.1311E-03  0.9621E-04  0.4674E-04  0.4305E-04  0.4458E-04  0.4423E-04  0.4290E-04  0.4156E-04  0.4044E-04  0.3947E-04  0.3859E-04  0.3766E-04  0.3661E-04  0.3545E-04  0.3420E-04  0.3287E-04  0.3143E-04  0.2994E-04  0.2847E-04  0.2702E-04  0.2561E-04  0.2419E-04  0.2277E-04  0.2140E-04  0.2015E-04  0.1889E-04  0.1770E-04  0.1661E-04  0.1555E-04  0.1455E-04  0.1361E-04  0.1272E-04  0.1188E-04  0.1110E-04  0.1043E-04  0.9801E-05  0.9223E-05  0.8652E-05  0.8127E-05  0.7626E-05  0.7173E-05  0.6716E-05  0.6307E-05  0.5904E-05  0.5539E-05  0.5220E-05
  0.3222E-04  0.3627E-04  0.4041E-04  0.4494E-04  0.5065E-04  0.5843E-04  0.7047E-04  0.8843E-04  0.1142E-03  0.1504E-03  0.1995E-03  0.2595E-03  0.3152E-03  0.3379E-03  0.3302E-03  0.3044E-03  0.2739E-03  0.2447E-03  0.2186E-03  0.1942E-03  0.1702E-03  0.1471E-03  0.1268E-03  0.1126E-03  0.1043E-03  0.1037E-03  0.1047E-03  0.1016E-03  0.8907E-04  0.9587E-04  0.1964E-03  0.2313E-03  0.1689E-03  0.1521E-03  0.1187E-03  0.6048E-04  0.4776E-04  0.4986E-04  0.5096E-04  0.5019E-04  0.4851E-04  0.4678E-04  0.4531E-04  0.4406E-04  0.4288E-04  0.4172E-04  0.4043E-04  0.3904E-04  0.3751E-04  0.3594E-04  0.3425E-04  0.3249E-04  0.3078E-04  0.2906E-04  0.2739E-04  0.2574E-04  0.2416E-04  0.2264E-04  0.2117E-04  0.1980E-04  0.1853E-04  0.1737E-04  0.1624E-04  0.1518E-04  0.1416E-04  0.1321E-04  0.1234E-04  0.1152E-04  0.1081E-04  0.1015E-04  0.9523E-05  0.8940E-05  0.8401E-05  0.7873E-05  0.7383E-05  0.6906E-05  0.6457E-05  0.6028E-05  0.5614E-05
  0.3568E-04  0.4006E-04  0.4451E-04  0.4938E-04  0.5517E-04  0.6374E-04  0.7642E-04  0.9464E-04  0.1207E-03  0.1564E-03  0.2031E-03  0.2587E-03  0.3109E-03  0.3308E-03  0.3179E-03  0.2831E-03  0.2415E-03  0.2023E-03  0.1704E-03  0.1461E-03  0.1282E-03  0.1171E-03  0.1131E-03  0.1137E-03  0.1165E-03  0.1183E-03  0.1123E-03  0.9794E-04  0.1023E-03  0.1839E-03  0.2672E-03  0.2004E-03  0.1866E-03  0.1691E-03  0.1378E-03  0.7643E-04  0.5444E-04  0.5494E-04  0.5695E-04  0.5746E-04  0.5628E-04  0.5437E-04  0.5258E-04  0.5105E-04  0.4978E-04  0.4853E-04  0.4722E-04  0.4577E-04  0.4419E-04  0.4238E-04  0.4039E-04  0.3828E-04  0.3621E-04  0.3410E-04  0.3200E-04  0.2999E-04  0.2802E-04  0.2616E-04  0.2436E-04  0.2270E-04  0.2120E-04  0.1977E-04  0.1846E-04  0.1726E-04  0.1610E-04  0.1500E-04  0.1398E-04  0.1306E-04  0.1223E-04  0.1144E-04  0.1075E-04  0.1008E-04  0.9430E-05  0.8782E-05  0.8164E-05  0.7597E-05  0.7062E-05  0.6553E-05  0.6076E-05
  0.3918E-04  0.4385E-04  0.4854E-04  0.5328E-04  0.5954E-04  0.6814E-04  0.8014E-04  0.9785E-04  0.1220E-03  0.1542E-03  0.1945E-03  0.2397E-03  0.2800E-03  0.2983E-03  0.2881E-03  0.2574E-03  0.2181E-03  0.1820E-03  0.1541E-03  0.1375E-03  0.1308E-03  0.1301E-03  0.1322E-03  0.1345E-03  0.1322E-03  0.1224E-03  0.1075E-03  0.1098E-03  0.1727E-03  0.2731E-03  0.2427E-03  0.2063E-03  0.1991E-03  0.1848E-03  0.1549E-03  0.9357E-04  0.6330E-04  0.6037E-04  0.6239E-04  0.6397E-04  0.6391E-04  0.6254E-04  0.6089E-04  0.5940E-04  0.5828E-04  0.5726E-04  0.5607E-04  0.5461E-04  0.5287E-04  0.5086E-04  0.4853E-04  0.4597E-04  0.4337E-04  0.4073E-04  0.3812E-04  0.3561E-04  0.3321E-04  0.3093E-04  0.2877E-04  0.2679E-04  0.2505E-04  0.2334E-04  0.2175E-04  0.2029E-04  0.1890E-04  0.1761E-04  0.1638E-04  0.1521E-04  0.1412E-04  0.1314E-04  0.1224E-04  0.1138E-04  0.1056E-04  0.9769E-05  0.9088E-05  0.8409E-05  0.7765E-05  0.7169E-05  0.6616E-05
  0.4258E-04  0.4747E-04  0.5232E-04  0.5706E-04  0.6343E-04  0.7140E-04  0.8257E-04  0.9856E-04  0.1197E-03  0.1471E-03  0.1797E-03  0.2147E-03  0.2446E-03  0.2613E-03  0.2589E-03  0.2409E-03  0.2140E-03  0.1880E-03  0.1693E-03  0.1601E-03  0.1576E-03  0.1586E-03  0.1568E-03  0.1492E-03  0.1356E-03  0.1199E-03  0.1188E-03  0.1675E-03  0.2632E-03  0.2807E-03  0.2238E-03  0.2260E-03  0.2097E-03  0.2014E-03  0.1713E-03  0.1109E-03  0.7395E-04  0.6641E-04  0.6770E-04  0.6964E-04  0.7067E-04  0.7027E-04  0.6904E-04  0.6795E-04  0.6731E-04  0.6674E-04  0.6594E-04  0.6459E-04  0.6280E-04  0.6064E-04  0.5806E-04  0.5517E-04  0.5207E-04  0.4886E-04  0.4567E-04  0.4256E-04  0.3970E-04  0.3693E-04  0.3431E-04  0.3192E-04  0.2970E-04  0.2764E-04  0.2570E-04  0.2389E-04  0.2218E-04  0.2061E-04  0.1908E-04  0.1777E-04  0.1647E-04  0.1525E-04  0.1408E-04  0.1298E-04  0.1195E-04  0.1099E-04  0.1009E-04  0.9247E-05  0.8487E-05  0.7786E-05  0.7137E-05
  0.4584E-04  0.5087E-04  0.5578E-04  0.6050E-04  0.6648E-04  0.7381E-04  0.8353E-04  0.9776E-04  0.1158E-03  0.1382E-03  0.1639E-03  0.1910E-03  0.2146E-03  0.2304E-03  0.2372E-03  0.2332E-03  0.2208E-03  0.2052E-03  0.1929E-03  0.1892E-03  0.1873E-03  0.1827E-03  0.1717E-03  0.1547E-03  0.1364E-03  0.1321E-03  0.1692E-03  0.2554E-03  0.3045E-03  0.2587E-03  0.2418E-03  0.2459E-03  0.2250E-03  0.2201E-03  0.1887E-03  0.1290E-03  0.8612E-04  0.7374E-04  0.7330E-04  0.7504E-04  0.7670E-04  0.7707E-04  0.7622E-04  0.7518E-04  0.7493E-04  0.7492E-04  0.7464E-04  0.7384E-04  0.7230E-04  0.7027E-04  0.6776E-04  0.6476E-04  0.6141E-04  0.5783E-04  0.5414E-04  0.5058E-04  0.4709E-04  0.4381E-04  0.4071E-04  0.3785E-04  0.3519E-04  0.3267E-04  0.3032E-04  0.2818E-04  0.2618E-04  0.2423E-04  0.2241E-04  0.2071E-04  0.1909E-04  0.1754E-04  0.1606E-04  0.1466E-04  0.1339E-04  0.1222E-04  0.1113E-04  0.1022E-04  0.9307E-05  0.8487E-05  0.7739E-05
  0.4887E-04  0.5393E-04  0.5880E-04  0.6340E-04  0.6879E-04  0.7537E-04  0.8400E-04  0.9588E-04  0.1111E-03  0.1298E-03  0.1502E-03  0.1718E-03  0.1920E-03  0.2089E-03  0.2216E-03  0.2270E-03  0.2255E-03  0.2198E-03  0.2133E-03  0.2094E-03  0.2057E-03  0.1949E-03  0.1774E-03  0.1583E-03  0.1515E-03  0.1787E-03  0.2533E-03  0.3207E-03  0.3029E-03  0.2648E-03  0.2747E-03  0.2631E-03  0.2418E-03  0.2351E-03  0.2024E-03  0.1444E-03  0.9835E-04  0.8143E-04  0.7947E-04  0.8111E-04  0.8278E-04  0.8255E-04  0.8097E-04  0.8013E-04  0.8020E-04  0.8067E-04  0.8102E-04  0.8093E-04  0.7988E-04  0.7827E-04  0.7625E-04  0.7353E-04  0.7027E-04  0.6661E-04  0.6271E-04  0.5884E-04  0.5489E-04  0.5118E-04  0.4764E-04  0.4433E-04  0.4121E-04  0.3827E-04  0.3562E-04  0.3302E-04  0.3056E-04  0.2823E-04  0.2604E-04  0.2392E-04  0.2189E-04  0.1993E-04  0.1810E-04  0.1649E-04  0.1494E-04  0.1354E-04  0.1227E-04  0.1110E-04  0.1005E-04  0.9112E-05  0.8264E-05
  0.5151E-04  0.5648E-04  0.6122E-04  0.6561E-04  0.7033E-04  0.7625E-04  0.8360E-04  0.9418E-04  0.1069E-03  0.1226E-03  0.1397E-03  0.1578E-03  0.1761E-03  0.1932E-03  0.2082E-03  0.2199E-03  0.2262E-03  0.2275E-03  0.2248E-03  0.2205E-03  0.2144E-03  0.2024E-03  0.1873E-03  0.1815E-03  0.2020E-03  0.2631E-03  0.3329E-03  0.3388E-03  0.2913E-03  0.2813E-03  0.2878E-03  0.2608E-03  0.2453E-03  0.2395E-03  0.2083E-03  0.1549E-03  0.1086E-03  0.8939E-04  0.8609E-04  0.8718E-04  0.8703E-04  0.8541E-04  0.8386E-04  0.8318E-04  0.8335E-04  0.8405E-04  0.8481E-04  0.8529E-04  0.8505E-04  0.8404E-04  0.8255E-04  0.8044E-04  0.7762E-04  0.7424E-04  0.7047E-04  0.6651E-04  0.6244E-04  0.5841E-04  0.5456E-04  0.5088E-04  0.4740E-04  0.4420E-04  0.4104E-04  0.3803E-04  0.3514E-04  0.3239E-04  0.2974E-04  0.2711E-04  0.2465E-04  0.2235E-04  0.2016E-04  0.1816E-04  0.1636E-04  0.1472E-04  0.1325E-04  0.1194E-04  0.1076E-04  0.9694E-05  0.8819E-05
  0.5384E-04  0.5880E-04  0.6347E-04  0.6777E-04  0.7221E-04  0.7741E-04  0.8385E-04  0.9262E-04  0.1036E-03  0.1170E-03  0.1319E-03  0.1477E-03  0.1643E-03  0.1812E-03  0.1977E-03  0.2123E-03  0.2241E-03  0.2320E-03  0.2359E-03  0.2358E-03  0.2310E-03  0.2212E-03  0.2143E-03  0.2256E-03  0.2701E-03  0.3327E-03  0.3550E-03  0.3140E-03  0.2806E-03  0.2882E-03  0.2809E-03  0.2509E-03  0.2432E-03  0.2379E-03  0.2100E-03  0.1619E-03  0.1173E-03  0.9684E-04  0.9133E-04  0.9077E-04  0.8908E-04  0.8698E-04  0.8543E-04  0.8471E-04  0.8484E-04  0.8559E-04  0.8650E-04  0.8741E-04  0.8778E-04  0.8741E-04  0.8648E-04  0.8507E-04  0.8297E-04  0.8014E-04  0.7675E-04  0.7295E-04  0.6901E-04  0.6491E-04  0.6091E-04  0.5704E-04  0.5331E-04  0.4980E-04  0.4630E-04  0.4289E-04  0.3959E-04  0.3633E-04  0.3312E-04  0.3005E-04  0.2715E-04  0.2442E-04  0.2192E-04  0.1966E-04  0.1761E-04  0.1578E-04  0.1414E-04  0.1273E-04  0.1146E-04  0.1030E-04  0.9273E-05
  0.5568E-04  0.6051E-04  0.6507E-04  0.6925E-04  0.7348E-04  0.7849E-04  0.8421E-04  0.9208E-04  0.1016E-03  0.1136E-03  0.1272E-03  0.1418E-03  0.1581E-03  0.1756E-03  0.1941E-03  0.2123E-03  0.2283E-03  0.2405E-03  0.2475E-03  0.2485E-03  0.2439E-03  0.2392E-03  0.2442E-03  0.2754E-03  0.3278E-03  0.3588E-03  0.3321E-03  0.2862E-03  0.2786E-03  0.2870E-03  0.2668E-03  0.2409E-03  0.2400E-03  0.2356E-03  0.2105E-03  0.1678E-03  0.1257E-03  0.1031E-03  0.9504E-04  0.9234E-04  0.8982E-04  0.8766E-04  0.8612E-04  0.8533E-04  0.8535E-04  0.8595E-04  0.8690E-04  0.8786E-04  0.8858E-04  0.8862E-04  0.8827E-04  0.8759E-04  0.8612E-04  0.8399E-04  0.8117E-04  0.7785E-04  0.7420E-04  0.7022E-04  0.6623E-04  0.6232E-04  0.5846E-04  0.5475E-04  0.5096E-04  0.4718E-04  0.4341E-04  0.3963E-04  0.3593E-04  0.3247E-04  0.2916E-04  0.2612E-04  0.2337E-04  0.2088E-04  0.1865E-04  0.1668E-04  0.1498E-04  0.1340E-04  0.1200E-04  0.1075E-04  0.9661E-05
  0.5688E-04  0.6168E-04  0.6627E-04  0.7056E-04  0.7495E-04  0.7959E-04  0.8555E-04  0.9326E-04  0.1030E-03  0.1150E-03  0.1295E-03  0.1449E-03  0.1612E-03  0.1782E-03  0.1953E-03  0.2122E-03  0.2275E-03  0.2396E-03  0.2467E-03  0.2480E-03  0.2498E-03  0.2562E-03  0.2808E-03  0.3249E-03  0.3594E-03  0.3471E-03  0.3006E-03  0.2751E-03  0.2836E-03  0.2831E-03  0.2535E-03  0.2346E-03  0.2378E-03  0.2336E-03  0.2118E-03  0.1739E-03  0.1323E-03  0.1070E-03  0.9616E-04  0.9200E-04  0.8926E-04  0.8726E-04  0.8592E-04  0.8514E-04  0.8502E-04  0.8544E-04  0.8630E-04  0.8725E-04  0.8808E-04  0.8843E-04  0.8847E-04  0.8824E-04  0.8741E-04  0.8591E-04  0.8378E-04  0.8100E-04  0.7770E-04  0.7409E-04  0.7026E-04  0.6642E-04  0.6253E-04  0.5857E-04  0.5464E-04  0.5050E-04  0.4627E-04  0.4207E-04  0.3799E-04  0.3421E-04  0.3064E-04  0.2739E-04  0.2445E-04  0.2182E-04  0.1947E-04  0.1745E-04  0.1558E-04  0.1390E-04  0.1244E-04  0.1114E-04  0.9990E-05
  0.5773E-04  0.6277E-04  0.6771E-04  0.7279E-04  0.7830E-04  0.8429E-04  0.9172E-04  0.1003E-03  0.1103E-03  0.1218E-03  0.1347E-03  0.1486E-03  0.1626E-03  0.1770E-03  0.1911E-03  0.2050E-03  0.2178E-03  0.2283E-03  0.2352E-03  0.2432E-03  0.2544E-03  0.2793E-03  0.3205E-03  0.3584E-03  0.3589E-03  0.3187E-03  0.2812E-03  0.2803E-03  0.2920E-03  0.2792E-03  0.2465E-03  0.2343E-03  0.2389E-03  0.2345E-03  0.2144E-03  0.1787E-03  0.1375E-03  0.1097E-03  0.9599E-04  0.9044E-04  0.8814E-04  0.8632E-04  0.8512E-04  0.8440E-04  0.8417E-04  0.8447E-04  0.8513E-04  0.8595E-04  0.8685E-04  0.8743E-04  0.8760E-04  0.8753E-04  0.8722E-04  0.8627E-04  0.8467E-04  0.8249E-04  0.7963E-04  0.7637E-04  0.7287E-04  0.6914E-04  0.6528E-04  0.6124E-04  0.5703E-04  0.5260E-04  0.4806E-04  0.4357E-04  0.3927E-04  0.3531E-04  0.3159E-04  0.2822E-04  0.2518E-04  0.2246E-04  0.2003E-04  0.1795E-04  0.1601E-04  0.1429E-04  0.1278E-04  0.1144E-04  0.1024E-04
  0.5958E-04  0.6586E-04  0.7220E-04  0.7852E-04  0.8479E-04  0.9121E-04  0.9846E-04  0.1063E-03  0.1150E-03  0.1248E-03  0.1355E-03  0.1469E-03  0.1584E-03  0.1698E-03  0.1812E-03  0.1921E-03  0.2025E-03  0.2118E-03  0.2233E-03  0.2385E-03  0.2652E-03  0.3074E-03  0.3502E-03  0.3629E-03  0.3328E-03  0.2871E-03  0.2725E-03  0.2897E-03  0.3006E-03  0.2784E-03  0.2479E-03  0.2402E-03  0.2444E-03  0.2381E-03  0.2172E-03  0.1826E-03  0.1417E-03  0.1118E-03  0.9591E-04  0.8934E-04  0.8704E-04  0.8559E-04  0.8444E-04  0.8370E-04  0.8330E-04  0.8337E-04  0.8376E-04  0.8434E-04  0.8507E-04  0.8571E-04  0.8580E-04  0.8595E-04  0.8595E-04  0.8538E-04  0.8428E-04  0.8245E-04  0.8016E-04  0.7730E-04  0.7398E-04  0.7041E-04  0.6665E-04  0.6252E-04  0.5806E-04  0.5349E-04  0.4877E-04  0.4418E-04  0.3980E-04  0.3569E-04  0.3203E-04  0.2863E-04  0.2556E-04  0.2281E-04  0.2036E-04  0.1825E-04  0.1631E-04  0.1456E-04  0.1301E-04  0.1165E-04  0.1043E-04
  0.6267E-04  0.6944E-04  0.7606E-04  0.8246E-04  0.8849E-04  0.9461E-04  0.1009E-03  0.1075E-03  0.1147E-03  0.1226E-03  0.1310E-03  0.1403E-03  0.1494E-03  0.1587E-03  0.1678E-03  0.1766E-03  0.1853E-03  0.1971E-03  0.2139E-03  0.2415E-03  0.2835E-03  0.3308E-03  0.3572E-03  0.3415E-03  0.2964E-03  0.2644E-03  0.2694E-03  0.2929E-03  0.3008E-03  0.2766E-03  0.2538E-03  0.2517E-03  0.2540E-03  0.2442E-03  0.2219E-03  0.1875E-03  0.1468E-03  0.1151E-03  0.9757E-04  0.8965E-04  0.8701E-04  0.8524E-04  0.8397E-04  0.8308E-04  0.8250E-04  0.8230E-04  0.8241E-04  0.8270E-04  0.8321E-04  0.8366E-04  0.8381E-04  0.8386E-04  0.8386E-04  0.8358E-04  0.8271E-04  0.8136E-04  0.7938E-04  0.7689E-04  0.7392E-04  0.7045E-04  0.6659E-04  0.6248E-04  0.5793E-04  0.5322E-04  0.4860E-04  0.4402E-04  0.3969E-04  0.3565E-04  0.3195E-04  0.2867E-04  0.2563E-04  0.2292E-04  0.2049E-04  0.1840E-04  0.1645E-04  0.1471E-04  0.1315E-04  0.1178E-04  0.1055E-04
  0.6420E-04  0.7072E-04  0.7705E-04  0.8298E-04  0.8831E-04  0.9362E-04  0.9883E-04  0.1043E-03  0.1101E-03  0.1164E-03  0.1231E-03  0.1304E-03  0.1381E-03  0.1457E-03  0.1533E-03  0.1607E-03  0.1715E-03  0.1871E-03  0.2131E-03  0.2529E-03  0.3018E-03  0.3388E-03  0.3397E-03  0.3050E-03  0.2647E-03  0.2538E-03  0.2738E-03  0.2985E-03  0.2983E-03  0.2763E-03  0.2627E-03  0.2643E-03  0.2641E-03  0.2517E-03  0.2284E-03  0.1943E-03  0.1532E-03  0.1203E-03  0.1007E-03  0.9160E-04  0.8802E-04  0.8588E-04  0.8419E-04  0.8292E-04  0.8205E-04  0.8152E-04  0.8128E-04  0.8131E-04  0.8142E-04  0.8160E-04  0.8173E-04  0.8147E-04  0.8138E-04  0.8116E-04  0.8056E-04  0.7933E-04  0.7773E-04  0.7548E-04  0.7267E-04  0.6939E-04  0.6550E-04  0.6123E-04  0.5684E-04  0.5222E-04  0.4762E-04  0.4326E-04  0.3907E-04  0.3518E-04  0.3158E-04  0.2840E-04  0.2546E-04  0.2281E-04  0.2044E-04  0.1831E-04  0.1647E-04  0.1475E-04  0.1321E-04  0.1184E-04  0.1062E-04
  0.6361E-04  0.6960E-04  0.7523E-04  0.8039E-04  0.8499E-04  0.8947E-04  0.9368E-04  0.9810E-04  0.1028E-03  0.1078E-03  0.1134E-03  0.1194E-03  0.1259E-03  0.1324E-03  0.1390E-03  0.1487E-03  0.1625E-03  0.1854E-03  0.2220E-03  0.2699E-03  0.3132E-03  0.3287E-03  0.3080E-03  0.2695E-03  0.2468E-03  0.2564E-03  0.2846E-03  0.3066E-03  0.3013E-03  0.2821E-03  0.2744E-03  0.2766E-03  0.2729E-03  0.2585E-03  0.2357E-03  0.2031E-03  0.1633E-03  0.1289E-03  0.1076E-03  0.9625E-04  0.9067E-04  0.8781E-04  0.8557E-04  0.8382E-04  0.8238E-04  0.8141E-04  0.8063E-04  0.8020E-04  0.7996E-04  0.7974E-04  0.7950E-04  0.7909E-04  0.7865E-04  0.7847E-04  0.7784E-04  0.7681E-04  0.7524E-04  0.7326E-04  0.7065E-04  0.6735E-04  0.6356E-04  0.5932E-04  0.5491E-04  0.5059E-04  0.4620E-04  0.4198E-04  0.3808E-04  0.3436E-04  0.3094E-04  0.2782E-04  0.2508E-04  0.2253E-04  0.2024E-04  0.1818E-04  0.1631E-04  0.1471E-04  0.1320E-04  0.1183E-04  0.1063E-04
  0.6138E-04  0.6657E-04  0.7145E-04  0.7588E-04  0.7973E-04  0.8346E-04  0.8691E-04  0.9050E-04  0.9448E-04  0.9852E-04  0.1033E-03  0.1083E-03  0.1140E-03  0.1197E-03  0.1283E-03  0.1407E-03  0.1613E-03  0.1948E-03  0.2407E-03  0.2870E-03  0.3140E-03  0.3074E-03  0.2755E-03  0.2464E-03  0.2433E-03  0.2688E-03  0.3033E-03  0.3231E-03  0.3163E-03  0.3006E-03  0.2932E-03  0.2909E-03  0.2816E-03  0.2654E-03  0.2440E-03  0.2142E-03  0.1765E-03  0.1425E-03  0.1183E-03  0.1041E-03  0.9571E-04  0.9164E-04  0.8848E-04  0.8591E-04  0.8372E-04  0.8205E-04  0.8068E-04  0.7963E-04  0.7887E-04  0.7822E-04  0.7758E-04  0.7679E-04  0.7602E-04  0.7555E-04  0.7485E-04  0.7384E-04  0.7236E-04  0.7046E-04  0.6787E-04  0.6475E-04  0.6097E-04  0.5691E-04  0.5266E-04  0.4845E-04  0.4444E-04  0.4047E-04  0.3673E-04  0.3330E-04  0.3009E-04  0.2714E-04  0.2445E-04  0.2211E-04  0.1992E-04  0.1794E-04  0.1614E-04  0.1459E-04  0.1312E-04  0.1179E-04  0.1060E-04
  0.5801E-04  0.6249E-04  0.6663E-04  0.7036E-04  0.7358E-04  0.7669E-04  0.7962E-04  0.8253E-04  0.8582E-04  0.8935E-04  0.9354E-04  0.9783E-04  0.1032E-03  0.1107E-03  0.1214E-03  0.1390E-03  0.1691E-03  0.2130E-03  0.2630E-03  0.3007E-03  0.3081E-03  0.2868E-03  0.2558E-03  0.2403E-03  0.2528E-03  0.2879E-03  0.3271E-03  0.3472E-03  0.3427E-03  0.3299E-03  0.3197E-03  0.3093E-03  0.2916E-03  0.2705E-03  0.2484E-03  0.2229E-03  0.1922E-03  0.1602E-03  0.1341E-03  0.1162E-03  0.1051E-03  0.9763E-04  0.9319E-04  0.8943E-04  0.8637E-04  0.8375E-04  0.8160E-04  0.7982E-04  0.7833E-04  0.7701E-04  0.7586E-04  0.7471E-04  0.7358E-04  0.7267E-04  0.7185E-04  0.7069E-04  0.6926E-04  0.6726E-04  0.6479E-04  0.6163E-04  0.5806E-04  0.5415E-04  0.5009E-04  0.4620E-04  0.4234E-04  0.3875E-04  0.3527E-04  0.3202E-04  0.2900E-04  0.2633E-04  0.2380E-04  0.2151E-04  0.1951E-04  0.1762E-04  0.1590E-04  0.1433E-04  0.1298E-04  0.1171E-04  0.1054E-04
  0.5411E-04  0.5792E-04  0.6142E-04  0.6451E-04  0.6727E-04  0.6991E-04  0.7233E-04  0.7458E-04  0.7770E-04  0.8088E-04  0.8447E-04  0.8879E-04  0.9462E-04  0.1040E-03  0.1186E-03  0.1428E-03  0.1815E-03  0.2333E-03  0.2825E-03  0.3089E-03  0.3035E-03  0.2778E-03  0.2545E-03  0.2511E-03  0.2706E-03  0.3053E-03  0.3421E-03  0.3633E-03  0.3619E-03  0.3482E-03  0.3331E-03  0.3166E-03  0.2959E-03  0.2743E-03  0.2540E-03  0.2330E-03  0.2078E-03  0.1791E-03  0.1526E-03  0.1314E-03  0.1166E-03  0.1071E-03  0.9956E-04  0.9451E-04  0.9026E-04  0.8656E-04  0.8339E-04  0.8065E-04  0.7832E-04  0.7632E-04  0.7453E-04  0.7290E-04  0.7132E-04  0.6992E-04  0.6880E-04  0.6754E-04  0.6592E-04  0.6394E-04  0.6140E-04  0.5844E-04  0.5497E-04  0.5131E-04  0.4749E-04  0.4374E-04  0.4025E-04  0.3687E-04  0.3365E-04  0.3070E-04  0.2792E-04  0.2534E-04  0.2307E-04  0.2092E-04  0.1895E-04  0.1724E-04  0.1560E-04  0.1411E-04  0.1275E-04  0.1158E-04  0.1044E-04
  0.5005E-04  0.5327E-04  0.5620E-04  0.5889E-04  0.6122E-04  0.6342E-04  0.6546E-04  0.6759E-04  0.7023E-04  0.7298E-04  0.7619E-04  0.8086E-04  0.8782E-04  0.9901E-04  0.1170E-03  0.1457E-03  0.1882E-03  0.2413E-03  0.2886E-03  0.3080E-03  0.2999E-03  0.2796E-03  0.2670E-03  0.2707E-03  0.2894E-03  0.3176E-03  0.3439E-03  0.3588E-03  0.3583E-03  0.3468E-03  0.3298E-03  0.3111E-03  0.2922E-03  0.2750E-03  0.2590E-03  0.2425E-03  0.2214E-03  0.1959E-03  0.1701E-03  0.1473E-03  0.1296E-03  0.1169E-03  0.1078E-03  0.1003E-03  0.9491E-04  0.9019E-04  0.8594E-04  0.8222E-04  0.7892E-04  0.7602E-04  0.7356E-04  0.7132E-04  0.6915E-04  0.6735E-04  0.6589E-04  0.6437E-04  0.6261E-04  0.6052E-04  0.5801E-04  0.5511E-04  0.5185E-04  0.4839E-04  0.4479E-04  0.4138E-04  0.3806E-04  0.3500E-04  0.3204E-04  0.2927E-04  0.2676E-04  0.2439E-04  0.2219E-04  0.2026E-04  0.1843E-04  0.1675E-04  0.1526E-04  0.1384E-04  0.1254E-04  0.1134E-04  0.1031E-04
  0.4606E-04  0.4877E-04  0.5133E-04  0.5362E-04  0.5558E-04  0.5741E-04  0.5921E-04  0.6117E-04  0.6348E-04  0.6615E-04  0.6924E-04  0.7422E-04  0.8235E-04  0.9457E-04  0.1143E-03  0.1441E-03  0.1844E-03  0.2314E-03  0.2724E-03  0.2935E-03  0.2910E-03  0.2820E-03  0.2785E-03  0.2856E-03  0.3007E-03  0.3197E-03  0.3351E-03  0.3425E-03  0.3403E-03  0.3300E-03  0.3147E-03  0.2975E-03  0.2830E-03  0.2704E-03  0.2589E-03  0.2461E-03  0.2291E-03  0.2074E-03  0.1836E-03  0.1609E-03  0.1415E-03  0.1263E-03  0.1150E-03  0.1064E-03  0.9917E-04  0.9366E-04  0.8858E-04  0.8392E-04  0.7977E-04  0.7604E-04  0.7281E-04  0.6993E-04  0.6731E-04  0.6499E-04  0.6307E-04  0.6127E-04  0.5934E-04  0.5711E-04  0.5466E-04  0.5183E-04  0.4881E-04  0.4552E-04  0.4227E-04  0.3899E-04  0.3597E-04  0.3307E-04  0.3040E-04  0.2789E-04  0.2552E-04  0.2340E-04  0.2137E-04  0.1950E-04  0.1787E-04  0.1629E-04  0.1482E-04  0.1354E-04  0.1230E-04  0.1114E-04  0.1006E-04
  0.4225E-04  0.4463E-04  0.4675E-04  0.4864E-04  0.5040E-04  0.5206E-04  0.5358E-04  0.5546E-04  0.5769E-04  0.6009E-04  0.6376E-04  0.6907E-04  0.7732E-04  0.9042E-04  0.1102E-03  0.1381E-03  0.1732E-03  0.2120E-03  0.2457E-03  0.2665E-03  0.2732E-03  0.2745E-03  0.2781E-03  0.2860E-03  0.2976E-03  0.3089E-03  0.3165E-03  0.3183E-03  0.3144E-03  0.3051E-03  0.2925E-03  0.2794E-03  0.2688E-03  0.2605E-03  0.2524E-03  0.2429E-03  0.2295E-03  0.2117E-03  0.1911E-03  0.1695E-03  0.1498E-03  0.1335E-03  0.1207E-03  0.1108E-03  0.1028E-03  0.9597E-04  0.9037E-04  0.8517E-04  0.8037E-04  0.7597E-04  0.7213E-04  0.6865E-04  0.6551E-04  0.6271E-04  0.6035E-04  0.5828E-04  0.5614E-04  0.5386E-04  0.5139E-04  0.4871E-04  0.4579E-04  0.4282E-04  0.3972E-04  0.3676E-04  0.3388E-04  0.3126E-04  0.2877E-04  0.2645E-04  0.2434E-04  0.2233E-04  0.2054E-04  0.1881E-04  0.1721E-04  0.1580E-04  0.1443E-04  0.1314E-04  0.1198E-04  0.1090E-04  0.9829E-05
  0.3880E-04  0.4079E-04  0.4259E-04  0.4432E-04  0.4577E-04  0.4715E-04  0.4878E-04  0.5052E-04  0.5255E-04  0.5553E-04  0.5916E-04  0.6480E-04  0.7327E-04  0.8604E-04  0.1045E-03  0.1288E-03  0.1583E-03  0.1894E-03  0.2168E-03  0.2368E-03  0.2488E-03  0.2562E-03  0.2635E-03  0.2715E-03  0.2801E-03  0.2865E-03  0.2900E-03  0.2894E-03  0.2847E-03  0.2767E-03  0.2681E-03  0.2589E-03  0.2518E-03  0.2460E-03  0.2403E-03  0.2331E-03  0.2231E-03  0.2084E-03  0.1910E-03  0.1719E-03  0.1533E-03  0.1371E-03  0.1237E-03  0.1129E-03  0.1044E-03  0.9716E-04  0.9082E-04  0.8536E-04  0.8027E-04  0.7553E-04  0.7118E-04  0.6727E-04  0.6369E-04  0.6052E-04  0.5783E-04  0.5542E-04  0.5314E-04  0.5079E-04  0.4825E-04  0.4569E-04  0.4296E-04  0.4016E-04  0.3733E-04  0.3457E-04  0.3192E-04  0.2945E-04  0.2715E-04  0.2511E-04  0.2312E-04  0.2134E-04  0.1961E-04  0.1802E-04  0.1660E-04  0.1523E-04  0.1395E-04  0.1277E-04  0.1162E-04  0.1053E-04  0.9578E-05
  0.3557E-04  0.3728E-04  0.3892E-04  0.4035E-04  0.4165E-04  0.4296E-04  0.4448E-04  0.4639E-04  0.4862E-04  0.5147E-04  0.5548E-04  0.6086E-04  0.6913E-04  0.8051E-04  0.9679E-04  0.1174E-03  0.1412E-03  0.1661E-03  0.1886E-03  0.2069E-03  0.2204E-03  0.2303E-03  0.2383E-03  0.2463E-03  0.2525E-03  0.2569E-03  0.2581E-03  0.2571E-03  0.2534E-03  0.2484E-03  0.2422E-03  0.2364E-03  0.2319E-03  0.2280E-03  0.2239E-03  0.2186E-03  0.2104E-03  0.1990E-03  0.1844E-03  0.1681E-03  0.1515E-03  0.1364E-03  0.1233E-03  0.1126E-03  0.1037E-03  0.9634E-04  0.8996E-04  0.8414E-04  0.7904E-04  0.7424E-04  0.6971E-04  0.6556E-04  0.6183E-04  0.5838E-04  0.5533E-04  0.5276E-04  0.5029E-04  0.4784E-04  0.4529E-04  0.4282E-04  0.4027E-04  0.3763E-04  0.3507E-04  0.3246E-04  0.3006E-04  0.2772E-04  0.2567E-04  0.2373E-04  0.2199E-04  0.2029E-04  0.1878E-04  0.1730E-04  0.1593E-04  0.1470E-04  0.1346E-04  0.1229E-04  0.1125E-04  0.1020E-04  0.9220E-05
  0.3265E-04  0.3411E-04  0.3548E-04  0.3687E-04  0.3811E-04  0.3934E-04  0.4101E-04  0.4274E-04  0.4505E-04  0.4802E-04  0.5184E-04  0.5727E-04  0.6465E-04  0.7507E-04  0.8808E-04  0.1051E-03  0.1239E-03  0.1437E-03  0.1622E-03  0.1780E-03  0.1903E-03  0.2009E-03  0.2087E-03  0.2153E-03  0.2207E-03  0.2235E-03  0.2250E-03  0.2241E-03  0.2226E-03  0.2195E-03  0.2161E-03  0.2130E-03  0.2099E-03  0.2073E-03  0.2041E-03  0.1998E-03  0.1934E-03  0.1844E-03  0.1725E-03  0.1588E-03  0.1448E-03  0.1315E-03  0.1196E-03  0.1095E-03  0.1009E-03  0.9367E-04  0.8740E-04  0.8172E-04  0.7660E-04  0.7198E-04  0.6759E-04  0.6345E-04  0.5957E-04  0.5603E-04  0.5290E-04  0.5018E-04  0.4761E-04  0.4511E-04  0.4264E-04  0.4016E-04  0.3774E-04  0.3530E-04  0.3289E-04  0.3056E-04  0.2827E-04  0.2619E-04  0.2420E-04  0.2248E-04  0.2082E-04  0.1933E-04  0.1786E-04  0.1651E-04  0.1530E-04  0.1407E-04  0.1296E-04  0.1185E-04  0.1079E-04  0.9852E-05  0.8911E-05
