DSAA
          79         109
    318.3670    342.0670
   7336.5760   7369.2760
  0.0000E+00  0.1543E-03
  0.0000E+00  0.0000E+00  0.0000E+00  0.0000E+00  0.0000E+00  0.0000E+00  0.0000E+00  0.0000E+00  0.0000E+00  0.0000E+00  0.0000E+00  0.0000E+00  0.0000E+00  0.0000E+00  0.0000E+00  0.0000E+00  0.0000E+00  0.0000E+00  0.0000E+00  0.0000E+00  0.0000E+00  0.0000E+00  0.0000E+00  0.0000E+00  0.0000E+00  0.0000E+00  0.0000E+00  0.0000E+00  0.0000E+00  0.0000E+00  0.0000E+00  0.0000E+00  0.0000E+00  0.0000E+00  0.0000E+00  0.0000E+00  0.0000E+00  0.0000E+00  0.0000E+00  0.0000E+00  0.0000E+00  0.0000E+00  0.0000E+00  0.0000E+00  0.0000E+00  0.0000E+00  0.0000E+00  0.0000E+00  0.0000E+00  0.0000E+00  0.0000E+00  0.0000E+00  0.0000E+00  0.0000E+00  0.0000E+00  0.0000E+00  0.0000E+00  0.0000E+00  0.0000E+00  0.0000E+00  0.0000E+00  0.0000E+00  0.0000E+00  0.0000E+00  0.0000E+00  0.0000E+00  0.0000E+00  0.0000E+00  0.0000E+00  0.0000E+00  0.0000E+00  0.0000E+00  0.0000E+00  0.0000E+00  0.0000E+00  0.0000E+00  0.0000E+00  0.0000E+00  0.0000E+00
  0.0000E+00  0.0000E+00  0.0000E+00  0.0000E+00  0.0000E+00  0.0000E+00  0.0000E+00  0.0000E+00  0.0000E+00  0.0000E+00  0.0000E+00  0.0000E+00  0.0000E+00  0.0000E+00  0.0000E+00  0.0000E+00  0.0000E+00  0.0000E+00  0.0000E+00  0.0000E+00  0.0000E+00  0.0000E+00  0.0000E+00  0.0000E+00  0.0000E+00  0.0000E+00  0.0000E+00  0.0000E+00  0.0000E+00  0.0000E+00  0.0000E+00  0.0000E+00  0.0000E+00  0.0000E+00  0.0000E+00  0.0000E+00  0.0000E+00  0.0000E+00  0.0000E+00  0.0000E+00  0.0000E+00  0.0000E+00  0.0000E+00  0.0000E+00  0.0000E+00  0.0000E+00  0.0000E+00  0.0000E+00  0.0000E+00  0.0000E+00  0.0000E+00  0.0000E+00  0.0000E+00  0.0000E+00  0.0000E+00  0.0000E+00  0.0000E+00  0.0000E+00  0.0000E+00  0.0000E+00  0.0000E+00  0.0000E+00  0.0000E+00  0.0000E+00  0.0000E+00  0.0000E+00  0.0000E+00  0.0000E+00  0.0000E+00  0.0000E+00  0.0000E+00  0.0000E+00  0.0000E+00  0.0000E+00  0.0000E+00  0.0000E+00  0.0000E+00  0.0000E+00  0.0000E+00
  0.0000E+00  0.0000E+00  0.0000E+00  0.0000E+00  0.0000E+00  0.0000E+00  0.0000E+00  0.0000E+00  0.0000E+00  0.0000E+00  0.0000E+00  0.0000E+00  0.0000E+00  0.0000E+00  0.0000E+00  0.0000E+00  0.0000E+00  0.0000E+00  0.0000E+00  0.0000E+00  0.0000E+00  0.0000E+00  0.0000E+00  0.0000E+00  0.0000E+00  0.0000E+00  0.0000E+00  0.0000E+00  0.0000E+00  0.0000E+00  0.0000E+00  0.0000E+00  0.0000E+00  0.0000E+00  0.0000E+00  0.0000E+00  0.0000E+00  0.0000E+00  0.0000E+00  0.0000E+00  0.0000E+00  0.0000E+00  0.0000E+00  0.0000E+00  0.0000E+00  0.0000E+00  0.0000E+00  0.0000E+00  0.0000E+00  0.0000E+00  0.0000E+00  0.0000E+00  0.0000E+00  0.0000E+00  0.0000E+00  0.0000E+00  0.0000E+00  0.0000E+00  0.0000E+00  0.0000E+00  0.0000E+00  0.0000E+00  0.0000E+00  0.0000E+00  0.0000E+00  0.0000E+00  0.0000E+00  0.0000E+00  0.0000E+00  0.0000E+00  0.0000E+00  0.0000E+00  0.0000E+00  0.0000E+00  0.0000E+00  0.0000E+00  0.0000E+00  0.0000E+00  0.0000E+00
  0.0000E+00  0.0000E+00  0.0000E+00  0.0000E+00  0.0000E+00  0.0000E+00  0.0000E+00  0.0000E+00  0.0000E+00  0.0000E+00  0.0000E+00  0.0000E+00  0.0000E+00  0.0000E+00  0.0000E+00  0.0000E+00  0.0000E+00  0.0000E+00  0.0000E+00  0.0000E+00  0.0000E+00  0.0000E+00  0.0000E+00  0.0000E+00  0.0000E+00  0.0000E+00  0.0000E+00  0.0000E+00  0.0000E+00  0.0000E+00  0.0000E+00  0.0000E+00  0.0000E+00  0.0000E+00  0.0000E+00  0.0000E+00  0.0000E+00  0.0000E+00  0.0000E+00  0.0000E+00  0.0000E+00  0.0000E+00  0.0000E+00  0.0000E+00  0.0000E+00  0.0000E+00  0.0000E+00  0.0000E+00  0.0000E+00  0.0000E+00  0.0000E+00  0.0000E+00  0.0000E+00  0.0000E+00  0.0000E+00  0.0000E+00  0.0000E+00  0.0000E+00  0.0000E+00  0.0000E+00  0.0000E+00  0.0000E+00  0.0000E+00  0.0000E+00  0.0000E+00  0.0000E+00  0.0000E+00  0.0000E+00  0.0000E+00  0.0000E+00  0.0000E+00  0.0000E+00  0.0000E+00  0.0000E+00  0.0000E+00  0.0000E+00  0.0000E+00  0.0000E+00  0.0000E+00
  0.0000E+00  0.0000E+00  0.0000E+00  0.0000E+00  0.0000E+00  0.0000E+00  0.0000E+00  0.0000E+00  0.0000E+00  0.0000E+00  0.0000E+00  0.0000E+00  0.0000E+00  0.0000E+00  0.0000E+00  0.0000E+00  0.0000E+00  0.0000E+00  0.0000E+00  0.0000E+00  0.0000E+00  0.0000E+00  0.0000E+00  0.0000E+00  0.0000E+00  0.0000E+00  0.0000E+00  0.0000E+00  0.0000E+00  0.0000E+00  0.0000E+00  0.0000E+00  0.0000E+00  0.0000E+00  0.0000E+00  0.0000E+00  0.0000E+00  0.0000E+00  0.0000E+00  0.0000E+00  0.0000E+00  0.0000E+00  0.0000E+00  0.0000E+00  0.0000E+00  0.0000E+00  0.0000E+00  0.0000E+00  0.0000E+00  0.0000E+00  0.0000E+00  0.0000E+00  0.0000E+00  0.0000E+00  0.0000E+00  0.0000E+00  0.0000E+00  0.0000E+00  0.0000E+00  0.0000E+00  0.0000E+00  0.0000E+00  0.0000E+00  0.0000E+00  0.0000E+00  0.0000E+00  0.0000E+00  0.0000E+00  0.0000E+00  0.0000E+00  0.0000E+00  0.0000E+00  0.0000E+00  0.0000E+00  0.0000E+00  0.0000E+00  0.0000E+00  0.0000E+00  0.0000E+00
  0.0000E+00  0.0000E+00  0.0000E+00  0.0000E+00  0.0000E+00  0.0000E+00  0.0000E+00  0.0000E+00  0.0000E+00  0.0000E+00  0.0000E+00  0.0000E+00  0.0000E+00  0.0000E+00  0.0000E+00  0.0000E+00  0.0000E+00  0.0000E+00  0.0000E+00  0.0000E+00  0.0000E+00  0.0000E+00  0.0000E+00  0.0000E+00  0.0000E+00  0.0000E+00  0.0000E+00  0.0000E+00  0.0000E+00  0.0000E+00  0.0000E+00  0.0000E+00  0.0000E+00  0.0000E+00  0.0000E+00  0.0000E+00  0.0000E+00  0.0000E+00  0.0000E+00  0.0000E+00  0.0000E+00  0.0000E+00  0.0000E+00  0.0000E+00  0.0000E+00  0.0000E+00  0.0000E+00  0.0000E+00  0.0000E+00  0.0000E+00  0.0000E+00  0.0000E+00  0.0000E+00  0.0000E+00  0.0000E+00  0.0000E+00  0.0000E+00  0.0000E+00  0.0000E+00  0.0000E+00  0.0000E+00  0.0000E+00  0.0000E+00  0.0000E+00  0.0000E+00  0.0000E+00  0.0000E+00  0.0000E+00  0.0000E+00  0.0000E+00  0.0000E+00  0.0000E+00  0.0000E+00  0.0000E+00  0.0000E+00  0.0000E+00  0.0000E+00  0.0000E+00  0.0000E+00
  0.0000E+00  0.0000E+00  0.0000E+00  0.0000E+00  0.0000E+00  0.0000E+00  0.0000E+00  0.0000E+00  0.0000E+00  0.0000E+00  0.0000E+00  0.0000E+00  0.0000E+00  0.0000E+00  0.0000E+00  0.0000E+00  0.0000E+00  0.0000E+00  0.0000E+00  0.0000E+00  0.0000E+00  0.0000E+00  0.0000E+00  0.0000E+00  0.0000E+00  0.0000E+00  0.0000E+00  0.0000E+00  0.0000E+00  0.0000E+00  0.0000E+00  0.0000E+00  0.0000E+00  0.0000E+00  0.0000E+00  0.0000E+00  0.0000E+00  0.0000E+00  0.0000E+00  0.0000E+00  0.0000E+00  0.0000E+00  0.0000E+00  0.0000E+00  0.0000E+00  0.0000E+00  0.0000E+00  0.0000E+00  0.0000E+00  0.0000E+00  0.0000E+00  0.0000E+00  0.0000E+00  0.0000E+00  0.0000E+00  0.0000E+00  0.0000E+00  0.0000E+00  0.0000E+00  0.0000E+00  0.0000E+00  0.0000E+00  0.0000E+00  0.0000E+00  0.0000E+00  0.0000E+00  0.0000E+00  0.0000E+00  0.0000E+00  0.0000E+00  0.0000E+00  0.0000E+00  0.0000E+00  0.0000E+00  0.0000E+00  0.0000E+00  0.0000E+00  0.0000E+00  0.0000E+00
  0.0000E+00  0.0000E+00  0.0000E+00  0.0000E+00  0.0000E+00  0.0000E+00  0.0000E+00  0.0000E+00  0.0000E+00  0.0000E+00  0.0000E+00  0.0000E+00  0.0000E+00  0.0000E+00  0.0000E+00  0.0000E+00  0.0000E+00  0.0000E+00  0.0000E+00  0.0000E+00  0.0000E+00  0.0000E+00  0.0000E+00  0.0000E+00  0.0000E+00  0.0000E+00  0.0000E+00  0.0000E+00  0.0000E+00  0.0000E+00  0.0000E+00  0.0000E+00  0.0000E+00  0.0000E+00  0.0000E+00  0.0000E+00  0.0000E+00  0.0000E+00  0.0000E+00  0.0000E+00  0.0000E+00  0.0000E+00  0.0000E+00  0.0000E+00  0.0000E+00  0.0000E+00  0.0000E+00  0.0000E+00  0.0000E+00  0.0000E+00  0.0000E+00  0.0000E+00  0.0000E+00  0.0000E+00  0.0000E+00  0.0000E+00  0.0000E+00  0.0000E+00  0.0000E+00  0.0000E+00  0.0000E+00  0.0000E+00  0.0000E+00  0.0000E+00  0.0000E+00  0.0000E+00  0.0000E+00  0.0000E+00  0.0000E+00  0.0000E+00  0.0000E+00  0.0000E+00  0.0000E+00  0.0000E+00  0.0000E+00  0.0000E+00  0.0000E+00  0.0000E+00  0.0000E+00
  0.0000E+00  0.0000E+00  0.0000E+00  0.0000E+00  0.0000E+00  0.0000E+00  0.0000E+00  0.0000E+00  0.0000E+00  0.0000E+00  0.0000E+00  0.0000E+00  0.0000E+00  0.0000E+00  0.0000E+00  0.0000E+00  0.0000E+00  0.0000E+00  0.0000E+00  0.0000E+00  0.0000E+00  0.0000E+00  0.0000E+00  0.0000E+00  0.0000E+00  0.0000E+00  0.0000E+00  0.0000E+00  0.0000E+00  0.0000E+00  0.0000E+00  0.0000E+00  0.0000E+00  0.0000E+00  0.0000E+00  0.0000E+00  0.0000E+00  0.0000E+00  0.0000E+00  0.0000E+00  0.0000E+00  0.0000E+00  0.0000E+00  0.0000E+00  0.0000E+00  0.0000E+00  0.0000E+00  0.0000E+00  0.0000E+00  0.0000E+00  0.0000E+00  0.0000E+00  0.0000E+00  0.0000E+00  0.0000E+00  0.0000E+00  0.0000E+00  0.0000E+00  0.0000E+00  0.0000E+00  0.0000E+00  0.0000E+00  0.0000E+00  0.0000E+00  0.0000E+00  0.0000E+00  0.0000E+00  0.0000E+00  0.0000E+00  0.0000E+00  0.0000E+00  0.0000E+00  0.0000E+00  0.0000E+00  0.0000E+00  0.0000E+00  0.0000E+00  0.0000E+00  0.0000E+00
  0.0000E+00  0.0000E+00  0.0000E+00  0.0000E+00  0.0000E+00  0.0000E+00  0.0000E+00  0.0000E+00  0.0000E+00  0.0000E+00  0.0000E+00  0.0000E+00  0.0000E+00  0.0000E+00  0.0000E+00  0.0000E+00  0.0000E+00  0.0000E+00  0.0000E+00  0.0000E+00  0.0000E+00  0.0000E+00  0.0000E+00  0.0000E+00  0.0000E+00  0.0000E+00  0.0000E+00  0.0000E+00  0.0000E+00  0.0000E+00  0.0000E+00  0.0000E+00  0.0000E+00  0.0000E+00  0.0000E+00  0.0000E+00  0.0000E+00  0.0000E+00  0.0000E+00  0.0000E+00  0.0000E+00  0.0000E+00  0.0000E+00  0.0000E+00  0.0000E+00  0.0000E+00  0.0000E+00  0.0000E+00  0.0000E+00  0.0000E+00  0.0000E+00  0.0000E+00  0.0000E+00  0.0000E+00  0.0000E+00  0.0000E+00  0.0000E+00  0.0000E+00  0.0000E+00  0.0000E+00  0.0000E+00  0.0000E+00  0.0000E+00  0.0000E+00  0.0000E+00  0.0000E+00  0.0000E+00  0.0000E+00  0.0000E+00  0.0000E+00  0.0000E+00  0.0000E+00  0.0000E+00  0.0000E+00  0.0000E+00  0.0000E+00  0.0000E+00  0.0000E+00  0.0000E+00
  0.0000E+00  0.0000E+00  0.0000E+00  0.0000E+00  0.0000E+00  0.0000E+00  0.0000E+00  0.0000E+00  0.0000E+00  0.0000E+00  0.0000E+00  0.0000E+00  0.0000E+00  0.0000E+00  0.0000E+00  0.0000E+00  0.0000E+00  0.0000E+00  0.0000E+00  0.0000E+00  0.0000E+00  0.0000E+00  0.0000E+00  0.0000E+00  0.0000E+00  0.0000E+00  0.0000E+00  0.0000E+00  0.0000E+00  0.0000E+00  0.0000E+00  0.0000E+00  0.0000E+00  0.0000E+00  0.0000E+00  0.0000E+00  0.0000E+00  0.0000E+00  0.0000E+00  0.0000E+00  0.0000E+00  0.0000E+00  0.0000E+00  0.0000E+00  0.0000E+00  0.0000E+00  0.0000E+00  0.0000E+00  0.0000E+00  0.0000E+00  0.0000E+00  0.0000E+00  0.0000E+00  0.0000E+00  0.0000E+00  0.0000E+00  0.0000E+00  0.0000E+00  0.0000E+00  0.0000E+00  0.0000E+00  0.0000E+00  0.0000E+00  0.0000E+00  0.0000E+00  0.0000E+00  0.0000E+00  0.0000E+00  0.0000E+00  0.0000E+00  0.0000E+00  0.0000E+00  0.0000E+00  0.0000E+00  0.0000E+00  0.0000E+00  0.0000E+00  0.0000E+00  0.0000E+00
  0.0000E+00  0.0000E+00  0.0000E+00  0.0000E+00  0.0000E+00  0.0000E+00  0.0000E+00  0.0000E+00  0.0000E+00  0.0000E+00  0.0000E+00  0.0000E+00  0.0000E+00  0.0000E+00  0.0000E+00  0.0000E+00  0.0000E+00  0.0000E+00  0.0000E+00  0.0000E+00  0.0000E+00  0.0000E+00  0.0000E+00  0.0000E+00  0.0000E+00  0.0000E+00  0.0000E+00  0.0000E+00  0.0000E+00  0.0000E+00  0.0000E+00  0.0000E+00  0.0000E+00  0.0000E+00  0.0000E+00  0.0000E+00  0.0000E+00  0.0000E+00  0.0000E+00  0.0000E+00  0.0000E+00  0.0000E+00  0.0000E+00  0.0000E+00  0.0000E+00  0.0000E+00  0.0000E+00  0.0000E+00  0.0000E+00  0.0000E+00  0.0000E+00  0.0000E+00  0.0000E+00  0.0000E+00  0.0000E+00  0.0000E+00  0.0000E+00  0.0000E+00  0.0000E+00  0.0000E+00  0.0000E+00  0.0000E+00  0.0000E+00  0.0000E+00  0.0000E+00  0.0000E+00  0.0000E+00  0.0000E+00  0.0000E+00  0.0000E+00  0.0000E+00  0.0000E+00  0.0000E+00  0.0000E+00  0.0000E+00  0.0000E+00  0.0000E+00  0.0000E+00  0.0000E+00
  0.0000E+00  0.0000E+00  0.0000E+00  0.0000E+00  0.0000E+00  0.0000E+00  0.0000E+00  0.0000E+00  0.0000E+00  0.0000E+00  0.0000E+00  0.0000E+00  0.0000E+00  0.0000E+00  0.0000E+00  0.0000E+00  0.0000E+00  0.0000E+00  0.0000E+00  0.0000E+00  0.0000E+00  0.0000E+00  0.0000E+00  0.0000E+00  0.0000E+00  0.0000E+00  0.0000E+00  0.0000E+00  0.0000E+00  0.0000E+00  0.0000E+00  0.0000E+00  0.0000E+00  0.0000E+00  0.0000E+00  0.0000E+00  0.0000E+00  0.0000E+00  0.0000E+00  0.0000E+00  0.0000E+00  0.0000E+00  0.0000E+00  0.0000E+00  0.0000E+00  0.0000E+00  0.0000E+00  0.0000E+00  0.0000E+00  0.0000E+00  0.0000E+00  0.0000E+00  0.0000E+00  0.0000E+00  0.0000E+00  0.0000E+00  0.0000E+00  0.0000E+00  0.0000E+00  0.0000E+00  0.0000E+00  0.0000E+00  0.0000E+00  0.0000E+00  0.0000E+00  0.0000E+00  0.0000E+00  0.0000E+00  0.0000E+00  0.0000E+00  0.0000E+00  0.0000E+00  0.0000E+00  0.0000E+00  0.0000E+00  0.0000E+00  0.0000E+00  0.0000E+00  0.0000E+00
  0.0000E+00  0.0000E+00  0.0000E+00  0.0000E+00  0.0000E+00  0.0000E+00  0.0000E+00  0.0000E+00  0.0000E+00  0.0000E+00  0.0000E+00  0.0000E+00  0.0000E+00  0.0000E+00  0.0000E+00  0.0000E+00  0.0000E+00  0.0000E+00  0.0000E+00  0.0000E+00  0.0000E+00  0.0000E+00  0.0000E+00  0.0000E+00  0.0000E+00  0.0000E+00  0.0000E+00  0.0000E+00  0.0000E+00  0.0000E+00  0.0000E+00  0.0000E+00  0.0000E+00  0.0000E+00  0.0000E+00  0.0000E+00  0.0000E+00  0.0000E+00  0.0000E+00  0.0000E+00  0.0000E+00  0.0000E+00  0.0000E+00  0.0000E+00  0.0000E+00  0.0000E+00  0.0000E+00  0.0000E+00  0.0000E+00  0.0000E+00  0.0000E+00  0.0000E+00  0.0000E+00  0.0000E+00  0.0000E+00  0.0000E+00  0.0000E+00  0.0000E+00  0.0000E+00  0.0000E+00  0.0000E+00  0.0000E+00  0.0000E+00  0.0000E+00  0.0000E+00  0.0000E+00  0.0000E+00  0.0000E+00  0.0000E+00  0.0000E+00  0.0000E+00  0.0000E+00  0.0000E+00  0.0000E+00  0.0000E+00  0.0000E+00  0.0000E+00  0.0000E+00  0.0000E+00
  0.0000E+00  0.0000E+00  0.0000E+00  0.0000E+00  0.0000E+00  0.0000E+00  0.0000E+00  0.0000E+00  0.0000E+00  0.0000E+00  0.0000E+00  0.0000E+00  0.0000E+00  0.0000E+00  0.0000E+00  0.0000E+00  0.0000E+00  0.0000E+00  0.0000E+00  0.0000E+00  0.0000E+00  0.0000E+00  0.0000E+00  0.0000E+00  0.0000E+00  0.0000E+00  0.0000E+00  0.0000E+00  0.0000E+00  0.0000E+00  0.0000E+00  0.0000E+00  0.0000E+00  0.0000E+00  0.0000E+00  0.0000E+00  0.0000E+00  0.0000E+00  0.0000E+00  0.0000E+00  0.0000E+00  0.0000E+00  0.0000E+00  0.0000E+00  0.0000E+00  0.0000E+00  0.0000E+00  0.0000E+00  0.0000E+00  0.0000E+00  0.0000E+00  0.0000E+00  0.0000E+00  0.0000E+00  0.0000E+00  0.0000E+00  0.0000E+00  0.0000E+00  0.0000E+00  0.0000E+00  0.0000E+00  0.0000E+00  0.0000E+00  0.0000E+00  0.0000E+00  0.0000E+00  0.0000E+00  0.0000E+00  0.0000E+00  0.0000E+00  0.0000E+00  0.0000E+00  0.0000E+00  0.0000E+00  0.0000E+00  0.0000E+00  0.0000E+00  0.0000E+00  0.0000E+00
  0.0000E+00  0.0000E+00  0.0000E+00  0.0000E+00  0.0000E+00  0.0000E+00  0.0000E+00  0.0000E+00  0.0000E+00  0.0000E+00  0.0000E+00  0.0000E+00  0.0000E+00  0.0000E+00  0.0000E+00  0.0000E+00  0.0000E+00  0.0000E+00  0.0000E+00  0.0000E+00  0.0000E+00  0.0000E+00  0.0000E+00  0.0000E+00  0.0000E+00  0.0000E+00  0.0000E+00  0.0000E+00  0.0000E+00  0.0000E+00  0.0000E+00  0.0000E+00  0.0000E+00  0.0000E+00  0.0000E+00  0.0000E+00  0.0000E+00  0.0000E+00  0.0000E+00  0.0000E+00  0.0000E+00  0.0000E+00  0.0000E+00  0.0000E+00  0.0000E+00  0.0000E+00  0.0000E+00  0.0000E+00  0.0000E+00  0.0000E+00  0.0000E+00  0.0000E+00  0.0000E+00  0.0000E+00  0.0000E+00  0.0000E+00  0.0000E+00  0.0000E+00  0.0000E+00  0.0000E+00  0.0000E+00  0.0000E+00  0.0000E+00  0.0000E+00  0.0000E+00  0.0000E+00  0.0000E+00  0.0000E+00  0.0000E+00  0.0000E+00  0.0000E+00  0.0000E+00  0.0000E+00  0.0000E+00  0.0000E+00  0.0000E+00  0.0000E+00  0.0000E+00  0.0000E+00
  0.0000E+00  0.0000E+00  0.0000E+00  0.0000E+00  0.0000E+00  0.0000E+00  0.0000E+00  0.0000E+00  0.0000E+00  0.0000E+00  0.0000E+00  0.0000E+00  0.0000E+00  0.0000E+00  0.0000E+00  0.0000E+00  0.0000E+00  0.0000E+00  0.0000E+00  0.0000E+00  0.0000E+00  0.0000E+00  0.0000E+00  0.0000E+00  0.0000E+00  0.0000E+00  0.0000E+00  0.0000E+00  0.0000E+00  0.0000E+00  0.0000E+00  0.0000E+00  0.0000E+00  0.0000E+00  0.0000E+00  0.0000E+00  0.0000E+00  0.0000E+00  0.0000E+00  0.0000E+00  0.0000E+00  0.0000E+00  0.0000E+00  0.0000E+00  0.0000E+00  0.0000E+00  0.0000E+00  0.0000E+00  0.0000E+00  0.0000E+00  0.0000E+00  0.0000E+00  0.0000E+00  0.0000E+00  0.0000E+00  0.0000E+00  0.0000E+00  0.0000E+00  0.0000E+00  0.0000E+00  0.0000E+00  0.0000E+00  0.0000E+00  0.0000E+00  0.0000E+00  0.0000E+00  0.0000E+00  0.0000E+00  0.0000E+00  0.0000E+00  0.0000E+00  0.0000E+00  0.0000E+00  0.0000E+00  0.0000E+00  0.0000E+00  0.0000E+00  0.0000E+00  0.0000E+00
  0.0000E+00  0.0000E+00  0.0000E+00  0.0000E+00  0.0000E+00  0.0000E+00  0.0000E+00  0.0000E+00  0.0000E+00  0.0000E+00  0.0000E+00  0.0000E+00  0.0000E+00  0.0000E+00  0.0000E+00  0.0000E+00  0.0000E+00  0.0000E+00  0.0000E+00  0.0000E+00  0.0000E+00  0.0000E+00  0.0000E+00  0.0000E+00  0.0000E+00  0.0000E+00  0.0000E+00  0.0000E+00  0.0000E+00  0.0000E+00  0.0000E+00  0.0000E+00  0.0000E+00  0.0000E+00  0.0000E+00  0.0000E+00  0.0000E+00  0.0000E+00  0.0000E+00  0.0000E+00  0.0000E+00  0.0000E+00  0.0000E+00  0.0000E+00  0.0000E+00  0.0000E+00  0.0000E+00  0.0000E+00  0.0000E+00  0.0000E+00  0.0000E+00  0.0000E+00  0.0000E+00  0.0000E+00  0.0000E+00  0.0000E+00  0.0000E+00  0.0000E+00  0.0000E+00  0.0000E+00  0.0000E+00  0.0000E+00  0.0000E+00  0.0000E+00  0.0000E+00  0.0000E+00  0.0000E+00  0.0000E+00  0.0000E+00  0.0000E+00  0.0000E+00  0.0000E+00  0.0000E+00  0.0000E+00  0.0000E+00  0.0000E+00  0.0000E+00  0.0000E+00  0.0000E+00
  0.0000E+00  0.0000E+00  0.0000E+00  0.0000E+00  0.0000E+00  0.0000E+00  0.0000E+00  0.0000E+00  0.0000E+00  0.0000E+00  0.0000E+00  0.0000E+00  0.0000E+00  0.0000E+00  0.0000E+00  0.0000E+00  0.0000E+00  0.0000E+00  0.0000E+00  0.0000E+00  0.0000E+00  0.0000E+00  0.0000E+00  0.0000E+00  0.0000E+00  0.0000E+00  0.0000E+00  0.0000E+00  0.0000E+00  0.0000E+00  0.0000E+00  0.0000E+00  0.0000E+00  0.0000E+00  0.0000E+00  0.0000E+00  0.0000E+00  0.0000E+00  0.0000E+00  0.0000E+00  0.0000E+00  0.0000E+00  0.0000E+00  0.0000E+00  0.0000E+00  0.0000E+00  0.0000E+00  0.0000E+00  0.0000E+00  0.0000E+00  0.0000E+00  0.0000E+00  0.0000E+00  0.0000E+00  0.0000E+00  0.0000E+00  0.0000E+00  0.0000E+00  0.0000E+00  0.0000E+00  0.0000E+00  0.0000E+00  0.0000E+00  0.0000E+00  0.0000E+00  0.0000E+00  0.0000E+00  0.0000E+00  0.0000E+00  0.0000E+00  0.0000E+00  0.0000E+00  0.0000E+00  0.0000E+00  0.0000E+00  0.0000E+00  0.0000E+00  0.0000E+00  0.0000E+00
  0.0000E+00  0.0000E+00  0.0000E+00  0.0000E+00  0.0000E+00  0.0000E+00  0.0000E+00  0.0000E+00  0.0000E+00  0.0000E+00  0.0000E+00  0.0000E+00  0.0000E+00  0.0000E+00  0.0000E+00  0.0000E+00  0.0000E+00  0.0000E+00  0.0000E+00  0.0000E+00  0.0000E+00  0.0000E+00  0.0000E+00  0.0000E+00  0.0000E+00  0.0000E+00  0.0000E+00  0.0000E+00  0.0000E+00  0.0000E+00  0.0000E+00  0.0000E+00  0.0000E+00  0.0000E+00  0.0000E+00  0.0000E+00  0.0000E+00  0.0000E+00  0.0000E+00  0.0000E+00  0.0000E+00  0.0000E+00  0.0000E+00  0.0000E+00  0.0000E+00  0.0000E+00  0.0000E+00  0.0000E+00  0.0000E+00  0.0000E+00  0.0000E+00  0.0000E+00  0.0000E+00  0.0000E+00  0.0000E+00  0.0000E+00  0.0000E+00  0.0000E+00  0.0000E+00  0.0000E+00  0.0000E+00  0.0000E+00  0.0000E+00  0.0000E+00  0.0000E+00  0.0000E+00  0.0000E+00  0.0000E+00  0.0000E+00  0.0000E+00  0.0000E+00  0.0000E+00  0.0000E+00  0.0000E+00  0.0000E+00  0.0000E+00  0.0000E+00  0.0000E+00  0.0000E+00
  0.0000E+00  0.0000E+00  0.0000E+00  0.0000E+00  0.0000E+00  0.0000E+00  0.0000E+00  0.0000E+00  0.0000E+00  0.0000E+00  0.0000E+00  0.0000E+00  0.0000E+00  0.0000E+00  0.0000E+00  0.0000E+00  0.0000E+00  0.0000E+00  0.0000E+00  0.0000E+00  0.0000E+00  0.0000E+00  0.0000E+00  0.0000E+00  0.0000E+00  0.0000E+00  0.0000E+00  0.0000E+00  0.0000E+00  0.0000E+00  0.0000E+00  0.0000E+00  0.0000E+00  0.0000E+00  0.0000E+00  0.0000E+00  0.0000E+00  0.0000E+00  0.0000E+00  0.0000E+00  0.0000E+00  0.0000E+00  0.0000E+00  0.0000E+00  0.0000E+00  0.0000E+00  0.0000E+00  0.0000E+00  0.0000E+00  0.0000E+00  0.0000E+00  0.0000E+00  0.0000E+00  0.0000E+00  0.0000E+00  0.0000E+00  0.0000E+00  0.0000E+00  0.0000E+00  0.0000E+00  0.0000E+00  0.0000E+00  0.0000E+00  0.0000E+00  0.0000E+00  0.0000E+00  0.0000E+00  0.0000E+00  0.0000E+00  0.0000E+00  0.0000E+00  0.0000E+00  0.0000E+00  0.0000E+00  0.0000E+00  0.0000E+00  0.0000E+00  0.0000E+00  0.0000E+00
  0.0000E+00  0.0000E+00  0.0000E+00  0.0000E+00  0.0000E+00  0.0000E+00  0.0000E+00  0.0000E+00  0.0000E+00  0.0000E+00  0.0000E+00  0.0000E+00  0.0000E+00  0.0000E+00  0.0000E+00  0.0000E+00  0.0000E+00  0.0000E+00  0.0000E+00  0.0000E+00  0.0000E+00  0.0000E+00  0.0000E+00  0.8524E-09  0.7965E-09  0.7390E-09  0.6803E-09  0.6212E-09  0.5622E-09  0.5041E-09  0.4473E-09  0.3927E-09  0.0000E+00  0.0000E+00  0.0000E+00  0.0000E+00  0.0000E+00  0.0000E+00  0.0000E+00  0.0000E+00  0.0000E+00  0.0000E+00  0.0000E+00  0.0000E+00  0.0000E+00  0.0000E+00  0.0000E+00  0.0000E+00  0.0000E+00  0.0000E+00  0.0000E+00  0.0000E+00  0.0000E+00  0.0000E+00  0.0000E+00  0.0000E+00  0.0000E+00  0.0000E+00  0.0000E+00  0.0000E+00  0.0000E+00  0.0000E+00  0.0000E+00  0.0000E+00  0.0000E+00  0.0000E+00  0.0000E+00  0.0000E+00  0.0000E+00  0.0000E+00  0.0000E+00  0.0000E+00  0.0000E+00  0.0000E+00  0.0000E+00  0.0000E+00  0.0000E+00  0.0000E+00  0.0000E+00
  0.0000E+00  0.0000E+00  0.0000E+00  0.0000E+00  0.0000E+00  0.0000E+00  0.0000E+00  0.0000E+00  0.0000E+00  0.0000E+00  0.0000E+00  0.0000E+00  0.0000E+00  0.0000E+00  0.0000E+00  0.0000E+00  0.0000E+00  0.1292E-08  0.1253E-08  0.1210E-08  0.1162E-08  0.2187E-08  0.3102E-08  0.2930E-08  0.2750E-08  0.2562E-08  0.2369E-08  0.2886E-08  0.2628E-08  0.2371E-08  0.2118E-08  0.1399E-08  0.8323E-09  0.0000E+00  0.0000E+00  0.0000E+00  0.0000E+00  0.0000E+00  0.0000E+00  0.0000E+00  0.0000E+00  0.0000E+00  0.0000E+00  0.0000E+00  0.0000E+00  0.0000E+00  0.0000E+00  0.0000E+00  0.0000E+00  0.0000E+00  0.0000E+00  0.0000E+00  0.0000E+00  0.0000E+00  0.0000E+00  0.0000E+00  0.0000E+00  0.0000E+00  0.0000E+00  0.0000E+00  0.0000E+00  0.0000E+00  0.0000E+00  0.0000E+00  0.0000E+00  0.0000E+00  0.0000E+00  0.0000E+00  0.0000E+00  0.0000E+00  0.0000E+00  0.0000E+00  0.0000E+00  0.0000E+00  0.0000E+00  0.0000E+00  0.0000E+00  0.0000E+00  0.0000E+00
  0.0000E+00  0.0000E+00  0.0000E+00  0.0000E+00  0.0000E+00  0.0000E+00  0.0000E+00  0.0000E+00  0.0000E+00  0.0000E+00  0.0000E+00  0.0000E+00  0.0000E+00  0.0000E+00  0.1340E-08  0.1397E-08  0.2768E-08  0.4242E-08  0.4217E-08  0.5380E-08  0.6455E-08  0.6199E-08  0.7075E-08  0.6711E-08  0.6325E-08  0.6862E-08  0.6376E-08  0.5877E-08  0.5370E-08  0.4861E-08  0.4356E-08  0.3862E-08  0.2942E-08  0.1321E-08  0.0000E+00  0.0000E+00  0.0000E+00  0.0000E+00  0.0000E+00  0.0000E+00  0.0000E+00  0.0000E+00  0.0000E+00  0.0000E+00  0.0000E+00  0.0000E+00  0.0000E+00  0.0000E+00  0.0000E+00  0.0000E+00  0.0000E+00  0.0000E+00  0.0000E+00  0.0000E+00  0.0000E+00  0.0000E+00  0.0000E+00  0.0000E+00  0.0000E+00  0.0000E+00  0.0000E+00  0.0000E+00  0.0000E+00  0.0000E+00  0.0000E+00  0.0000E+00  0.0000E+00  0.0000E+00  0.0000E+00  0.0000E+00  0.0000E+00  0.0000E+00  0.0000E+00  0.0000E+00  0.0000E+00  0.0000E+00  0.0000E+00  0.0000E+00  0.0000E+00
  0.0000E+00  0.0000E+00  0.0000E+00  0.0000E+00  0.0000E+00  0.0000E+00  0.0000E+00  0.0000E+00  0.0000E+00  0.0000E+00  0.0000E+00  0.1323E-08  0.1394E-08  0.2779E-08  0.4332E-08  0.4530E-08  0.7481E-08  0.9236E-08  0.9375E-08  0.1062E-07  0.1173E-07  0.1268E-07  0.1214E-07  0.1156E-07  0.1208E-07  0.1135E-07  0.1058E-07  0.1069E-07  0.9796E-08  0.9258E-08  0.7988E-08  0.6514E-08  0.5724E-08  0.4534E-08  0.2259E-08  0.0000E+00  0.0000E+00  0.0000E+00  0.0000E+00  0.0000E+00  0.0000E+00  0.0000E+00  0.0000E+00  0.0000E+00  0.0000E+00  0.0000E+00  0.0000E+00  0.0000E+00  0.0000E+00  0.0000E+00  0.0000E+00  0.0000E+00  0.0000E+00  0.0000E+00  0.0000E+00  0.0000E+00  0.0000E+00  0.0000E+00  0.0000E+00  0.0000E+00  0.0000E+00  0.0000E+00  0.0000E+00  0.0000E+00  0.0000E+00  0.0000E+00  0.0000E+00  0.0000E+00  0.0000E+00  0.0000E+00  0.0000E+00  0.0000E+00  0.0000E+00  0.0000E+00  0.0000E+00  0.0000E+00  0.0000E+00  0.0000E+00  0.0000E+00
  0.0000E+00  0.0000E+00  0.0000E+00  0.0000E+00  0.0000E+00  0.0000E+00  0.0000E+00  0.0000E+00  0.0000E+00  0.1345E-08  0.1426E-08  0.4244E-08  0.4484E-08  0.6069E-08  0.9338E-08  0.9791E-08  0.1168E-07  0.1526E-07  0.1563E-07  0.1712E-07  0.1835E-07  0.1931E-07  0.1856E-07  0.1774E-07  0.1882E-07  0.1774E-07  0.1832E-07  0.1700E-07  0.1610E-07  0.1466E-07  0.1361E-07  0.1070E-07  0.9421E-08  0.7187E-08  0.4795E-08  0.2818E-08  0.4175E-09  0.0000E+00  0.0000E+00  0.0000E+00  0.0000E+00  0.0000E+00  0.0000E+00  0.0000E+00  0.0000E+00  0.0000E+00  0.0000E+00  0.0000E+00  0.0000E+00  0.0000E+00  0.0000E+00  0.0000E+00  0.0000E+00  0.0000E+00  0.0000E+00  0.0000E+00  0.0000E+00  0.0000E+00  0.0000E+00  0.0000E+00  0.0000E+00  0.0000E+00  0.0000E+00  0.0000E+00  0.0000E+00  0.0000E+00  0.0000E+00  0.0000E+00  0.0000E+00  0.0000E+00  0.0000E+00  0.0000E+00  0.0000E+00  0.0000E+00  0.0000E+00  0.0000E+00  0.0000E+00  0.0000E+00  0.0000E+00
  0.0000E+00  0.0000E+00  0.0000E+00  0.0000E+00  0.0000E+00  0.0000E+00  0.0000E+00  0.1345E-08  0.1435E-08  0.4288E-08  0.4561E-08  0.7617E-08  0.9608E-08  0.1156E-07  0.1531E-07  0.1609E-07  0.1838E-07  0.2250E-07  0.2315E-07  0.2497E-07  0.2646E-07  0.2850E-07  0.2751E-07  0.2723E-07  0.2822E-07  0.2885E-07  0.2778E-07  0.2705E-07  0.2551E-07  0.2382E-07  0.2151E-07  0.1806E-07  0.1481E-07  0.1187E-07  0.7622E-08  0.5039E-08  0.2933E-08  0.8557E-09  0.0000E+00  0.0000E+00  0.0000E+00  0.0000E+00  0.0000E+00  0.0000E+00  0.0000E+00  0.0000E+00  0.0000E+00  0.0000E+00  0.0000E+00  0.0000E+00  0.0000E+00  0.0000E+00  0.0000E+00  0.0000E+00  0.0000E+00  0.0000E+00  0.0000E+00  0.0000E+00  0.0000E+00  0.0000E+00  0.0000E+00  0.0000E+00  0.0000E+00  0.0000E+00  0.0000E+00  0.0000E+00  0.0000E+00  0.0000E+00  0.0000E+00  0.0000E+00  0.0000E+00  0.0000E+00  0.0000E+00  0.0000E+00  0.0000E+00  0.0000E+00  0.0000E+00  0.0000E+00  0.0000E+00
  0.0000E+00  0.0000E+00  0.0000E+00  0.0000E+00  0.0000E+00  0.1322E-08  0.1421E-08  0.4259E-08  0.4562E-08  0.7652E-08  0.9715E-08  0.1176E-07  0.1567E-07  0.1659E-07  0.2071E-07  0.2359E-07  0.2639E-07  0.2931E-07  0.3330E-07  0.3379E-07  0.3849E-07  0.4202E-07  0.4077E-07  0.4202E-07  0.4284E-07  0.4157E-07  0.4150E-07  0.3879E-07  0.3659E-07  0.3418E-07  0.3099E-07  0.2826E-07  0.2416E-07  0.1929E-07  0.1327E-07  0.9738E-08  0.5260E-08  0.3030E-08  0.8775E-09  0.0000E+00  0.0000E+00  0.0000E+00  0.0000E+00  0.0000E+00  0.0000E+00  0.0000E+00  0.0000E+00  0.0000E+00  0.0000E+00  0.0000E+00  0.0000E+00  0.0000E+00  0.0000E+00  0.0000E+00  0.0000E+00  0.0000E+00  0.0000E+00  0.0000E+00  0.0000E+00  0.0000E+00  0.0000E+00  0.0000E+00  0.0000E+00  0.0000E+00  0.0000E+00  0.0000E+00  0.0000E+00  0.0000E+00  0.0000E+00  0.0000E+00  0.0000E+00  0.0000E+00  0.0000E+00  0.0000E+00  0.0000E+00  0.0000E+00  0.0000E+00  0.0000E+00  0.0000E+00
  0.0000E+00  0.0000E+00  0.0000E+00  0.1278E-08  0.1383E-08  0.2806E-08  0.4484E-08  0.7552E-08  0.9648E-08  0.1175E-07  0.1574E-07  0.1679E-07  0.2277E-07  0.2419E-07  0.2725E-07  0.3246E-07  0.3549E-07  0.4203E-07  0.4676E-07  0.4889E-07  0.5435E-07  0.5741E-07  0.5743E-07  0.5871E-07  0.5949E-07  0.5967E-07  0.5744E-07  0.5479E-07  0.5178E-07  0.4769E-07  0.4531E-07  0.4077E-07  0.3621E-07  0.3002E-07  0.2145E-07  0.1489E-07  0.1020E-07  0.6518E-08  0.3103E-08  0.8915E-09  0.0000E+00  0.0000E+00  0.0000E+00  0.0000E+00  0.0000E+00  0.0000E+00  0.0000E+00  0.0000E+00  0.0000E+00  0.0000E+00  0.0000E+00  0.0000E+00  0.0000E+00  0.0000E+00  0.0000E+00  0.0000E+00  0.0000E+00  0.0000E+00  0.0000E+00  0.0000E+00  0.0000E+00  0.0000E+00  0.0000E+00  0.0000E+00  0.0000E+00  0.0000E+00  0.0000E+00  0.0000E+00  0.0000E+00  0.0000E+00  0.0000E+00  0.0000E+00  0.0000E+00  0.0000E+00  0.0000E+00  0.0000E+00  0.0000E+00  0.0000E+00  0.0000E+00
  0.0000E+00  0.0000E+00  0.1324E-08  0.1437E-08  0.4332E-08  0.4688E-08  0.9414E-08  0.1015E-07  0.1553E-07  0.1669E-07  0.2107E-07  0.2433E-07  0.2930E-07  0.3309E-07  0.3647E-07  0.4568E-07  0.4964E-07  0.5522E-07  0.6433E-07  0.6719E-07  0.7361E-07  0.7745E-07  0.7794E-07  0.7957E-07  0.8047E-07  0.8056E-07  0.7775E-07  0.7438E-07  0.7223E-07  0.6683E-07  0.6195E-07  0.5601E-07  0.5055E-07  0.4449E-07  0.3493E-07  0.2650E-07  0.1612E-07  0.1059E-07  0.6695E-08  0.3148E-08  0.4578E-09  0.0000E+00  0.0000E+00  0.0000E+00  0.0000E+00  0.0000E+00  0.0000E+00  0.0000E+00  0.0000E+00  0.0000E+00  0.0000E+00  0.0000E+00  0.0000E+00  0.0000E+00  0.0000E+00  0.0000E+00  0.0000E+00  0.0000E+00  0.0000E+00  0.0000E+00  0.0000E+00  0.0000E+00  0.0000E+00  0.0000E+00  0.0000E+00  0.0000E+00  0.0000E+00  0.0000E+00  0.0000E+00  0.0000E+00  0.0000E+00  0.0000E+00  0.0000E+00  0.0000E+00  0.0000E+00  0.0000E+00  0.0000E+00  0.0000E+00  0.0000E+00
  0.0000E+00  0.1362E-08  0.2782E-08  0.4483E-08  0.7602E-08  0.9804E-08  0.1353E-07  0.1629E-07  0.1909E-07  0.2402E-07  0.2742E-07  0.3308E-07  0.3671E-07  0.4622E-07  0.5062E-07  0.5906E-07  0.6773E-07  0.7463E-07  0.8374E-07  0.8925E-07  0.9453E-07  0.1018E-06  0.1030E-06  0.1054E-06  0.1068E-06  0.1069E-06  0.1036E-06  0.9943E-07  0.9664E-07  0.9092E-07  0.8530E-07  0.7828E-07  0.7089E-07  0.6151E-07  0.5038E-07  0.3924E-07  0.2816E-07  0.1803E-07  0.1090E-07  0.6810E-08  0.3161E-08  0.4572E-09  0.0000E+00  0.0000E+00  0.0000E+00  0.0000E+00  0.0000E+00  0.0000E+00  0.0000E+00  0.0000E+00  0.0000E+00  0.0000E+00  0.0000E+00  0.0000E+00  0.0000E+00  0.0000E+00  0.0000E+00  0.0000E+00  0.0000E+00  0.0000E+00  0.0000E+00  0.0000E+00  0.0000E+00  0.0000E+00  0.0000E+00  0.0000E+00  0.0000E+00  0.0000E+00  0.0000E+00  0.0000E+00  0.0000E+00  0.0000E+00  0.0000E+00  0.0000E+00  0.0000E+00  0.0000E+00  0.0000E+00  0.0000E+00  0.0000E+00
  0.1392E-08  0.4214E-08  0.4608E-08  0.9299E-08  0.1014E-07  0.1560E-07  0.1695E-07  0.2327E-07  0.2518E-07  0.3242E-07  0.3624E-07  0.4260E-07  0.5055E-07  0.5933E-07  0.6702E-07  0.7638E-07  0.8725E-07  0.9364E-07  0.1058E-06  0.1138E-06  0.1205E-06  0.1311E-06  0.1334E-06  0.1370E-06  0.1392E-06  0.1400E-06  0.1362E-06  0.1339E-06  0.1279E-06  0.1231E-06  0.1138E-06  0.1049E-06  0.9541E-07  0.8465E-07  0.7323E-07  0.5839E-07  0.4197E-07  0.3078E-07  0.2041E-07  0.1110E-07  0.6292E-08  0.2657E-08  0.0000E+00  0.0000E+00  0.0000E+00  0.0000E+00  0.0000E+00  0.0000E+00  0.0000E+00  0.0000E+00  0.0000E+00  0.0000E+00  0.0000E+00  0.0000E+00  0.0000E+00  0.0000E+00  0.0000E+00  0.0000E+00  0.0000E+00  0.0000E+00  0.0000E+00  0.0000E+00  0.0000E+00  0.0000E+00  0.0000E+00  0.0000E+00  0.0000E+00  0.0000E+00  0.0000E+00  0.0000E+00  0.0000E+00  0.0000E+00  0.0000E+00  0.0000E+00  0.0000E+00  0.0000E+00  0.0000E+00  0.0000E+00  0.0000E+00
  0.4287E-08  0.4704E-08  0.9514E-08  0.1041E-07  0.1606E-07  0.1901E-07  0.2412E-07  0.2781E-07  0.3385E-07  0.3969E-07  0.4816E-07  0.5332E-07  0.6643E-07  0.7278E-07  0.8763E-07  0.9518E-07  0.1092E-06  0.1200E-06  0.1300E-06  0.1445E-06  0.1507E-06  0.1613E-06  0.1683E-06  0.1725E-06  0.1791E-06  0.1919E-06  0.1880E-06  0.1851E-06  0.1896E-06  0.1797E-06  0.1682E-06  0.1553E-06  0.1402E-06  0.1255E-06  0.1095E-06  0.8334E-07  0.6396E-07  0.4742E-07  0.3280E-07  0.2101E-07  0.1116E-07  0.6250E-08  0.2606E-08  0.0000E+00  0.0000E+00  0.0000E+00  0.0000E+00  0.0000E+00  0.0000E+00  0.0000E+00  0.0000E+00  0.0000E+00  0.0000E+00  0.0000E+00  0.0000E+00  0.0000E+00  0.0000E+00  0.0000E+00  0.0000E+00  0.0000E+00  0.0000E+00  0.0000E+00  0.0000E+00  0.0000E+00  0.0000E+00  0.0000E+00  0.0000E+00  0.0000E+00  0.0000E+00  0.0000E+00  0.0000E+00  0.0000E+00  0.0000E+00  0.0000E+00  0.0000E+00  0.0000E+00  0.0000E+00  0.0000E+00  0.0000E+00
  0.6071E-08  0.9664E-08  0.1202E-07  0.1641E-07  0.1949E-07  0.2481E-07  0.3040E-07  0.3506E-07  0.4308E-07  0.5021E-07  0.6108E-07  0.6972E-07  0.8240E-07  0.9266E-07  0.1049E-06  0.1191E-06  0.1330E-06  0.1486E-06  0.1604E-06  0.1783E-06  0.1870E-06  0.1993E-06  0.2231E-06  0.2282E-06  0.2513E-06  0.2676E-06  0.2647E-06  0.2728E-06  0.2627E-06  0.2610E-06  0.2450E-06  0.2268E-06  0.2053E-06  0.1839E-06  0.1507E-06  0.1298E-06  0.9042E-07  0.7065E-07  0.4999E-07  0.3462E-07  0.2122E-07  0.1099E-07  0.5547E-08  0.2043E-08  0.0000E+00  0.0000E+00  0.0000E+00  0.0000E+00  0.0000E+00  0.0000E+00  0.0000E+00  0.0000E+00  0.0000E+00  0.0000E+00  0.0000E+00  0.0000E+00  0.0000E+00  0.0000E+00  0.0000E+00  0.0000E+00  0.0000E+00  0.0000E+00  0.0000E+00  0.0000E+00  0.0000E+00  0.0000E+00  0.0000E+00  0.0000E+00  0.0000E+00  0.0000E+00  0.0000E+00  0.0000E+00  0.0000E+00  0.0000E+00  0.0000E+00  0.0000E+00  0.0000E+00  0.0000E+00  0.0000E+00
  0.9747E-08  0.1216E-07  0.1665E-07  0.2142E-07  0.2532E-07  0.3113E-07  0.3602E-07  0.4635E-07  0.5331E-07  0.6548E-07  0.7409E-07  0.8840E-07  0.9881E-07  0.1170E-06  0.1277E-06  0.1485E-06  0.1608E-06  0.1806E-06  0.1965E-06  0.2145E-06  0.2427E-06  0.2543E-06  0.3004E-06  0.3111E-06  0.3495E-06  0.3709E-06  0.3726E-06  0.3808E-06  0.3681E-06  0.3622E-06  0.3411E-06  0.3166E-06  0.2875E-06  0.2526E-06  0.2235E-06  0.1869E-06  0.1433E-06  0.1001E-06  0.7494E-07  0.5366E-07  0.3617E-07  0.2194E-07  0.1016E-07  0.4834E-08  0.1010E-08  0.0000E+00  0.0000E+00  0.0000E+00  0.0000E+00  0.0000E+00  0.0000E+00  0.0000E+00  0.0000E+00  0.0000E+00  0.0000E+00  0.0000E+00  0.0000E+00  0.0000E+00  0.0000E+00  0.0000E+00  0.0000E+00  0.0000E+00  0.0000E+00  0.0000E+00  0.0000E+00  0.0000E+00  0.0000E+00  0.0000E+00  0.0000E+00  0.0000E+00  0.0000E+00  0.0000E+00  0.0000E+00  0.0000E+00  0.0000E+00  0.0000E+00  0.0000E+00  0.0000E+00  0.0000E+00
  0.1222E-07  0.1677E-07  0.2163E-07  0.2565E-07  0.3342E-07  0.3803E-07  0.4738E-07  0.5468E-07  0.6877E-07  0.7649E-07  0.9310E-07  0.1049E-06  0.1221E-06  0.1379E-06  0.1562E-06  0.1744E-06  0.1954E-06  0.2128E-06  0.2488E-06  0.2679E-06  0.3180E-06  0.3390E-06  0.4036E-06  0.4229E-06  0.4739E-06  0.5010E-06  0.5025E-06  0.5134E-06  0.4983E-06  0.4780E-06  0.4708E-06  0.4315E-06  0.4046E-06  0.3586E-06  0.3164E-06  0.2663E-06  0.2263E-06  0.1592E-06  0.1142E-06  0.8139E-07  0.5625E-07  0.3590E-07  0.2039E-07  0.9172E-08  0.4064E-08  0.4942E-09  0.0000E+00  0.0000E+00  0.0000E+00  0.0000E+00  0.0000E+00  0.0000E+00  0.0000E+00  0.0000E+00  0.0000E+00  0.0000E+00  0.0000E+00  0.0000E+00  0.0000E+00  0.0000E+00  0.0000E+00  0.0000E+00  0.0000E+00  0.0000E+00  0.0000E+00  0.0000E+00  0.0000E+00  0.0000E+00  0.0000E+00  0.0000E+00  0.0000E+00  0.0000E+00  0.0000E+00  0.0000E+00  0.0000E+00  0.0000E+00  0.0000E+00  0.0000E+00  0.0000E+00
  0.1677E-07  0.2168E-07  0.2579E-07  0.3367E-07  0.3846E-07  0.4803E-07  0.5563E-07  0.7013E-07  0.8032E-07  0.9558E-07  0.1097E-06  0.1263E-06  0.1456E-06  0.1646E-06  0.1854E-06  0.2075E-06  0.2314E-06  0.2676E-06  0.3211E-06  0.3632E-06  0.4228E-06  0.4828E-06  0.5298E-06  0.5626E-06  0.6224E-06  0.6590E-06  0.6642E-06  0.6718E-06  0.6677E-06  0.6589E-06  0.6358E-06  0.6075E-06  0.5630E-06  0.5090E-06  0.4355E-06  0.3862E-06  0.2974E-06  0.2492E-06  0.1831E-06  0.1230E-06  0.8350E-07  0.5639E-07  0.3581E-07  0.1929E-07  0.8161E-08  0.3337E-08  0.0000E+00  0.0000E+00  0.0000E+00  0.0000E+00  0.0000E+00  0.0000E+00  0.0000E+00  0.0000E+00  0.0000E+00  0.0000E+00  0.0000E+00  0.0000E+00  0.0000E+00  0.0000E+00  0.0000E+00  0.0000E+00  0.0000E+00  0.0000E+00  0.0000E+00  0.0000E+00  0.0000E+00  0.0000E+00  0.0000E+00  0.0000E+00  0.0000E+00  0.0000E+00  0.0000E+00  0.0000E+00  0.0000E+00  0.0000E+00  0.0000E+00  0.0000E+00  0.0000E+00
  0.2157E-07  0.2574E-07  0.3190E-07  0.3859E-07  0.4831E-07  0.5615E-07  0.7095E-07  0.8154E-07  0.9732E-07  0.1120E-06  0.1312E-06  0.1498E-06  0.1700E-06  0.1922E-06  0.2160E-06  0.2577E-06  0.2956E-06  0.3428E-06  0.4042E-06  0.4879E-06  0.5472E-06  0.6377E-06  0.6863E-06  0.7294E-06  0.8057E-06  0.8462E-06  0.8701E-06  0.8979E-06  0.8938E-06  0.8960E-06  0.8652E-06  0.8206E-06  0.7595E-06  0.6813E-06  0.6096E-06  0.5164E-06  0.4348E-06  0.3484E-06  0.2716E-06  0.2029E-06  0.1287E-06  0.8682E-07  0.5683E-07  0.3302E-07  0.1732E-07  0.6713E-08  0.3465E-08  0.1512E-08  0.0000E+00  0.0000E+00  0.0000E+00  0.0000E+00  0.0000E+00  0.0000E+00  0.0000E+00  0.0000E+00  0.0000E+00  0.0000E+00  0.0000E+00  0.0000E+00  0.0000E+00  0.0000E+00  0.0000E+00  0.0000E+00  0.0000E+00  0.0000E+00  0.0000E+00  0.0000E+00  0.0000E+00  0.0000E+00  0.0000E+00  0.0000E+00  0.0000E+00  0.0000E+00  0.0000E+00  0.0000E+00  0.0000E+00  0.0000E+00  0.0000E+00
  0.2549E-07  0.3167E-07  0.3842E-07  0.4820E-07  0.5622E-07  0.7118E-07  0.8208E-07  0.9823E-07  0.1135E-06  0.1332E-06  0.1527E-06  0.1739E-06  0.2023E-06  0.2226E-06  0.2664E-06  0.3093E-06  0.3734E-06  0.4438E-06  0.5221E-06  0.6211E-06  0.6972E-06  0.8067E-06  0.8720E-06  0.9485E-06  0.1036E-05  0.1086E-05  0.1137E-05  0.1203E-05  0.1185E-05  0.1185E-05  0.1147E-05  0.1092E-05  0.1016E-05  0.9222E-06  0.8166E-06  0.7060E-06  0.5916E-06  0.4846E-06  0.3832E-06  0.2856E-06  0.2149E-06  0.1272E-06  0.8676E-07  0.5554E-07  0.3317E-07  0.1725E-07  0.8372E-08  0.5433E-08  0.2117E-08  0.0000E+00  0.0000E+00  0.0000E+00  0.0000E+00  0.0000E+00  0.0000E+00  0.0000E+00  0.0000E+00  0.0000E+00  0.0000E+00  0.0000E+00  0.0000E+00  0.0000E+00  0.0000E+00  0.0000E+00  0.0000E+00  0.0000E+00  0.0000E+00  0.0000E+00  0.0000E+00  0.0000E+00  0.0000E+00  0.0000E+00  0.0000E+00  0.0000E+00  0.0000E+00  0.0000E+00  0.0000E+00  0.0000E+00  0.0000E+00
  0.2955E-07  0.3669E-07  0.4583E-07  0.5585E-07  0.7084E-07  0.8000E-07  0.9833E-07  0.1140E-06  0.1342E-06  0.1543E-06  0.1763E-06  0.2026E-06  0.2273E-06  0.2726E-06  0.3178E-06  0.3879E-06  0.4760E-06  0.5790E-06  0.6739E-06  0.7972E-06  0.8768E-06  0.1009E-05  0.1095E-05  0.1205E-05  0.1328E-05  0.1444E-05  0.1473E-05  0.1537E-05  0.1537E-05  0.1536E-05  0.1486E-05  0.1426E-05  0.1319E-05  0.1223E-05  0.1080E-05  0.9537E-06  0.8018E-06  0.6640E-06  0.5341E-06  0.4163E-06  0.2962E-06  0.2241E-06  0.1282E-06  0.8561E-07  0.5424E-07  0.3279E-07  0.1959E-07  0.1147E-07  0.5699E-08  0.3250E-08  0.4756E-09  0.0000E+00  0.0000E+00  0.0000E+00  0.0000E+00  0.0000E+00  0.0000E+00  0.0000E+00  0.0000E+00  0.0000E+00  0.0000E+00  0.0000E+00  0.0000E+00  0.0000E+00  0.0000E+00  0.0000E+00  0.0000E+00  0.0000E+00  0.0000E+00  0.0000E+00  0.0000E+00  0.0000E+00  0.0000E+00  0.0000E+00  0.0000E+00  0.0000E+00  0.0000E+00  0.0000E+00  0.0000E+00
  0.3597E-07  0.4327E-07  0.5504E-07  0.6652E-07  0.7928E-07  0.9762E-07  0.1098E-06  0.1323E-06  0.1520E-06  0.1771E-06  0.2042E-06  0.2300E-06  0.2761E-06  0.3231E-06  0.3956E-06  0.5032E-06  0.6142E-06  0.7392E-06  0.8574E-06  0.9887E-06  0.1088E-05  0.1251E-05  0.1375E-05  0.1549E-05  0.1692E-05  0.1817E-05  0.1876E-05  0.1954E-05  0.1962E-05  0.1946E-05  0.1899E-05  0.1818E-05  0.1716E-05  0.1568E-05  0.1433E-05  0.1265E-05  0.1088E-05  0.9230E-06  0.7373E-06  0.5960E-06  0.4458E-06  0.3104E-06  0.2304E-06  0.1309E-06  0.8639E-07  0.5652E-07  0.3766E-07  0.2323E-07  0.1558E-07  0.8379E-08  0.3322E-08  0.9553E-09  0.0000E+00  0.0000E+00  0.0000E+00  0.0000E+00  0.0000E+00  0.0000E+00  0.0000E+00  0.0000E+00  0.0000E+00  0.0000E+00  0.0000E+00  0.0000E+00  0.0000E+00  0.0000E+00  0.0000E+00  0.0000E+00  0.0000E+00  0.0000E+00  0.0000E+00  0.0000E+00  0.0000E+00  0.0000E+00  0.0000E+00  0.0000E+00  0.0000E+00  0.0000E+00  0.0000E+00
  0.4055E-07  0.5247E-07  0.6329E-07  0.7791E-07  0.9242E-07  0.1085E-06  0.1310E-06  0.1487E-06  0.1764E-06  0.1994E-06  0.2304E-06  0.2641E-06  0.3229E-06  0.3963E-06  0.5106E-06  0.6417E-06  0.7567E-06  0.9076E-06  0.1055E-05  0.1215E-05  0.1380E-05  0.1570E-05  0.1741E-05  0.1948E-05  0.2123E-05  0.2275E-05  0.2364E-05  0.2443E-05  0.2472E-05  0.2459E-05  0.2386E-05  0.2320E-05  0.2182E-05  0.2036E-05  0.1852E-05  0.1656E-05  0.1447E-05  0.1220E-05  0.1027E-05  0.8071E-06  0.6402E-06  0.4693E-06  0.3216E-06  0.2375E-06  0.1351E-06  0.9232E-07  0.5973E-07  0.4414E-07  0.3082E-07  0.1872E-07  0.1134E-07  0.3336E-08  0.9557E-09  0.0000E+00  0.0000E+00  0.0000E+00  0.0000E+00  0.0000E+00  0.0000E+00  0.0000E+00  0.0000E+00  0.0000E+00  0.0000E+00  0.0000E+00  0.0000E+00  0.0000E+00  0.0000E+00  0.0000E+00  0.0000E+00  0.0000E+00  0.0000E+00  0.0000E+00  0.0000E+00  0.0000E+00  0.0000E+00  0.0000E+00  0.0000E+00  0.0000E+00  0.0000E+00
  0.4902E-07  0.5849E-07  0.7453E-07  0.8829E-07  0.1064E-06  0.1262E-06  0.1449E-06  0.1723E-06  0.1949E-06  0.2288E-06  0.2579E-06  0.3214E-06  0.3950E-06  0.5107E-06  0.6449E-06  0.7835E-06  0.9454E-06  0.1126E-05  0.1304E-05  0.1479E-05  0.1734E-05  0.1942E-05  0.2191E-05  0.2458E-05  0.2630E-05  0.2816E-05  0.2953E-05  0.3034E-05  0.3078E-05  0.3073E-05  0.3003E-05  0.2920E-05  0.2773E-05  0.2588E-05  0.2381E-05  0.2146E-05  0.1896E-05  0.1637E-05  0.1360E-05  0.1126E-05  0.8698E-06  0.6698E-06  0.4902E-06  0.3345E-06  0.2463E-06  0.1371E-06  0.9857E-07  0.7123E-07  0.5064E-07  0.3559E-07  0.2207E-07  0.1331E-07  0.5255E-08  0.4816E-09  0.0000E+00  0.0000E+00  0.0000E+00  0.0000E+00  0.0000E+00  0.0000E+00  0.0000E+00  0.0000E+00  0.0000E+00  0.0000E+00  0.0000E+00  0.0000E+00  0.0000E+00  0.0000E+00  0.0000E+00  0.0000E+00  0.0000E+00  0.0000E+00  0.0000E+00  0.0000E+00  0.0000E+00  0.0000E+00  0.0000E+00  0.0000E+00  0.0000E+00
  0.5651E-07  0.7008E-07  0.8234E-07  0.1019E-06  0.1171E-06  0.1416E-06  0.1636E-06  0.1897E-06  0.2202E-06  0.2519E-06  0.3036E-06  0.3762E-06  0.4876E-06  0.6218E-06  0.7817E-06  0.9686E-06  0.1161E-05  0.1360E-05  0.1597E-05  0.1823E-05  0.2124E-05  0.2417E-05  0.2698E-05  0.3012E-05  0.3223E-05  0.3448E-05  0.3621E-05  0.3729E-05  0.3793E-05  0.3788E-05  0.3738E-05  0.3623E-05  0.3493E-05  0.3271E-05  0.3037E-05  0.2765E-05  0.2460E-05  0.2144E-05  0.1826E-05  0.1486E-05  0.1215E-05  0.9246E-06  0.7213E-06  0.5144E-06  0.3712E-06  0.2531E-06  0.1718E-06  0.1104E-06  0.8201E-07  0.5716E-07  0.4037E-07  0.2548E-07  0.1446E-07  0.6812E-08  0.0000E+00  0.0000E+00  0.0000E+00  0.0000E+00  0.0000E+00  0.0000E+00  0.0000E+00  0.0000E+00  0.0000E+00  0.0000E+00  0.0000E+00  0.0000E+00  0.0000E+00  0.0000E+00  0.0000E+00  0.0000E+00  0.0000E+00  0.0000E+00  0.0000E+00  0.0000E+00  0.0000E+00  0.0000E+00  0.0000E+00  0.0000E+00  0.0000E+00
  0.6412E-07  0.7931E-07  0.9400E-07  0.1118E-06  0.1330E-06  0.1550E-06  0.1847E-06  0.2122E-06  0.2446E-06  0.2822E-06  0.3624E-06  0.4760E-06  0.5942E-06  0.7659E-06  0.9746E-06  0.1181E-05  0.1415E-05  0.1634E-05  0.1927E-05  0.2220E-05  0.2617E-05  0.2951E-05  0.3331E-05  0.3659E-05  0.3955E-05  0.4185E-05  0.4400E-05  0.4542E-05  0.4618E-05  0.4648E-05  0.4587E-05  0.4497E-05  0.4336E-05  0.4110E-05  0.3848E-05  0.3510E-05  0.3183E-05  0.2784E-05  0.2392E-05  0.2006E-05  0.1617E-05  0.1297E-05  0.9786E-06  0.7497E-06  0.5340E-06  0.3998E-06  0.2646E-06  0.1971E-06  0.1222E-06  0.9002E-07  0.6253E-07  0.4091E-07  0.2727E-07  0.1562E-07  0.6374E-08  0.6214E-09  0.0000E+00  0.0000E+00  0.0000E+00  0.0000E+00  0.0000E+00  0.0000E+00  0.0000E+00  0.0000E+00  0.0000E+00  0.0000E+00  0.0000E+00  0.0000E+00  0.0000E+00  0.0000E+00  0.0000E+00  0.0000E+00  0.0000E+00  0.0000E+00  0.0000E+00  0.0000E+00  0.0000E+00  0.0000E+00  0.0000E+00
  0.7234E-07  0.8673E-07  0.1073E-06  0.1258E-06  0.1478E-06  0.1740E-06  0.2013E-06  0.2373E-06  0.2687E-06  0.3220E-06  0.4161E-06  0.5577E-06  0.7276E-06  0.9537E-06  0.1180E-05  0.1406E-05  0.1684E-05  0.1984E-05  0.2351E-05  0.2701E-05  0.3189E-05  0.3611E-05  0.4017E-05  0.4404E-05  0.4779E-05  0.5039E-05  0.5305E-05  0.5473E-05  0.5602E-05  0.5634E-05  0.5617E-05  0.5510E-05  0.5350E-05  0.5111E-05  0.4803E-05  0.4453E-05  0.4021E-05  0.3594E-05  0.3110E-05  0.2628E-05  0.2183E-05  0.1739E-05  0.1383E-05  0.1033E-05  0.7880E-06  0.5472E-06  0.4106E-06  0.3106E-06  0.2040E-06  0.1562E-06  0.9239E-07  0.6457E-07  0.4307E-07  0.2706E-07  0.1510E-07  0.6569E-08  0.6326E-09  0.0000E+00  0.0000E+00  0.0000E+00  0.0000E+00  0.0000E+00  0.0000E+00  0.0000E+00  0.0000E+00  0.0000E+00  0.0000E+00  0.0000E+00  0.0000E+00  0.0000E+00  0.0000E+00  0.0000E+00  0.0000E+00  0.0000E+00  0.0000E+00  0.0000E+00  0.0000E+00  0.0000E+00  0.0000E+00
  0.8113E-07  0.9648E-07  0.1166E-06  0.1390E-06  0.1604E-06  0.1916E-06  0.2210E-06  0.2574E-06  0.2978E-06  0.3798E-06  0.5169E-06  0.6795E-06  0.9150E-06  0.1145E-05  0.1397E-05  0.1706E-05  0.2014E-05  0.2390E-05  0.2816E-05  0.3342E-05  0.3848E-05  0.4327E-05  0.4804E-05  0.5259E-05  0.5686E-05  0.6012E-05  0.6339E-05  0.6569E-05  0.6741E-05  0.6811E-05  0.6803E-05  0.6721E-05  0.6554E-05  0.6308E-05  0.5984E-05  0.5562E-05  0.5114E-05  0.4570E-05  0.4040E-05  0.3450E-05  0.2909E-05  0.2371E-05  0.1886E-05  0.1484E-05  0.1108E-05  0.8374E-06  0.6196E-06  0.4459E-06  0.3409E-06  0.2156E-06  0.1586E-06  0.9430E-07  0.6448E-07  0.4323E-07  0.2621E-07  0.1380E-07  0.5580E-08  0.6306E-09  0.0000E+00  0.0000E+00  0.0000E+00  0.0000E+00  0.0000E+00  0.0000E+00  0.0000E+00  0.0000E+00  0.0000E+00  0.0000E+00  0.0000E+00  0.0000E+00  0.0000E+00  0.0000E+00  0.0000E+00  0.0000E+00  0.0000E+00  0.0000E+00  0.0000E+00  0.0000E+00  0.0000E+00
  0.8800E-07  0.1091E-06  0.1282E-06  0.1527E-06  0.1758E-06  0.2069E-06  0.2415E-06  0.2779E-06  0.3351E-06  0.4464E-06  0.6129E-06  0.8190E-06  0.1074E-05  0.1344E-05  0.1662E-05  0.2005E-05  0.2402E-05  0.2888E-05  0.3408E-05  0.3988E-05  0.4605E-05  0.5169E-05  0.5749E-05  0.6235E-05  0.6742E-05  0.7167E-05  0.7531E-05  0.7835E-05  0.8046E-05  0.8182E-05  0.8202E-05  0.8149E-05  0.8007E-05  0.7735E-05  0.7395E-05  0.6946E-05  0.6394E-05  0.5821E-05  0.5144E-05  0.4507E-05  0.3815E-05  0.3192E-05  0.2586E-05  0.2073E-05  0.1595E-05  0.1213E-05  0.8951E-06  0.6832E-06  0.4820E-06  0.3578E-06  0.2402E-06  0.1774E-06  0.1025E-06  0.6518E-07  0.3987E-07  0.2431E-07  0.1241E-07  0.4284E-08  0.6160E-09  0.0000E+00  0.0000E+00  0.0000E+00  0.0000E+00  0.0000E+00  0.0000E+00  0.0000E+00  0.0000E+00  0.0000E+00  0.0000E+00  0.0000E+00  0.0000E+00  0.0000E+00  0.0000E+00  0.0000E+00  0.0000E+00  0.0000E+00  0.0000E+00  0.0000E+00  0.0000E+00
  0.9702E-07  0.1175E-06  0.1404E-06  0.1625E-06  0.1917E-06  0.2249E-06  0.2626E-06  0.3016E-06  0.3895E-06  0.5280E-06  0.7034E-06  0.9905E-06  0.1270E-05  0.1609E-05  0.1961E-05  0.2368E-05  0.2829E-05  0.3431E-05  0.4044E-05  0.4769E-05  0.5442E-05  0.6123E-05  0.6794E-05  0.7343E-05  0.7946E-05  0.8455E-05  0.8915E-05  0.9272E-05  0.9580E-05  0.9752E-05  0.9850E-05  0.9824E-05  0.9671E-05  0.9432E-05  0.9033E-05  0.8549E-05  0.7939E-05  0.7237E-05  0.6498E-05  0.5681E-05  0.4915E-05  0.4116E-05  0.3424E-05  0.2743E-05  0.2177E-05  0.1688E-05  0.1281E-05  0.9849E-06  0.7459E-06  0.5479E-06  0.3901E-06  0.2634E-06  0.1913E-06  0.1153E-06  0.7687E-07  0.4346E-07  0.2045E-07  0.1020E-07  0.3486E-08  0.0000E+00  0.0000E+00  0.0000E+00  0.0000E+00  0.0000E+00  0.0000E+00  0.0000E+00  0.0000E+00  0.0000E+00  0.0000E+00  0.0000E+00  0.0000E+00  0.0000E+00  0.0000E+00  0.0000E+00  0.0000E+00  0.0000E+00  0.0000E+00  0.0000E+00  0.0000E+00
  0.1064E-06  0.1260E-06  0.1528E-06  0.1764E-06  0.2080E-06  0.2406E-06  0.2807E-06  0.3255E-06  0.4462E-06  0.6201E-06  0.8696E-06  0.1164E-05  0.1515E-05  0.1887E-05  0.2280E-05  0.2786E-05  0.3372E-05  0.4069E-05  0.4789E-05  0.5610E-05  0.6413E-05  0.7176E-05  0.7955E-05  0.8662E-05  0.9311E-05  0.9938E-05  0.1047E-04  0.1095E-04  0.1131E-04  0.1157E-04  0.1171E-04  0.1172E-04  0.1161E-04  0.1131E-04  0.1092E-04  0.1037E-04  0.9725E-05  0.8937E-05  0.8092E-05  0.7187E-05  0.6245E-05  0.5384E-05  0.4495E-05  0.3724E-05  0.3021E-05  0.2375E-05  0.1878E-05  0.1476E-05  0.1151E-05  0.8628E-06  0.6433E-06  0.4792E-06  0.3161E-06  0.1986E-06  0.1289E-06  0.8395E-07  0.5411E-07  0.2842E-07  0.9847E-08  0.2657E-08  0.0000E+00  0.0000E+00  0.0000E+00  0.0000E+00  0.0000E+00  0.0000E+00  0.0000E+00  0.0000E+00  0.0000E+00  0.0000E+00  0.0000E+00  0.0000E+00  0.0000E+00  0.0000E+00  0.0000E+00  0.0000E+00  0.0000E+00  0.0000E+00  0.0000E+00
  0.1160E-06  0.1350E-06  0.1611E-06  0.1905E-06  0.2214E-06  0.2589E-06  0.2987E-06  0.3711E-06  0.5131E-06  0.7193E-06  0.1016E-05  0.1362E-05  0.1763E-05  0.2179E-05  0.2688E-05  0.3270E-05  0.3988E-05  0.4811E-05  0.5679E-05  0.6585E-05  0.7512E-05  0.8373E-05  0.9250E-05  0.1010E-04  0.1088E-04  0.1161E-04  0.1227E-04  0.1281E-04  0.1328E-04  0.1360E-04  0.1381E-04  0.1388E-04  0.1377E-04  0.1353E-04  0.1308E-04  0.1254E-04  0.1178E-04  0.1096E-04  0.9991E-05  0.8963E-05  0.7913E-05  0.6854E-05  0.5831E-05  0.4872E-05  0.3974E-05  0.3211E-05  0.2543E-05  0.2041E-05  0.1612E-05  0.1284E-05  0.1005E-05  0.7673E-06  0.5875E-06  0.4267E-06  0.2949E-06  0.1968E-06  0.9765E-07  0.6024E-07  0.3671E-07  0.1717E-07  0.3894E-08  0.0000E+00  0.0000E+00  0.0000E+00  0.0000E+00  0.0000E+00  0.0000E+00  0.0000E+00  0.0000E+00  0.0000E+00  0.0000E+00  0.0000E+00  0.0000E+00  0.0000E+00  0.0000E+00  0.0000E+00  0.0000E+00  0.0000E+00  0.0000E+00
  0.1217E-06  0.1458E-06  0.1710E-06  0.2019E-06  0.2347E-06  0.2752E-06  0.3170E-06  0.4221E-06  0.5780E-06  0.8478E-06  0.1218E-05  0.1598E-05  0.2022E-05  0.2554E-05  0.3109E-05  0.3805E-05  0.4703E-05  0.5605E-05  0.6646E-05  0.7688E-05  0.8733E-05  0.9704E-05  0.1072E-04  0.1169E-04  0.1261E-04  0.1347E-04  0.1427E-04  0.1493E-04  0.1550E-04  0.1593E-04  0.1619E-04  0.1634E-04  0.1626E-04  0.1602E-04  0.1560E-04  0.1506E-04  0.1432E-04  0.1335E-04  0.1229E-04  0.1110E-04  0.9903E-05  0.8636E-05  0.7439E-05  0.6278E-05  0.5234E-05  0.4252E-05  0.3443E-05  0.2752E-05  0.2227E-05  0.1759E-05  0.1388E-05  0.1122E-05  0.8917E-06  0.6780E-06  0.5493E-06  0.4215E-06  0.2769E-06  0.1874E-06  0.9444E-07  0.4065E-07  0.2404E-07  0.8242E-08  0.0000E+00  0.0000E+00  0.0000E+00  0.0000E+00  0.0000E+00  0.0000E+00  0.0000E+00  0.0000E+00  0.0000E+00  0.0000E+00  0.0000E+00  0.0000E+00  0.0000E+00  0.0000E+00  0.0000E+00  0.0000E+00  0.0000E+00
  0.1289E-06  0.1541E-06  0.1807E-06  0.2139E-06  0.2482E-06  0.2901E-06  0.3340E-06  0.4767E-06  0.6938E-06  0.9656E-06  0.1383E-05  0.1820E-05  0.2335E-05  0.2921E-05  0.3627E-05  0.4443E-05  0.5476E-05  0.6578E-05  0.7706E-05  0.8930E-05  0.1010E-04  0.1126E-04  0.1237E-04  0.1350E-04  0.1455E-04  0.1558E-04  0.1650E-04  0.1732E-04  0.1798E-04  0.1849E-04  0.1892E-04  0.1911E-04  0.1916E-04  0.1891E-04  0.1845E-04  0.1781E-04  0.1696E-04  0.1593E-04  0.1467E-04  0.1336E-04  0.1191E-04  0.1050E-04  0.9102E-05  0.7747E-05  0.6493E-05  0.5330E-05  0.4315E-05  0.3492E-05  0.2803E-05  0.2273E-05  0.1855E-05  0.1501E-05  0.1216E-05  0.9957E-06  0.8159E-06  0.6442E-06  0.5043E-06  0.3945E-06  0.2525E-06  0.1677E-06  0.6992E-07  0.2936E-07  0.1428E-07  0.5356E-08  0.0000E+00  0.0000E+00  0.0000E+00  0.0000E+00  0.0000E+00  0.0000E+00  0.0000E+00  0.0000E+00  0.0000E+00  0.0000E+00  0.0000E+00  0.0000E+00  0.0000E+00  0.0000E+00  0.0000E+00
  0.1358E-06  0.1604E-06  0.1905E-06  0.2247E-06  0.2605E-06  0.3043E-06  0.3510E-06  0.5325E-06  0.8075E-06  0.1144E-05  0.1604E-05  0.2137E-05  0.2709E-05  0.3333E-05  0.4182E-05  0.5140E-05  0.6369E-05  0.7624E-05  0.8949E-05  0.1028E-04  0.1163E-04  0.1295E-04  0.1420E-04  0.1550E-04  0.1673E-04  0.1790E-04  0.1901E-04  0.1996E-04  0.2078E-04  0.2142E-04  0.2188E-04  0.2221E-04  0.2222E-04  0.2202E-04  0.2150E-04  0.2076E-04  0.1975E-04  0.1853E-04  0.1716E-04  0.1564E-04  0.1404E-04  0.1243E-04  0.1081E-04  0.9282E-05  0.7811E-05  0.6487E-05  0.5281E-05  0.4277E-05  0.3475E-05  0.2809E-05  0.2286E-05  0.1867E-05  0.1564E-05  0.1316E-05  0.1091E-05  0.8946E-06  0.7487E-06  0.6143E-06  0.4714E-06  0.3480E-06  0.2258E-06  0.1331E-06  0.3480E-07  0.2061E-07  0.8275E-08  0.0000E+00  0.0000E+00  0.0000E+00  0.0000E+00  0.0000E+00  0.0000E+00  0.0000E+00  0.0000E+00  0.0000E+00  0.0000E+00  0.0000E+00  0.0000E+00  0.0000E+00  0.0000E+00
  0.1430E-06  0.1706E-06  0.1993E-06  0.2330E-06  0.2728E-06  0.3155E-06  0.3662E-06  0.5943E-06  0.9081E-06  0.1319E-05  0.1854E-05  0.2414E-05  0.3072E-05  0.3850E-05  0.4833E-05  0.6015E-05  0.7403E-05  0.8787E-05  0.1029E-04  0.1179E-04  0.1328E-04  0.1480E-04  0.1626E-04  0.1773E-04  0.1918E-04  0.2053E-04  0.2175E-04  0.2288E-04  0.2382E-04  0.2457E-04  0.2512E-04  0.2538E-04  0.2544E-04  0.2513E-04  0.2461E-04  0.2374E-04  0.2263E-04  0.2128E-04  0.1974E-04  0.1803E-04  0.1626E-04  0.1440E-04  0.1261E-04  0.1084E-04  0.9193E-05  0.7620E-05  0.6239E-05  0.5053E-05  0.4089E-05  0.3355E-05  0.2768E-05  0.2297E-05  0.1908E-05  0.1599E-05  0.1366E-05  0.1194E-05  0.1003E-05  0.8322E-06  0.6997E-06  0.5504E-06  0.4207E-06  0.2846E-06  0.1885E-06  0.4384E-07  0.2115E-07  0.1129E-07  0.2639E-08  0.0000E+00  0.0000E+00  0.0000E+00  0.0000E+00  0.0000E+00  0.0000E+00  0.0000E+00  0.0000E+00  0.0000E+00  0.0000E+00  0.0000E+00  0.0000E+00
  0.1493E-06  0.1761E-06  0.2058E-06  0.2425E-06  0.2837E-06  0.3277E-06  0.3779E-06  0.6612E-06  0.1043E-05  0.1560E-05  0.2103E-05  0.2744E-05  0.3533E-05  0.4371E-05  0.5516E-05  0.6903E-05  0.8499E-05  0.1011E-04  0.1178E-04  0.1346E-04  0.1511E-04  0.1684E-04  0.1851E-04  0.2022E-04  0.2185E-04  0.2339E-04  0.2481E-04  0.2601E-04  0.2708E-04  0.2787E-04  0.2846E-04  0.2876E-04  0.2875E-04  0.2847E-04  0.2779E-04  0.2689E-04  0.2560E-04  0.2411E-04  0.2238E-04  0.2051E-04  0.1852E-04  0.1648E-04  0.1445E-04  0.1248E-04  0.1057E-04  0.8827E-05  0.7216E-05  0.5839E-05  0.4745E-05  0.3875E-05  0.3184E-05  0.2659E-05  0.2260E-05  0.1949E-05  0.1698E-05  0.1420E-05  0.1227E-05  0.1104E-05  0.8775E-06  0.7724E-06  0.6319E-06  0.4658E-06  0.3463E-06  0.2172E-06  0.1160E-06  0.2723E-07  0.1433E-07  0.5356E-08  0.0000E+00  0.0000E+00  0.0000E+00  0.0000E+00  0.0000E+00  0.0000E+00  0.0000E+00  0.0000E+00  0.0000E+00  0.0000E+00  0.0000E+00
  0.1535E-06  0.1829E-06  0.2159E-06  0.2492E-06  0.2914E-06  0.3366E-06  0.3904E-06  0.7079E-06  0.1162E-05  0.1752E-05  0.2377E-05  0.3114E-05  0.3988E-05  0.5057E-05  0.6351E-05  0.7957E-05  0.9747E-05  0.1151E-04  0.1341E-04  0.1528E-04  0.1713E-04  0.1908E-04  0.2104E-04  0.2289E-04  0.2476E-04  0.2644E-04  0.2799E-04  0.2936E-04  0.3044E-04  0.3136E-04  0.3193E-04  0.3229E-04  0.3223E-04  0.3186E-04  0.3112E-04  0.3000E-04  0.2863E-04  0.2695E-04  0.2502E-04  0.2297E-04  0.2076E-04  0.1853E-04  0.1627E-04  0.1408E-04  0.1198E-04  0.9989E-05  0.8202E-05  0.6700E-05  0.5424E-05  0.4411E-05  0.3626E-05  0.3036E-05  0.2587E-05  0.2236E-05  0.1952E-05  0.1725E-05  0.1535E-05  0.1270E-05  0.1148E-05  0.1017E-05  0.8057E-06  0.6908E-06  0.4826E-06  0.4013E-06  0.2260E-06  0.1703E-06  0.2760E-07  0.1451E-07  0.5416E-08  0.0000E+00  0.0000E+00  0.0000E+00  0.0000E+00  0.0000E+00  0.0000E+00  0.0000E+00  0.0000E+00  0.0000E+00  0.0000E+00
  0.1572E-06  0.1872E-06  0.2210E-06  0.2569E-06  0.2981E-06  0.3442E-06  0.4962E-06  0.7818E-06  0.1321E-05  0.1989E-05  0.2741E-05  0.3562E-05  0.4498E-05  0.5774E-05  0.7285E-05  0.9135E-05  0.1110E-04  0.1316E-04  0.1519E-04  0.1731E-04  0.1943E-04  0.2157E-04  0.2371E-04  0.2582E-04  0.2784E-04  0.2973E-04  0.3141E-04  0.3284E-04  0.3407E-04  0.3494E-04  0.3560E-04  0.3584E-04  0.3579E-04  0.3527E-04  0.3440E-04  0.3319E-04  0.3163E-04  0.2975E-04  0.2768E-04  0.2540E-04  0.2304E-04  0.2062E-04  0.1822E-04  0.1585E-04  0.1355E-04  0.1140E-04  0.9414E-05  0.7683E-05  0.6273E-05  0.5161E-05  0.4285E-05  0.3584E-05  0.3039E-05  0.2616E-05  0.2272E-05  0.1980E-05  0.1748E-05  0.1584E-05  0.1408E-05  0.1182E-05  0.1051E-05  0.8676E-06  0.7209E-06  0.5409E-06  0.4211E-06  0.2298E-06  0.1887E-06  0.3051E-07  0.1460E-07  0.5446E-08  0.0000E+00  0.0000E+00  0.0000E+00  0.0000E+00  0.0000E+00  0.0000E+00  0.0000E+00  0.0000E+00  0.0000E+00
  0.1620E-06  0.1926E-06  0.2251E-06  0.2617E-06  0.3057E-06  0.3503E-06  0.5639E-06  0.8586E-06  0.1440E-05  0.2256E-05  0.3054E-05  0.3996E-05  0.5139E-05  0.6590E-05  0.8303E-05  0.1046E-04  0.1260E-04  0.1488E-04  0.1717E-04  0.1951E-04  0.2191E-04  0.2427E-04  0.2667E-04  0.2896E-04  0.3120E-04  0.3322E-04  0.3501E-04  0.3656E-04  0.3777E-04  0.3871E-04  0.3925E-04  0.3950E-04  0.3926E-04  0.3868E-04  0.3764E-04  0.3624E-04  0.3449E-04  0.3248E-04  0.3018E-04  0.2777E-04  0.2518E-04  0.2259E-04  0.1998E-04  0.1740E-04  0.1494E-04  0.1261E-04  0.1048E-04  0.8643E-05  0.7123E-05  0.5903E-05  0.4947E-05  0.4193E-05  0.3584E-05  0.3118E-05  0.2738E-05  0.2392E-05  0.2092E-05  0.1860E-05  0.1642E-05  0.1458E-05  0.1207E-05  0.1069E-05  0.9041E-06  0.7316E-06  0.6013E-06  0.4223E-06  0.2314E-06  0.1808E-06  0.3056E-07  0.1460E-07  0.5446E-08  0.0000E+00  0.0000E+00  0.0000E+00  0.0000E+00  0.0000E+00  0.0000E+00  0.0000E+00  0.0000E+00
  0.1645E-06  0.1955E-06  0.2284E-06  0.2654E-06  0.3098E-06  0.3571E-06  0.6027E-06  0.9145E-06  0.1627E-05  0.2550E-05  0.3432E-05  0.4549E-05  0.5782E-05  0.7467E-05  0.9496E-05  0.1190E-04  0.1431E-04  0.1683E-04  0.1931E-04  0.2190E-04  0.2459E-04  0.2718E-04  0.2988E-04  0.3238E-04  0.3475E-04  0.3696E-04  0.3881E-04  0.4041E-04  0.4162E-04  0.4252E-04  0.4298E-04  0.4303E-04  0.4271E-04  0.4188E-04  0.4068E-04  0.3906E-04  0.3713E-04  0.3490E-04  0.3241E-04  0.2975E-04  0.2698E-04  0.2415E-04  0.2138E-04  0.1863E-04  0.1599E-04  0.1354E-04  0.1133E-04  0.9388E-05  0.7793E-05  0.6534E-05  0.5548E-05  0.4789E-05  0.4164E-05  0.3662E-05  0.3237E-05  0.2858E-05  0.2524E-05  0.2246E-05  0.1975E-05  0.1735E-05  0.1508E-05  0.1287E-05  0.1077E-05  0.9144E-06  0.7417E-06  0.6032E-06  0.4229E-06  0.2409E-06  0.1626E-06  0.3041E-07  0.1452E-07  0.5416E-08  0.0000E+00  0.0000E+00  0.0000E+00  0.0000E+00  0.0000E+00  0.0000E+00  0.0000E+00
  0.1663E-06  0.1975E-06  0.2307E-06  0.2680E-06  0.3126E-06  0.3602E-06  0.6628E-06  0.1120E-05  0.1803E-05  0.2830E-05  0.3858E-05  0.5095E-05  0.6550E-05  0.8455E-05  0.1084E-04  0.1347E-04  0.1615E-04  0.1891E-04  0.2172E-04  0.2455E-04  0.2749E-04  0.3046E-04  0.3331E-04  0.3605E-04  0.3859E-04  0.4081E-04  0.4279E-04  0.4430E-04  0.4552E-04  0.4624E-04  0.4659E-04  0.4646E-04  0.4584E-04  0.4483E-04  0.4340E-04  0.4153E-04  0.3938E-04  0.3691E-04  0.3423E-04  0.3136E-04  0.2840E-04  0.2542E-04  0.2245E-04  0.1957E-04  0.1684E-04  0.1431E-04  0.1202E-04  0.1004E-04  0.8406E-05  0.7117E-05  0.6104E-05  0.5291E-05  0.4654E-05  0.4147E-05  0.3725E-05  0.3342E-05  0.2988E-05  0.2681E-05  0.2359E-05  0.2099E-05  0.1815E-05  0.1581E-05  0.1302E-05  0.1080E-05  0.9073E-06  0.7513E-06  0.5839E-06  0.4110E-06  0.2581E-06  0.1414E-06  0.2717E-07  0.1157E-07  0.5357E-08  0.0000E+00  0.0000E+00  0.0000E+00  0.0000E+00  0.0000E+00  0.0000E+00
  0.1675E-06  0.1988E-06  0.2316E-06  0.2694E-06  0.3141E-06  0.3617E-06  0.7109E-06  0.1263E-05  0.1964E-05  0.3189E-05  0.4377E-05  0.5705E-05  0.7373E-05  0.9578E-05  0.1228E-04  0.1522E-04  0.1819E-04  0.2118E-04  0.2428E-04  0.2740E-04  0.3073E-04  0.3392E-04  0.3707E-04  0.3995E-04  0.4256E-04  0.4489E-04  0.4673E-04  0.4826E-04  0.4924E-04  0.4985E-04  0.4990E-04  0.4952E-04  0.4867E-04  0.4737E-04  0.4562E-04  0.4357E-04  0.4115E-04  0.3851E-04  0.3559E-04  0.3255E-04  0.2942E-04  0.2628E-04  0.2322E-04  0.2026E-04  0.1745E-04  0.1487E-04  0.1257E-04  0.1061E-04  0.8992E-05  0.7694E-05  0.6664E-05  0.5834E-05  0.5172E-05  0.4627E-05  0.4165E-05  0.3763E-05  0.3412E-05  0.3117E-05  0.2802E-05  0.2491E-05  0.2178E-05  0.1908E-05  0.1620E-05  0.1353E-05  0.1078E-05  0.8896E-06  0.7450E-06  0.5604E-06  0.3753E-06  0.2480E-06  0.1156E-06  0.2117E-07  0.1138E-07  0.2655E-08  0.0000E+00  0.0000E+00  0.0000E+00  0.0000E+00  0.0000E+00
  0.1680E-06  0.1992E-06  0.2320E-06  0.2697E-06  0.3115E-06  0.3615E-06  0.7625E-06  0.1414E-05  0.2275E-05  0.3548E-05  0.4879E-05  0.6451E-05  0.8368E-05  0.1084E-04  0.1388E-04  0.1716E-04  0.2043E-04  0.2376E-04  0.2721E-04  0.3073E-04  0.3427E-04  0.3776E-04  0.4102E-04  0.4408E-04  0.4674E-04  0.4896E-04  0.5077E-04  0.5204E-04  0.5286E-04  0.5308E-04  0.5291E-04  0.5218E-04  0.5102E-04  0.4939E-04  0.4744E-04  0.4508E-04  0.4246E-04  0.3954E-04  0.3648E-04  0.3326E-04  0.2999E-04  0.2676E-04  0.2366E-04  0.2065E-04  0.1783E-04  0.1526E-04  0.1303E-04  0.1112E-04  0.9534E-05  0.8359E-05  0.7314E-05  0.6391E-05  0.5713E-05  0.5144E-05  0.4640E-05  0.4219E-05  0.3831E-05  0.3493E-05  0.3183E-05  0.2885E-05  0.2574E-05  0.2249E-05  0.1959E-05  0.1623E-05  0.1380E-05  0.1055E-05  0.8638E-06  0.7132E-06  0.5239E-06  0.3429E-06  0.2052E-06  0.9955E-07  0.2074E-07  0.8426E-08  0.0000E+00  0.0000E+00  0.0000E+00  0.0000E+00  0.0000E+00
  0.1678E-06  0.1964E-06  0.2314E-06  0.2661E-06  0.3103E-06  0.3568E-06  0.8241E-06  0.1572E-05  0.2600E-05  0.3918E-05  0.5548E-05  0.7317E-05  0.9456E-05  0.1229E-04  0.1568E-04  0.1935E-04  0.2294E-04  0.2659E-04  0.3038E-04  0.3430E-04  0.3813E-04  0.4184E-04  0.4530E-04  0.4833E-04  0.5099E-04  0.5304E-04  0.5465E-04  0.5562E-04  0.5607E-04  0.5600E-04  0.5536E-04  0.5432E-04  0.5284E-04  0.5091E-04  0.4867E-04  0.4606E-04  0.4317E-04  0.4009E-04  0.3680E-04  0.3347E-04  0.3017E-04  0.2688E-04  0.2373E-04  0.2076E-04  0.1802E-04  0.1557E-04  0.1350E-04  0.1171E-04  0.1039E-04  0.9152E-05  0.8111E-05  0.7156E-05  0.6414E-05  0.5691E-05  0.5170E-05  0.4689E-05  0.4283E-05  0.3905E-05  0.3549E-05  0.3223E-05  0.2912E-05  0.2621E-05  0.2301E-05  0.1974E-05  0.1665E-05  0.1363E-05  0.1019E-05  0.8305E-06  0.6675E-06  0.4813E-06  0.3129E-06  0.1653E-06  0.7632E-07  0.1479E-07  0.5524E-08  0.0000E+00  0.0000E+00  0.0000E+00  0.0000E+00
  0.1669E-06  0.1953E-06  0.2299E-06  0.2642E-06  0.3078E-06  0.3537E-06  0.8599E-06  0.1703E-05  0.2874E-05  0.4437E-05  0.6209E-05  0.8318E-05  0.1086E-04  0.1404E-04  0.1771E-04  0.2179E-04  0.2575E-04  0.2971E-04  0.3396E-04  0.3819E-04  0.4236E-04  0.4624E-04  0.4970E-04  0.5271E-04  0.5509E-04  0.5697E-04  0.5815E-04  0.5879E-04  0.5880E-04  0.5827E-04  0.5727E-04  0.5585E-04  0.5400E-04  0.5181E-04  0.4924E-04  0.4643E-04  0.4331E-04  0.3998E-04  0.3662E-04  0.3319E-04  0.2995E-04  0.2675E-04  0.2369E-04  0.2082E-04  0.1825E-04  0.1597E-04  0.1414E-04  0.1284E-04  0.1159E-04  0.1043E-04  0.9218E-05  0.8217E-05  0.7252E-05  0.6439E-05  0.5814E-05  0.5213E-05  0.4756E-05  0.4337E-05  0.3951E-05  0.3581E-05  0.3233E-05  0.2915E-05  0.2614E-05  0.2324E-05  0.1935E-05  0.1666E-05  0.1316E-05  0.9705E-06  0.7880E-06  0.6117E-06  0.4207E-06  0.2568E-06  0.1311E-06  0.5464E-07  0.1159E-07  0.2706E-08  0.0000E+00  0.0000E+00  0.0000E+00
  0.1654E-06  0.1934E-06  0.2255E-06  0.2612E-06  0.3014E-06  0.3490E-06  0.9361E-06  0.1872E-05  0.3293E-05  0.5021E-05  0.6981E-05  0.9427E-05  0.1242E-04  0.1605E-04  0.2016E-04  0.2453E-04  0.2887E-04  0.3338E-04  0.3788E-04  0.4254E-04  0.4686E-04  0.5083E-04  0.5424E-04  0.5694E-04  0.5911E-04  0.6046E-04  0.6128E-04  0.6134E-04  0.6090E-04  0.5989E-04  0.5851E-04  0.5666E-04  0.5453E-04  0.5201E-04  0.4922E-04  0.4610E-04  0.4280E-04  0.3934E-04  0.3583E-04  0.3249E-04  0.2945E-04  0.2645E-04  0.2362E-04  0.2095E-04  0.1846E-04  0.1654E-04  0.1560E-04  0.1484E-04  0.1381E-04  0.1253E-04  0.1100E-04  0.9591E-05  0.8344E-05  0.7301E-05  0.6462E-05  0.5763E-05  0.5274E-05  0.4804E-05  0.4367E-05  0.3957E-05  0.3580E-05  0.3223E-05  0.2888E-05  0.2580E-05  0.2299E-05  0.1878E-05  0.1620E-05  0.1252E-05  0.9787E-06  0.7215E-06  0.5407E-06  0.3549E-06  0.2121E-06  0.1021E-06  0.3875E-07  0.8478E-08  0.2614E-08  0.0000E+00  0.0000E+00
  0.1611E-06  0.1908E-06  0.2199E-06  0.2547E-06  0.2944E-06  0.3981E-06  0.1031E-05  0.2123E-05  0.3664E-05  0.5604E-05  0.7933E-05  0.1080E-04  0.1417E-04  0.1824E-04  0.2289E-04  0.2762E-04  0.3242E-04  0.3742E-04  0.4234E-04  0.4719E-04  0.5168E-04  0.5554E-04  0.5872E-04  0.6106E-04  0.6268E-04  0.6352E-04  0.6363E-04  0.6321E-04  0.6218E-04  0.6077E-04  0.5893E-04  0.5684E-04  0.5437E-04  0.5158E-04  0.4846E-04  0.4516E-04  0.4165E-04  0.3806E-04  0.3458E-04  0.3156E-04  0.2880E-04  0.2624E-04  0.2376E-04  0.2135E-04  0.1925E-04  0.1819E-04  0.1827E-04  0.1839E-04  0.1739E-04  0.1574E-04  0.1373E-04  0.1170E-04  0.9932E-05  0.8423E-05  0.7275E-05  0.6473E-05  0.5809E-05  0.5289E-05  0.4809E-05  0.4358E-05  0.3935E-05  0.3539E-05  0.3177E-05  0.2839E-05  0.2526E-05  0.2224E-05  0.1801E-05  0.1546E-05  0.1179E-05  0.9185E-06  0.6452E-06  0.4694E-06  0.2921E-06  0.1649E-06  0.7743E-07  0.1977E-07  0.5495E-08  0.0000E+00  0.0000E+00
  0.1584E-06  0.1852E-06  0.2134E-06  0.2499E-06  0.2871E-06  0.5280E-06  0.1097E-05  0.2308E-05  0.4117E-05  0.6438E-05  0.9091E-05  0.1234E-04  0.1625E-04  0.2085E-04  0.2586E-04  0.3111E-04  0.3650E-04  0.4193E-04  0.4727E-04  0.5227E-04  0.5659E-04  0.6025E-04  0.6285E-04  0.6470E-04  0.6556E-04  0.6574E-04  0.6521E-04  0.6415E-04  0.6268E-04  0.6089E-04  0.5871E-04  0.5629E-04  0.5351E-04  0.5042E-04  0.4709E-04  0.4352E-04  0.3989E-04  0.3629E-04  0.3300E-04  0.3028E-04  0.2829E-04  0.2645E-04  0.2454E-04  0.2235E-04  0.2156E-04  0.2182E-04  0.2349E-04  0.2458E-04  0.2342E-04  0.2070E-04  0.1759E-04  0.1455E-04  0.1196E-04  0.9801E-05  0.8216E-05  0.7223E-05  0.6369E-05  0.5805E-05  0.5267E-05  0.4766E-05  0.4302E-05  0.3875E-05  0.3475E-05  0.3104E-05  0.2762E-05  0.2438E-05  0.2133E-05  0.1767E-05  0.1435E-05  0.1102E-05  0.8262E-06  0.5650E-06  0.3903E-06  0.2267E-06  0.1265E-06  0.5480E-07  0.8634E-08  0.2663E-08  0.0000E+00
  0.1530E-06  0.1812E-06  0.2088E-06  0.2454E-06  0.2819E-06  0.5847E-06  0.1234E-05  0.2665E-05  0.4793E-05  0.7293E-05  0.1048E-04  0.1418E-04  0.1867E-04  0.2381E-04  0.2944E-04  0.3524E-04  0.4102E-04  0.4702E-04  0.5256E-04  0.5750E-04  0.6157E-04  0.6452E-04  0.6655E-04  0.6745E-04  0.6759E-04  0.6694E-04  0.6580E-04  0.6422E-04  0.6237E-04  0.6018E-04  0.5779E-04  0.5501E-04  0.5197E-04  0.4858E-04  0.4497E-04  0.4130E-04  0.3763E-04  0.3408E-04  0.3121E-04  0.2925E-04  0.2831E-04  0.2758E-04  0.2625E-04  0.2548E-04  0.2607E-04  0.2894E-04  0.3320E-04  0.3525E-04  0.3257E-04  0.2795E-04  0.2274E-04  0.1831E-04  0.1447E-04  0.1158E-04  0.9532E-05  0.7985E-05  0.7067E-05  0.6325E-05  0.5735E-05  0.5188E-05  0.4683E-05  0.4214E-05  0.3779E-05  0.3376E-05  0.3003E-05  0.2664E-05  0.2330E-05  0.2016E-05  0.1654E-05  0.1323E-05  0.9860E-06  0.7213E-06  0.4778E-06  0.3069E-06  0.1727E-06  0.8733E-07  0.3132E-07  0.5557E-08  0.0000E+00
  0.1493E-06  0.1767E-06  0.2047E-06  0.2381E-06  0.2740E-06  0.6795E-06  0.1474E-05  0.2956E-05  0.5420E-05  0.8331E-05  0.1210E-04  0.1637E-04  0.2146E-04  0.2728E-04  0.3354E-04  0.3987E-04  0.4628E-04  0.5252E-04  0.5820E-04  0.6277E-04  0.6614E-04  0.6830E-04  0.6921E-04  0.6921E-04  0.6837E-04  0.6705E-04  0.6534E-04  0.6345E-04  0.6125E-04  0.5888E-04  0.5612E-04  0.5308E-04  0.4967E-04  0.4602E-04  0.4227E-04  0.3853E-04  0.3490E-04  0.3170E-04  0.2946E-04  0.2860E-04  0.2934E-04  0.3036E-04  0.3057E-04  0.3147E-04  0.3456E-04  0.4070E-04  0.4729E-04  0.5068E-04  0.4520E-04  0.3695E-04  0.2915E-04  0.2264E-04  0.1742E-04  0.1348E-04  0.1085E-04  0.9029E-05  0.7718E-05  0.6941E-05  0.6212E-05  0.5621E-05  0.5072E-05  0.4562E-05  0.4088E-05  0.3652E-05  0.3251E-05  0.2882E-05  0.2526E-05  0.2203E-05  0.1879E-05  0.1538E-05  0.1197E-05  0.8662E-06  0.6080E-06  0.3902E-06  0.2403E-06  0.1301E-06  0.5756E-07  0.1655E-07  0.2675E-08
  0.1431E-06  0.1692E-06  0.1981E-06  0.2304E-06  0.2676E-06  0.7722E-06  0.1747E-05  0.3414E-05  0.6243E-05  0.9718E-05  0.1415E-04  0.1901E-04  0.2486E-04  0.3139E-04  0.3837E-04  0.4531E-04  0.5223E-04  0.5857E-04  0.6382E-04  0.6771E-04  0.7000E-04  0.7094E-04  0.7069E-04  0.6957E-04  0.6798E-04  0.6604E-04  0.6407E-04  0.6192E-04  0.5954E-04  0.5686E-04  0.5382E-04  0.5037E-04  0.4668E-04  0.4284E-04  0.3901E-04  0.3531E-04  0.3192E-04  0.2928E-04  0.2794E-04  0.2865E-04  0.3115E-04  0.3425E-04  0.3771E-04  0.4194E-04  0.4816E-04  0.5619E-04  0.6339E-04  0.6465E-04  0.5879E-04  0.4665E-04  0.3605E-04  0.2730E-04  0.2071E-04  0.1584E-04  0.1233E-04  0.1008E-04  0.8507E-05  0.7512E-05  0.6686E-05  0.6048E-05  0.5456E-05  0.4907E-05  0.4399E-05  0.3930E-05  0.3500E-05  0.3102E-05  0.2728E-05  0.2384E-05  0.2053E-05  0.1721E-05  0.1390E-05  0.1059E-05  0.7394E-06  0.4850E-06  0.3050E-06  0.1691E-06  0.8945E-07  0.3600E-07  0.5543E-08
  0.1376E-06  0.1631E-06  0.1915E-06  0.2209E-06  0.2581E-06  0.8835E-06  0.2044E-05  0.3857E-05  0.7342E-05  0.1138E-04  0.1663E-04  0.2231E-04  0.2886E-04  0.3616E-04  0.4399E-04  0.5158E-04  0.5871E-04  0.6460E-04  0.6913E-04  0.7164E-04  0.7256E-04  0.7195E-04  0.7047E-04  0.6848E-04  0.6639E-04  0.6421E-04  0.6209E-04  0.5976E-04  0.5721E-04  0.5420E-04  0.5076E-04  0.4699E-04  0.4303E-04  0.3907E-04  0.3533E-04  0.3191E-04  0.2887E-04  0.2699E-04  0.2693E-04  0.2946E-04  0.3364E-04  0.3947E-04  0.4679E-04  0.5594E-04  0.6506E-04  0.7212E-04  0.7533E-04  0.7305E-04  0.6599E-04  0.5526E-04  0.4290E-04  0.3218E-04  0.2399E-04  0.1798E-04  0.1393E-04  0.1115E-04  0.9312E-05  0.8061E-05  0.7148E-05  0.6474E-05  0.5843E-05  0.5256E-05  0.4712E-05  0.4210E-05  0.3745E-05  0.3321E-05  0.2930E-05  0.2553E-05  0.2209E-05  0.1890E-05  0.1573E-05  0.1217E-05  0.9028E-06  0.6034E-06  0.3879E-06  0.2344E-06  0.1249E-06  0.5694E-07  0.1660E-07
  0.1344E-06  0.1568E-06  0.1844E-06  0.2127E-06  0.2462E-06  0.1036E-05  0.2455E-05  0.4869E-05  0.8752E-05  0.1378E-04  0.1978E-04  0.2653E-04  0.3405E-04  0.4203E-04  0.5064E-04  0.5859E-04  0.6544E-04  0.7044E-04  0.7331E-04  0.7408E-04  0.7303E-04  0.7105E-04  0.6857E-04  0.6614E-04  0.6383E-04  0.6176E-04  0.5956E-04  0.5716E-04  0.5421E-04  0.5081E-04  0.4696E-04  0.4289E-04  0.3880E-04  0.3496E-04  0.3147E-04  0.2845E-04  0.2608E-04  0.2517E-04  0.2677E-04  0.3087E-04  0.3762E-04  0.4682E-04  0.5874E-04  0.7094E-04  0.7937E-04  0.8159E-04  0.7995E-04  0.7594E-04  0.7018E-04  0.6191E-04  0.4918E-04  0.3645E-04  0.2664E-04  0.1969E-04  0.1511E-04  0.1201E-04  0.9955E-05  0.8578E-05  0.7701E-05  0.6888E-05  0.6215E-05  0.5592E-05  0.5015E-05  0.4482E-05  0.3988E-05  0.3538E-05  0.3124E-05  0.2731E-05  0.2375E-05  0.2038E-05  0.1716E-05  0.1390E-05  0.1048E-05  0.7315E-06  0.4747E-06  0.2885E-06  0.1615E-06  0.8831E-07  0.3586E-07
  0.1269E-06  0.1506E-06  0.1766E-06  0.2061E-06  0.2385E-06  0.1115E-05  0.2920E-05  0.5734E-05  0.1037E-04  0.1627E-04  0.2389E-04  0.3260E-04  0.4139E-04  0.5049E-04  0.5922E-04  0.6617E-04  0.7189E-04  0.7501E-04  0.7554E-04  0.7401E-04  0.7128E-04  0.6815E-04  0.6533E-04  0.6289E-04  0.6090E-04  0.5892E-04  0.5672E-04  0.5393E-04  0.5056E-04  0.4663E-04  0.4240E-04  0.3822E-04  0.3426E-04  0.3072E-04  0.2769E-04  0.2521E-04  0.2363E-04  0.2404E-04  0.2753E-04  0.3409E-04  0.4408E-04  0.5768E-04  0.7219E-04  0.8173E-04  0.8459E-04  0.8296E-04  0.7988E-04  0.7711E-04  0.7326E-04  0.6619E-04  0.5373E-04  0.3895E-04  0.2793E-04  0.2058E-04  0.1575E-04  0.1264E-04  0.1048E-04  0.9140E-05  0.8124E-05  0.7280E-05  0.6573E-05  0.5917E-05  0.5309E-05  0.4746E-05  0.4231E-05  0.3751E-05  0.3313E-05  0.2896E-05  0.2520E-05  0.2169E-05  0.1849E-05  0.1532E-05  0.1193E-05  0.8567E-06  0.5922E-06  0.3715E-06  0.2083E-06  0.1123E-06  0.5078E-07
  0.1231E-06  0.1458E-06  0.1710E-06  0.1972E-06  0.2264E-06  0.1353E-05  0.3345E-05  0.6811E-05  0.1248E-04  0.1968E-04  0.2921E-04  0.4036E-04  0.5211E-04  0.6264E-04  0.7209E-04  0.7772E-04  0.8003E-04  0.7884E-04  0.7549E-04  0.7103E-04  0.6716E-04  0.6382E-04  0.6128E-04  0.5946E-04  0.5783E-04  0.5591E-04  0.5337E-04  0.5003E-04  0.4602E-04  0.4168E-04  0.3732E-04  0.3325E-04  0.2964E-04  0.2661E-04  0.2417E-04  0.2228E-04  0.2170E-04  0.2395E-04  0.2970E-04  0.3983E-04  0.5467E-04  0.7059E-04  0.8068E-04  0.8359E-04  0.8242E-04  0.8029E-04  0.7839E-04  0.7608E-04  0.7165E-04  0.6362E-04  0.5232E-04  0.3782E-04  0.2728E-04  0.2034E-04  0.1584E-04  0.1282E-04  0.1085E-04  0.9447E-05  0.8431E-05  0.7644E-05  0.6908E-05  0.6223E-05  0.5592E-05  0.5006E-05  0.4459E-05  0.3957E-05  0.3493E-05  0.3060E-05  0.2664E-05  0.2292E-05  0.1974E-05  0.1642E-05  0.1314E-05  0.9853E-06  0.6883E-06  0.4589E-06  0.2804E-06  0.1464E-06  0.7218E-07
  0.1158E-06  0.1353E-06  0.1598E-06  0.1866E-06  0.2167E-06  0.1432E-05  0.3834E-05  0.7749E-05  0.1425E-04  0.2336E-04  0.3531E-04  0.5018E-04  0.6671E-04  0.8133E-04  0.9164E-04  0.9474E-04  0.9185E-04  0.8486E-04  0.7683E-04  0.6951E-04  0.6381E-04  0.5978E-04  0.5738E-04  0.5620E-04  0.5471E-04  0.5247E-04  0.4924E-04  0.4514E-04  0.4065E-04  0.3612E-04  0.3191E-04  0.2825E-04  0.2522E-04  0.2284E-04  0.2106E-04  0.1988E-04  0.2059E-04  0.2511E-04  0.3479E-04  0.5052E-04  0.6733E-04  0.7735E-04  0.8006E-04  0.7939E-04  0.7776E-04  0.7554E-04  0.7201E-04  0.6708E-04  0.6036E-04  0.5192E-04  0.4224E-04  0.3244E-04  0.2451E-04  0.1909E-04  0.1542E-04  0.1286E-04  0.1109E-04  0.9782E-05  0.8792E-05  0.7985E-05  0.7226E-05  0.6515E-05  0.5857E-05  0.5246E-05  0.4676E-05  0.4150E-05  0.3666E-05  0.3214E-05  0.2800E-05  0.2420E-05  0.2089E-05  0.1750E-05  0.1435E-05  0.1106E-05  0.8025E-06  0.5467E-06  0.3322E-06  0.1914E-06  0.9214E-07
  0.1101E-06  0.1308E-06  0.1543E-06  0.1801E-06  0.4482E-06  0.1405E-05  0.3930E-05  0.8589E-05  0.1583E-04  0.2638E-04  0.4098E-04  0.6060E-04  0.8398E-04  0.1064E-03  0.1190E-03  0.1198E-03  0.1119E-03  0.9971E-04  0.8741E-04  0.7685E-04  0.6909E-04  0.6361E-04  0.5954E-04  0.5561E-04  0.5229E-04  0.4817E-04  0.4405E-04  0.3937E-04  0.3467E-04  0.3033E-04  0.2660E-04  0.2356E-04  0.2122E-04  0.1958E-04  0.1852E-04  0.1819E-04  0.2065E-04  0.2887E-04  0.4479E-04  0.6238E-04  0.7198E-04  0.7455E-04  0.7396E-04  0.7169E-04  0.6787E-04  0.6245E-04  0.5608E-04  0.4922E-04  0.4301E-04  0.3666E-04  0.3043E-04  0.2466E-04  0.2047E-04  0.1717E-04  0.1453E-04  0.1264E-04  0.1117E-04  0.1007E-04  0.9108E-05  0.8287E-05  0.7510E-05  0.6784E-05  0.6102E-05  0.5469E-05  0.4877E-05  0.4333E-05  0.3829E-05  0.3361E-05  0.2932E-05  0.2538E-05  0.2188E-05  0.1847E-05  0.1516E-05  0.1197E-05  0.8980E-06  0.6332E-06  0.4109E-06  0.2502E-06  0.1171E-06
  0.1063E-06  0.1244E-06  0.1449E-06  0.1699E-06  0.4806E-06  0.1341E-05  0.3812E-05  0.8530E-05  0.1616E-04  0.2758E-04  0.4402E-04  0.6748E-04  0.9769E-04  0.1284E-03  0.1447E-03  0.1460E-03  0.1375E-03  0.1253E-03  0.1136E-03  0.1039E-03  0.9535E-04  0.8720E-04  0.7873E-04  0.6939E-04  0.5936E-04  0.4912E-04  0.4055E-04  0.3324E-04  0.2844E-04  0.2463E-04  0.2168E-04  0.1950E-04  0.1801E-04  0.1709E-04  0.1665E-04  0.1725E-04  0.2249E-04  0.3735E-04  0.5501E-04  0.6385E-04  0.6591E-04  0.6433E-04  0.6032E-04  0.5462E-04  0.4822E-04  0.4207E-04  0.3685E-04  0.3233E-04  0.2842E-04  0.2497E-04  0.2190E-04  0.1912E-04  0.1708E-04  0.1534E-04  0.1371E-04  0.1236E-04  0.1125E-04  0.1024E-04  0.9382E-05  0.8557E-05  0.7771E-05  0.7023E-05  0.6321E-05  0.5672E-05  0.5064E-05  0.4502E-05  0.3980E-05  0.3497E-05  0.3047E-05  0.2643E-05  0.2281E-05  0.1940E-05  0.1600E-05  0.1279E-05  0.9854E-06  0.7150E-06  0.4736E-06  0.2966E-06  0.1643E-06
  0.9750E-07  0.1168E-06  0.1381E-06  0.1597E-06  0.3898E-06  0.1193E-05  0.3448E-05  0.7712E-05  0.1501E-04  0.2607E-04  0.4239E-04  0.6650E-04  0.9853E-04  0.1317E-03  0.1497E-03  0.1543E-03  0.1510E-03  0.1458E-03  0.1419E-03  0.1391E-03  0.1357E-03  0.1304E-03  0.1216E-03  0.1091E-03  0.9370E-04  0.7610E-04  0.5814E-04  0.4206E-04  0.2957E-04  0.2149E-04  0.1768E-04  0.1629E-04  0.1551E-04  0.1519E-04  0.1535E-04  0.1720E-04  0.2800E-04  0.4412E-04  0.5132E-04  0.5170E-04  0.4834E-04  0.4320E-04  0.3767E-04  0.3335E-04  0.2967E-04  0.2671E-04  0.2439E-04  0.2248E-04  0.2084E-04  0.1941E-04  0.1798E-04  0.1666E-04  0.1540E-04  0.1436E-04  0.1331E-04  0.1232E-04  0.1134E-04  0.1046E-04  0.9597E-05  0.8776E-05  0.7989E-05  0.7233E-05  0.6520E-05  0.5851E-05  0.5230E-05  0.4652E-05  0.4115E-05  0.3621E-05  0.3158E-05  0.2741E-05  0.2373E-05  0.2021E-05  0.1678E-05  0.1362E-05  0.1054E-05  0.7857E-06  0.5626E-06  0.3626E-06  0.1985E-06
  0.9419E-07  0.1086E-06  0.1310E-06  0.1521E-06  0.2795E-06  0.9228E-06  0.2717E-05  0.6315E-05  0.1243E-04  0.2186E-04  0.3585E-04  0.5592E-04  0.8243E-04  0.1086E-03  0.1242E-03  0.1307E-03  0.1336E-03  0.1372E-03  0.1425E-03  0.1483E-03  0.1519E-03  0.1522E-03  0.1484E-03  0.1414E-03  0.1318E-03  0.1201E-03  0.1067E-03  0.9061E-04  0.7175E-04  0.5073E-04  0.3047E-04  0.1703E-04  0.1368E-04  0.1388E-04  0.1458E-04  0.1887E-04  0.2913E-04  0.3261E-04  0.3127E-04  0.2858E-04  0.2616E-04  0.2436E-04  0.2303E-04  0.2204E-04  0.2124E-04  0.2050E-04  0.1985E-04  0.1913E-04  0.1823E-04  0.1759E-04  0.1683E-04  0.1600E-04  0.1511E-04  0.1420E-04  0.1329E-04  0.1239E-04  0.1150E-04  0.1063E-04  0.9779E-05  0.8957E-05  0.8165E-05  0.7407E-05  0.6688E-05  0.6008E-05  0.5376E-05  0.4783E-05  0.4232E-05  0.3725E-05  0.3257E-05  0.2823E-05  0.2451E-05  0.2091E-05  0.1753E-05  0.1421E-05  0.1120E-05  0.8579E-06  0.6213E-06  0.4057E-06  0.2455E-06
  0.8879E-07  0.1049E-06  0.1230E-06  0.1427E-06  0.1651E-06  0.6189E-06  0.1856E-05  0.4425E-05  0.9054E-05  0.1602E-04  0.2608E-04  0.3955E-04  0.5571E-04  0.7069E-04  0.8043E-04  0.8677E-04  0.9295E-04  0.1018E-03  0.1129E-03  0.1222E-03  0.1272E-03  0.1271E-03  0.1235E-03  0.1179E-03  0.1119E-03  0.1061E-03  0.1004E-03  0.9390E-04  0.8633E-04  0.7634E-04  0.6341E-04  0.4637E-04  0.2728E-04  0.1433E-04  0.1556E-04  0.1536E-04  0.1622E-04  0.1701E-04  0.1768E-04  0.1828E-04  0.1880E-04  0.1915E-04  0.1940E-04  0.1962E-04  0.1968E-04  0.1957E-04  0.1929E-04  0.1887E-04  0.1831E-04  0.1763E-04  0.1686E-04  0.1603E-04  0.1516E-04  0.1426E-04  0.1337E-04  0.1248E-04  0.1161E-04  0.1075E-04  0.9908E-05  0.9091E-05  0.8306E-05  0.7549E-05  0.6825E-05  0.6139E-05  0.5496E-05  0.4895E-05  0.4336E-05  0.3816E-05  0.3340E-05  0.2902E-05  0.2509E-05  0.2144E-05  0.1801E-05  0.1485E-05  0.1174E-05  0.9058E-06  0.6770E-06  0.4655E-06  0.2958E-06
  0.8279E-07  0.9759E-07  0.1148E-06  0.1375E-06  0.1591E-06  0.4090E-06  0.1123E-05  0.2456E-05  0.5574E-05  0.9969E-05  0.1589E-04  0.2291E-04  0.3037E-04  0.3697E-04  0.4261E-04  0.4798E-04  0.5522E-04  0.6583E-04  0.7929E-04  0.8904E-04  0.9194E-04  0.8871E-04  0.8202E-04  0.7421E-04  0.6685E-04  0.5990E-04  0.5318E-04  0.4609E-04  0.3856E-04  0.3068E-04  0.2322E-04  0.1772E-04  0.1727E-04  0.1552E-04  0.1332E-04  0.1409E-04  0.1504E-04  0.1598E-04  0.1691E-04  0.1776E-04  0.1850E-04  0.1909E-04  0.1951E-04  0.1975E-04  0.1980E-04  0.1968E-04  0.1937E-04  0.1892E-04  0.1833E-04  0.1763E-04  0.1686E-04  0.1603E-04  0.1516E-04  0.1428E-04  0.1339E-04  0.1252E-04  0.1166E-04  0.1082E-04  0.9987E-05  0.9179E-05  0.8397E-05  0.7647E-05  0.6926E-05  0.6242E-05  0.5596E-05  0.4989E-05  0.4422E-05  0.3891E-05  0.3412E-05  0.2965E-05  0.2569E-05  0.2198E-05  0.1844E-05  0.1527E-05  0.1223E-05  0.9610E-06  0.7186E-06  0.5105E-06  0.3382E-06
  0.7667E-07  0.9471E-07  0.1111E-06  0.1262E-06  0.1505E-06  0.1736E-06  0.4803E-06  0.1268E-05  0.2503E-05  0.4981E-05  0.7878E-05  0.1089E-04  0.1352E-04  0.1667E-04  0.2044E-04  0.2537E-04  0.3257E-04  0.4313E-04  0.5699E-04  0.6495E-04  0.6596E-04  0.6116E-04  0.5382E-04  0.4645E-04  0.3960E-04  0.3339E-04  0.2705E-04  0.2272E-04  0.2007E-04  0.2122E-04  0.2997E-04  0.4014E-04  0.2605E-04  0.1437E-04  0.1320E-04  0.1380E-04  0.1483E-04  0.1585E-04  0.1682E-04  0.1772E-04  0.1848E-04  0.1909E-04  0.1953E-04  0.1979E-04  0.1983E-04  0.1968E-04  0.1937E-04  0.1889E-04  0.1829E-04  0.1759E-04  0.1681E-04  0.1597E-04  0.1511E-04  0.1424E-04  0.1337E-04  0.1251E-04  0.1166E-04  0.1084E-04  0.1002E-04  0.9227E-05  0.8452E-05  0.7709E-05  0.6993E-05  0.6312E-05  0.5661E-05  0.5050E-05  0.4478E-05  0.3953E-05  0.3463E-05  0.3021E-05  0.2621E-05  0.2238E-05  0.1889E-05  0.1566E-05  0.1265E-05  0.1001E-05  0.7623E-06  0.5662E-06  0.3830E-06
  0.7306E-07  0.8516E-07  0.1043E-06  0.1223E-06  0.1420E-06  0.1665E-06  0.1897E-06  0.4901E-06  0.1160E-05  0.1815E-05  0.2985E-05  0.4092E-05  0.5143E-05  0.7158E-05  0.1018E-04  0.1455E-04  0.2087E-04  0.2953E-04  0.3927E-04  0.4452E-04  0.4363E-04  0.3869E-04  0.3239E-04  0.2638E-04  0.2154E-04  0.1881E-04  0.1864E-04  0.2368E-04  0.3612E-04  0.5351E-04  0.5737E-04  0.3538E-04  0.1950E-04  0.1326E-04  0.1317E-04  0.1360E-04  0.1461E-04  0.1565E-04  0.1667E-04  0.1759E-04  0.1839E-04  0.1902E-04  0.1947E-04  0.1971E-04  0.1975E-04  0.1960E-04  0.1927E-04  0.1878E-04  0.1818E-04  0.1747E-04  0.1669E-04  0.1587E-04  0.1502E-04  0.1415E-04  0.1329E-04  0.1244E-04  0.1161E-04  0.1080E-04  0.1001E-04  0.9224E-05  0.8463E-05  0.7728E-05  0.7025E-05  0.6350E-05  0.5705E-05  0.5096E-05  0.4524E-05  0.3993E-05  0.3503E-05  0.3065E-05  0.2637E-05  0.2258E-05  0.1919E-05  0.1590E-05  0.1295E-05  0.1027E-05  0.7966E-06  0.5937E-06  0.4090E-06
  0.6935E-07  0.8287E-07  0.9818E-07  0.1158E-06  0.1354E-06  0.1589E-06  0.1832E-06  0.2119E-06  0.3448E-06  0.4619E-06  0.7445E-06  0.8739E-06  0.1679E-05  0.3429E-05  0.6155E-05  0.9849E-05  0.1459E-04  0.2011E-04  0.2516E-04  0.2673E-04  0.2458E-04  0.2043E-04  0.1735E-04  0.1586E-04  0.1772E-04  0.2430E-04  0.3741E-04  0.5628E-04  0.7050E-04  0.6448E-04  0.4118E-04  0.2551E-04  0.1650E-04  0.1270E-04  0.1316E-04  0.1349E-04  0.1438E-04  0.1548E-04  0.1651E-04  0.1745E-04  0.1824E-04  0.1887E-04  0.1929E-04  0.1953E-04  0.1956E-04  0.1940E-04  0.1907E-04  0.1859E-04  0.1799E-04  0.1728E-04  0.1651E-04  0.1570E-04  0.1486E-04  0.1401E-04  0.1316E-04  0.1232E-04  0.1151E-04  0.1072E-04  0.9940E-05  0.9179E-05  0.8431E-05  0.7712E-05  0.7018E-05  0.6355E-05  0.5721E-05  0.5121E-05  0.4554E-05  0.4018E-05  0.3529E-05  0.3077E-05  0.2665E-05  0.2288E-05  0.1935E-05  0.1605E-05  0.1315E-05  0.1050E-05  0.8268E-06  0.6162E-06  0.4402E-06
  0.6454E-07  0.7787E-07  0.9312E-07  0.1115E-06  0.1308E-06  0.1538E-06  0.1757E-06  0.2024E-06  0.2332E-06  0.2631E-06  0.3013E-06  0.5229E-06  0.1118E-05  0.2206E-05  0.3996E-05  0.6523E-05  0.9377E-05  0.1209E-04  0.1368E-04  0.1393E-04  0.1361E-04  0.1404E-04  0.1664E-04  0.2405E-04  0.3675E-04  0.5451E-04  0.7236E-04  0.7861E-04  0.6591E-04  0.4418E-04  0.3106E-04  0.2181E-04  0.1391E-04  0.1261E-04  0.1331E-04  0.1357E-04  0.1432E-04  0.1535E-04  0.1635E-04  0.1724E-04  0.1801E-04  0.1861E-04  0.1902E-04  0.1924E-04  0.1926E-04  0.1910E-04  0.1878E-04  0.1830E-04  0.1771E-04  0.1702E-04  0.1626E-04  0.1546E-04  0.1464E-04  0.1380E-04  0.1297E-04  0.1215E-04  0.1136E-04  0.1058E-04  0.9830E-05  0.9087E-05  0.8363E-05  0.7660E-05  0.6981E-05  0.6330E-05  0.5705E-05  0.5108E-05  0.4547E-05  0.4018E-05  0.3537E-05  0.3092E-05  0.2672E-05  0.2288E-05  0.1934E-05  0.1626E-05  0.1326E-05  0.1076E-05  0.8381E-06  0.6475E-06  0.4705E-06
  0.6050E-07  0.7514E-07  0.9002E-07  0.1065E-06  0.1251E-06  0.1464E-06  0.1714E-06  0.1956E-06  0.2243E-06  0.2579E-06  0.2939E-06  0.4058E-06  0.6643E-06  0.1331E-05  0.2236E-05  0.3774E-05  0.5380E-05  0.7463E-05  0.9289E-05  0.1159E-04  0.1568E-04  0.2284E-04  0.3463E-04  0.5119E-04  0.6942E-04  0.8183E-04  0.8043E-04  0.6456E-04  0.4613E-04  0.3536E-04  0.2733E-04  0.1779E-04  0.1271E-04  0.1292E-04  0.1357E-04  0.1371E-04  0.1427E-04  0.1518E-04  0.1613E-04  0.1698E-04  0.1771E-04  0.1828E-04  0.1866E-04  0.1886E-04  0.1887E-04  0.1871E-04  0.1839E-04  0.1793E-04  0.1735E-04  0.1668E-04  0.1594E-04  0.1516E-04  0.1435E-04  0.1354E-04  0.1273E-04  0.1194E-04  0.1116E-04  0.1041E-04  0.9675E-05  0.8957E-05  0.8254E-05  0.7568E-05  0.6907E-05  0.6270E-05  0.5665E-05  0.5081E-05  0.4529E-05  0.4013E-05  0.3530E-05  0.3077E-05  0.2668E-05  0.2293E-05  0.1943E-05  0.1618E-05  0.1330E-05  0.1089E-05  0.8586E-06  0.6546E-06  0.4859E-06
  0.5823E-07  0.6987E-07  0.8566E-07  0.1021E-06  0.1222E-06  0.1412E-06  0.1642E-06  0.1916E-06  0.2184E-06  0.2499E-06  0.2897E-06  0.3337E-06  0.5017E-06  0.8752E-06  0.1612E-05  0.3220E-05  0.5603E-05  0.9209E-05  0.1399E-04  0.2158E-04  0.3249E-04  0.4750E-04  0.6467E-04  0.7945E-04  0.8558E-04  0.7854E-04  0.6223E-04  0.4684E-04  0.3871E-04  0.3226E-04  0.2301E-04  0.1470E-04  0.1240E-04  0.1327E-04  0.1380E-04  0.1384E-04  0.1422E-04  0.1499E-04  0.1587E-04  0.1666E-04  0.1733E-04  0.1786E-04  0.1822E-04  0.1840E-04  0.1840E-04  0.1823E-04  0.1792E-04  0.1747E-04  0.1691E-04  0.1626E-04  0.1555E-04  0.1479E-04  0.1401E-04  0.1322E-04  0.1244E-04  0.1167E-04  0.1092E-04  0.1019E-04  0.9478E-05  0.8785E-05  0.8105E-05  0.7444E-05  0.6802E-05  0.6184E-05  0.5587E-05  0.5027E-05  0.4487E-05  0.3977E-05  0.3503E-05  0.3056E-05  0.2640E-05  0.2272E-05  0.1934E-05  0.1629E-05  0.1329E-05  0.1076E-05  0.8617E-06  0.6706E-06  0.4944E-06
  0.5659E-07  0.6774E-07  0.8363E-07  0.9827E-07  0.1164E-06  0.1384E-06  0.1615E-06  0.1857E-06  0.2154E-06  0.2458E-06  0.2862E-06  0.5657E-06  0.1192E-05  0.2294E-05  0.4317E-05  0.6752E-05  0.1151E-04  0.1929E-04  0.2998E-04  0.4415E-04  0.6014E-04  0.7544E-04  0.8557E-04  0.8567E-04  0.7530E-04  0.5949E-04  0.4725E-04  0.4153E-04  0.3637E-04  0.2846E-04  0.1853E-04  0.1312E-04  0.1258E-04  0.1366E-04  0.1406E-04  0.1398E-04  0.1419E-04  0.1480E-04  0.1557E-04  0.1630E-04  0.1691E-04  0.1738E-04  0.1771E-04  0.1786E-04  0.1785E-04  0.1768E-04  0.1737E-04  0.1694E-04  0.1640E-04  0.1578E-04  0.1510E-04  0.1437E-04  0.1361E-04  0.1286E-04  0.1210E-04  0.1135E-04  0.1063E-04  0.9925E-05  0.9243E-05  0.8577E-05  0.7925E-05  0.7288E-05  0.6669E-05  0.6074E-05  0.5498E-05  0.4946E-05  0.4422E-05  0.3924E-05  0.3455E-05  0.3019E-05  0.2625E-05  0.2257E-05  0.1928E-05  0.1608E-05  0.1327E-05  0.1081E-05  0.8529E-06  0.6708E-06  0.5123E-06
  0.5434E-07  0.6663E-07  0.7914E-07  0.9659E-07  0.1146E-06  0.1339E-06  0.1580E-06  0.1814E-06  0.2117E-06  0.2433E-06  0.5089E-06  0.1537E-05  0.3309E-05  0.5970E-05  0.1007E-04  0.1624E-04  0.2625E-04  0.4006E-04  0.5618E-04  0.7205E-04  0.8404E-04  0.8833E-04  0.8324E-04  0.7056E-04  0.5633E-04  0.4699E-04  0.4365E-04  0.4068E-04  0.3388E-04  0.2351E-04  0.1554E-04  0.1268E-04  0.1312E-04  0.1414E-04  0.1435E-04  0.1416E-04  0.1420E-04  0.1465E-04  0.1528E-04  0.1591E-04  0.1645E-04  0.1686E-04  0.1714E-04  0.1727E-04  0.1724E-04  0.1707E-04  0.1677E-04  0.1635E-04  0.1583E-04  0.1524E-04  0.1458E-04  0.1389E-04  0.1317E-04  0.1244E-04  0.1171E-04  0.1100E-04  0.1030E-04  0.9628E-05  0.8974E-05  0.8337E-05  0.7714E-05  0.7103E-05  0.6509E-05  0.5930E-05  0.5377E-05  0.4847E-05  0.4338E-05  0.3859E-05  0.3400E-05  0.2976E-05  0.2585E-05  0.2224E-05  0.1886E-05  0.1582E-05  0.1320E-05  0.1076E-05  0.8592E-06  0.6659E-06  0.5124E-06
  0.5042E-07  0.6432E-07  0.7978E-07  0.9271E-07  0.1120E-06  0.1322E-06  0.1552E-06  0.1806E-06  0.2075E-06  0.2422E-06  0.1088E-05  0.2821E-05  0.6009E-05  0.1059E-04  0.1747E-04  0.2854E-04  0.4560E-04  0.6605E-04  0.8295E-04  0.9188E-04  0.9110E-04  0.8099E-04  0.6548E-04  0.5139E-04  0.4421E-04  0.4416E-04  0.4450E-04  0.3998E-04  0.3019E-04  0.2021E-04  0.1448E-04  0.1302E-04  0.1384E-04  0.1460E-04  0.1466E-04  0.1437E-04  0.1427E-04  0.1454E-04  0.1501E-04  0.1554E-04  0.1598E-04  0.1632E-04  0.1654E-04  0.1663E-04  0.1658E-04  0.1641E-04  0.1611E-04  0.1570E-04  0.1521E-04  0.1464E-04  0.1402E-04  0.1336E-04  0.1268E-04  0.1198E-04  0.1129E-04  0.1061E-04  0.9943E-05  0.9298E-05  0.8674E-05  0.8068E-05  0.7474E-05  0.6893E-05  0.6323E-05  0.5772E-05  0.5238E-05  0.4726E-05  0.4234E-05  0.3759E-05  0.3322E-05  0.2912E-05  0.2538E-05  0.2193E-05  0.1871E-05  0.1570E-05  0.1299E-05  0.1060E-05  0.8539E-06  0.6647E-06  0.5090E-06
  0.4980E-07  0.6102E-07  0.7603E-07  0.9181E-07  0.1103E-06  0.1301E-06  0.1511E-06  0.1783E-06  0.2068E-06  0.7510E-06  0.2114E-05  0.4799E-05  0.8663E-05  0.1492E-04  0.2422E-04  0.3866E-04  0.5949E-04  0.8513E-04  0.9937E-04  0.9746E-04  0.8271E-04  0.6321E-04  0.4633E-04  0.3782E-04  0.3865E-04  0.4235E-04  0.4372E-04  0.3753E-04  0.2759E-04  0.1927E-04  0.1503E-04  0.1407E-04  0.1451E-04  0.1488E-04  0.1485E-04  0.1454E-04  0.1438E-04  0.1449E-04  0.1481E-04  0.1519E-04  0.1552E-04  0.1576E-04  0.1592E-04  0.1596E-04  0.1589E-04  0.1570E-04  0.1541E-04  0.1502E-04  0.1455E-04  0.1401E-04  0.1342E-04  0.1280E-04  0.1215E-04  0.1149E-04  0.1083E-04  0.1019E-04  0.9556E-05  0.8943E-05  0.8350E-05  0.7774E-05  0.7213E-05  0.6659E-05  0.6116E-05  0.5587E-05  0.5080E-05  0.4590E-05  0.4116E-05  0.3663E-05  0.3236E-05  0.2848E-05  0.2472E-05  0.2131E-05  0.1814E-05  0.1532E-05  0.1282E-05  0.1043E-05  0.8456E-06  0.6636E-06  0.5066E-06
  0.4824E-07  0.6201E-07  0.7469E-07  0.8995E-07  0.1081E-06  0.1287E-06  0.1524E-06  0.1799E-06  0.2108E-06  0.1216E-05  0.3210E-05  0.6410E-05  0.1104E-04  0.1827E-04  0.2870E-04  0.4389E-04  0.6423E-04  0.8665E-04  0.1001E-03  0.9220E-04  0.7073E-04  0.4854E-04  0.3471E-04  0.3016E-04  0.3280E-04  0.3810E-04  0.3867E-04  0.3351E-04  0.2581E-04  0.1974E-04  0.1649E-04  0.1541E-04  0.1524E-04  0.1514E-04  0.1496E-04  0.1474E-04  0.1458E-04  0.1455E-04  0.1466E-04  0.1486E-04  0.1507E-04  0.1521E-04  0.1528E-04  0.1528E-04  0.1517E-04  0.1497E-04  0.1468E-04  0.1430E-04  0.1385E-04  0.1334E-04  0.1279E-04  0.1220E-04  0.1159E-04  0.1097E-04  0.1035E-04  0.9740E-05  0.9143E-05  0.8563E-05  0.8002E-05  0.7459E-05  0.6928E-05  0.6405E-05  0.5892E-05  0.5393E-05  0.4904E-05  0.4428E-05  0.3977E-05  0.3541E-05  0.3145E-05  0.2770E-05  0.2415E-05  0.2085E-05  0.1771E-05  0.1492E-05  0.1229E-05  0.1022E-05  0.8268E-06  0.6583E-06  0.5077E-06
  0.4706E-07  0.5919E-07  0.7305E-07  0.8884E-07  0.1064E-06  0.1303E-06  0.1562E-06  0.1822E-06  0.6009E-06  0.1997E-05  0.4295E-05  0.7744E-05  0.1273E-04  0.2002E-04  0.3038E-04  0.4439E-04  0.6168E-04  0.7901E-04  0.8870E-04  0.8206E-04  0.6308E-04  0.4333E-04  0.3133E-04  0.2739E-04  0.2894E-04  0.3187E-04  0.3228E-04  0.2910E-04  0.2439E-04  0.2032E-04  0.1789E-04  0.1682E-04  0.1621E-04  0.1577E-04  0.1539E-04  0.1506E-04  0.1481E-04  0.1466E-04  0.1457E-04  0.1460E-04  0.1465E-04  0.1468E-04  0.1466E-04  0.1459E-04  0.1444E-04  0.1422E-04  0.1392E-04  0.1356E-04  0.1313E-04  0.1265E-04  0.1213E-04  0.1157E-04  0.1101E-04  0.1043E-04  0.9847E-05  0.9272E-05  0.8711E-05  0.8166E-05  0.7638E-05  0.7127E-05  0.6627E-05  0.6137E-05  0.5653E-05  0.5175E-05  0.4708E-05  0.4268E-05  0.3839E-05  0.3431E-05  0.3042E-05  0.2669E-05  0.2328E-05  0.2005E-05  0.1709E-05  0.1453E-05  0.1217E-05  0.1002E-05  0.8167E-06  0.6428E-06  0.4994E-06
  0.4855E-07  0.5799E-07  0.7197E-07  0.9074E-07  0.1131E-06  0.1331E-06  0.1570E-06  0.1860E-06  0.9550E-06  0.2533E-05  0.5125E-05  0.8672E-05  0.1368E-04  0.2073E-04  0.3018E-04  0.4217E-04  0.5588E-04  0.6901E-04  0.7619E-04  0.7242E-04  0.5979E-04  0.4461E-04  0.3344E-04  0.2820E-04  0.2731E-04  0.2762E-04  0.2729E-04  0.2546E-04  0.2287E-04  0.2050E-04  0.1890E-04  0.1784E-04  0.1700E-04  0.1639E-04  0.1586E-04  0.1541E-04  0.1504E-04  0.1474E-04  0.1452E-04  0.1437E-04  0.1425E-04  0.1416E-04  0.1404E-04  0.1390E-04  0.1371E-04  0.1347E-04  0.1317E-04  0.1281E-04  0.1240E-04  0.1194E-04  0.1145E-04  0.1094E-04  0.1040E-04  0.9864E-05  0.9322E-05  0.8785E-05  0.8262E-05  0.7755E-05  0.7260E-05  0.6780E-05  0.6314E-05  0.5856E-05  0.5397E-05  0.4950E-05  0.4515E-05  0.4091E-05  0.3682E-05  0.3305E-05  0.2933E-05  0.2586E-05  0.2254E-05  0.1952E-05  0.1663E-05  0.1417E-05  0.1171E-05  0.9655E-06  0.7903E-06  0.6247E-06  0.4848E-06
  0.4789E-07  0.6164E-07  0.7599E-07  0.9284E-07  0.1131E-06  0.1375E-06  0.1620E-06  0.5331E-06  0.1525E-05  0.3288E-05  0.5730E-05  0.9115E-05  0.1374E-04  0.2032E-04  0.2871E-04  0.3873E-04  0.4964E-04  0.5993E-04  0.6615E-04  0.6578E-04  0.5857E-04  0.4815E-04  0.3790E-04  0.3116E-04  0.2745E-04  0.2572E-04  0.2450E-04  0.2313E-04  0.2145E-04  0.2004E-04  0.1906E-04  0.1824E-04  0.1750E-04  0.1678E-04  0.1615E-04  0.1562E-04  0.1517E-04  0.1476E-04  0.1442E-04  0.1413E-04  0.1388E-04  0.1365E-04  0.1344E-04  0.1322E-04  0.1298E-04  0.1271E-04  0.1240E-04  0.1205E-04  0.1166E-04  0.1123E-04  0.1077E-04  0.1029E-04  0.9796E-05  0.9291E-05  0.8789E-05  0.8293E-05  0.7803E-05  0.7328E-05  0.6867E-05  0.6421E-05  0.5985E-05  0.5560E-05  0.5138E-05  0.4719E-05  0.4309E-05  0.3912E-05  0.3530E-05  0.3164E-05  0.2808E-05  0.2463E-05  0.2139E-05  0.1845E-05  0.1581E-05  0.1346E-05  0.1132E-05  0.9375E-06  0.7558E-06  0.6034E-06  0.4666E-06
  0.5105E-07  0.6375E-07  0.7794E-07  0.9559E-07  0.1158E-06  0.1387E-06  0.1673E-06  0.7665E-06  0.1915E-05  0.3627E-05  0.6038E-05  0.9248E-05  0.1375E-04  0.1936E-04  0.2673E-04  0.3516E-04  0.4403E-04  0.5261E-04  0.5866E-04  0.6040E-04  0.5727E-04  0.5074E-04  0.4265E-04  0.3478E-04  0.2912E-04  0.2554E-04  0.2343E-04  0.2170E-04  0.2037E-04  0.1942E-04  0.1863E-04  0.1800E-04  0.1741E-04  0.1679E-04  0.1620E-04  0.1561E-04  0.1512E-04  0.1465E-04  0.1424E-04  0.1385E-04  0.1349E-04  0.1316E-04  0.1284E-04  0.1254E-04  0.1226E-04  0.1196E-04  0.1164E-04  0.1129E-04  0.1092E-04  0.1051E-04  0.1009E-04  0.9641E-05  0.9183E-05  0.8721E-05  0.8256E-05  0.7792E-05  0.7339E-05  0.6898E-05  0.6471E-05  0.6056E-05  0.5652E-05  0.5257E-05  0.4867E-05  0.4481E-05  0.4100E-05  0.3723E-05  0.3362E-05  0.3026E-05  0.2692E-05  0.2366E-05  0.2066E-05  0.1785E-05  0.1533E-05  0.1301E-05  0.1080E-05  0.8985E-06  0.7348E-06  0.5859E-06  0.4491E-06
  0.5451E-07  0.6602E-07  0.8068E-07  0.9863E-07  0.1193E-06  0.1416E-06  0.4221E-06  0.1137E-05  0.2360E-05  0.3950E-05  0.6245E-05  0.9275E-05  0.1322E-04  0.1856E-04  0.2466E-04  0.3191E-04  0.3936E-04  0.4655E-04  0.5234E-04  0.5548E-04  0.5506E-04  0.5184E-04  0.4575E-04  0.3838E-04  0.3174E-04  0.2683E-04  0.2355E-04  0.2137E-04  0.1976E-04  0.1880E-04  0.1803E-04  0.1747E-04  0.1693E-04  0.1642E-04  0.1590E-04  0.1536E-04  0.1485E-04  0.1438E-04  0.1393E-04  0.1349E-04  0.1306E-04  0.1265E-04  0.1225E-04  0.1189E-04  0.1154E-04  0.1122E-04  0.1089E-04  0.1055E-04  0.1019E-04  0.9806E-05  0.9410E-05  0.9000E-05  0.8576E-05  0.8147E-05  0.7719E-05  0.7295E-05  0.6875E-05  0.6467E-05  0.6072E-05  0.5689E-05  0.5318E-05  0.4956E-05  0.4596E-05  0.4234E-05  0.3878E-05  0.3536E-05  0.3199E-05  0.2869E-05  0.2547E-05  0.2232E-05  0.1947E-05  0.1686E-05  0.1446E-05  0.1232E-05  0.1037E-05  0.8631E-06  0.7048E-06  0.5509E-06  0.4308E-06
  0.5576E-07  0.6785E-07  0.8389E-07  0.1030E-06  0.1213E-06  0.1474E-06  0.5664E-06  0.1360E-05  0.2618E-05  0.4108E-05  0.6178E-05  0.9098E-05  0.1277E-04  0.1736E-04  0.2279E-04  0.2899E-04  0.3540E-04  0.4174E-04  0.4728E-04  0.5090E-04  0.5236E-04  0.5082E-04  0.4696E-04  0.4108E-04  0.3455E-04  0.2876E-04  0.2460E-04  0.2172E-04  0.1970E-04  0.1837E-04  0.1748E-04  0.1678E-04  0.1627E-04  0.1578E-04  0.1532E-04  0.1487E-04  0.1438E-04  0.1392E-04  0.1346E-04  0.1301E-04  0.1255E-04  0.1210E-04  0.1166E-04  0.1124E-04  0.1086E-04  0.1050E-04  0.1015E-04  0.9813E-05  0.9468E-05  0.9113E-05  0.8746E-05  0.8366E-05  0.7976E-05  0.7584E-05  0.7190E-05  0.6801E-05  0.6420E-05  0.6045E-05  0.5680E-05  0.5328E-05  0.4985E-05  0.4652E-05  0.4319E-05  0.3991E-05  0.3664E-05  0.3343E-05  0.3017E-05  0.2709E-05  0.2409E-05  0.2131E-05  0.1864E-05  0.1611E-05  0.1389E-05  0.1172E-05  0.9793E-06  0.8139E-06  0.6635E-06  0.5354E-06  0.4096E-06
  0.5922E-07  0.7201E-07  0.8672E-07  0.1069E-06  0.1271E-06  0.3194E-06  0.8098E-06  0.1676E-05  0.2781E-05  0.4221E-05  0.6201E-05  0.8739E-05  0.1219E-04  0.1614E-04  0.2115E-04  0.2638E-04  0.3193E-04  0.3770E-04  0.4280E-04  0.4666E-04  0.4890E-04  0.4886E-04  0.4659E-04  0.4235E-04  0.3679E-04  0.3103E-04  0.2606E-04  0.2253E-04  0.2004E-04  0.1825E-04  0.1701E-04  0.1616E-04  0.1551E-04  0.1503E-04  0.1457E-04  0.1416E-04  0.1374E-04  0.1331E-04  0.1286E-04  0.1240E-04  0.1195E-04  0.1150E-04  0.1104E-04  0.1060E-04  0.1018E-04  0.9797E-05  0.9435E-05  0.9095E-05  0.8767E-05  0.8434E-05  0.8092E-05  0.7743E-05  0.7388E-05  0.7029E-05  0.6672E-05  0.6319E-05  0.5968E-05  0.5625E-05  0.5291E-05  0.4966E-05  0.4653E-05  0.4346E-05  0.4045E-05  0.3744E-05  0.3444E-05  0.3137E-05  0.2842E-05  0.2549E-05  0.2273E-05  0.2002E-05  0.1750E-05  0.1522E-05  0.1308E-05  0.1116E-05  0.9382E-06  0.7803E-06  0.6408E-06  0.4986E-06  0.3928E-06
  0.6312E-07  0.7570E-07  0.9109E-07  0.1100E-06  0.1318E-06  0.4077E-06  0.9109E-06  0.1774E-05  0.2857E-05  0.4259E-05  0.6079E-05  0.8512E-05  0.1145E-04  0.1526E-04  0.1941E-04  0.2408E-04  0.2897E-04  0.3409E-04  0.3873E-04  0.4264E-04  0.4522E-04  0.4608E-04  0.4509E-04  0.4222E-04  0.3794E-04  0.3280E-04  0.2776E-04  0.2356E-04  0.2051E-04  0.1832E-04  0.1674E-04  0.1561E-04  0.1482E-04  0.1423E-04  0.1376E-04  0.1333E-04  0.1294E-04  0.1254E-04  0.1212E-04  0.1169E-04  0.1127E-04  0.1083E-04  0.1038E-04  0.9942E-05  0.9519E-05  0.9119E-05  0.8752E-05  0.8406E-05  0.8082E-05  0.7770E-05  0.7457E-05  0.7137E-05  0.6816E-05  0.6491E-05  0.6166E-05  0.5843E-05  0.5524E-05  0.5212E-05  0.4908E-05  0.4615E-05  0.4326E-05  0.4045E-05  0.3770E-05  0.3494E-05  0.3216E-05  0.2935E-05  0.2657E-05  0.2389E-05  0.2128E-05  0.1885E-05  0.1652E-05  0.1441E-05  0.1237E-05  0.1046E-05  0.8706E-06  0.7202E-06  0.5929E-06  0.4761E-06  0.3647E-06
  0.6571E-07  0.7896E-07  0.9500E-07  0.1145E-06  0.2214E-06  0.5434E-06  0.1119E-05  0.1908E-05  0.2849E-05  0.4199E-05  0.5891E-05  0.8137E-05  0.1095E-04  0.1412E-04  0.1785E-04  0.2200E-04  0.2628E-04  0.3071E-04  0.3502E-04  0.3876E-04  0.4154E-04  0.4294E-04  0.4286E-04  0.4110E-04  0.3791E-04  0.3371E-04  0.2906E-04  0.2467E-04  0.2110E-04  0.1850E-04  0.1658E-04  0.1518E-04  0.1417E-04  0.1345E-04  0.1291E-04  0.1247E-04  0.1208E-04  0.1170E-04  0.1131E-04  0.1091E-04  0.1051E-04  0.1010E-04  0.9686E-05  0.9271E-05  0.8862E-05  0.8468E-05  0.8094E-05  0.7748E-05  0.7432E-05  0.7133E-05  0.6844E-05  0.6555E-05  0.6264E-05  0.5969E-05  0.5673E-05  0.5382E-05  0.5095E-05  0.4812E-05  0.4536E-05  0.4270E-05  0.4014E-05  0.3758E-05  0.3505E-05  0.3248E-05  0.2991E-05  0.2734E-05  0.2480E-05  0.2229E-05  0.1992E-05  0.1767E-05  0.1557E-05  0.1348E-05  0.1162E-05  0.9892E-06  0.8338E-06  0.6963E-06  0.5645E-06  0.4435E-06  0.3364E-06
  0.6751E-07  0.8282E-07  0.9987E-07  0.1191E-06  0.2839E-06  0.6041E-06  0.1208E-05  0.1939E-05  0.2863E-05  0.4084E-05  0.5736E-05  0.7651E-05  0.1021E-04  0.1301E-04  0.1650E-04  0.2006E-04  0.2392E-04  0.2783E-04  0.3170E-04  0.3517E-04  0.3788E-04  0.3956E-04  0.4006E-04  0.3922E-04  0.3697E-04  0.3364E-04  0.2970E-04  0.2551E-04  0.2170E-04  0.1868E-04  0.1644E-04  0.1482E-04  0.1358E-04  0.1272E-04  0.1208E-04  0.1159E-04  0.1119E-04  0.1081E-04  0.1046E-04  0.1010E-04  0.9718E-05  0.9341E-05  0.8962E-05  0.8572E-05  0.8188E-05  0.7816E-05  0.7462E-05  0.7129E-05  0.6820E-05  0.6529E-05  0.6258E-05  0.5994E-05  0.5730E-05  0.5465E-05  0.5201E-05  0.4939E-05  0.4682E-05  0.4428E-05  0.4179E-05  0.3937E-05  0.3702E-05  0.3473E-05  0.3240E-05  0.3007E-05  0.2771E-05  0.2530E-05  0.2295E-05  0.2075E-05  0.1858E-05  0.1645E-05  0.1449E-05  0.1260E-05  0.1085E-05  0.9152E-06  0.7624E-06  0.6267E-06  0.5119E-06  0.4058E-06  0.3127E-06
  0.7033E-07  0.8545E-07  0.1035E-06  0.1413E-06  0.3364E-06  0.6812E-06  0.1244E-05  0.1942E-05  0.2832E-05  0.3943E-05  0.5413E-05  0.7284E-05  0.9445E-05  0.1217E-04  0.1504E-04  0.1825E-04  0.2165E-04  0.2510E-04  0.2853E-04  0.3174E-04  0.3432E-04  0.3619E-04  0.3705E-04  0.3677E-04  0.3532E-04  0.3282E-04  0.2953E-04  0.2579E-04  0.2210E-04  0.1887E-04  0.1632E-04  0.1444E-04  0.1307E-04  0.1202E-04  0.1128E-04  0.1073E-04  0.1030E-04  0.9936E-05  0.9597E-05  0.9250E-05  0.8914E-05  0.8569E-05  0.8230E-05  0.7876E-05  0.7522E-05  0.7176E-05  0.6848E-05  0.6536E-05  0.6240E-05  0.5968E-05  0.5707E-05  0.5457E-05  0.5220E-05  0.4987E-05  0.4750E-05  0.4517E-05  0.4284E-05  0.4055E-05  0.3831E-05  0.3614E-05  0.3398E-05  0.3188E-05  0.2984E-05  0.2770E-05  0.2553E-05  0.2335E-05  0.2128E-05  0.1921E-05  0.1719E-05  0.1529E-05  0.1358E-05  0.1181E-05  0.1013E-05  0.8649E-06  0.7262E-06  0.6031E-06  0.4886E-06  0.3829E-06  0.2853E-06
  0.7299E-07  0.8761E-07  0.1057E-06  0.1669E-06  0.3728E-06  0.7516E-06  0.1279E-05  0.1932E-05  0.2739E-05  0.3820E-05  0.5175E-05  0.6821E-05  0.8883E-05  0.1113E-04  0.1373E-04  0.1657E-04  0.1956E-04  0.2259E-04  0.2562E-04  0.2843E-04  0.3092E-04  0.3280E-04  0.3383E-04  0.3400E-04  0.3315E-04  0.3134E-04  0.2869E-04  0.2549E-04  0.2209E-04  0.1886E-04  0.1615E-04  0.1405E-04  0.1251E-04  0.1138E-04  0.1052E-04  0.9908E-05  0.9439E-05  0.9069E-05  0.8739E-05  0.8435E-05  0.8113E-05  0.7803E-05  0.7494E-05  0.7181E-05  0.6864E-05  0.6552E-05  0.6249E-05  0.5959E-05  0.5687E-05  0.5431E-05  0.5188E-05  0.4958E-05  0.4743E-05  0.4530E-05  0.4317E-05  0.4106E-05  0.3904E-05  0.3699E-05  0.3499E-05  0.3303E-05  0.3111E-05  0.2918E-05  0.2730E-05  0.2538E-05  0.2349E-05  0.2154E-05  0.1958E-05  0.1769E-05  0.1594E-05  0.1419E-05  0.1246E-05  0.1083E-05  0.9260E-06  0.7865E-06  0.6562E-06  0.5422E-06  0.4413E-06  0.3510E-06  0.2670E-06
  0.7486E-07  0.9038E-07  0.1074E-06  0.1916E-06  0.4047E-06  0.7933E-06  0.1264E-05  0.1855E-05  0.2653E-05  0.3622E-05  0.4861E-05  0.6287E-05  0.8144E-05  0.1012E-04  0.1256E-04  0.1500E-04  0.1763E-04  0.2027E-04  0.2293E-04  0.2551E-04  0.2779E-04  0.2958E-04  0.3069E-04  0.3106E-04  0.3058E-04  0.2935E-04  0.2729E-04  0.2464E-04  0.2162E-04  0.1859E-04  0.1584E-04  0.1363E-04  0.1193E-04  0.1070E-04  0.9791E-05  0.9118E-05  0.8618E-05  0.8227E-05  0.7917E-05  0.7625E-05  0.7345E-05  0.7057E-05  0.6785E-05  0.6509E-05  0.6227E-05  0.5946E-05  0.5671E-05  0.5408E-05  0.5157E-05  0.4920E-05  0.4702E-05  0.4495E-05  0.4292E-05  0.4097E-05  0.3911E-05  0.3725E-05  0.3541E-05  0.3359E-05  0.3180E-05  0.3005E-05  0.2837E-05  0.2669E-05  0.2497E-05  0.2328E-05  0.2154E-05  0.1974E-05  0.1795E-05  0.1633E-05  0.1462E-05  0.1301E-05  0.1158E-05  0.1015E-05  0.8699E-06  0.7404E-06  0.6176E-06  0.5084E-06  0.4062E-06  0.3112E-06  0.2322E-06
  0.7715E-07  0.9215E-07  0.1094E-06  0.1959E-06  0.4148E-06  0.7730E-06  0.1232E-05  0.1793E-05  0.2514E-05  0.3398E-05  0.4527E-05  0.5916E-05  0.7415E-05  0.9335E-05  0.1132E-04  0.1351E-04  0.1582E-04  0.1814E-04  0.2044E-04  0.2273E-04  0.2479E-04  0.2646E-04  0.2756E-04  0.2808E-04  0.2791E-04  0.2701E-04  0.2546E-04  0.2329E-04  0.2073E-04  0.1798E-04  0.1533E-04  0.1308E-04  0.1134E-04  0.1001E-04  0.9060E-05  0.8359E-05  0.7835E-05  0.7445E-05  0.7123E-05  0.6853E-05  0.6591E-05  0.6350E-05  0.6101E-05  0.5866E-05  0.5618E-05  0.5369E-05  0.5124E-05  0.4886E-05  0.4659E-05  0.4448E-05  0.4248E-05  0.4054E-05  0.3869E-05  0.3696E-05  0.3526E-05  0.3362E-05  0.3199E-05  0.3039E-05  0.2884E-05  0.2728E-05  0.2572E-05  0.2422E-05  0.2268E-05  0.2122E-05  0.1963E-05  0.1805E-05  0.1644E-05  0.1486E-05  0.1347E-05  0.1205E-05  0.1059E-05  0.9221E-06  0.7916E-06  0.6750E-06  0.5609E-06  0.4599E-06  0.3703E-06  0.2899E-06  0.2145E-06
  0.7660E-07  0.9231E-07  0.1110E-06  0.2385E-06  0.4388E-06  0.7761E-06  0.1193E-05  0.1692E-05  0.2353E-05  0.3206E-05  0.4188E-05  0.5389E-05  0.6854E-05  0.8407E-05  0.1019E-04  0.1218E-04  0.1415E-04  0.1616E-04  0.1823E-04  0.2022E-04  0.2204E-04  0.2351E-04  0.2456E-04  0.2516E-04  0.2513E-04  0.2456E-04  0.2331E-04  0.2160E-04  0.1945E-04  0.1707E-04  0.1467E-04  0.1244E-04  0.1065E-04  0.9321E-05  0.8319E-05  0.7612E-05  0.7088E-05  0.6688E-05  0.6379E-05  0.6120E-05  0.5897E-05  0.5668E-05  0.5460E-05  0.5249E-05  0.5036E-05  0.4819E-05  0.4602E-05  0.4388E-05  0.4190E-05  0.3999E-05  0.3816E-05  0.3642E-05  0.3482E-05  0.3325E-05  0.3171E-05  0.3024E-05  0.2885E-05  0.2742E-05  0.2600E-05  0.2463E-05  0.2328E-05  0.2191E-05  0.2060E-05  0.1922E-05  0.1788E-05  0.1644E-05  0.1505E-05  0.1361E-05  0.1226E-05  0.1089E-05  0.9694E-06  0.8500E-06  0.7380E-06  0.6220E-06  0.5153E-06  0.4237E-06  0.3378E-06  0.2485E-06  0.1791E-06
  0.7750E-07  0.9253E-07  0.1095E-06  0.2378E-06  0.4373E-06  0.7424E-06  0.1108E-05  0.1603E-05  0.2182E-05  0.2923E-05  0.3844E-05  0.4865E-05  0.6176E-05  0.7519E-05  0.9192E-05  0.1083E-04  0.1260E-04  0.1434E-04  0.1613E-04  0.1786E-04  0.1946E-04  0.2077E-04  0.2178E-04  0.2234E-04  0.2240E-04  0.2204E-04  0.2109E-04  0.1966E-04  0.1792E-04  0.1588E-04  0.1376E-04  0.1172E-04  0.9920E-05  0.8559E-05  0.7604E-05  0.6876E-05  0.6362E-05  0.5979E-05  0.5684E-05  0.5446E-05  0.5232E-05  0.5040E-05  0.4846E-05  0.4668E-05  0.4488E-05  0.4301E-05  0.4111E-05  0.3926E-05  0.3748E-05  0.3576E-05  0.3413E-05  0.3263E-05  0.3118E-05  0.2977E-05  0.2839E-05  0.2713E-05  0.2586E-05  0.2461E-05  0.2338E-05  0.2216E-05  0.2096E-05  0.1982E-05  0.1860E-05  0.1743E-05  0.1620E-05  0.1498E-05  0.1365E-05  0.1236E-05  0.1113E-05  0.9972E-06  0.8851E-06  0.7686E-06  0.6647E-06  0.5662E-06  0.4672E-06  0.3784E-06  0.2995E-06  0.2285E-06  0.1675E-06
