DSAA
          79         109
    318.3670    342.0670
   7336.5760   7369.2760
  0.0000E+00  0.1572E-03
  0.0000E+00  0.0000E+00  0.0000E+00  0.0000E+00  0.0000E+00  0.0000E+00  0.0000E+00  0.0000E+00  0.0000E+00  0.0000E+00  0.0000E+00  0.0000E+00  0.0000E+00  0.0000E+00  0.0000E+00  0.0000E+00  0.0000E+00  0.0000E+00  0.0000E+00  0.0000E+00  0.0000E+00  0.0000E+00  0.0000E+00  0.0000E+00  0.0000E+00  0.0000E+00  0.0000E+00  0.0000E+00  0.0000E+00  0.0000E+00  0.0000E+00  0.0000E+00  0.0000E+00  0.0000E+00  0.0000E+00  0.0000E+00  0.0000E+00  0.0000E+00  0.0000E+00  0.0000E+00  0.0000E+00  0.0000E+00  0.0000E+00  0.0000E+00  0.0000E+00  0.0000E+00  0.0000E+00  0.0000E+00  0.0000E+00  0.0000E+00  0.0000E+00  0.0000E+00  0.0000E+00  0.0000E+00  0.0000E+00  0.0000E+00  0.0000E+00  0.0000E+00  0.0000E+00  0.0000E+00  0.0000E+00  0.0000E+00  0.0000E+00  0.0000E+00  0.0000E+00  0.0000E+00  0.0000E+00  0.0000E+00  0.0000E+00  0.0000E+00  0.0000E+00  0.0000E+00  0.0000E+00  0.0000E+00  0.0000E+00  0.0000E+00  0.0000E+00  0.0000E+00  0.0000E+00
  0.0000E+00  0.0000E+00  0.0000E+00  0.0000E+00  0.0000E+00  0.0000E+00  0.0000E+00  0.0000E+00  0.0000E+00  0.0000E+00  0.0000E+00  0.0000E+00  0.0000E+00  0.0000E+00  0.0000E+00  0.0000E+00  0.0000E+00  0.0000E+00  0.0000E+00  0.0000E+00  0.0000E+00  0.0000E+00  0.0000E+00  0.0000E+00  0.0000E+00  0.0000E+00  0.0000E+00  0.0000E+00  0.0000E+00  0.0000E+00  0.0000E+00  0.0000E+00  0.0000E+00  0.0000E+00  0.0000E+00  0.0000E+00  0.0000E+00  0.0000E+00  0.0000E+00  0.0000E+00  0.0000E+00  0.0000E+00  0.0000E+00  0.0000E+00  0.0000E+00  0.0000E+00  0.0000E+00  0.0000E+00  0.0000E+00  0.0000E+00  0.0000E+00  0.0000E+00  0.0000E+00  0.0000E+00  0.0000E+00  0.0000E+00  0.0000E+00  0.0000E+00  0.0000E+00  0.0000E+00  0.0000E+00  0.0000E+00  0.0000E+00  0.0000E+00  0.0000E+00  0.0000E+00  0.0000E+00  0.0000E+00  0.0000E+00  0.0000E+00  0.0000E+00  0.0000E+00  0.0000E+00  0.0000E+00  0.0000E+00  0.0000E+00  0.0000E+00  0.0000E+00  0.0000E+00
  0.0000E+00  0.0000E+00  0.0000E+00  0.0000E+00  0.0000E+00  0.0000E+00  0.0000E+00  0.0000E+00  0.0000E+00  0.0000E+00  0.0000E+00  0.0000E+00  0.0000E+00  0.0000E+00  0.0000E+00  0.0000E+00  0.0000E+00  0.0000E+00  0.0000E+00  0.0000E+00  0.0000E+00  0.0000E+00  0.0000E+00  0.0000E+00  0.0000E+00  0.0000E+00  0.0000E+00  0.0000E+00  0.0000E+00  0.0000E+00  0.0000E+00  0.0000E+00  0.0000E+00  0.0000E+00  0.0000E+00  0.0000E+00  0.0000E+00  0.0000E+00  0.0000E+00  0.0000E+00  0.0000E+00  0.0000E+00  0.0000E+00  0.0000E+00  0.0000E+00  0.0000E+00  0.0000E+00  0.0000E+00  0.0000E+00  0.0000E+00  0.0000E+00  0.0000E+00  0.0000E+00  0.0000E+00  0.0000E+00  0.0000E+00  0.0000E+00  0.0000E+00  0.0000E+00  0.0000E+00  0.0000E+00  0.0000E+00  0.0000E+00  0.0000E+00  0.0000E+00  0.0000E+00  0.0000E+00  0.0000E+00  0.0000E+00  0.0000E+00  0.0000E+00  0.0000E+00  0.0000E+00  0.0000E+00  0.0000E+00  0.0000E+00  0.0000E+00  0.0000E+00  0.0000E+00
  0.0000E+00  0.0000E+00  0.0000E+00  0.0000E+00  0.0000E+00  0.0000E+00  0.0000E+00  0.0000E+00  0.0000E+00  0.0000E+00  0.0000E+00  0.0000E+00  0.0000E+00  0.0000E+00  0.0000E+00  0.0000E+00  0.0000E+00  0.0000E+00  0.0000E+00  0.0000E+00  0.0000E+00  0.0000E+00  0.0000E+00  0.0000E+00  0.0000E+00  0.0000E+00  0.0000E+00  0.0000E+00  0.0000E+00  0.0000E+00  0.0000E+00  0.0000E+00  0.0000E+00  0.0000E+00  0.0000E+00  0.0000E+00  0.0000E+00  0.0000E+00  0.0000E+00  0.0000E+00  0.0000E+00  0.0000E+00  0.0000E+00  0.0000E+00  0.0000E+00  0.0000E+00  0.0000E+00  0.0000E+00  0.0000E+00  0.0000E+00  0.0000E+00  0.0000E+00  0.0000E+00  0.0000E+00  0.0000E+00  0.0000E+00  0.0000E+00  0.0000E+00  0.0000E+00  0.0000E+00  0.0000E+00  0.0000E+00  0.0000E+00  0.0000E+00  0.0000E+00  0.0000E+00  0.0000E+00  0.0000E+00  0.0000E+00  0.0000E+00  0.0000E+00  0.0000E+00  0.0000E+00  0.0000E+00  0.0000E+00  0.0000E+00  0.0000E+00  0.0000E+00  0.0000E+00
  0.0000E+00  0.0000E+00  0.0000E+00  0.0000E+00  0.0000E+00  0.0000E+00  0.0000E+00  0.0000E+00  0.0000E+00  0.0000E+00  0.0000E+00  0.0000E+00  0.0000E+00  0.0000E+00  0.0000E+00  0.0000E+00  0.0000E+00  0.0000E+00  0.0000E+00  0.0000E+00  0.0000E+00  0.0000E+00  0.0000E+00  0.0000E+00  0.0000E+00  0.0000E+00  0.0000E+00  0.0000E+00  0.0000E+00  0.0000E+00  0.0000E+00  0.0000E+00  0.0000E+00  0.0000E+00  0.0000E+00  0.0000E+00  0.0000E+00  0.0000E+00  0.0000E+00  0.0000E+00  0.0000E+00  0.0000E+00  0.0000E+00  0.0000E+00  0.0000E+00  0.0000E+00  0.0000E+00  0.0000E+00  0.0000E+00  0.0000E+00  0.0000E+00  0.0000E+00  0.0000E+00  0.0000E+00  0.0000E+00  0.0000E+00  0.0000E+00  0.0000E+00  0.0000E+00  0.0000E+00  0.0000E+00  0.0000E+00  0.0000E+00  0.0000E+00  0.0000E+00  0.0000E+00  0.0000E+00  0.0000E+00  0.0000E+00  0.0000E+00  0.0000E+00  0.0000E+00  0.0000E+00  0.0000E+00  0.0000E+00  0.0000E+00  0.0000E+00  0.0000E+00  0.0000E+00
  0.0000E+00  0.0000E+00  0.0000E+00  0.0000E+00  0.0000E+00  0.0000E+00  0.0000E+00  0.0000E+00  0.0000E+00  0.0000E+00  0.0000E+00  0.0000E+00  0.0000E+00  0.0000E+00  0.0000E+00  0.0000E+00  0.0000E+00  0.0000E+00  0.0000E+00  0.0000E+00  0.0000E+00  0.0000E+00  0.0000E+00  0.0000E+00  0.0000E+00  0.0000E+00  0.0000E+00  0.0000E+00  0.0000E+00  0.0000E+00  0.0000E+00  0.0000E+00  0.0000E+00  0.0000E+00  0.0000E+00  0.0000E+00  0.0000E+00  0.0000E+00  0.0000E+00  0.0000E+00  0.0000E+00  0.0000E+00  0.0000E+00  0.0000E+00  0.0000E+00  0.0000E+00  0.0000E+00  0.0000E+00  0.0000E+00  0.0000E+00  0.0000E+00  0.0000E+00  0.0000E+00  0.0000E+00  0.0000E+00  0.0000E+00  0.0000E+00  0.0000E+00  0.0000E+00  0.0000E+00  0.0000E+00  0.0000E+00  0.0000E+00  0.0000E+00  0.0000E+00  0.0000E+00  0.0000E+00  0.0000E+00  0.0000E+00  0.0000E+00  0.0000E+00  0.0000E+00  0.0000E+00  0.0000E+00  0.0000E+00  0.0000E+00  0.0000E+00  0.0000E+00  0.0000E+00
  0.0000E+00  0.0000E+00  0.0000E+00  0.0000E+00  0.0000E+00  0.0000E+00  0.0000E+00  0.0000E+00  0.0000E+00  0.0000E+00  0.0000E+00  0.0000E+00  0.0000E+00  0.0000E+00  0.0000E+00  0.0000E+00  0.0000E+00  0.0000E+00  0.0000E+00  0.0000E+00  0.0000E+00  0.0000E+00  0.0000E+00  0.0000E+00  0.0000E+00  0.0000E+00  0.0000E+00  0.0000E+00  0.0000E+00  0.0000E+00  0.0000E+00  0.0000E+00  0.0000E+00  0.0000E+00  0.0000E+00  0.0000E+00  0.0000E+00  0.0000E+00  0.0000E+00  0.0000E+00  0.0000E+00  0.0000E+00  0.0000E+00  0.0000E+00  0.0000E+00  0.0000E+00  0.0000E+00  0.0000E+00  0.0000E+00  0.0000E+00  0.0000E+00  0.0000E+00  0.0000E+00  0.0000E+00  0.0000E+00  0.0000E+00  0.0000E+00  0.0000E+00  0.0000E+00  0.0000E+00  0.0000E+00  0.0000E+00  0.0000E+00  0.0000E+00  0.0000E+00  0.0000E+00  0.0000E+00  0.0000E+00  0.0000E+00  0.0000E+00  0.0000E+00  0.0000E+00  0.0000E+00  0.0000E+00  0.0000E+00  0.0000E+00  0.0000E+00  0.0000E+00  0.0000E+00
  0.0000E+00  0.0000E+00  0.0000E+00  0.0000E+00  0.0000E+00  0.0000E+00  0.0000E+00  0.0000E+00  0.0000E+00  0.0000E+00  0.0000E+00  0.0000E+00  0.0000E+00  0.0000E+00  0.0000E+00  0.0000E+00  0.0000E+00  0.0000E+00  0.0000E+00  0.0000E+00  0.0000E+00  0.0000E+00  0.0000E+00  0.0000E+00  0.0000E+00  0.0000E+00  0.0000E+00  0.0000E+00  0.0000E+00  0.0000E+00  0.0000E+00  0.0000E+00  0.0000E+00  0.0000E+00  0.0000E+00  0.0000E+00  0.0000E+00  0.0000E+00  0.0000E+00  0.0000E+00  0.0000E+00  0.0000E+00  0.0000E+00  0.0000E+00  0.0000E+00  0.0000E+00  0.0000E+00  0.0000E+00  0.0000E+00  0.0000E+00  0.0000E+00  0.0000E+00  0.0000E+00  0.0000E+00  0.0000E+00  0.0000E+00  0.0000E+00  0.0000E+00  0.0000E+00  0.0000E+00  0.0000E+00  0.0000E+00  0.0000E+00  0.0000E+00  0.0000E+00  0.0000E+00  0.0000E+00  0.0000E+00  0.0000E+00  0.0000E+00  0.0000E+00  0.0000E+00  0.0000E+00  0.0000E+00  0.0000E+00  0.0000E+00  0.0000E+00  0.0000E+00  0.0000E+00
  0.0000E+00  0.0000E+00  0.0000E+00  0.0000E+00  0.0000E+00  0.0000E+00  0.0000E+00  0.0000E+00  0.0000E+00  0.0000E+00  0.0000E+00  0.0000E+00  0.0000E+00  0.0000E+00  0.0000E+00  0.0000E+00  0.0000E+00  0.0000E+00  0.0000E+00  0.0000E+00  0.0000E+00  0.0000E+00  0.0000E+00  0.0000E+00  0.0000E+00  0.0000E+00  0.0000E+00  0.0000E+00  0.0000E+00  0.0000E+00  0.0000E+00  0.0000E+00  0.0000E+00  0.0000E+00  0.0000E+00  0.0000E+00  0.0000E+00  0.0000E+00  0.0000E+00  0.0000E+00  0.0000E+00  0.0000E+00  0.0000E+00  0.0000E+00  0.0000E+00  0.0000E+00  0.0000E+00  0.0000E+00  0.0000E+00  0.0000E+00  0.0000E+00  0.0000E+00  0.0000E+00  0.0000E+00  0.0000E+00  0.0000E+00  0.0000E+00  0.0000E+00  0.0000E+00  0.0000E+00  0.0000E+00  0.0000E+00  0.0000E+00  0.0000E+00  0.0000E+00  0.0000E+00  0.0000E+00  0.0000E+00  0.0000E+00  0.0000E+00  0.0000E+00  0.0000E+00  0.0000E+00  0.0000E+00  0.0000E+00  0.0000E+00  0.0000E+00  0.0000E+00  0.0000E+00
  0.0000E+00  0.0000E+00  0.0000E+00  0.0000E+00  0.0000E+00  0.0000E+00  0.0000E+00  0.0000E+00  0.0000E+00  0.0000E+00  0.0000E+00  0.0000E+00  0.0000E+00  0.0000E+00  0.0000E+00  0.0000E+00  0.0000E+00  0.0000E+00  0.0000E+00  0.0000E+00  0.0000E+00  0.0000E+00  0.0000E+00  0.0000E+00  0.0000E+00  0.0000E+00  0.0000E+00  0.0000E+00  0.0000E+00  0.0000E+00  0.0000E+00  0.0000E+00  0.0000E+00  0.0000E+00  0.0000E+00  0.0000E+00  0.0000E+00  0.0000E+00  0.0000E+00  0.0000E+00  0.0000E+00  0.0000E+00  0.0000E+00  0.0000E+00  0.0000E+00  0.0000E+00  0.0000E+00  0.0000E+00  0.0000E+00  0.0000E+00  0.0000E+00  0.0000E+00  0.0000E+00  0.0000E+00  0.0000E+00  0.0000E+00  0.0000E+00  0.0000E+00  0.0000E+00  0.0000E+00  0.0000E+00  0.0000E+00  0.0000E+00  0.0000E+00  0.0000E+00  0.0000E+00  0.0000E+00  0.0000E+00  0.0000E+00  0.0000E+00  0.0000E+00  0.0000E+00  0.0000E+00  0.0000E+00  0.0000E+00  0.0000E+00  0.0000E+00  0.0000E+00  0.0000E+00
  0.0000E+00  0.0000E+00  0.0000E+00  0.0000E+00  0.0000E+00  0.0000E+00  0.0000E+00  0.0000E+00  0.0000E+00  0.0000E+00  0.0000E+00  0.0000E+00  0.0000E+00  0.0000E+00  0.0000E+00  0.0000E+00  0.0000E+00  0.0000E+00  0.0000E+00  0.0000E+00  0.0000E+00  0.0000E+00  0.0000E+00  0.0000E+00  0.0000E+00  0.0000E+00  0.0000E+00  0.0000E+00  0.0000E+00  0.0000E+00  0.0000E+00  0.0000E+00  0.0000E+00  0.0000E+00  0.0000E+00  0.0000E+00  0.0000E+00  0.0000E+00  0.0000E+00  0.0000E+00  0.0000E+00  0.0000E+00  0.0000E+00  0.0000E+00  0.0000E+00  0.0000E+00  0.0000E+00  0.0000E+00  0.0000E+00  0.0000E+00  0.0000E+00  0.0000E+00  0.0000E+00  0.0000E+00  0.0000E+00  0.0000E+00  0.0000E+00  0.0000E+00  0.0000E+00  0.0000E+00  0.0000E+00  0.0000E+00  0.0000E+00  0.0000E+00  0.0000E+00  0.0000E+00  0.0000E+00  0.0000E+00  0.0000E+00  0.0000E+00  0.0000E+00  0.0000E+00  0.0000E+00  0.0000E+00  0.0000E+00  0.0000E+00  0.0000E+00  0.0000E+00  0.0000E+00
  0.0000E+00  0.0000E+00  0.0000E+00  0.0000E+00  0.0000E+00  0.0000E+00  0.0000E+00  0.0000E+00  0.0000E+00  0.0000E+00  0.0000E+00  0.0000E+00  0.0000E+00  0.0000E+00  0.0000E+00  0.0000E+00  0.0000E+00  0.0000E+00  0.0000E+00  0.0000E+00  0.0000E+00  0.0000E+00  0.0000E+00  0.0000E+00  0.0000E+00  0.0000E+00  0.0000E+00  0.0000E+00  0.0000E+00  0.0000E+00  0.0000E+00  0.0000E+00  0.0000E+00  0.0000E+00  0.0000E+00  0.0000E+00  0.0000E+00  0.0000E+00  0.0000E+00  0.0000E+00  0.0000E+00  0.0000E+00  0.0000E+00  0.0000E+00  0.0000E+00  0.0000E+00  0.0000E+00  0.0000E+00  0.0000E+00  0.0000E+00  0.0000E+00  0.0000E+00  0.0000E+00  0.0000E+00  0.0000E+00  0.0000E+00  0.0000E+00  0.0000E+00  0.0000E+00  0.0000E+00  0.0000E+00  0.0000E+00  0.0000E+00  0.0000E+00  0.0000E+00  0.0000E+00  0.0000E+00  0.0000E+00  0.0000E+00  0.0000E+00  0.0000E+00  0.0000E+00  0.0000E+00  0.0000E+00  0.0000E+00  0.0000E+00  0.0000E+00  0.0000E+00  0.0000E+00
  0.0000E+00  0.0000E+00  0.0000E+00  0.0000E+00  0.0000E+00  0.0000E+00  0.0000E+00  0.0000E+00  0.0000E+00  0.0000E+00  0.0000E+00  0.0000E+00  0.0000E+00  0.0000E+00  0.0000E+00  0.0000E+00  0.0000E+00  0.0000E+00  0.0000E+00  0.0000E+00  0.0000E+00  0.0000E+00  0.0000E+00  0.0000E+00  0.0000E+00  0.0000E+00  0.0000E+00  0.0000E+00  0.0000E+00  0.0000E+00  0.0000E+00  0.0000E+00  0.0000E+00  0.0000E+00  0.0000E+00  0.0000E+00  0.0000E+00  0.0000E+00  0.0000E+00  0.0000E+00  0.0000E+00  0.0000E+00  0.0000E+00  0.0000E+00  0.0000E+00  0.0000E+00  0.0000E+00  0.0000E+00  0.0000E+00  0.0000E+00  0.0000E+00  0.0000E+00  0.0000E+00  0.0000E+00  0.0000E+00  0.0000E+00  0.0000E+00  0.0000E+00  0.0000E+00  0.0000E+00  0.0000E+00  0.0000E+00  0.0000E+00  0.0000E+00  0.0000E+00  0.0000E+00  0.0000E+00  0.0000E+00  0.0000E+00  0.0000E+00  0.0000E+00  0.0000E+00  0.0000E+00  0.0000E+00  0.0000E+00  0.0000E+00  0.0000E+00  0.0000E+00  0.0000E+00
  0.0000E+00  0.0000E+00  0.0000E+00  0.0000E+00  0.0000E+00  0.0000E+00  0.0000E+00  0.0000E+00  0.0000E+00  0.0000E+00  0.0000E+00  0.0000E+00  0.0000E+00  0.0000E+00  0.0000E+00  0.0000E+00  0.0000E+00  0.0000E+00  0.0000E+00  0.0000E+00  0.0000E+00  0.0000E+00  0.0000E+00  0.0000E+00  0.0000E+00  0.0000E+00  0.0000E+00  0.0000E+00  0.0000E+00  0.0000E+00  0.0000E+00  0.0000E+00  0.0000E+00  0.0000E+00  0.0000E+00  0.0000E+00  0.0000E+00  0.0000E+00  0.0000E+00  0.0000E+00  0.0000E+00  0.0000E+00  0.0000E+00  0.0000E+00  0.0000E+00  0.0000E+00  0.0000E+00  0.0000E+00  0.0000E+00  0.0000E+00  0.0000E+00  0.0000E+00  0.0000E+00  0.0000E+00  0.0000E+00  0.0000E+00  0.0000E+00  0.0000E+00  0.0000E+00  0.0000E+00  0.0000E+00  0.0000E+00  0.0000E+00  0.0000E+00  0.0000E+00  0.0000E+00  0.0000E+00  0.0000E+00  0.0000E+00  0.0000E+00  0.0000E+00  0.0000E+00  0.0000E+00  0.0000E+00  0.0000E+00  0.0000E+00  0.0000E+00  0.0000E+00  0.0000E+00
  0.0000E+00  0.0000E+00  0.0000E+00  0.0000E+00  0.0000E+00  0.0000E+00  0.0000E+00  0.0000E+00  0.0000E+00  0.0000E+00  0.0000E+00  0.0000E+00  0.0000E+00  0.0000E+00  0.0000E+00  0.0000E+00  0.0000E+00  0.0000E+00  0.0000E+00  0.0000E+00  0.0000E+00  0.0000E+00  0.0000E+00  0.0000E+00  0.0000E+00  0.0000E+00  0.0000E+00  0.0000E+00  0.0000E+00  0.0000E+00  0.0000E+00  0.0000E+00  0.0000E+00  0.0000E+00  0.0000E+00  0.0000E+00  0.0000E+00  0.0000E+00  0.0000E+00  0.0000E+00  0.0000E+00  0.0000E+00  0.0000E+00  0.0000E+00  0.0000E+00  0.0000E+00  0.0000E+00  0.0000E+00  0.0000E+00  0.0000E+00  0.0000E+00  0.0000E+00  0.0000E+00  0.0000E+00  0.0000E+00  0.0000E+00  0.0000E+00  0.0000E+00  0.0000E+00  0.0000E+00  0.0000E+00  0.0000E+00  0.0000E+00  0.0000E+00  0.0000E+00  0.0000E+00  0.0000E+00  0.0000E+00  0.0000E+00  0.0000E+00  0.0000E+00  0.0000E+00  0.0000E+00  0.0000E+00  0.0000E+00  0.0000E+00  0.0000E+00  0.0000E+00  0.0000E+00
  0.0000E+00  0.0000E+00  0.0000E+00  0.0000E+00  0.0000E+00  0.0000E+00  0.0000E+00  0.0000E+00  0.0000E+00  0.0000E+00  0.0000E+00  0.0000E+00  0.0000E+00  0.0000E+00  0.0000E+00  0.0000E+00  0.0000E+00  0.0000E+00  0.0000E+00  0.0000E+00  0.0000E+00  0.0000E+00  0.0000E+00  0.0000E+00  0.0000E+00  0.0000E+00  0.0000E+00  0.0000E+00  0.0000E+00  0.0000E+00  0.0000E+00  0.0000E+00  0.0000E+00  0.0000E+00  0.0000E+00  0.0000E+00  0.0000E+00  0.0000E+00  0.0000E+00  0.0000E+00  0.0000E+00  0.0000E+00  0.0000E+00  0.0000E+00  0.0000E+00  0.0000E+00  0.0000E+00  0.0000E+00  0.0000E+00  0.0000E+00  0.0000E+00  0.0000E+00  0.0000E+00  0.0000E+00  0.0000E+00  0.0000E+00  0.0000E+00  0.0000E+00  0.0000E+00  0.0000E+00  0.0000E+00  0.0000E+00  0.0000E+00  0.0000E+00  0.0000E+00  0.0000E+00  0.0000E+00  0.0000E+00  0.0000E+00  0.0000E+00  0.0000E+00  0.0000E+00  0.0000E+00  0.0000E+00  0.0000E+00  0.0000E+00  0.0000E+00  0.0000E+00  0.0000E+00
  0.0000E+00  0.0000E+00  0.0000E+00  0.0000E+00  0.0000E+00  0.0000E+00  0.0000E+00  0.0000E+00  0.0000E+00  0.0000E+00  0.0000E+00  0.0000E+00  0.0000E+00  0.0000E+00  0.0000E+00  0.0000E+00  0.0000E+00  0.0000E+00  0.0000E+00  0.0000E+00  0.0000E+00  0.0000E+00  0.0000E+00  0.0000E+00  0.0000E+00  0.0000E+00  0.0000E+00  0.0000E+00  0.0000E+00  0.0000E+00  0.0000E+00  0.0000E+00  0.0000E+00  0.0000E+00  0.0000E+00  0.0000E+00  0.0000E+00  0.0000E+00  0.0000E+00  0.0000E+00  0.0000E+00  0.0000E+00  0.0000E+00  0.0000E+00  0.0000E+00  0.0000E+00  0.0000E+00  0.0000E+00  0.0000E+00  0.0000E+00  0.0000E+00  0.0000E+00  0.0000E+00  0.0000E+00  0.0000E+00  0.0000E+00  0.0000E+00  0.0000E+00  0.0000E+00  0.0000E+00  0.0000E+00  0.0000E+00  0.0000E+00  0.0000E+00  0.0000E+00  0.0000E+00  0.0000E+00  0.0000E+00  0.0000E+00  0.0000E+00  0.0000E+00  0.0000E+00  0.0000E+00  0.0000E+00  0.0000E+00  0.0000E+00  0.0000E+00  0.0000E+00  0.0000E+00
  0.0000E+00  0.0000E+00  0.0000E+00  0.0000E+00  0.0000E+00  0.0000E+00  0.0000E+00  0.0000E+00  0.0000E+00  0.0000E+00  0.0000E+00  0.0000E+00  0.0000E+00  0.0000E+00  0.0000E+00  0.0000E+00  0.0000E+00  0.0000E+00  0.0000E+00  0.0000E+00  0.0000E+00  0.0000E+00  0.0000E+00  0.0000E+00  0.0000E+00  0.0000E+00  0.0000E+00  0.0000E+00  0.0000E+00  0.0000E+00  0.0000E+00  0.0000E+00  0.0000E+00  0.0000E+00  0.0000E+00  0.0000E+00  0.0000E+00  0.0000E+00  0.0000E+00  0.0000E+00  0.0000E+00  0.0000E+00  0.0000E+00  0.0000E+00  0.0000E+00  0.0000E+00  0.0000E+00  0.0000E+00  0.0000E+00  0.0000E+00  0.0000E+00  0.0000E+00  0.0000E+00  0.0000E+00  0.0000E+00  0.0000E+00  0.0000E+00  0.0000E+00  0.0000E+00  0.0000E+00  0.0000E+00  0.0000E+00  0.0000E+00  0.0000E+00  0.0000E+00  0.0000E+00  0.0000E+00  0.0000E+00  0.0000E+00  0.0000E+00  0.0000E+00  0.0000E+00  0.0000E+00  0.0000E+00  0.0000E+00  0.0000E+00  0.0000E+00  0.0000E+00  0.0000E+00
  0.0000E+00  0.0000E+00  0.0000E+00  0.0000E+00  0.0000E+00  0.0000E+00  0.0000E+00  0.0000E+00  0.0000E+00  0.0000E+00  0.0000E+00  0.0000E+00  0.0000E+00  0.0000E+00  0.0000E+00  0.0000E+00  0.0000E+00  0.0000E+00  0.0000E+00  0.0000E+00  0.0000E+00  0.0000E+00  0.0000E+00  0.0000E+00  0.0000E+00  0.0000E+00  0.0000E+00  0.0000E+00  0.0000E+00  0.0000E+00  0.0000E+00  0.0000E+00  0.0000E+00  0.0000E+00  0.0000E+00  0.0000E+00  0.0000E+00  0.0000E+00  0.0000E+00  0.0000E+00  0.0000E+00  0.0000E+00  0.0000E+00  0.0000E+00  0.0000E+00  0.0000E+00  0.0000E+00  0.0000E+00  0.0000E+00  0.0000E+00  0.0000E+00  0.0000E+00  0.0000E+00  0.0000E+00  0.0000E+00  0.0000E+00  0.0000E+00  0.0000E+00  0.0000E+00  0.0000E+00  0.0000E+00  0.0000E+00  0.0000E+00  0.0000E+00  0.0000E+00  0.0000E+00  0.0000E+00  0.0000E+00  0.0000E+00  0.0000E+00  0.0000E+00  0.0000E+00  0.0000E+00  0.0000E+00  0.0000E+00  0.0000E+00  0.0000E+00  0.0000E+00  0.0000E+00
  0.0000E+00  0.0000E+00  0.0000E+00  0.0000E+00  0.0000E+00  0.0000E+00  0.0000E+00  0.0000E+00  0.0000E+00  0.0000E+00  0.0000E+00  0.0000E+00  0.0000E+00  0.0000E+00  0.0000E+00  0.0000E+00  0.0000E+00  0.0000E+00  0.0000E+00  0.0000E+00  0.0000E+00  0.0000E+00  0.0000E+00  0.0000E+00  0.0000E+00  0.0000E+00  0.0000E+00  0.0000E+00  0.0000E+00  0.0000E+00  0.0000E+00  0.0000E+00  0.0000E+00  0.0000E+00  0.0000E+00  0.0000E+00  0.0000E+00  0.0000E+00  0.0000E+00  0.0000E+00  0.0000E+00  0.0000E+00  0.0000E+00  0.0000E+00  0.0000E+00  0.0000E+00  0.0000E+00  0.0000E+00  0.0000E+00  0.0000E+00  0.0000E+00  0.0000E+00  0.0000E+00  0.0000E+00  0.0000E+00  0.0000E+00  0.0000E+00  0.0000E+00  0.0000E+00  0.0000E+00  0.0000E+00  0.0000E+00  0.0000E+00  0.0000E+00  0.0000E+00  0.0000E+00  0.0000E+00  0.0000E+00  0.0000E+00  0.0000E+00  0.0000E+00  0.0000E+00  0.0000E+00  0.0000E+00  0.0000E+00  0.0000E+00  0.0000E+00  0.0000E+00  0.0000E+00
  0.0000E+00  0.0000E+00  0.0000E+00  0.0000E+00  0.0000E+00  0.0000E+00  0.0000E+00  0.0000E+00  0.0000E+00  0.0000E+00  0.0000E+00  0.0000E+00  0.0000E+00  0.0000E+00  0.0000E+00  0.0000E+00  0.0000E+00  0.0000E+00  0.0000E+00  0.0000E+00  0.0000E+00  0.0000E+00  0.0000E+00  0.0000E+00  0.0000E+00  0.0000E+00  0.0000E+00  0.0000E+00  0.0000E+00  0.0000E+00  0.0000E+00  0.0000E+00  0.0000E+00  0.0000E+00  0.0000E+00  0.0000E+00  0.0000E+00  0.0000E+00  0.0000E+00  0.0000E+00  0.0000E+00  0.0000E+00  0.0000E+00  0.0000E+00  0.0000E+00  0.0000E+00  0.0000E+00  0.0000E+00  0.0000E+00  0.0000E+00  0.0000E+00  0.0000E+00  0.0000E+00  0.0000E+00  0.0000E+00  0.0000E+00  0.0000E+00  0.0000E+00  0.0000E+00  0.0000E+00  0.0000E+00  0.0000E+00  0.0000E+00  0.0000E+00  0.0000E+00  0.0000E+00  0.0000E+00  0.0000E+00  0.0000E+00  0.0000E+00  0.0000E+00  0.0000E+00  0.0000E+00  0.0000E+00  0.0000E+00  0.0000E+00  0.0000E+00  0.0000E+00  0.0000E+00
  0.0000E+00  0.0000E+00  0.0000E+00  0.0000E+00  0.0000E+00  0.0000E+00  0.0000E+00  0.0000E+00  0.0000E+00  0.0000E+00  0.0000E+00  0.0000E+00  0.0000E+00  0.0000E+00  0.0000E+00  0.0000E+00  0.0000E+00  0.0000E+00  0.0000E+00  0.0000E+00  0.0000E+00  0.0000E+00  0.0000E+00  0.0000E+00  0.0000E+00  0.0000E+00  0.0000E+00  0.0000E+00  0.0000E+00  0.0000E+00  0.0000E+00  0.0000E+00  0.0000E+00  0.0000E+00  0.0000E+00  0.0000E+00  0.0000E+00  0.0000E+00  0.0000E+00  0.0000E+00  0.0000E+00  0.0000E+00  0.0000E+00  0.0000E+00  0.0000E+00  0.0000E+00  0.0000E+00  0.0000E+00  0.0000E+00  0.0000E+00  0.0000E+00  0.0000E+00  0.0000E+00  0.0000E+00  0.0000E+00  0.0000E+00  0.0000E+00  0.0000E+00  0.0000E+00  0.0000E+00  0.0000E+00  0.0000E+00  0.0000E+00  0.0000E+00  0.0000E+00  0.0000E+00  0.0000E+00  0.0000E+00  0.0000E+00  0.0000E+00  0.0000E+00  0.0000E+00  0.0000E+00  0.0000E+00  0.0000E+00  0.0000E+00  0.0000E+00  0.0000E+00  0.0000E+00
  0.0000E+00  0.0000E+00  0.0000E+00  0.0000E+00  0.0000E+00  0.0000E+00  0.0000E+00  0.0000E+00  0.0000E+00  0.0000E+00  0.0000E+00  0.0000E+00  0.0000E+00  0.0000E+00  0.0000E+00  0.0000E+00  0.0000E+00  0.0000E+00  0.0000E+00  0.0000E+00  0.0000E+00  0.0000E+00  0.0000E+00  0.0000E+00  0.0000E+00  0.0000E+00  0.0000E+00  0.0000E+00  0.0000E+00  0.0000E+00  0.0000E+00  0.0000E+00  0.0000E+00  0.0000E+00  0.0000E+00  0.0000E+00  0.0000E+00  0.0000E+00  0.0000E+00  0.0000E+00  0.0000E+00  0.0000E+00  0.0000E+00  0.0000E+00  0.0000E+00  0.0000E+00  0.0000E+00  0.0000E+00  0.0000E+00  0.0000E+00  0.0000E+00  0.0000E+00  0.0000E+00  0.0000E+00  0.0000E+00  0.0000E+00  0.0000E+00  0.0000E+00  0.0000E+00  0.0000E+00  0.0000E+00  0.0000E+00  0.0000E+00  0.0000E+00  0.0000E+00  0.0000E+00  0.0000E+00  0.0000E+00  0.0000E+00  0.0000E+00  0.0000E+00  0.0000E+00  0.0000E+00  0.0000E+00  0.0000E+00  0.0000E+00  0.0000E+00  0.0000E+00  0.0000E+00
  0.0000E+00  0.0000E+00  0.0000E+00  0.0000E+00  0.0000E+00  0.0000E+00  0.0000E+00  0.0000E+00  0.0000E+00  0.0000E+00  0.0000E+00  0.0000E+00  0.0000E+00  0.0000E+00  0.0000E+00  0.0000E+00  0.0000E+00  0.0000E+00  0.0000E+00  0.0000E+00  0.0000E+00  0.0000E+00  0.0000E+00  0.0000E+00  0.0000E+00  0.0000E+00  0.0000E+00  0.0000E+00  0.0000E+00  0.0000E+00  0.0000E+00  0.0000E+00  0.0000E+00  0.0000E+00  0.0000E+00  0.0000E+00  0.0000E+00  0.0000E+00  0.0000E+00  0.0000E+00  0.0000E+00  0.0000E+00  0.0000E+00  0.0000E+00  0.0000E+00  0.0000E+00  0.0000E+00  0.0000E+00  0.0000E+00  0.0000E+00  0.0000E+00  0.0000E+00  0.0000E+00  0.0000E+00  0.0000E+00  0.0000E+00  0.0000E+00  0.0000E+00  0.0000E+00  0.0000E+00  0.0000E+00  0.0000E+00  0.0000E+00  0.0000E+00  0.0000E+00  0.0000E+00  0.0000E+00  0.0000E+00  0.0000E+00  0.0000E+00  0.0000E+00  0.0000E+00  0.0000E+00  0.0000E+00  0.0000E+00  0.0000E+00  0.0000E+00  0.0000E+00  0.0000E+00
  0.0000E+00  0.0000E+00  0.0000E+00  0.0000E+00  0.0000E+00  0.0000E+00  0.0000E+00  0.0000E+00  0.0000E+00  0.0000E+00  0.0000E+00  0.0000E+00  0.0000E+00  0.0000E+00  0.0000E+00  0.0000E+00  0.0000E+00  0.0000E+00  0.0000E+00  0.0000E+00  0.0000E+00  0.0000E+00  0.0000E+00  0.0000E+00  0.0000E+00  0.0000E+00  0.0000E+00  0.0000E+00  0.0000E+00  0.0000E+00  0.0000E+00  0.0000E+00  0.0000E+00  0.0000E+00  0.0000E+00  0.0000E+00  0.0000E+00  0.0000E+00  0.0000E+00  0.0000E+00  0.0000E+00  0.0000E+00  0.0000E+00  0.0000E+00  0.0000E+00  0.0000E+00  0.0000E+00  0.0000E+00  0.0000E+00  0.0000E+00  0.0000E+00  0.0000E+00  0.0000E+00  0.0000E+00  0.0000E+00  0.0000E+00  0.0000E+00  0.0000E+00  0.0000E+00  0.0000E+00  0.0000E+00  0.0000E+00  0.0000E+00  0.0000E+00  0.0000E+00  0.0000E+00  0.0000E+00  0.0000E+00  0.0000E+00  0.0000E+00  0.0000E+00  0.0000E+00  0.0000E+00  0.0000E+00  0.0000E+00  0.0000E+00  0.0000E+00  0.0000E+00  0.0000E+00
  0.0000E+00  0.0000E+00  0.0000E+00  0.0000E+00  0.0000E+00  0.0000E+00  0.0000E+00  0.0000E+00  0.0000E+00  0.0000E+00  0.0000E+00  0.0000E+00  0.0000E+00  0.0000E+00  0.0000E+00  0.0000E+00  0.0000E+00  0.0000E+00  0.0000E+00  0.0000E+00  0.0000E+00  0.0000E+00  0.0000E+00  0.0000E+00  0.1243E-08  0.1189E-08  0.1131E-08  0.1069E-08  0.1003E-08  0.1843E-08  0.1704E-08  0.1561E-08  0.1417E-08  0.1274E-08  0.1132E-08  0.9938E-09  0.4309E-09  0.0000E+00  0.0000E+00  0.0000E+00  0.0000E+00  0.0000E+00  0.0000E+00  0.0000E+00  0.0000E+00  0.0000E+00  0.0000E+00  0.0000E+00  0.0000E+00  0.0000E+00  0.0000E+00  0.0000E+00  0.0000E+00  0.0000E+00  0.0000E+00  0.0000E+00  0.0000E+00  0.0000E+00  0.0000E+00  0.0000E+00  0.0000E+00  0.0000E+00  0.0000E+00  0.0000E+00  0.0000E+00  0.0000E+00  0.0000E+00  0.0000E+00  0.0000E+00  0.0000E+00  0.0000E+00  0.0000E+00  0.0000E+00  0.0000E+00  0.0000E+00  0.0000E+00  0.0000E+00  0.0000E+00  0.0000E+00
  0.0000E+00  0.0000E+00  0.0000E+00  0.0000E+00  0.0000E+00  0.0000E+00  0.0000E+00  0.0000E+00  0.0000E+00  0.0000E+00  0.0000E+00  0.0000E+00  0.0000E+00  0.0000E+00  0.0000E+00  0.0000E+00  0.0000E+00  0.0000E+00  0.0000E+00  0.0000E+00  0.1410E-08  0.1473E-08  0.1533E-08  0.2927E-08  0.4234E-08  0.4070E-08  0.3889E-08  0.4869E-08  0.5706E-08  0.5344E-08  0.4964E-08  0.4571E-08  0.4950E-08  0.3765E-08  0.3362E-08  0.2967E-08  0.2584E-08  0.1373E-08  0.0000E+00  0.0000E+00  0.0000E+00  0.0000E+00  0.0000E+00  0.0000E+00  0.0000E+00  0.0000E+00  0.0000E+00  0.0000E+00  0.0000E+00  0.0000E+00  0.0000E+00  0.0000E+00  0.0000E+00  0.0000E+00  0.0000E+00  0.0000E+00  0.0000E+00  0.0000E+00  0.0000E+00  0.0000E+00  0.0000E+00  0.0000E+00  0.0000E+00  0.0000E+00  0.0000E+00  0.0000E+00  0.0000E+00  0.0000E+00  0.0000E+00  0.0000E+00  0.0000E+00  0.0000E+00  0.0000E+00  0.0000E+00  0.0000E+00  0.0000E+00  0.0000E+00  0.0000E+00  0.0000E+00
  0.0000E+00  0.0000E+00  0.0000E+00  0.0000E+00  0.0000E+00  0.0000E+00  0.0000E+00  0.0000E+00  0.0000E+00  0.0000E+00  0.0000E+00  0.0000E+00  0.0000E+00  0.0000E+00  0.0000E+00  0.0000E+00  0.0000E+00  0.1399E-08  0.1478E-08  0.1556E-08  0.4593E-08  0.4811E-08  0.5013E-08  0.8097E-08  0.9610E-08  0.9281E-08  0.8910E-08  0.9838E-08  0.1059E-07  0.9963E-08  0.1039E-07  0.1015E-07  0.9276E-08  0.8390E-08  0.7109E-08  0.6285E-08  0.4951E-08  0.3287E-08  0.1453E-08  0.0000E+00  0.0000E+00  0.0000E+00  0.0000E+00  0.0000E+00  0.0000E+00  0.0000E+00  0.0000E+00  0.0000E+00  0.0000E+00  0.0000E+00  0.0000E+00  0.0000E+00  0.0000E+00  0.0000E+00  0.0000E+00  0.0000E+00  0.0000E+00  0.0000E+00  0.0000E+00  0.0000E+00  0.0000E+00  0.0000E+00  0.0000E+00  0.0000E+00  0.0000E+00  0.0000E+00  0.0000E+00  0.0000E+00  0.0000E+00  0.0000E+00  0.0000E+00  0.0000E+00  0.0000E+00  0.0000E+00  0.0000E+00  0.0000E+00  0.0000E+00  0.0000E+00  0.0000E+00
  0.0000E+00  0.0000E+00  0.0000E+00  0.0000E+00  0.0000E+00  0.0000E+00  0.0000E+00  0.0000E+00  0.0000E+00  0.0000E+00  0.0000E+00  0.0000E+00  0.0000E+00  0.0000E+00  0.0000E+00  0.1426E-08  0.1519E-08  0.3040E-08  0.4782E-08  0.5050E-08  0.8369E-08  0.1047E-07  0.1094E-07  0.1447E-07  0.1631E-07  0.1595E-07  0.1791E-07  0.1870E-07  0.1778E-07  0.1895E-07  0.1844E-07  0.1777E-07  0.1630E-07  0.1533E-07  0.1375E-07  0.1135E-07  0.8788E-08  0.7062E-08  0.5057E-08  0.2481E-08  0.0000E+00  0.0000E+00  0.0000E+00  0.0000E+00  0.0000E+00  0.0000E+00  0.0000E+00  0.0000E+00  0.0000E+00  0.0000E+00  0.0000E+00  0.0000E+00  0.0000E+00  0.0000E+00  0.0000E+00  0.0000E+00  0.0000E+00  0.0000E+00  0.0000E+00  0.0000E+00  0.0000E+00  0.0000E+00  0.0000E+00  0.0000E+00  0.0000E+00  0.0000E+00  0.0000E+00  0.0000E+00  0.0000E+00  0.0000E+00  0.0000E+00  0.0000E+00  0.0000E+00  0.0000E+00  0.0000E+00  0.0000E+00  0.0000E+00  0.0000E+00  0.0000E+00
  0.0000E+00  0.0000E+00  0.0000E+00  0.0000E+00  0.0000E+00  0.0000E+00  0.0000E+00  0.0000E+00  0.0000E+00  0.0000E+00  0.0000E+00  0.0000E+00  0.0000E+00  0.1427E-08  0.1531E-08  0.4568E-08  0.4881E-08  0.6650E-08  0.1031E-07  0.1092E-07  0.1477E-07  0.1735E-07  0.1817E-07  0.2225E-07  0.2570E-07  0.2665E-07  0.2873E-07  0.3045E-07  0.3078E-07  0.3010E-07  0.2914E-07  0.2793E-07  0.2699E-07  0.2525E-07  0.2274E-07  0.2022E-07  0.1687E-07  0.1152E-07  0.8144E-08  0.5340E-08  0.3078E-08  0.0000E+00  0.0000E+00  0.0000E+00  0.0000E+00  0.0000E+00  0.0000E+00  0.0000E+00  0.0000E+00  0.0000E+00  0.0000E+00  0.0000E+00  0.0000E+00  0.0000E+00  0.0000E+00  0.0000E+00  0.0000E+00  0.0000E+00  0.0000E+00  0.0000E+00  0.0000E+00  0.0000E+00  0.0000E+00  0.0000E+00  0.0000E+00  0.0000E+00  0.0000E+00  0.0000E+00  0.0000E+00  0.0000E+00  0.0000E+00  0.0000E+00  0.0000E+00  0.0000E+00  0.0000E+00  0.0000E+00  0.0000E+00  0.0000E+00  0.0000E+00
  0.0000E+00  0.0000E+00  0.0000E+00  0.0000E+00  0.0000E+00  0.0000E+00  0.0000E+00  0.0000E+00  0.0000E+00  0.0000E+00  0.0000E+00  0.1400E-08  0.1514E-08  0.3062E-08  0.4885E-08  0.6697E-08  0.1045E-07  0.1116E-07  0.1693E-07  0.1799E-07  0.2073E-07  0.2707E-07  0.2836E-07  0.3256E-07  0.3859E-07  0.3996E-07  0.4245E-07  0.4559E-07  0.4575E-07  0.4467E-07  0.4320E-07  0.4295E-07  0.4064E-07  0.3724E-07  0.3437E-07  0.3130E-07  0.2705E-07  0.2066E-07  0.1527E-07  0.8633E-08  0.5596E-08  0.3187E-08  0.4632E-09  0.0000E+00  0.0000E+00  0.0000E+00  0.0000E+00  0.0000E+00  0.0000E+00  0.0000E+00  0.0000E+00  0.0000E+00  0.0000E+00  0.0000E+00  0.0000E+00  0.0000E+00  0.0000E+00  0.0000E+00  0.0000E+00  0.0000E+00  0.0000E+00  0.0000E+00  0.0000E+00  0.0000E+00  0.0000E+00  0.0000E+00  0.0000E+00  0.0000E+00  0.0000E+00  0.0000E+00  0.0000E+00  0.0000E+00  0.0000E+00  0.0000E+00  0.0000E+00  0.0000E+00  0.0000E+00  0.0000E+00  0.0000E+00
  0.0000E+00  0.0000E+00  0.0000E+00  0.0000E+00  0.0000E+00  0.0000E+00  0.0000E+00  0.0000E+00  0.0000E+00  0.0000E+00  0.1468E-08  0.1594E-08  0.4792E-08  0.6609E-08  0.1037E-07  0.1117E-07  0.1703E-07  0.1826E-07  0.2296E-07  0.2793E-07  0.2966E-07  0.4038E-07  0.4385E-07  0.4891E-07  0.5592E-07  0.5789E-07  0.6103E-07  0.6481E-07  0.6497E-07  0.6349E-07  0.6150E-07  0.6085E-07  0.5940E-07  0.5470E-07  0.5057E-07  0.4612E-07  0.4077E-07  0.3329E-07  0.2555E-07  0.1681E-07  0.1097E-07  0.5809E-08  0.3267E-08  0.4722E-09  0.0000E+00  0.0000E+00  0.0000E+00  0.0000E+00  0.0000E+00  0.0000E+00  0.0000E+00  0.0000E+00  0.0000E+00  0.0000E+00  0.0000E+00  0.0000E+00  0.0000E+00  0.0000E+00  0.0000E+00  0.0000E+00  0.0000E+00  0.0000E+00  0.0000E+00  0.0000E+00  0.0000E+00  0.0000E+00  0.0000E+00  0.0000E+00  0.0000E+00  0.0000E+00  0.0000E+00  0.0000E+00  0.0000E+00  0.0000E+00  0.0000E+00  0.0000E+00  0.0000E+00  0.0000E+00  0.0000E+00
  0.0000E+00  0.0000E+00  0.0000E+00  0.0000E+00  0.0000E+00  0.0000E+00  0.0000E+00  0.0000E+00  0.1397E-08  0.1528E-08  0.4608E-08  0.5023E-08  0.1009E-07  0.1096E-07  0.1509E-07  0.1814E-07  0.2296E-07  0.2812E-07  0.3190E-07  0.3970E-07  0.4552E-07  0.5403E-07  0.6097E-07  0.6681E-07  0.7719E-07  0.8001E-07  0.8177E-07  0.8732E-07  0.8948E-07  0.8770E-07  0.8751E-07  0.8417E-07  0.8213E-07  0.7718E-07  0.7163E-07  0.6465E-07  0.5748E-07  0.4963E-07  0.4090E-07  0.2754E-07  0.1889E-07  0.1144E-07  0.5971E-08  0.3313E-08  0.4760E-09  0.0000E+00  0.0000E+00  0.0000E+00  0.0000E+00  0.0000E+00  0.0000E+00  0.0000E+00  0.0000E+00  0.0000E+00  0.0000E+00  0.0000E+00  0.0000E+00  0.0000E+00  0.0000E+00  0.0000E+00  0.0000E+00  0.0000E+00  0.0000E+00  0.0000E+00  0.0000E+00  0.0000E+00  0.0000E+00  0.0000E+00  0.0000E+00  0.0000E+00  0.0000E+00  0.0000E+00  0.0000E+00  0.0000E+00  0.0000E+00  0.0000E+00  0.0000E+00  0.0000E+00  0.0000E+00
  0.0000E+00  0.0000E+00  0.0000E+00  0.0000E+00  0.0000E+00  0.0000E+00  0.0000E+00  0.1437E-08  0.1578E-08  0.4773E-08  0.6646E-08  0.1053E-07  0.1300E-07  0.1765E-07  0.1916E-07  0.2626E-07  0.2992E-07  0.3963E-07  0.4426E-07  0.5475E-07  0.6263E-07  0.7226E-07  0.8314E-07  0.8880E-07  0.1004E-06  0.1071E-06  0.1100E-06  0.1169E-06  0.1201E-06  0.1186E-06  0.1184E-06  0.1170E-06  0.1117E-06  0.1077E-06  0.1003E-06  0.9105E-07  0.8231E-07  0.7231E-07  0.6006E-07  0.4538E-07  0.3240E-07  0.2044E-07  0.1179E-07  0.6673E-08  0.2811E-08  0.0000E+00  0.0000E+00  0.0000E+00  0.0000E+00  0.0000E+00  0.0000E+00  0.0000E+00  0.0000E+00  0.0000E+00  0.0000E+00  0.0000E+00  0.0000E+00  0.0000E+00  0.0000E+00  0.0000E+00  0.0000E+00  0.0000E+00  0.0000E+00  0.0000E+00  0.0000E+00  0.0000E+00  0.0000E+00  0.0000E+00  0.0000E+00  0.0000E+00  0.0000E+00  0.0000E+00  0.0000E+00  0.0000E+00  0.0000E+00  0.0000E+00  0.0000E+00  0.0000E+00  0.0000E+00
  0.0000E+00  0.0000E+00  0.0000E+00  0.0000E+00  0.0000E+00  0.0000E+00  0.1467E-08  0.3012E-08  0.4904E-08  0.8356E-08  0.1089E-07  0.1512E-07  0.1840E-07  0.2351E-07  0.2908E-07  0.3527E-07  0.4355E-07  0.5058E-07  0.6245E-07  0.7090E-07  0.8452E-07  0.9212E-07  0.1073E-06  0.1170E-06  0.1262E-06  0.1378E-06  0.1445E-06  0.1533E-06  0.1580E-06  0.1575E-06  0.1578E-06  0.1564E-06  0.1532E-06  0.1453E-06  0.1361E-06  0.1257E-06  0.1131E-06  0.9996E-07  0.8555E-07  0.6695E-07  0.5117E-07  0.3593E-07  0.2130E-07  0.1133E-07  0.6079E-08  0.2780E-08  0.0000E+00  0.0000E+00  0.0000E+00  0.0000E+00  0.0000E+00  0.0000E+00  0.0000E+00  0.0000E+00  0.0000E+00  0.0000E+00  0.0000E+00  0.0000E+00  0.0000E+00  0.0000E+00  0.0000E+00  0.0000E+00  0.0000E+00  0.0000E+00  0.0000E+00  0.0000E+00  0.0000E+00  0.0000E+00  0.0000E+00  0.0000E+00  0.0000E+00  0.0000E+00  0.0000E+00  0.0000E+00  0.0000E+00  0.0000E+00  0.0000E+00  0.0000E+00  0.0000E+00
  0.0000E+00  0.0000E+00  0.0000E+00  0.0000E+00  0.0000E+00  0.1487E-08  0.3061E-08  0.4999E-08  0.1012E-07  0.1118E-07  0.1729E-07  0.1902E-07  0.2627E-07  0.3027E-07  0.4042E-07  0.4568E-07  0.5924E-07  0.6601E-07  0.8175E-07  0.9011E-07  0.1055E-06  0.1180E-06  0.1324E-06  0.1481E-06  0.1594E-06  0.1768E-06  0.1838E-06  0.1946E-06  0.2049E-06  0.2060E-06  0.2077E-06  0.2070E-06  0.2156E-06  0.2056E-06  0.1935E-06  0.1821E-06  0.1644E-06  0.1471E-06  0.1290E-06  0.1009E-06  0.7667E-07  0.5481E-07  0.3851E-07  0.2262E-07  0.1198E-07  0.6005E-08  0.2197E-08  0.0000E+00  0.0000E+00  0.0000E+00  0.0000E+00  0.0000E+00  0.0000E+00  0.0000E+00  0.0000E+00  0.0000E+00  0.0000E+00  0.0000E+00  0.0000E+00  0.0000E+00  0.0000E+00  0.0000E+00  0.0000E+00  0.0000E+00  0.0000E+00  0.0000E+00  0.0000E+00  0.0000E+00  0.0000E+00  0.0000E+00  0.0000E+00  0.0000E+00  0.0000E+00  0.0000E+00  0.0000E+00  0.0000E+00  0.0000E+00  0.0000E+00  0.0000E+00
  0.0000E+00  0.0000E+00  0.0000E+00  0.0000E+00  0.1494E-08  0.3085E-08  0.5055E-08  0.1026E-07  0.1137E-07  0.1765E-07  0.1949E-07  0.2700E-07  0.3299E-07  0.4184E-07  0.5092E-07  0.6177E-07  0.7287E-07  0.8776E-07  0.9923E-07  0.1167E-06  0.1278E-06  0.1503E-06  0.1629E-06  0.1869E-06  0.1992E-06  0.2168E-06  0.2334E-06  0.2417E-06  0.2727E-06  0.2806E-06  0.2861E-06  0.3019E-06  0.3099E-06  0.2970E-06  0.2967E-06  0.2760E-06  0.2504E-06  0.2243E-06  0.1909E-06  0.1617E-06  0.1140E-06  0.8521E-07  0.5984E-07  0.3993E-07  0.2372E-07  0.1119E-07  0.5276E-08  0.1094E-08  0.0000E+00  0.0000E+00  0.0000E+00  0.0000E+00  0.0000E+00  0.0000E+00  0.0000E+00  0.0000E+00  0.0000E+00  0.0000E+00  0.0000E+00  0.0000E+00  0.0000E+00  0.0000E+00  0.0000E+00  0.0000E+00  0.0000E+00  0.0000E+00  0.0000E+00  0.0000E+00  0.0000E+00  0.0000E+00  0.0000E+00  0.0000E+00  0.0000E+00  0.0000E+00  0.0000E+00  0.0000E+00  0.0000E+00  0.0000E+00  0.0000E+00
  0.0000E+00  0.0000E+00  0.0000E+00  0.1491E-08  0.3085E-08  0.5072E-08  0.1031E-07  0.1148E-07  0.1786E-07  0.2143E-07  0.2752E-07  0.3374E-07  0.4293E-07  0.5242E-07  0.6553E-07  0.7781E-07  0.9136E-07  0.1062E-06  0.1225E-06  0.1422E-06  0.1593E-06  0.1821E-06  0.2015E-06  0.2228E-06  0.2460E-06  0.2671E-06  0.3030E-06  0.3204E-06  0.3735E-06  0.3861E-06  0.3942E-06  0.4380E-06  0.4463E-06  0.4310E-06  0.4096E-06  0.3972E-06  0.3736E-06  0.3294E-06  0.2882E-06  0.2336E-06  0.1839E-06  0.1253E-06  0.9425E-07  0.6370E-07  0.4183E-07  0.2307E-07  0.1091E-07  0.4467E-08  0.5385E-09  0.0000E+00  0.0000E+00  0.0000E+00  0.0000E+00  0.0000E+00  0.0000E+00  0.0000E+00  0.0000E+00  0.0000E+00  0.0000E+00  0.0000E+00  0.0000E+00  0.0000E+00  0.0000E+00  0.0000E+00  0.0000E+00  0.0000E+00  0.0000E+00  0.0000E+00  0.0000E+00  0.0000E+00  0.0000E+00  0.0000E+00  0.0000E+00  0.0000E+00  0.0000E+00  0.0000E+00  0.0000E+00  0.0000E+00  0.0000E+00
  0.0000E+00  0.0000E+00  0.1476E-08  0.3062E-08  0.5047E-08  0.1028E-07  0.1149E-07  0.1791E-07  0.2158E-07  0.2780E-07  0.3420E-07  0.4521E-07  0.5551E-07  0.6706E-07  0.7991E-07  0.9419E-07  0.1145E-06  0.1273E-06  0.1513E-06  0.1692E-06  0.1952E-06  0.2162E-06  0.2458E-06  0.2688E-06  0.3162E-06  0.3386E-06  0.4044E-06  0.4291E-06  0.5096E-06  0.5381E-06  0.5766E-06  0.6052E-06  0.6046E-06  0.6155E-06  0.5885E-06  0.5802E-06  0.5361E-06  0.4963E-06  0.4289E-06  0.3510E-06  0.2802E-06  0.2172E-06  0.1378E-06  0.9833E-07  0.6591E-07  0.4142E-07  0.2282E-07  0.9139E-08  0.3076E-08  0.0000E+00  0.0000E+00  0.0000E+00  0.0000E+00  0.0000E+00  0.0000E+00  0.0000E+00  0.0000E+00  0.0000E+00  0.0000E+00  0.0000E+00  0.0000E+00  0.0000E+00  0.0000E+00  0.0000E+00  0.0000E+00  0.0000E+00  0.0000E+00  0.0000E+00  0.0000E+00  0.0000E+00  0.0000E+00  0.0000E+00  0.0000E+00  0.0000E+00  0.0000E+00  0.0000E+00  0.0000E+00  0.0000E+00  0.0000E+00
  0.0000E+00  0.1449E-08  0.3015E-08  0.4983E-08  0.8605E-08  0.1141E-07  0.1782E-07  0.1993E-07  0.2783E-07  0.3436E-07  0.4553E-07  0.5609E-07  0.6799E-07  0.8303E-07  0.9619E-07  0.1173E-06  0.1330E-06  0.1564E-06  0.1755E-06  0.2058E-06  0.2295E-06  0.2619E-06  0.2893E-06  0.3395E-06  0.3929E-06  0.4442E-06  0.5209E-06  0.5797E-06  0.6835E-06  0.7245E-06  0.7806E-06  0.8356E-06  0.8354E-06  0.8545E-06  0.8414E-06  0.8110E-06  0.7517E-06  0.7043E-06  0.6117E-06  0.5242E-06  0.4234E-06  0.3222E-06  0.2466E-06  0.1483E-06  0.1037E-06  0.6723E-07  0.3942E-07  0.2068E-07  0.8023E-08  0.3590E-08  0.1547E-08  0.0000E+00  0.0000E+00  0.0000E+00  0.0000E+00  0.0000E+00  0.0000E+00  0.0000E+00  0.0000E+00  0.0000E+00  0.0000E+00  0.0000E+00  0.0000E+00  0.0000E+00  0.0000E+00  0.0000E+00  0.0000E+00  0.0000E+00  0.0000E+00  0.0000E+00  0.0000E+00  0.0000E+00  0.0000E+00  0.0000E+00  0.0000E+00  0.0000E+00  0.0000E+00  0.0000E+00  0.0000E+00
  0.1413E-08  0.1594E-08  0.4882E-08  0.8449E-08  0.1124E-07  0.1758E-07  0.1974E-07  0.2762E-07  0.3422E-07  0.4391E-07  0.5416E-07  0.6831E-07  0.8197E-07  0.9732E-07  0.1190E-06  0.1355E-06  0.1599E-06  0.1831E-06  0.2123E-06  0.2378E-06  0.2727E-06  0.3096E-06  0.3584E-06  0.4367E-06  0.5198E-06  0.6072E-06  0.7065E-06  0.7665E-06  0.8953E-06  0.9556E-06  0.1048E-05  0.1141E-05  0.1167E-05  0.1190E-05  0.1173E-05  0.1132E-05  0.1056E-05  0.9721E-06  0.8633E-06  0.7322E-06  0.6032E-06  0.4798E-06  0.3567E-06  0.2675E-06  0.1575E-06  0.1065E-06  0.6635E-07  0.3686E-07  0.1930E-07  0.8787E-08  0.3853E-08  0.1652E-08  0.0000E+00  0.0000E+00  0.0000E+00  0.0000E+00  0.0000E+00  0.0000E+00  0.0000E+00  0.0000E+00  0.0000E+00  0.0000E+00  0.0000E+00  0.0000E+00  0.0000E+00  0.0000E+00  0.0000E+00  0.0000E+00  0.0000E+00  0.0000E+00  0.0000E+00  0.0000E+00  0.0000E+00  0.0000E+00  0.0000E+00  0.0000E+00  0.0000E+00  0.0000E+00  0.0000E+00
  0.1548E-08  0.4744E-08  0.6781E-08  0.1097E-07  0.1555E-07  0.1939E-07  0.2716E-07  0.3206E-07  0.4345E-07  0.5377E-07  0.6800E-07  0.8185E-07  0.9752E-07  0.1196E-06  0.1348E-06  0.1619E-06  0.1833E-06  0.2165E-06  0.2437E-06  0.2806E-06  0.3200E-06  0.3725E-06  0.4753E-06  0.5495E-06  0.6729E-06  0.7852E-06  0.9120E-06  0.1018E-05  0.1174E-05  0.1305E-05  0.1397E-05  0.1536E-05  0.1602E-05  0.1608E-05  0.1588E-05  0.1536E-05  0.1429E-05  0.1319E-05  0.1176E-05  0.1015E-05  0.8495E-06  0.6861E-06  0.5365E-06  0.3799E-06  0.2848E-06  0.1629E-06  0.1048E-06  0.6449E-07  0.3826E-07  0.2152E-07  0.1170E-07  0.5983E-08  0.2844E-08  0.0000E+00  0.0000E+00  0.0000E+00  0.0000E+00  0.0000E+00  0.0000E+00  0.0000E+00  0.0000E+00  0.0000E+00  0.0000E+00  0.0000E+00  0.0000E+00  0.0000E+00  0.0000E+00  0.0000E+00  0.0000E+00  0.0000E+00  0.0000E+00  0.0000E+00  0.0000E+00  0.0000E+00  0.0000E+00  0.0000E+00  0.0000E+00  0.0000E+00  0.0000E+00
  0.4574E-08  0.5188E-08  0.1063E-07  0.1355E-07  0.1888E-07  0.2473E-07  0.3140E-07  0.4262E-07  0.4957E-07  0.6543E-07  0.7885E-07  0.9681E-07  0.1165E-06  0.1347E-06  0.1622E-06  0.1845E-06  0.2186E-06  0.2471E-06  0.2855E-06  0.3270E-06  0.3996E-06  0.4897E-06  0.5907E-06  0.7259E-06  0.8553E-06  0.1024E-05  0.1163E-05  0.1366E-05  0.1539E-05  0.1702E-05  0.1852E-05  0.2020E-05  0.2107E-05  0.2124E-05  0.2105E-05  0.2044E-05  0.1923E-05  0.1779E-05  0.1615E-05  0.1391E-05  0.1209E-05  0.9750E-06  0.7986E-06  0.5906E-06  0.4174E-06  0.2881E-06  0.1621E-06  0.1045E-06  0.6570E-07  0.4108E-07  0.2909E-07  0.1825E-07  0.8483E-08  0.3470E-08  0.0000E+00  0.0000E+00  0.0000E+00  0.0000E+00  0.0000E+00  0.0000E+00  0.0000E+00  0.0000E+00  0.0000E+00  0.0000E+00  0.0000E+00  0.0000E+00  0.0000E+00  0.0000E+00  0.0000E+00  0.0000E+00  0.0000E+00  0.0000E+00  0.0000E+00  0.0000E+00  0.0000E+00  0.0000E+00  0.0000E+00  0.0000E+00  0.0000E+00
  0.4981E-08  0.8668E-08  0.1160E-07  0.1823E-07  0.2227E-07  0.3048E-07  0.3808E-07  0.4838E-07  0.6396E-07  0.7535E-07  0.9340E-07  0.1107E-06  0.1333E-06  0.1581E-06  0.1818E-06  0.2159E-06  0.2449E-06  0.2873E-06  0.3268E-06  0.3869E-06  0.4969E-06  0.6035E-06  0.7480E-06  0.9324E-06  0.1102E-05  0.1289E-05  0.1481E-05  0.1760E-05  0.2000E-05  0.2238E-05  0.2456E-05  0.2609E-05  0.2723E-05  0.2755E-05  0.2741E-05  0.2661E-05  0.2542E-05  0.2361E-05  0.2156E-05  0.1916E-05  0.1639E-05  0.1392E-05  0.1103E-05  0.8738E-06  0.6370E-06  0.4400E-06  0.3063E-06  0.1673E-06  0.1062E-06  0.7449E-07  0.5306E-07  0.3474E-07  0.2390E-07  0.1130E-07  0.5615E-08  0.5053E-09  0.0000E+00  0.0000E+00  0.0000E+00  0.0000E+00  0.0000E+00  0.0000E+00  0.0000E+00  0.0000E+00  0.0000E+00  0.0000E+00  0.0000E+00  0.0000E+00  0.0000E+00  0.0000E+00  0.0000E+00  0.0000E+00  0.0000E+00  0.0000E+00  0.0000E+00  0.0000E+00  0.0000E+00  0.0000E+00  0.0000E+00
  0.6829E-08  0.1110E-07  0.1582E-07  0.1985E-07  0.2793E-07  0.3497E-07  0.4681E-07  0.5639E-07  0.7172E-07  0.8869E-07  0.1061E-06  0.1307E-06  0.1509E-06  0.1793E-06  0.2105E-06  0.2431E-06  0.2834E-06  0.3207E-06  0.3871E-06  0.4804E-06  0.6037E-06  0.7533E-06  0.9737E-06  0.1184E-05  0.1373E-05  0.1644E-05  0.1893E-05  0.2279E-05  0.2558E-05  0.2855E-05  0.3152E-05  0.3303E-05  0.3455E-05  0.3513E-05  0.3506E-05  0.3445E-05  0.3290E-05  0.3099E-05  0.2851E-05  0.2553E-05  0.2248E-05  0.1883E-05  0.1577E-05  0.1224E-05  0.9375E-06  0.6739E-06  0.4587E-06  0.3167E-06  0.1733E-06  0.1204E-06  0.8634E-07  0.6394E-07  0.4060E-07  0.2742E-07  0.1432E-07  0.5203E-08  0.0000E+00  0.0000E+00  0.0000E+00  0.0000E+00  0.0000E+00  0.0000E+00  0.0000E+00  0.0000E+00  0.0000E+00  0.0000E+00  0.0000E+00  0.0000E+00  0.0000E+00  0.0000E+00  0.0000E+00  0.0000E+00  0.0000E+00  0.0000E+00  0.0000E+00  0.0000E+00  0.0000E+00  0.0000E+00  0.0000E+00
  0.1053E-07  0.1352E-07  0.1892E-07  0.2492E-07  0.3185E-07  0.4144E-07  0.5242E-07  0.6916E-07  0.8191E-07  0.1012E-06  0.1225E-06  0.1447E-06  0.1751E-06  0.2012E-06  0.2367E-06  0.2726E-06  0.3172E-06  0.3665E-06  0.4688E-06  0.5980E-06  0.7702E-06  0.9982E-06  0.1197E-05  0.1455E-05  0.1736E-05  0.2095E-05  0.2409E-05  0.2877E-05  0.3229E-05  0.3595E-05  0.3955E-05  0.4186E-05  0.4354E-05  0.4435E-05  0.4460E-05  0.4367E-05  0.4234E-05  0.4013E-05  0.3731E-05  0.3396E-05  0.3010E-05  0.2601E-05  0.2141E-05  0.1745E-05  0.1333E-05  0.9889E-06  0.7094E-06  0.4751E-06  0.3275E-06  0.2234E-06  0.1421E-06  0.9863E-07  0.7005E-07  0.4632E-07  0.2847E-07  0.1561E-07  0.7006E-08  0.0000E+00  0.0000E+00  0.0000E+00  0.0000E+00  0.0000E+00  0.0000E+00  0.0000E+00  0.0000E+00  0.0000E+00  0.0000E+00  0.0000E+00  0.0000E+00  0.0000E+00  0.0000E+00  0.0000E+00  0.0000E+00  0.0000E+00  0.0000E+00  0.0000E+00  0.0000E+00  0.0000E+00  0.0000E+00
  0.1136E-07  0.1623E-07  0.2043E-07  0.2881E-07  0.3621E-07  0.4859E-07  0.6242E-07  0.7658E-07  0.9536E-07  0.1139E-06  0.1379E-06  0.1620E-06  0.1928E-06  0.2271E-06  0.2608E-06  0.3080E-06  0.3534E-06  0.4413E-06  0.5668E-06  0.7344E-06  0.9613E-06  0.1214E-05  0.1489E-05  0.1796E-05  0.2170E-05  0.2602E-05  0.3127E-05  0.3614E-05  0.4080E-05  0.4473E-05  0.4906E-05  0.5202E-05  0.5424E-05  0.5551E-05  0.5607E-05  0.5530E-05  0.5388E-05  0.5176E-05  0.4833E-05  0.4473E-05  0.3990E-05  0.3483E-05  0.2955E-05  0.2399E-05  0.1914E-05  0.1429E-05  0.1078E-05  0.7401E-06  0.5286E-06  0.3498E-06  0.2468E-06  0.1764E-06  0.1097E-06  0.7335E-07  0.4812E-07  0.3038E-07  0.1690E-07  0.6475E-08  0.0000E+00  0.0000E+00  0.0000E+00  0.0000E+00  0.0000E+00  0.0000E+00  0.0000E+00  0.0000E+00  0.0000E+00  0.0000E+00  0.0000E+00  0.0000E+00  0.0000E+00  0.0000E+00  0.0000E+00  0.0000E+00  0.0000E+00  0.0000E+00  0.0000E+00  0.0000E+00  0.0000E+00
  0.1371E-07  0.1923E-07  0.2539E-07  0.3256E-07  0.4446E-07  0.5392E-07  0.7128E-07  0.8648E-07  0.1050E-06  0.1275E-06  0.1512E-06  0.1835E-06  0.2140E-06  0.2522E-06  0.2924E-06  0.3377E-06  0.4085E-06  0.5096E-06  0.6706E-06  0.9091E-06  0.1182E-05  0.1467E-05  0.1826E-05  0.2225E-05  0.2722E-05  0.3227E-05  0.3865E-05  0.4484E-05  0.5051E-05  0.5505E-05  0.6026E-05  0.6402E-05  0.6685E-05  0.6879E-05  0.6956E-05  0.6941E-05  0.6806E-05  0.6546E-05  0.6226E-05  0.5748E-05  0.5236E-05  0.4610E-05  0.3956E-05  0.3293E-05  0.2623E-05  0.2059E-05  0.1514E-05  0.1128E-05  0.7886E-06  0.5528E-06  0.4138E-06  0.2623E-06  0.1936E-06  0.1115E-06  0.7500E-07  0.4752E-07  0.2888E-07  0.1613E-07  0.5904E-08  0.0000E+00  0.0000E+00  0.0000E+00  0.0000E+00  0.0000E+00  0.0000E+00  0.0000E+00  0.0000E+00  0.0000E+00  0.0000E+00  0.0000E+00  0.0000E+00  0.0000E+00  0.0000E+00  0.0000E+00  0.0000E+00  0.0000E+00  0.0000E+00  0.0000E+00  0.0000E+00
  0.1630E-07  0.2059E-07  0.3052E-07  0.3667E-07  0.4932E-07  0.6353E-07  0.7820E-07  0.9942E-07  0.1170E-06  0.1420E-06  0.1675E-06  0.1999E-06  0.2363E-06  0.2748E-06  0.3226E-06  0.3717E-06  0.4642E-06  0.6192E-06  0.8308E-06  0.1109E-05  0.1438E-05  0.1810E-05  0.2236E-05  0.2717E-05  0.3347E-05  0.4015E-05  0.4758E-05  0.5470E-05  0.6152E-05  0.6774E-05  0.7334E-05  0.7796E-05  0.8176E-05  0.8404E-05  0.8578E-05  0.8589E-05  0.8481E-05  0.8247E-05  0.7852E-05  0.7378E-05  0.6723E-05  0.6016E-05  0.5219E-05  0.4386E-05  0.3597E-05  0.2803E-05  0.2179E-05  0.1617E-05  0.1151E-05  0.8388E-06  0.5726E-06  0.4210E-06  0.2670E-06  0.1936E-06  0.1088E-06  0.7227E-07  0.4502E-07  0.2746E-07  0.1369E-07  0.4525E-08  0.0000E+00  0.0000E+00  0.0000E+00  0.0000E+00  0.0000E+00  0.0000E+00  0.0000E+00  0.0000E+00  0.0000E+00  0.0000E+00  0.0000E+00  0.0000E+00  0.0000E+00  0.0000E+00  0.0000E+00  0.0000E+00  0.0000E+00  0.0000E+00  0.0000E+00
  0.1913E-07  0.2363E-07  0.3256E-07  0.4261E-07  0.5423E-07  0.7181E-07  0.8742E-07  0.1081E-06  0.1296E-06  0.1542E-06  0.1874E-06  0.2194E-06  0.2593E-06  0.2985E-06  0.3496E-06  0.4070E-06  0.5438E-06  0.7392E-06  0.1007E-05  0.1363E-05  0.1760E-05  0.2155E-05  0.2712E-05  0.3345E-05  0.4122E-05  0.4909E-05  0.5798E-05  0.6592E-05  0.7428E-05  0.8175E-05  0.8822E-05  0.9416E-05  0.9881E-05  0.1024E-04  0.1046E-04  0.1054E-04  0.1047E-04  0.1025E-04  0.9855E-05  0.9269E-05  0.8587E-05  0.7706E-05  0.6807E-05  0.5782E-05  0.4825E-05  0.3849E-05  0.3012E-05  0.2255E-05  0.1652E-05  0.1166E-05  0.8609E-06  0.5792E-06  0.4098E-06  0.2591E-06  0.1731E-06  0.1015E-06  0.6618E-07  0.4102E-07  0.2394E-07  0.1163E-07  0.3116E-08  0.0000E+00  0.0000E+00  0.0000E+00  0.0000E+00  0.0000E+00  0.0000E+00  0.0000E+00  0.0000E+00  0.0000E+00  0.0000E+00  0.0000E+00  0.0000E+00  0.0000E+00  0.0000E+00  0.0000E+00  0.0000E+00  0.0000E+00  0.0000E+00
  0.2031E-07  0.2834E-07  0.3632E-07  0.4896E-07  0.6126E-07  0.7805E-07  0.9712E-07  0.1151E-06  0.1428E-06  0.1689E-06  0.2021E-06  0.2395E-06  0.2771E-06  0.3253E-06  0.3802E-06  0.4732E-06  0.6350E-06  0.8768E-06  0.1227E-05  0.1630E-05  0.2076E-05  0.2599E-05  0.3255E-05  0.4073E-05  0.5024E-05  0.5943E-05  0.6999E-05  0.7914E-05  0.8881E-05  0.9778E-05  0.1058E-04  0.1131E-04  0.1190E-04  0.1236E-04  0.1268E-04  0.1281E-04  0.1284E-04  0.1259E-04  0.1219E-04  0.1157E-04  0.1075E-04  0.9787E-05  0.8643E-05  0.7503E-05  0.6263E-05  0.5128E-05  0.4029E-05  0.3086E-05  0.2300E-05  0.1652E-05  0.1182E-05  0.8282E-06  0.5496E-06  0.3788E-06  0.2398E-06  0.1387E-06  0.9180E-07  0.5850E-07  0.3593E-07  0.1926E-07  0.7781E-08  0.2182E-08  0.0000E+00  0.0000E+00  0.0000E+00  0.0000E+00  0.0000E+00  0.0000E+00  0.0000E+00  0.0000E+00  0.0000E+00  0.0000E+00  0.0000E+00  0.0000E+00  0.0000E+00  0.0000E+00  0.0000E+00  0.0000E+00  0.0000E+00
  0.2309E-07  0.3187E-07  0.4180E-07  0.5336E-07  0.6864E-07  0.8437E-07  0.1053E-06  0.1263E-06  0.1534E-06  0.1841E-06  0.2168E-06  0.2544E-06  0.3000E-06  0.3522E-06  0.4074E-06  0.5450E-06  0.7415E-06  0.1024E-05  0.1453E-05  0.1931E-05  0.2436E-05  0.3129E-05  0.3938E-05  0.4928E-05  0.6006E-05  0.7169E-05  0.8339E-05  0.9491E-05  0.1056E-04  0.1163E-04  0.1260E-04  0.1346E-04  0.1423E-04  0.1481E-04  0.1524E-04  0.1550E-04  0.1552E-04  0.1536E-04  0.1491E-04  0.1423E-04  0.1332E-04  0.1218E-04  0.1091E-04  0.9471E-05  0.8068E-05  0.6659E-05  0.5306E-05  0.4131E-05  0.3059E-05  0.2238E-05  0.1592E-05  0.1113E-05  0.7642E-06  0.4874E-06  0.3184E-06  0.2130E-06  0.1204E-06  0.7839E-07  0.4883E-07  0.2884E-07  0.1474E-07  0.5896E-08  0.7167E-09  0.0000E+00  0.0000E+00  0.0000E+00  0.0000E+00  0.0000E+00  0.0000E+00  0.0000E+00  0.0000E+00  0.0000E+00  0.0000E+00  0.0000E+00  0.0000E+00  0.0000E+00  0.0000E+00  0.0000E+00  0.0000E+00
  0.2602E-07  0.3356E-07  0.4561E-07  0.5782E-07  0.7455E-07  0.9109E-07  0.1129E-06  0.1377E-06  0.1640E-06  0.1965E-06  0.2317E-06  0.2745E-06  0.3198E-06  0.3752E-06  0.4376E-06  0.6196E-06  0.8856E-06  0.1255E-05  0.1734E-05  0.2274E-05  0.2902E-05  0.3742E-05  0.4687E-05  0.5946E-05  0.7193E-05  0.8501E-05  0.9906E-05  0.1126E-04  0.1248E-04  0.1375E-04  0.1489E-04  0.1597E-04  0.1687E-04  0.1763E-04  0.1819E-04  0.1853E-04  0.1869E-04  0.1849E-04  0.1807E-04  0.1731E-04  0.1631E-04  0.1499E-04  0.1347E-04  0.1186E-04  0.1015E-04  0.8436E-05  0.6840E-05  0.5317E-05  0.4021E-05  0.2909E-05  0.2098E-05  0.1451E-05  0.9764E-06  0.6626E-06  0.4252E-06  0.2644E-06  0.1630E-06  0.1014E-06  0.6361E-07  0.3935E-07  0.2122E-07  0.1019E-07  0.3158E-08  0.0000E+00  0.0000E+00  0.0000E+00  0.0000E+00  0.0000E+00  0.0000E+00  0.0000E+00  0.0000E+00  0.0000E+00  0.0000E+00  0.0000E+00  0.0000E+00  0.0000E+00  0.0000E+00  0.0000E+00  0.0000E+00
  0.2875E-07  0.3840E-07  0.5136E-07  0.6262E-07  0.7993E-07  0.9968E-07  0.1204E-06  0.1465E-06  0.1747E-06  0.2094E-06  0.2459E-06  0.2911E-06  0.3421E-06  0.3947E-06  0.4604E-06  0.6852E-06  0.1020E-05  0.1457E-05  0.2025E-05  0.2689E-05  0.3389E-05  0.4397E-05  0.5570E-05  0.7016E-05  0.8523E-05  0.1006E-04  0.1165E-04  0.1323E-04  0.1472E-04  0.1615E-04  0.1756E-04  0.1878E-04  0.1990E-04  0.2081E-04  0.2157E-04  0.2201E-04  0.2220E-04  0.2207E-04  0.2156E-04  0.2077E-04  0.1956E-04  0.1814E-04  0.1638E-04  0.1450E-04  0.1249E-04  0.1050E-04  0.8545E-05  0.6743E-05  0.5098E-05  0.3738E-05  0.2657E-05  0.1844E-05  0.1266E-05  0.8229E-06  0.5203E-06  0.3448E-06  0.2205E-06  0.1250E-06  0.8156E-07  0.5042E-07  0.2957E-07  0.1586E-07  0.6213E-08  0.1449E-08  0.0000E+00  0.0000E+00  0.0000E+00  0.0000E+00  0.0000E+00  0.0000E+00  0.0000E+00  0.0000E+00  0.0000E+00  0.0000E+00  0.0000E+00  0.0000E+00  0.0000E+00  0.0000E+00  0.0000E+00
  0.3186E-07  0.4010E-07  0.5363E-07  0.6913E-07  0.8522E-07  0.1059E-06  0.1281E-06  0.1558E-06  0.1848E-06  0.2211E-06  0.2601E-06  0.3044E-06  0.3578E-06  0.4190E-06  0.5182E-06  0.7704E-06  0.1192E-05  0.1743E-05  0.2380E-05  0.3094E-05  0.4024E-05  0.5231E-05  0.6575E-05  0.8343E-05  0.1001E-04  0.1183E-04  0.1361E-04  0.1546E-04  0.1718E-04  0.1888E-04  0.2053E-04  0.2200E-04  0.2326E-04  0.2440E-04  0.2523E-04  0.2586E-04  0.2611E-04  0.2600E-04  0.2551E-04  0.2456E-04  0.2332E-04  0.2160E-04  0.1966E-04  0.1748E-04  0.1511E-04  0.1278E-04  0.1047E-04  0.8305E-05  0.6320E-05  0.4626E-05  0.3307E-05  0.2300E-05  0.1547E-05  0.1026E-05  0.6593E-06  0.4249E-06  0.2599E-06  0.1499E-06  0.9916E-07  0.6295E-07  0.3868E-07  0.2151E-07  0.1037E-07  0.3960E-08  0.0000E+00  0.0000E+00  0.0000E+00  0.0000E+00  0.0000E+00  0.0000E+00  0.0000E+00  0.0000E+00  0.0000E+00  0.0000E+00  0.0000E+00  0.0000E+00  0.0000E+00  0.0000E+00  0.0000E+00
  0.3312E-07  0.4511E-07  0.5736E-07  0.7189E-07  0.9066E-07  0.1125E-06  0.1352E-06  0.1641E-06  0.1949E-06  0.2301E-06  0.2729E-06  0.3193E-06  0.3723E-06  0.4359E-06  0.5957E-06  0.8651E-06  0.1327E-05  0.1999E-05  0.2714E-05  0.3556E-05  0.4734E-05  0.6126E-05  0.7874E-05  0.9791E-05  0.1177E-04  0.1384E-04  0.1584E-04  0.1795E-04  0.2000E-04  0.2196E-04  0.2385E-04  0.2557E-04  0.2711E-04  0.2836E-04  0.2945E-04  0.3011E-04  0.3047E-04  0.3035E-04  0.2981E-04  0.2878E-04  0.2724E-04  0.2535E-04  0.2310E-04  0.2054E-04  0.1790E-04  0.1517E-04  0.1255E-04  0.1001E-04  0.7676E-05  0.5681E-05  0.4049E-05  0.2808E-05  0.1883E-05  0.1253E-05  0.8004E-06  0.5097E-06  0.3123E-06  0.1868E-06  0.1172E-06  0.7502E-07  0.4684E-07  0.2800E-07  0.1420E-07  0.6152E-08  0.1434E-08  0.0000E+00  0.0000E+00  0.0000E+00  0.0000E+00  0.0000E+00  0.0000E+00  0.0000E+00  0.0000E+00  0.0000E+00  0.0000E+00  0.0000E+00  0.0000E+00  0.0000E+00  0.0000E+00
  0.3574E-07  0.4670E-07  0.5937E-07  0.7822E-07  0.9566E-07  0.1165E-06  0.1400E-06  0.1698E-06  0.2038E-06  0.2381E-06  0.2825E-06  0.3334E-06  0.3914E-06  0.4536E-06  0.6810E-06  0.9361E-06  0.1537E-05  0.2321E-05  0.3162E-05  0.4157E-05  0.5544E-05  0.7186E-05  0.9317E-05  0.1143E-04  0.1367E-04  0.1608E-04  0.1843E-04  0.2076E-04  0.2316E-04  0.2538E-04  0.2757E-04  0.2957E-04  0.3135E-04  0.3297E-04  0.3412E-04  0.3496E-04  0.3526E-04  0.3516E-04  0.3443E-04  0.3322E-04  0.3144E-04  0.2924E-04  0.2664E-04  0.2380E-04  0.2071E-04  0.1765E-04  0.1459E-04  0.1170E-04  0.9018E-05  0.6712E-05  0.4836E-05  0.3400E-05  0.2313E-05  0.1528E-05  0.9407E-06  0.6153E-06  0.3831E-06  0.2413E-06  0.1432E-06  0.8789E-07  0.5610E-07  0.3387E-07  0.1809E-07  0.8620E-08  0.3100E-08  0.0000E+00  0.0000E+00  0.0000E+00  0.0000E+00  0.0000E+00  0.0000E+00  0.0000E+00  0.0000E+00  0.0000E+00  0.0000E+00  0.0000E+00  0.0000E+00  0.0000E+00  0.0000E+00
  0.3683E-07  0.4966E-07  0.6309E-07  0.8061E-07  0.9859E-07  0.1219E-06  0.1485E-06  0.1750E-06  0.2100E-06  0.2476E-06  0.2933E-06  0.3431E-06  0.4027E-06  0.4666E-06  0.7505E-06  0.1143E-05  0.1737E-05  0.2687E-05  0.3647E-05  0.4770E-05  0.6426E-05  0.8350E-05  0.1083E-04  0.1328E-04  0.1585E-04  0.1857E-04  0.2129E-04  0.2395E-04  0.2669E-04  0.2935E-04  0.3182E-04  0.3416E-04  0.3610E-04  0.3784E-04  0.3914E-04  0.3994E-04  0.4025E-04  0.3990E-04  0.3906E-04  0.3752E-04  0.3549E-04  0.3293E-04  0.3000E-04  0.2675E-04  0.2335E-04  0.1987E-04  0.1651E-04  0.1330E-04  0.1033E-04  0.7728E-05  0.5581E-05  0.3951E-05  0.2750E-05  0.1879E-05  0.1222E-05  0.7987E-06  0.4698E-06  0.2887E-06  0.1766E-06  0.1148E-06  0.6798E-07  0.3951E-07  0.2225E-07  0.1146E-07  0.4251E-08  0.6994E-09  0.0000E+00  0.0000E+00  0.0000E+00  0.0000E+00  0.0000E+00  0.0000E+00  0.0000E+00  0.0000E+00  0.0000E+00  0.0000E+00  0.0000E+00  0.0000E+00  0.0000E+00
  0.3952E-07  0.5292E-07  0.6644E-07  0.8441E-07  0.1029E-06  0.1250E-06  0.1523E-06  0.1815E-06  0.2152E-06  0.2564E-06  0.3004E-06  0.3538E-06  0.4120E-06  0.4773E-06  0.8278E-06  0.1340E-05  0.1999E-05  0.3071E-05  0.4187E-05  0.5503E-05  0.7433E-05  0.9712E-05  0.1263E-04  0.1536E-04  0.1827E-04  0.2138E-04  0.2451E-04  0.2757E-04  0.3069E-04  0.3366E-04  0.3649E-04  0.3898E-04  0.4118E-04  0.4290E-04  0.4417E-04  0.4494E-04  0.4507E-04  0.4462E-04  0.4340E-04  0.4165E-04  0.3928E-04  0.3633E-04  0.3303E-04  0.2939E-04  0.2561E-04  0.2181E-04  0.1808E-04  0.1457E-04  0.1136E-04  0.8556E-05  0.6300E-05  0.4532E-05  0.3177E-05  0.2209E-05  0.1514E-05  0.1024E-05  0.6699E-06  0.3853E-06  0.2205E-06  0.1430E-06  0.9107E-07  0.5425E-07  0.2720E-07  0.1402E-07  0.6328E-08  0.1479E-08  0.0000E+00  0.0000E+00  0.0000E+00  0.0000E+00  0.0000E+00  0.0000E+00  0.0000E+00  0.0000E+00  0.0000E+00  0.0000E+00  0.0000E+00  0.0000E+00  0.0000E+00
  0.4193E-07  0.5405E-07  0.6787E-07  0.8621E-07  0.1051E-06  0.1276E-06  0.1554E-06  0.1852E-06  0.2217E-06  0.2636E-06  0.3061E-06  0.3603E-06  0.4159E-06  0.4874E-06  0.9138E-06  0.1484E-05  0.2221E-05  0.3495E-05  0.4751E-05  0.6357E-05  0.8573E-05  0.1123E-04  0.1452E-04  0.1774E-04  0.2109E-04  0.2450E-04  0.2806E-04  0.3157E-04  0.3505E-04  0.3832E-04  0.4134E-04  0.4409E-04  0.4630E-04  0.4814E-04  0.4931E-04  0.4997E-04  0.4988E-04  0.4908E-04  0.4760E-04  0.4543E-04  0.4257E-04  0.3929E-04  0.3551E-04  0.3152E-04  0.2734E-04  0.2318E-04  0.1923E-04  0.1548E-04  0.1209E-04  0.9168E-05  0.6757E-05  0.4920E-05  0.3601E-05  0.2614E-05  0.1806E-05  0.1267E-05  0.8854E-06  0.5667E-06  0.3711E-06  0.1813E-06  0.1184E-06  0.7258E-07  0.3825E-07  0.1674E-07  0.7737E-08  0.3066E-08  0.0000E+00  0.0000E+00  0.0000E+00  0.0000E+00  0.0000E+00  0.0000E+00  0.0000E+00  0.0000E+00  0.0000E+00  0.0000E+00  0.0000E+00  0.0000E+00  0.0000E+00
  0.4265E-07  0.5658E-07  0.7065E-07  0.8765E-07  0.1090E-06  0.1316E-06  0.1579E-06  0.1880E-06  0.2250E-06  0.2673E-06  0.3103E-06  0.3651E-06  0.4228E-06  0.5001E-06  0.9961E-06  0.1702E-05  0.2628E-05  0.4010E-05  0.5491E-05  0.7458E-05  0.1001E-04  0.1311E-04  0.1674E-04  0.2037E-04  0.2412E-04  0.2794E-04  0.3193E-04  0.3591E-04  0.3968E-04  0.4328E-04  0.4658E-04  0.4938E-04  0.5173E-04  0.5340E-04  0.5451E-04  0.5480E-04  0.5445E-04  0.5323E-04  0.5131E-04  0.4863E-04  0.4540E-04  0.4159E-04  0.3744E-04  0.3299E-04  0.2851E-04  0.2408E-04  0.1984E-04  0.1592E-04  0.1245E-04  0.9480E-05  0.7095E-05  0.5278E-05  0.3868E-05  0.2841E-05  0.2165E-05  0.1530E-05  0.1103E-05  0.7944E-06  0.4881E-06  0.3645E-06  0.1508E-06  0.9705E-07  0.5597E-07  0.3074E-07  0.1190E-07  0.4041E-08  0.0000E+00  0.0000E+00  0.0000E+00  0.0000E+00  0.0000E+00  0.0000E+00  0.0000E+00  0.0000E+00  0.0000E+00  0.0000E+00  0.0000E+00  0.0000E+00  0.0000E+00
  0.4320E-07  0.5729E-07  0.7155E-07  0.8871E-07  0.1103E-06  0.1331E-06  0.1616E-06  0.1900E-06  0.2272E-06  0.2672E-06  0.3130E-06  0.3706E-06  0.4317E-06  0.5096E-06  0.1082E-05  0.1882E-05  0.3029E-05  0.4571E-05  0.6247E-05  0.8596E-05  0.1160E-04  0.1527E-04  0.1923E-04  0.2326E-04  0.2753E-04  0.3184E-04  0.3626E-04  0.4059E-04  0.4480E-04  0.4863E-04  0.5206E-04  0.5493E-04  0.5715E-04  0.5869E-04  0.5941E-04  0.5944E-04  0.5853E-04  0.5689E-04  0.5450E-04  0.5134E-04  0.4758E-04  0.4332E-04  0.3871E-04  0.3396E-04  0.2914E-04  0.2446E-04  0.2007E-04  0.1608E-04  0.1256E-04  0.9573E-05  0.7185E-05  0.5399E-05  0.4085E-05  0.3124E-05  0.2315E-05  0.1823E-05  0.1430E-05  0.1008E-05  0.7209E-06  0.5261E-06  0.3437E-06  0.1277E-06  0.8204E-07  0.4529E-07  0.2257E-07  0.7085E-08  0.7102E-09  0.0000E+00  0.0000E+00  0.0000E+00  0.0000E+00  0.0000E+00  0.0000E+00  0.0000E+00  0.0000E+00  0.0000E+00  0.0000E+00  0.0000E+00  0.0000E+00
  0.4508E-07  0.5776E-07  0.7214E-07  0.8938E-07  0.1089E-06  0.1340E-06  0.1626E-06  0.1931E-06  0.2283E-06  0.2683E-06  0.3163E-06  0.3722E-06  0.4377E-06  0.5132E-06  0.1140E-05  0.2129E-05  0.3480E-05  0.5193E-05  0.7124E-05  0.9975E-05  0.1342E-04  0.1756E-04  0.2207E-04  0.2653E-04  0.3128E-04  0.3614E-04  0.4103E-04  0.4583E-04  0.5025E-04  0.5435E-04  0.5775E-04  0.6059E-04  0.6255E-04  0.6376E-04  0.6408E-04  0.6350E-04  0.6210E-04  0.5990E-04  0.5687E-04  0.5321E-04  0.4893E-04  0.4420E-04  0.3924E-04  0.3412E-04  0.2912E-04  0.2435E-04  0.1994E-04  0.1597E-04  0.1251E-04  0.9602E-05  0.7278E-05  0.5553E-05  0.4242E-05  0.3281E-05  0.2600E-05  0.2075E-05  0.1605E-05  0.1283E-05  0.1010E-05  0.6743E-06  0.5297E-06  0.3136E-06  0.1084E-06  0.6818E-07  0.3652E-07  0.1726E-07  0.4215E-08  0.0000E+00  0.0000E+00  0.0000E+00  0.0000E+00  0.0000E+00  0.0000E+00  0.0000E+00  0.0000E+00  0.0000E+00  0.0000E+00  0.0000E+00  0.0000E+00
  0.4528E-07  0.5798E-07  0.7241E-07  0.8966E-07  0.1092E-06  0.1343E-06  0.1605E-06  0.1933E-06  0.2284E-06  0.2699E-06  0.3187E-06  0.3754E-06  0.4403E-06  0.5148E-06  0.1222E-05  0.2372E-05  0.3910E-05  0.5865E-05  0.8270E-05  0.1148E-04  0.1544E-04  0.2025E-04  0.2512E-04  0.3017E-04  0.3546E-04  0.4096E-04  0.4631E-04  0.5145E-04  0.5618E-04  0.6017E-04  0.6359E-04  0.6603E-04  0.6771E-04  0.6831E-04  0.6804E-04  0.6684E-04  0.6483E-04  0.6191E-04  0.5836E-04  0.5406E-04  0.4933E-04  0.4420E-04  0.3887E-04  0.3359E-04  0.2851E-04  0.2375E-04  0.1941E-04  0.1557E-04  0.1226E-04  0.9542E-05  0.7366E-05  0.5739E-05  0.4490E-05  0.3529E-05  0.2832E-05  0.2260E-05  0.1864E-05  0.1482E-05  0.1219E-05  0.9872E-06  0.6285E-06  0.4902E-06  0.2926E-06  0.1387E-06  0.5586E-07  0.3078E-07  0.1343E-07  0.2775E-08  0.0000E+00  0.0000E+00  0.0000E+00  0.0000E+00  0.0000E+00  0.0000E+00  0.0000E+00  0.0000E+00  0.0000E+00  0.0000E+00  0.0000E+00
  0.4529E-07  0.5795E-07  0.7237E-07  0.9133E-07  0.1090E-06  0.1340E-06  0.1600E-06  0.1926E-06  0.2255E-06  0.2700E-06  0.3163E-06  0.3751E-06  0.4360E-06  0.6751E-06  0.1301E-05  0.2593E-05  0.4471E-05  0.6755E-05  0.9542E-05  0.1322E-04  0.1780E-04  0.2318E-04  0.2874E-04  0.3440E-04  0.4028E-04  0.4631E-04  0.5217E-04  0.5758E-04  0.6230E-04  0.6622E-04  0.6915E-04  0.7121E-04  0.7211E-04  0.7207E-04  0.7102E-04  0.6912E-04  0.6632E-04  0.6281E-04  0.5853E-04  0.5377E-04  0.4851E-04  0.4304E-04  0.3754E-04  0.3221E-04  0.2717E-04  0.2256E-04  0.1846E-04  0.1487E-04  0.1186E-04  0.9405E-05  0.7450E-05  0.5949E-05  0.4776E-05  0.3858E-05  0.3164E-05  0.2585E-05  0.2122E-05  0.1740E-05  0.1438E-05  0.1155E-05  0.9365E-06  0.5955E-06  0.4403E-06  0.2596E-06  0.1245E-06  0.4954E-07  0.2422E-07  0.8933E-08  0.2748E-08  0.0000E+00  0.0000E+00  0.0000E+00  0.0000E+00  0.0000E+00  0.0000E+00  0.0000E+00  0.0000E+00  0.0000E+00  0.0000E+00
  0.4510E-07  0.5575E-07  0.7201E-07  0.8691E-07  0.1084E-06  0.1307E-06  0.1588E-06  0.1869E-06  0.2251E-06  0.2664E-06  0.3147E-06  0.3689E-06  0.4347E-06  0.7711E-06  0.1454E-05  0.2957E-05  0.5129E-05  0.7703E-05  0.1097E-04  0.1532E-04  0.2056E-04  0.2661E-04  0.3273E-04  0.3928E-04  0.4569E-04  0.5240E-04  0.5849E-04  0.6400E-04  0.6849E-04  0.7201E-04  0.7434E-04  0.7554E-04  0.7567E-04  0.7470E-04  0.7288E-04  0.7022E-04  0.6669E-04  0.6250E-04  0.5763E-04  0.5228E-04  0.4669E-04  0.4102E-04  0.3547E-04  0.3022E-04  0.2542E-04  0.2110E-04  0.1733E-04  0.1407E-04  0.1138E-04  0.9184E-05  0.7446E-05  0.6107E-05  0.5073E-05  0.4239E-05  0.3540E-05  0.2934E-05  0.2470E-05  0.2072E-05  0.1693E-05  0.1375E-05  0.1090E-05  0.8743E-06  0.5712E-06  0.3984E-06  0.2177E-06  0.1037E-06  0.3865E-07  0.1893E-07  0.8795E-08  0.0000E+00  0.0000E+00  0.0000E+00  0.0000E+00  0.0000E+00  0.0000E+00  0.0000E+00  0.0000E+00  0.0000E+00  0.0000E+00
  0.4473E-07  0.5527E-07  0.7134E-07  0.8607E-07  0.1072E-06  0.1293E-06  0.1569E-06  0.1850E-06  0.2230E-06  0.2630E-06  0.3102E-06  0.3661E-06  0.4338E-06  0.8483E-06  0.1604E-05  0.3248E-05  0.5787E-05  0.8809E-05  0.1277E-04  0.1775E-04  0.2376E-04  0.3058E-04  0.3753E-04  0.4477E-04  0.5205E-04  0.5897E-04  0.6530E-04  0.7044E-04  0.7453E-04  0.7716E-04  0.7864E-04  0.7886E-04  0.7801E-04  0.7616E-04  0.7350E-04  0.7001E-04  0.6583E-04  0.6092E-04  0.5550E-04  0.4978E-04  0.4394E-04  0.3826E-04  0.3284E-04  0.2793E-04  0.2349E-04  0.1959E-04  0.1623E-04  0.1332E-04  0.1095E-04  0.9039E-05  0.7475E-05  0.6279E-05  0.5342E-05  0.4566E-05  0.3938E-05  0.3342E-05  0.2845E-05  0.2436E-05  0.2017E-05  0.1668E-05  0.1304E-05  0.1044E-05  0.8069E-06  0.5354E-06  0.3548E-06  0.1786E-06  0.8179E-07  0.3254E-07  0.1557E-07  0.5791E-08  0.0000E+00  0.0000E+00  0.0000E+00  0.0000E+00  0.0000E+00  0.0000E+00  0.0000E+00  0.0000E+00  0.0000E+00
  0.4245E-07  0.5456E-07  0.7038E-07  0.8486E-07  0.1056E-06  0.1273E-06  0.1524E-06  0.1818E-06  0.2156E-06  0.2572E-06  0.3042E-06  0.3577E-06  0.4267E-06  0.9375E-06  0.1971E-05  0.3698E-05  0.6749E-05  0.1027E-04  0.1503E-04  0.2070E-04  0.2759E-04  0.3525E-04  0.4308E-04  0.5114E-04  0.5905E-04  0.6622E-04  0.7211E-04  0.7678E-04  0.7974E-04  0.8141E-04  0.8164E-04  0.8077E-04  0.7888E-04  0.7626E-04  0.7273E-04  0.6855E-04  0.6359E-04  0.5811E-04  0.5227E-04  0.4635E-04  0.4057E-04  0.3512E-04  0.3008E-04  0.2554E-04  0.2181E-04  0.1861E-04  0.1567E-04  0.1306E-04  0.1082E-04  0.9037E-05  0.7606E-05  0.6524E-05  0.5642E-05  0.4908E-05  0.4269E-05  0.3742E-05  0.3288E-05  0.2811E-05  0.2389E-05  0.1928E-05  0.1636E-05  0.1221E-05  0.9832E-06  0.7359E-06  0.4790E-06  0.2959E-06  0.1451E-06  0.6535E-07  0.2886E-07  0.1224E-07  0.5636E-08  0.0000E+00  0.0000E+00  0.0000E+00  0.0000E+00  0.0000E+00  0.0000E+00  0.0000E+00  0.0000E+00
  0.4175E-07  0.5363E-07  0.6731E-07  0.8330E-07  0.1016E-06  0.1229E-06  0.1471E-06  0.1733E-06  0.2109E-06  0.2512E-06  0.2947E-06  0.3527E-06  0.4142E-06  0.1054E-05  0.2235E-05  0.4195E-05  0.7875E-05  0.1224E-04  0.1775E-04  0.2440E-04  0.3219E-04  0.4093E-04  0.4949E-04  0.5851E-04  0.6671E-04  0.7360E-04  0.7885E-04  0.8220E-04  0.8394E-04  0.8406E-04  0.8308E-04  0.8107E-04  0.7840E-04  0.7493E-04  0.7071E-04  0.6568E-04  0.6015E-04  0.5414E-04  0.4816E-04  0.4245E-04  0.3707E-04  0.3208E-04  0.2755E-04  0.2412E-04  0.2146E-04  0.1905E-04  0.1643E-04  0.1370E-04  0.1123E-04  0.9331E-05  0.7936E-05  0.6874E-05  0.6009E-05  0.5260E-05  0.4650E-05  0.4115E-05  0.3633E-05  0.3193E-05  0.2770E-05  0.2300E-05  0.1915E-05  0.1541E-05  0.1137E-05  0.8919E-06  0.6498E-06  0.4112E-06  0.2382E-06  0.1204E-06  0.4449E-07  0.2216E-07  0.8983E-08  0.2758E-08  0.0000E+00  0.0000E+00  0.0000E+00  0.0000E+00  0.0000E+00  0.0000E+00  0.0000E+00
  0.4090E-07  0.5069E-07  0.6585E-07  0.7948E-07  0.9928E-07  0.1178E-06  0.1418E-06  0.1713E-06  0.2055E-06  0.2442E-06  0.2897E-06  0.3423E-06  0.4083E-06  0.1199E-05  0.2671E-05  0.5153E-05  0.9185E-05  0.1448E-04  0.2113E-04  0.2889E-04  0.3787E-04  0.4745E-04  0.5737E-04  0.6661E-04  0.7479E-04  0.8076E-04  0.8457E-04  0.8622E-04  0.8619E-04  0.8487E-04  0.8277E-04  0.7991E-04  0.7654E-04  0.7231E-04  0.6732E-04  0.6160E-04  0.5543E-04  0.4926E-04  0.4359E-04  0.3860E-04  0.3414E-04  0.2994E-04  0.2667E-04  0.2489E-04  0.2396E-04  0.2257E-04  0.1965E-04  0.1594E-04  0.1251E-04  0.1003E-04  0.8394E-05  0.7275E-05  0.6415E-05  0.5708E-05  0.5087E-05  0.4512E-05  0.3990E-05  0.3518E-05  0.3087E-05  0.2697E-05  0.2194E-05  0.1856E-05  0.1444E-05  0.1039E-05  0.7965E-06  0.5713E-06  0.3393E-06  0.1975E-06  0.9384E-07  0.3287E-07  0.1842E-07  0.5836E-08  0.0000E+00  0.0000E+00  0.0000E+00  0.0000E+00  0.0000E+00  0.0000E+00  0.0000E+00
  0.3811E-07  0.4943E-07  0.6224E-07  0.7739E-07  0.9453E-07  0.1153E-06  0.1402E-06  0.1681E-06  0.2017E-06  0.2375E-06  0.2836E-06  0.3322E-06  0.3970E-06  0.1307E-05  0.3118E-05  0.6177E-05  0.1100E-04  0.1740E-04  0.2525E-04  0.3456E-04  0.4485E-04  0.5569E-04  0.6635E-04  0.7559E-04  0.8269E-04  0.8689E-04  0.8837E-04  0.8795E-04  0.8616E-04  0.8377E-04  0.8080E-04  0.7745E-04  0.7328E-04  0.6837E-04  0.6251E-04  0.5617E-04  0.4971E-04  0.4388E-04  0.3908E-04  0.3557E-04  0.3264E-04  0.3004E-04  0.2889E-04  0.3001E-04  0.3183E-04  0.3093E-04  0.2668E-04  0.2062E-04  0.1520E-04  0.1140E-04  0.9182E-05  0.7770E-05  0.6938E-05  0.6212E-05  0.5541E-05  0.4933E-05  0.4371E-05  0.3854E-05  0.3385E-05  0.2965E-05  0.2580E-05  0.2076E-05  0.1720E-05  0.1341E-05  0.9447E-06  0.6936E-06  0.4649E-06  0.2721E-06  0.1477E-06  0.6927E-07  0.2566E-07  0.1214E-07  0.2833E-08  0.0000E+00  0.0000E+00  0.0000E+00  0.0000E+00  0.0000E+00  0.0000E+00
  0.3557E-07  0.4800E-07  0.6043E-07  0.7504E-07  0.9238E-07  0.1120E-06  0.1378E-06  0.1628E-06  0.1954E-06  0.2298E-06  0.2736E-06  0.3216E-06  0.3869E-06  0.1559E-05  0.3740E-05  0.7678E-05  0.1366E-04  0.2131E-04  0.3071E-04  0.4159E-04  0.5351E-04  0.6549E-04  0.7642E-04  0.8457E-04  0.8931E-04  0.9052E-04  0.8941E-04  0.8691E-04  0.8401E-04  0.8103E-04  0.7772E-04  0.7376E-04  0.6886E-04  0.6293E-04  0.5640E-04  0.4975E-04  0.4341E-04  0.3843E-04  0.3534E-04  0.3416E-04  0.3343E-04  0.3375E-04  0.3628E-04  0.4158E-04  0.4595E-04  0.4443E-04  0.3692E-04  0.2725E-04  0.1902E-04  0.1349E-04  0.1033E-04  0.8584E-05  0.7519E-05  0.6738E-05  0.6028E-05  0.5369E-05  0.4759E-05  0.4208E-05  0.3699E-05  0.3240E-05  0.2826E-05  0.2431E-05  0.1934E-05  0.1577E-05  0.1195E-05  0.8535E-06  0.5854E-06  0.3799E-06  0.2089E-06  0.1054E-06  0.4664E-07  0.1877E-07  0.8793E-08  0.0000E+00  0.0000E+00  0.0000E+00  0.0000E+00  0.0000E+00  0.0000E+00
  0.3442E-07  0.4315E-07  0.5684E-07  0.7141E-07  0.8724E-07  0.1080E-06  0.1313E-06  0.1554E-06  0.1883E-06  0.2225E-06  0.2624E-06  0.3106E-06  0.3668E-06  0.1728E-05  0.4592E-05  0.9755E-05  0.1719E-04  0.2664E-04  0.3796E-04  0.5100E-04  0.6454E-04  0.7712E-04  0.8691E-04  0.9206E-04  0.9296E-04  0.9062E-04  0.8708E-04  0.8352E-04  0.8044E-04  0.7743E-04  0.7373E-04  0.6889E-04  0.6290E-04  0.5611E-04  0.4919E-04  0.4270E-04  0.3718E-04  0.3358E-04  0.3279E-04  0.3427E-04  0.3744E-04  0.4219E-04  0.4980E-04  0.5838E-04  0.6262E-04  0.5826E-04  0.4738E-04  0.3462E-04  0.2395E-04  0.1646E-04  0.1198E-04  0.9526E-05  0.8208E-05  0.7286E-05  0.6518E-05  0.5811E-05  0.5162E-05  0.4566E-05  0.4021E-05  0.3525E-05  0.3075E-05  0.2657E-05  0.2250E-05  0.1792E-05  0.1424E-05  0.1058E-05  0.7269E-06  0.4806E-06  0.3016E-06  0.1654E-06  0.7885E-07  0.3009E-07  0.1225E-07  0.2864E-08  0.0000E+00  0.0000E+00  0.0000E+00  0.0000E+00  0.0000E+00
  0.2998E-07  0.4156E-07  0.5208E-07  0.6691E-07  0.8421E-07  0.1045E-06  0.1270E-06  0.1524E-06  0.1799E-06  0.2136E-06  0.2506E-06  0.2993E-06  0.5275E-06  0.2282E-05  0.6075E-05  0.1288E-04  0.2225E-04  0.3409E-04  0.4830E-04  0.6341E-04  0.7821E-04  0.8940E-04  0.9540E-04  0.9554E-04  0.9166E-04  0.8647E-04  0.8209E-04  0.7891E-04  0.7651E-04  0.7332E-04  0.6868E-04  0.6253E-04  0.5538E-04  0.4812E-04  0.4143E-04  0.3570E-04  0.3147E-04  0.2982E-04  0.3169E-04  0.3665E-04  0.4458E-04  0.5533E-04  0.6666E-04  0.7364E-04  0.7379E-04  0.6736E-04  0.5587E-04  0.4227E-04  0.2949E-04  0.1985E-04  0.1382E-04  0.1061E-04  0.8873E-05  0.7828E-05  0.7007E-05  0.6257E-05  0.5559E-05  0.4928E-05  0.4342E-05  0.3812E-05  0.3327E-05  0.2886E-05  0.2478E-05  0.2058E-05  0.1632E-05  0.1263E-05  0.8927E-06  0.5990E-06  0.3805E-06  0.2205E-06  0.1199E-06  0.5640E-07  0.1880E-07  0.5964E-08  0.0000E+00  0.0000E+00  0.0000E+00  0.0000E+00  0.0000E+00
  0.2878E-07  0.3891E-07  0.5165E-07  0.6619E-07  0.8304E-07  0.1022E-06  0.1221E-06  0.1467E-06  0.1734E-06  0.2083E-06  0.2437E-06  0.2912E-06  0.6675E-06  0.2934E-05  0.8192E-05  0.1741E-04  0.3020E-04  0.4570E-04  0.6275E-04  0.7889E-04  0.9201E-04  0.9875E-04  0.9800E-04  0.9220E-04  0.8501E-04  0.7947E-04  0.7646E-04  0.7473E-04  0.7255E-04  0.6827E-04  0.6194E-04  0.5434E-04  0.4659E-04  0.3962E-04  0.3387E-04  0.2941E-04  0.2686E-04  0.2762E-04  0.3246E-04  0.4181E-04  0.5561E-04  0.7009E-04  0.7844E-04  0.7983E-04  0.7719E-04  0.7175E-04  0.6209E-04  0.4829E-04  0.3384E-04  0.2243E-04  0.1534E-04  0.1151E-04  0.9568E-05  0.8361E-05  0.7501E-05  0.6702E-05  0.5968E-05  0.5288E-05  0.4667E-05  0.4099E-05  0.3580E-05  0.3104E-05  0.2667E-05  0.2268E-05  0.1866E-05  0.1436E-05  0.1069E-05  0.7439E-06  0.4746E-06  0.3016E-06  0.1665E-06  0.7304E-07  0.3132E-07  0.9275E-08  0.2851E-08  0.0000E+00  0.0000E+00  0.0000E+00  0.0000E+00
  0.2752E-07  0.3815E-07  0.4889E-07  0.6367E-07  0.7816E-07  0.9864E-07  0.1179E-06  0.1434E-06  0.1685E-06  0.1988E-06  0.2324E-06  0.2741E-06  0.1419E-05  0.4526E-05  0.1212E-04  0.2523E-04  0.4329E-04  0.6391E-04  0.8344E-04  0.9755E-04  0.1037E-03  0.1003E-03  0.9167E-04  0.8224E-04  0.7556E-04  0.7265E-04  0.7212E-04  0.7111E-04  0.6760E-04  0.6123E-04  0.5298E-04  0.4462E-04  0.3733E-04  0.3157E-04  0.2724E-04  0.2438E-04  0.2387E-04  0.2753E-04  0.3658E-04  0.5188E-04  0.6824E-04  0.7764E-04  0.7967E-04  0.7843E-04  0.7599E-04  0.7142E-04  0.6209E-04  0.4838E-04  0.3387E-04  0.2268E-04  0.1580E-04  0.1210E-04  0.1010E-04  0.8900E-05  0.7981E-05  0.7136E-05  0.6356E-05  0.5641E-05  0.4982E-05  0.4378E-05  0.3830E-05  0.3331E-05  0.2869E-05  0.2454E-05  0.2042E-05  0.1640E-05  0.1231E-05  0.8771E-06  0.5977E-06  0.3636E-06  0.2156E-06  0.1080E-06  0.5314E-07  0.1562E-07  0.5886E-08  0.0000E+00  0.0000E+00  0.0000E+00  0.0000E+00
  0.2625E-07  0.3508E-07  0.4700E-07  0.6096E-07  0.7508E-07  0.9318E-07  0.1137E-06  0.1324E-06  0.1608E-06  0.1895E-06  0.2267E-06  0.4183E-06  0.1988E-05  0.6593E-05  0.1740E-04  0.3620E-04  0.6211E-04  0.8996E-04  0.1112E-03  0.1180E-03  0.1121E-03  0.9796E-04  0.8317E-04  0.7253E-04  0.6857E-04  0.6848E-04  0.6897E-04  0.6633E-04  0.5998E-04  0.5129E-04  0.4226E-04  0.3451E-04  0.2883E-04  0.2489E-04  0.2233E-04  0.2100E-04  0.2277E-04  0.3044E-04  0.4599E-04  0.6337E-04  0.7278E-04  0.7507E-04  0.7414E-04  0.7162E-04  0.6744E-04  0.6080E-04  0.5135E-04  0.3959E-04  0.2882E-04  0.2049E-04  0.1524E-04  0.1226E-04  0.1052E-04  0.9369E-05  0.8433E-05  0.7549E-05  0.6734E-05  0.5980E-05  0.5289E-05  0.4657E-05  0.4075E-05  0.3547E-05  0.3059E-05  0.2616E-05  0.2210E-05  0.1800E-05  0.1416E-05  0.1021E-05  0.7164E-06  0.4652E-06  0.2735E-06  0.1561E-06  0.7633E-07  0.3090E-07  0.9073E-08  0.2793E-08  0.0000E+00  0.0000E+00  0.0000E+00
  0.2298E-07  0.3319E-07  0.4488E-07  0.5841E-07  0.7202E-07  0.8776E-07  0.1096E-06  0.1300E-06  0.1575E-06  0.1850E-06  0.2164E-06  0.5008E-06  0.2309E-05  0.8415E-05  0.2226E-04  0.4692E-04  0.8136E-04  0.1169E-03  0.1398E-03  0.1413E-03  0.1266E-03  0.1067E-03  0.9050E-04  0.8085E-04  0.7602E-04  0.7240E-04  0.6706E-04  0.5837E-04  0.4881E-04  0.3934E-04  0.3142E-04  0.2577E-04  0.2219E-04  0.2004E-04  0.1896E-04  0.1909E-04  0.2396E-04  0.3864E-04  0.5615E-04  0.6481E-04  0.6663E-04  0.6477E-04  0.6050E-04  0.5463E-04  0.4807E-04  0.4140E-04  0.3487E-04  0.2820E-04  0.2215E-04  0.1750E-04  0.1435E-04  0.1225E-04  0.1086E-04  0.9813E-05  0.8846E-05  0.7939E-05  0.7088E-05  0.6305E-05  0.5582E-05  0.4916E-05  0.4308E-05  0.3752E-05  0.3239E-05  0.2774E-05  0.2361E-05  0.1949E-05  0.1554E-05  0.1165E-05  0.8240E-06  0.5680E-06  0.3523E-06  0.2025E-06  0.1022E-06  0.4450E-07  0.1226E-07  0.5716E-08  0.0000E+00  0.0000E+00  0.0000E+00
  0.2300E-07  0.3140E-07  0.4279E-07  0.5430E-07  0.7108E-07  0.8653E-07  0.1074E-06  0.1258E-06  0.1466E-06  0.1772E-06  0.2076E-06  0.5394E-06  0.2382E-05  0.8665E-05  0.2347E-04  0.5063E-04  0.8829E-04  0.1272E-03  0.1520E-03  0.1558E-03  0.1457E-03  0.1344E-03  0.1266E-03  0.1214E-03  0.1142E-03  0.1013E-03  0.8245E-04  0.6163E-04  0.4300E-04  0.2972E-04  0.2240E-04  0.1909E-04  0.1744E-04  0.1674E-04  0.1680E-04  0.1865E-04  0.2946E-04  0.4550E-04  0.5253E-04  0.5267E-04  0.4905E-04  0.4364E-04  0.3782E-04  0.3327E-04  0.2940E-04  0.2614E-04  0.2318E-04  0.2040E-04  0.1777E-04  0.1558E-04  0.1377E-04  0.1235E-04  0.1124E-04  0.1020E-04  0.9223E-05  0.8297E-05  0.7421E-05  0.6606E-05  0.5856E-05  0.5163E-05  0.4526E-05  0.3947E-05  0.3412E-05  0.2930E-05  0.2500E-05  0.2075E-05  0.1676E-05  0.1292E-05  0.9447E-06  0.6683E-06  0.4223E-06  0.2473E-06  0.1303E-06  0.5935E-07  0.2005E-07  0.5948E-08  0.0000E+00  0.0000E+00  0.0000E+00
  0.2161E-07  0.2984E-07  0.4261E-07  0.5394E-07  0.6529E-07  0.8159E-07  0.9879E-07  0.1219E-06  0.1443E-06  0.1696E-06  0.2018E-06  0.4979E-06  0.1955E-05  0.7024E-05  0.1966E-04  0.4203E-04  0.7330E-04  0.1058E-03  0.1284E-03  0.1375E-03  0.1410E-03  0.1461E-03  0.1530E-03  0.1572E-03  0.1543E-03  0.1428E-03  0.1247E-03  0.1024E-03  0.7834E-04  0.5401E-04  0.3212E-04  0.1801E-04  0.1450E-04  0.1484E-04  0.1579E-04  0.2026E-04  0.3060E-04  0.3405E-04  0.3257E-04  0.2966E-04  0.2696E-04  0.2486E-04  0.2320E-04  0.2190E-04  0.2080E-04  0.1972E-04  0.1864E-04  0.1741E-04  0.1599E-04  0.1488E-04  0.1375E-04  0.1264E-04  0.1156E-04  0.1053E-04  0.9543E-05  0.8607E-05  0.7718E-05  0.6882E-05  0.6105E-05  0.5388E-05  0.4730E-05  0.4127E-05  0.3570E-05  0.3073E-05  0.2620E-05  0.2195E-05  0.1799E-05  0.1401E-05  0.1056E-05  0.7594E-06  0.5129E-06  0.3124E-06  0.1643E-06  0.8349E-07  0.3273E-07  0.9053E-08  0.2795E-08  0.0000E+00  0.0000E+00
  0.2052E-07  0.2866E-07  0.3803E-07  0.5055E-07  0.6281E-07  0.8096E-07  0.9759E-07  0.1167E-06  0.1405E-06  0.1633E-06  0.1961E-06  0.3528E-06  0.1198E-05  0.4412E-05  0.1208E-04  0.2547E-04  0.4393E-04  0.6333E-04  0.7811E-04  0.8902E-04  0.1008E-03  0.1153E-03  0.1283E-03  0.1345E-03  0.1316E-03  0.1220E-03  0.1105E-03  0.9911E-04  0.8854E-04  0.7708E-04  0.6355E-04  0.4664E-04  0.2788E-04  0.1518E-04  0.1664E-04  0.1662E-04  0.1762E-04  0.1844E-04  0.1903E-04  0.1941E-04  0.1966E-04  0.1968E-04  0.1960E-04  0.1948E-04  0.1917E-04  0.1866E-04  0.1795E-04  0.1706E-04  0.1607E-04  0.1501E-04  0.1395E-04  0.1288E-04  0.1183E-04  0.1080E-04  0.9826E-05  0.8877E-05  0.7982E-05  0.7122E-05  0.6328E-05  0.5594E-05  0.4913E-05  0.4294E-05  0.3716E-05  0.3204E-05  0.2737E-05  0.2303E-05  0.1891E-05  0.1500E-05  0.1161E-05  0.8538E-06  0.5857E-06  0.3704E-06  0.2143E-06  0.1093E-06  0.4179E-07  0.1630E-07  0.2891E-08  0.0000E+00  0.0000E+00
  0.1803E-07  0.2756E-07  0.3676E-07  0.5016E-07  0.6277E-07  0.7663E-07  0.9350E-07  0.1122E-06  0.1376E-06  0.1601E-06  0.1904E-06  0.2295E-06  0.7128E-06  0.2149E-05  0.5396E-05  0.1133E-04  0.1872E-04  0.2663E-04  0.3465E-04  0.4389E-04  0.5710E-04  0.7292E-04  0.8487E-04  0.8679E-04  0.7934E-04  0.6797E-04  0.5698E-04  0.4729E-04  0.3859E-04  0.3025E-04  0.2301E-04  0.1778E-04  0.1768E-04  0.1621E-04  0.1436E-04  0.1532E-04  0.1646E-04  0.1748E-04  0.1838E-04  0.1908E-04  0.1957E-04  0.1984E-04  0.1987E-04  0.1969E-04  0.1931E-04  0.1874E-04  0.1800E-04  0.1712E-04  0.1615E-04  0.1513E-04  0.1410E-04  0.1306E-04  0.1202E-04  0.1101E-04  0.1003E-04  0.9096E-05  0.8190E-05  0.7333E-05  0.6521E-05  0.5766E-05  0.5077E-05  0.4435E-05  0.3847E-05  0.3317E-05  0.2841E-05  0.2396E-05  0.1980E-05  0.1587E-05  0.1234E-05  0.9225E-06  0.6691E-06  0.4403E-06  0.2615E-06  0.1348E-06  0.5542E-07  0.2119E-07  0.5821E-08  0.0000E+00  0.0000E+00
  0.1901E-07  0.2779E-07  0.3559E-07  0.4456E-07  0.5977E-07  0.7410E-07  0.9368E-07  0.1108E-06  0.1337E-06  0.1581E-06  0.1840E-06  0.2236E-06  0.3533E-06  0.7290E-06  0.1816E-05  0.3534E-05  0.5652E-05  0.8564E-05  0.1288E-04  0.2044E-04  0.3197E-04  0.4459E-04  0.5245E-04  0.5177E-04  0.4438E-04  0.3552E-04  0.2723E-04  0.2211E-04  0.1923E-04  0.2072E-04  0.2978E-04  0.4034E-04  0.2658E-04  0.1524E-04  0.1442E-04  0.1533E-04  0.1657E-04  0.1768E-04  0.1862E-04  0.1935E-04  0.1983E-04  0.2007E-04  0.2007E-04  0.1984E-04  0.1941E-04  0.1880E-04  0.1804E-04  0.1716E-04  0.1620E-04  0.1520E-04  0.1419E-04  0.1317E-04  0.1216E-04  0.1116E-04  0.1020E-04  0.9256E-05  0.8355E-05  0.7494E-05  0.6681E-05  0.5917E-05  0.5210E-05  0.4552E-05  0.3957E-05  0.3417E-05  0.2921E-05  0.2480E-05  0.2053E-05  0.1656E-05  0.1318E-05  0.9985E-06  0.7317E-06  0.4957E-06  0.3205E-06  0.1731E-06  0.7150E-07  0.2933E-07  0.5980E-08  0.0000E+00  0.0000E+00
  0.1791E-07  0.2437E-07  0.3504E-07  0.4511E-07  0.6044E-07  0.7284E-07  0.9059E-07  0.1096E-06  0.1293E-06  0.1553E-06  0.1846E-06  0.2257E-06  0.2692E-06  0.3313E-06  0.4965E-06  0.7758E-06  0.1367E-05  0.2402E-05  0.4711E-05  0.9997E-05  0.1755E-04  0.2482E-04  0.2828E-04  0.2631E-04  0.2161E-04  0.1822E-04  0.1737E-04  0.2259E-04  0.3547E-04  0.5334E-04  0.5766E-04  0.3610E-04  0.2063E-04  0.1472E-04  0.1493E-04  0.1560E-04  0.1676E-04  0.1787E-04  0.1879E-04  0.1950E-04  0.1997E-04  0.2019E-04  0.2016E-04  0.1990E-04  0.1944E-04  0.1881E-04  0.1803E-04  0.1715E-04  0.1621E-04  0.1522E-04  0.1422E-04  0.1322E-04  0.1223E-04  0.1125E-04  0.1030E-04  0.9367E-05  0.8473E-05  0.7614E-05  0.6798E-05  0.6032E-05  0.5320E-05  0.4657E-05  0.4050E-05  0.3505E-05  0.3001E-05  0.2534E-05  0.2111E-05  0.1721E-05  0.1372E-05  0.1050E-05  0.7954E-06  0.5627E-06  0.3627E-06  0.1985E-06  0.9550E-07  0.3768E-07  0.6123E-08  0.2776E-08  0.0000E+00
  0.1912E-07  0.2519E-07  0.3434E-07  0.4453E-07  0.5538E-07  0.7249E-07  0.8725E-07  0.1076E-06  0.1310E-06  0.1552E-06  0.1837E-06  0.2215E-06  0.2746E-06  0.3329E-06  0.4070E-06  0.5084E-06  0.7062E-06  0.1263E-05  0.2723E-05  0.5341E-05  0.8836E-05  0.1162E-04  0.1334E-04  0.1399E-04  0.1640E-04  0.2290E-04  0.3653E-04  0.5595E-04  0.7069E-04  0.6512E-04  0.4224E-04  0.2691E-04  0.1823E-04  0.1470E-04  0.1539E-04  0.1589E-04  0.1686E-04  0.1795E-04  0.1885E-04  0.1954E-04  0.1999E-04  0.2019E-04  0.2014E-04  0.1986E-04  0.1938E-04  0.1873E-04  0.1796E-04  0.1708E-04  0.1614E-04  0.1517E-04  0.1418E-04  0.1320E-04  0.1223E-04  0.1128E-04  0.1033E-04  0.9420E-05  0.8535E-05  0.7688E-05  0.6877E-05  0.6118E-05  0.5403E-05  0.4733E-05  0.4122E-05  0.3561E-05  0.3064E-05  0.2587E-05  0.2168E-05  0.1772E-05  0.1405E-05  0.1106E-05  0.8411E-06  0.5988E-06  0.4059E-06  0.2443E-06  0.1200E-06  0.4299E-07  0.1341E-07  0.2836E-08  0.0000E+00
  0.1711E-07  0.2521E-07  0.3258E-07  0.4473E-07  0.5520E-07  0.7085E-07  0.8928E-07  0.1065E-06  0.1283E-06  0.1547E-06  0.1873E-06  0.2229E-06  0.2736E-06  0.3353E-06  0.4148E-06  0.5159E-06  0.6466E-06  0.9011E-06  0.1533E-05  0.3223E-05  0.5853E-05  0.9391E-05  0.1420E-04  0.2266E-04  0.3589E-04  0.5419E-04  0.7248E-04  0.7920E-04  0.6690E-04  0.4554E-04  0.3272E-04  0.2375E-04  0.1609E-04  0.1498E-04  0.1580E-04  0.1618E-04  0.1697E-04  0.1798E-04  0.1885E-04  0.1950E-04  0.1992E-04  0.2008E-04  0.2001E-04  0.1971E-04  0.1922E-04  0.1857E-04  0.1779E-04  0.1693E-04  0.1600E-04  0.1504E-04  0.1408E-04  0.1312E-04  0.1217E-04  0.1123E-04  0.1032E-04  0.9422E-05  0.8551E-05  0.7716E-05  0.6920E-05  0.6160E-05  0.5450E-05  0.4787E-05  0.4170E-05  0.3607E-05  0.3092E-05  0.2630E-05  0.2204E-05  0.1808E-05  0.1463E-05  0.1151E-05  0.8789E-06  0.6501E-06  0.4552E-06  0.2770E-06  0.1420E-06  0.6204E-07  0.2088E-07  0.2887E-08  0.0000E+00
  0.1874E-07  0.2648E-07  0.3262E-07  0.4328E-07  0.5543E-07  0.6983E-07  0.8673E-07  0.1078E-06  0.1314E-06  0.1527E-06  0.1888E-06  0.2303E-06  0.2811E-06  0.3446E-06  0.4275E-06  0.5311E-06  0.6595E-06  0.1083E-05  0.2519E-05  0.5966E-05  0.1178E-04  0.2087E-04  0.3389E-04  0.5111E-04  0.6952E-04  0.8220E-04  0.8112E-04  0.6570E-04  0.4767E-04  0.3721E-04  0.2936E-04  0.2005E-04  0.1517E-04  0.1552E-04  0.1630E-04  0.1651E-04  0.1708E-04  0.1795E-04  0.1877E-04  0.1937E-04  0.1975E-04  0.1988E-04  0.1978E-04  0.1947E-04  0.1897E-04  0.1832E-04  0.1755E-04  0.1670E-04  0.1579E-04  0.1485E-04  0.1390E-04  0.1296E-04  0.1204E-04  0.1113E-04  0.1024E-04  0.9365E-05  0.8516E-05  0.7699E-05  0.6916E-05  0.6173E-05  0.5466E-05  0.4805E-05  0.4199E-05  0.3639E-05  0.3131E-05  0.2648E-05  0.2223E-05  0.1825E-05  0.1489E-05  0.1180E-05  0.9189E-06  0.6824E-06  0.4897E-06  0.3031E-06  0.1744E-06  0.7273E-07  0.2131E-07  0.2930E-08  0.0000E+00
  0.1852E-07  0.2491E-07  0.3460E-07  0.4395E-07  0.5475E-07  0.7118E-07  0.8950E-07  0.1058E-06  0.1300E-06  0.1597E-06  0.1906E-06  0.2360E-06  0.2878E-06  0.3570E-06  0.4433E-06  0.5486E-06  0.9958E-06  0.2716E-05  0.6823E-05  0.1522E-04  0.2881E-04  0.4662E-04  0.6538E-04  0.8035E-04  0.8585E-04  0.7847E-04  0.6254E-04  0.4800E-04  0.4077E-04  0.3478E-04  0.2572E-04  0.1754E-04  0.1532E-04  0.1623E-04  0.1680E-04  0.1687E-04  0.1724E-04  0.1793E-04  0.1865E-04  0.1919E-04  0.1951E-04  0.1960E-04  0.1947E-04  0.1914E-04  0.1864E-04  0.1799E-04  0.1723E-04  0.1639E-04  0.1549E-04  0.1458E-04  0.1366E-04  0.1275E-04  0.1185E-04  0.1097E-04  0.1010E-04  0.9256E-05  0.8432E-05  0.7636E-05  0.6872E-05  0.6147E-05  0.5454E-05  0.4804E-05  0.4204E-05  0.3633E-05  0.3116E-05  0.2654E-05  0.2229E-05  0.1839E-05  0.1500E-05  0.1205E-05  0.9339E-06  0.7111E-06  0.5184E-06  0.3407E-06  0.1930E-06  0.9097E-07  0.2614E-07  0.2965E-08  0.0000E+00
  0.1994E-07  0.2668E-07  0.3361E-07  0.4471E-07  0.5607E-07  0.6942E-07  0.8828E-07  0.1099E-06  0.1308E-06  0.1596E-06  0.1959E-06  0.2415E-06  0.3004E-06  0.3738E-06  0.4622E-06  0.6604E-06  0.1657E-05  0.5475E-05  0.1389E-04  0.2969E-04  0.5227E-04  0.7524E-04  0.8904E-04  0.8802E-04  0.7450E-04  0.5692E-04  0.4555E-04  0.4274E-04  0.4009E-04  0.3306E-04  0.2294E-04  0.1710E-04  0.1622E-04  0.1710E-04  0.1743E-04  0.1736E-04  0.1750E-04  0.1798E-04  0.1855E-04  0.1899E-04  0.1923E-04  0.1926E-04  0.1909E-04  0.1874E-04  0.1823E-04  0.1758E-04  0.1683E-04  0.1601E-04  0.1514E-04  0.1425E-04  0.1335E-04  0.1247E-04  0.1160E-04  0.1075E-04  0.9917E-05  0.9102E-05  0.8304E-05  0.7536E-05  0.6795E-05  0.6085E-05  0.5406E-05  0.4777E-05  0.4181E-05  0.3630E-05  0.3120E-05  0.2665E-05  0.2228E-05  0.1841E-05  0.1508E-05  0.1221E-05  0.9517E-06  0.7375E-06  0.5405E-06  0.3641E-06  0.2168E-06  0.9767E-07  0.3076E-07  0.7159E-08  0.0000E+00
  0.2014E-07  0.2735E-07  0.3578E-07  0.4406E-07  0.5763E-07  0.7280E-07  0.8859E-07  0.1090E-06  0.1340E-06  0.1618E-06  0.2024E-06  0.2501E-06  0.3127E-06  0.3897E-06  0.4816E-06  0.8497E-06  0.3064E-05  0.9238E-05  0.2210E-04  0.4397E-04  0.7164E-04  0.9279E-04  0.9443E-04  0.7669E-04  0.5391E-04  0.3973E-04  0.3813E-04  0.4159E-04  0.4061E-04  0.3227E-04  0.2340E-04  0.1890E-04  0.1798E-04  0.1823E-04  0.1820E-04  0.1799E-04  0.1795E-04  0.1818E-04  0.1852E-04  0.1881E-04  0.1894E-04  0.1890E-04  0.1867E-04  0.1828E-04  0.1775E-04  0.1711E-04  0.1637E-04  0.1556E-04  0.1472E-04  0.1385E-04  0.1299E-04  0.1214E-04  0.1130E-04  0.1048E-04  0.9687E-05  0.8901E-05  0.8135E-05  0.7392E-05  0.6680E-05  0.5992E-05  0.5336E-05  0.4710E-05  0.4126E-05  0.3584E-05  0.3092E-05  0.2641E-05  0.2225E-05  0.1843E-05  0.1499E-05  0.1216E-05  0.9662E-06  0.7503E-06  0.5527E-06  0.3816E-06  0.2402E-06  0.1223E-06  0.4459E-07  0.7255E-08  0.0000E+00
  0.2167E-07  0.2811E-07  0.3668E-07  0.4673E-07  0.5871E-07  0.7333E-07  0.9147E-07  0.1117E-06  0.1338E-06  0.1666E-06  0.2090E-06  0.2631E-06  0.3266E-06  0.4067E-06  0.5033E-06  0.1092E-05  0.4339E-05  0.1262E-04  0.2809E-04  0.5227E-04  0.8003E-04  0.9693E-04  0.9028E-04  0.6563E-04  0.4207E-04  0.3240E-04  0.3417E-04  0.3869E-04  0.3825E-04  0.3240E-04  0.2607E-04  0.2216E-04  0.2066E-04  0.1993E-04  0.1936E-04  0.1890E-04  0.1864E-04  0.1859E-04  0.1865E-04  0.1871E-04  0.1869E-04  0.1852E-04  0.1822E-04  0.1779E-04  0.1723E-04  0.1658E-04  0.1585E-04  0.1506E-04  0.1424E-04  0.1341E-04  0.1257E-04  0.1175E-04  0.1095E-04  0.1017E-04  0.9409E-05  0.8662E-05  0.7928E-05  0.7215E-05  0.6525E-05  0.5861E-05  0.5241E-05  0.4633E-05  0.4067E-05  0.3538E-05  0.3060E-05  0.2615E-05  0.2200E-05  0.1821E-05  0.1502E-05  0.1214E-05  0.9613E-06  0.7570E-06  0.5615E-06  0.3945E-06  0.2590E-06  0.1338E-06  0.4979E-07  0.7327E-08  0.0000E+00
  0.2298E-07  0.2997E-07  0.3766E-07  0.4856E-07  0.6072E-07  0.7483E-07  0.9201E-07  0.1131E-06  0.1402E-06  0.1748E-06  0.2170E-06  0.2722E-06  0.3390E-06  0.4249E-06  0.5251E-06  0.1967E-05  0.5816E-05  0.1447E-04  0.2938E-04  0.5207E-04  0.7745E-04  0.9309E-04  0.8758E-04  0.6510E-04  0.4256E-04  0.3144E-04  0.3091E-04  0.3329E-04  0.3345E-04  0.3076E-04  0.2743E-04  0.2487E-04  0.2313E-04  0.2183E-04  0.2083E-04  0.2007E-04  0.1954E-04  0.1919E-04  0.1894E-04  0.1873E-04  0.1849E-04  0.1818E-04  0.1778E-04  0.1727E-04  0.1668E-04  0.1601E-04  0.1528E-04  0.1451E-04  0.1372E-04  0.1291E-04  0.1211E-04  0.1133E-04  0.1056E-04  0.9819E-05  0.9096E-05  0.8387E-05  0.7689E-05  0.7006E-05  0.6350E-05  0.5717E-05  0.5105E-05  0.4518E-05  0.3974E-05  0.3463E-05  0.2990E-05  0.2558E-05  0.2160E-05  0.1806E-05  0.1495E-05  0.1204E-05  0.9582E-06  0.7522E-06  0.5689E-06  0.4103E-06  0.2593E-06  0.1406E-06  0.5505E-07  0.1154E-07  0.0000E+00
  0.2471E-07  0.3203E-07  0.4008E-07  0.5081E-07  0.6258E-07  0.7776E-07  0.9568E-07  0.1186E-06  0.1462E-06  0.1801E-06  0.2273E-06  0.2829E-06  0.3554E-06  0.4404E-06  0.5459E-06  0.2399E-05  0.6698E-05  0.1492E-04  0.2775E-04  0.4629E-04  0.6809E-04  0.8418E-04  0.8577E-04  0.7134E-04  0.5067E-04  0.3582E-04  0.2999E-04  0.2869E-04  0.2851E-04  0.2781E-04  0.2659E-04  0.2532E-04  0.2421E-04  0.2311E-04  0.2207E-04  0.2118E-04  0.2043E-04  0.1983E-04  0.1931E-04  0.1883E-04  0.1836E-04  0.1786E-04  0.1733E-04  0.1674E-04  0.1610E-04  0.1541E-04  0.1468E-04  0.1393E-04  0.1316E-04  0.1238E-04  0.1162E-04  0.1087E-04  0.1014E-04  0.9434E-05  0.8750E-05  0.8080E-05  0.7421E-05  0.6774E-05  0.6144E-05  0.5533E-05  0.4957E-05  0.4402E-05  0.3874E-05  0.3389E-05  0.2932E-05  0.2505E-05  0.2116E-05  0.1770E-05  0.1462E-05  0.1195E-05  0.9555E-06  0.7456E-06  0.5645E-06  0.3995E-06  0.2626E-06  0.1442E-06  0.6002E-07  0.1171E-07  0.0000E+00
  0.2614E-07  0.3381E-07  0.4220E-07  0.5220E-07  0.6371E-07  0.8314E-07  0.1024E-06  0.1243E-06  0.1538E-06  0.1904E-06  0.2368E-06  0.2966E-06  0.3713E-06  0.4601E-06  0.1278E-05  0.3488E-05  0.7628E-05  0.1461E-04  0.2522E-04  0.3971E-04  0.5690E-04  0.7225E-04  0.7967E-04  0.7477E-04  0.6014E-04  0.4384E-04  0.3274E-04  0.2769E-04  0.2591E-04  0.2532E-04  0.2503E-04  0.2469E-04  0.2408E-04  0.2331E-04  0.2257E-04  0.2179E-04  0.2102E-04  0.2028E-04  0.1958E-04  0.1890E-04  0.1823E-04  0.1756E-04  0.1688E-04  0.1620E-04  0.1550E-04  0.1478E-04  0.1405E-04  0.1331E-04  0.1257E-04  0.1183E-04  0.1110E-04  0.1038E-04  0.9689E-05  0.9022E-05  0.8378E-05  0.7749E-05  0.7127E-05  0.6514E-05  0.5916E-05  0.5339E-05  0.4784E-05  0.4256E-05  0.3751E-05  0.3278E-05  0.2837E-05  0.2428E-05  0.2060E-05  0.1733E-05  0.1440E-05  0.1174E-05  0.9491E-06  0.7384E-06  0.5617E-06  0.3992E-06  0.2747E-06  0.1500E-06  0.7003E-07  0.1617E-07  0.0000E+00
  0.2738E-07  0.3572E-07  0.4453E-07  0.5729E-07  0.7091E-07  0.8666E-07  0.1068E-06  0.1315E-06  0.1601E-06  0.1990E-06  0.2476E-06  0.3101E-06  0.3852E-06  0.4772E-06  0.1590E-05  0.4037E-05  0.8056E-05  0.1414E-04  0.2296E-04  0.3453E-04  0.4799E-04  0.6116E-04  0.7051E-04  0.7211E-04  0.6469E-04  0.5157E-04  0.3856E-04  0.3016E-04  0.2616E-04  0.2456E-04  0.2395E-04  0.2369E-04  0.2342E-04  0.2302E-04  0.2241E-04  0.2173E-04  0.2108E-04  0.2036E-04  0.1961E-04  0.1882E-04  0.1803E-04  0.1724E-04  0.1644E-04  0.1565E-04  0.1489E-04  0.1414E-04  0.1340E-04  0.1267E-04  0.1195E-04  0.1124E-04  0.1054E-04  0.9867E-05  0.9216E-05  0.8587E-05  0.7985E-05  0.7394E-05  0.6812E-05  0.6236E-05  0.5669E-05  0.5124E-05  0.4603E-05  0.4106E-05  0.3632E-05  0.3175E-05  0.2747E-05  0.2364E-05  0.2004E-05  0.1682E-05  0.1390E-05  0.1149E-05  0.9275E-06  0.7231E-06  0.5592E-06  0.4005E-06  0.2763E-06  0.1602E-06  0.7213E-07  0.1636E-07  0.0000E+00
  0.2892E-07  0.3832E-07  0.4862E-07  0.6135E-07  0.7551E-07  0.9179E-07  0.1117E-06  0.1375E-06  0.1679E-06  0.2053E-06  0.2610E-06  0.3212E-06  0.3996E-06  0.1045E-05  0.2445E-05  0.4939E-05  0.8367E-05  0.1372E-04  0.2105E-04  0.3071E-04  0.4172E-04  0.5296E-04  0.6210E-04  0.6646E-04  0.6458E-04  0.5625E-04  0.4483E-04  0.3475E-04  0.2841E-04  0.2515E-04  0.2366E-04  0.2292E-04  0.2256E-04  0.2222E-04  0.2183E-04  0.2136E-04  0.2070E-04  0.1998E-04  0.1928E-04  0.1850E-04  0.1767E-04  0.1681E-04  0.1595E-04  0.1509E-04  0.1428E-04  0.1348E-04  0.1273E-04  0.1201E-04  0.1131E-04  0.1064E-04  0.9981E-05  0.9344E-05  0.8732E-05  0.8141E-05  0.7571E-05  0.7019E-05  0.6479E-05  0.5942E-05  0.5416E-05  0.4904E-05  0.4408E-05  0.3935E-05  0.3477E-05  0.3048E-05  0.2640E-05  0.2267E-05  0.1929E-05  0.1634E-05  0.1368E-05  0.1110E-05  0.9022E-06  0.7142E-06  0.5525E-06  0.4006E-06  0.2739E-06  0.1580E-06  0.7259E-07  0.2089E-07  0.0000E+00
  0.3234E-07  0.4096E-07  0.5189E-07  0.6425E-07  0.8023E-07  0.9788E-07  0.1181E-06  0.1443E-06  0.1765E-06  0.2152E-06  0.2693E-06  0.3325E-06  0.4111E-06  0.1347E-05  0.2971E-05  0.5336E-05  0.8609E-05  0.1315E-04  0.1957E-04  0.2779E-04  0.3695E-04  0.4655E-04  0.5521E-04  0.6077E-04  0.6182E-04  0.5769E-04  0.4953E-04  0.3991E-04  0.3198E-04  0.2698E-04  0.2422E-04  0.2274E-04  0.2192E-04  0.2140E-04  0.2099E-04  0.2055E-04  0.2002E-04  0.1940E-04  0.1868E-04  0.1790E-04  0.1710E-04  0.1625E-04  0.1538E-04  0.1450E-04  0.1364E-04  0.1282E-04  0.1205E-04  0.1134E-04  0.1067E-04  0.1003E-04  0.9404E-05  0.8807E-05  0.8234E-05  0.7682E-05  0.7151E-05  0.6637E-05  0.6134E-05  0.5640E-05  0.5150E-05  0.4670E-05  0.4206E-05  0.3766E-05  0.3335E-05  0.2919E-05  0.2534E-05  0.2180E-05  0.1848E-05  0.1559E-05  0.1304E-05  0.1081E-05  0.8754E-06  0.6964E-06  0.5305E-06  0.3912E-06  0.2705E-06  0.1583E-06  0.7724E-07  0.2104E-07  0.0000E+00
  0.3453E-07  0.4398E-07  0.5459E-07  0.6827E-07  0.8458E-07  0.1034E-06  0.1249E-06  0.1514E-06  0.1833E-06  0.2268E-06  0.2789E-06  0.3428E-06  0.8588E-06  0.1794E-05  0.3456E-05  0.5520E-05  0.8531E-05  0.1288E-04  0.1823E-04  0.2536E-04  0.3308E-04  0.4148E-04  0.4919E-04  0.5527E-04  0.5805E-04  0.5687E-04  0.5181E-04  0.4412E-04  0.3605E-04  0.2975E-04  0.2562E-04  0.2315E-04  0.2168E-04  0.2076E-04  0.2012E-04  0.1960E-04  0.1908E-04  0.1851E-04  0.1786E-04  0.1713E-04  0.1634E-04  0.1553E-04  0.1469E-04  0.1383E-04  0.1298E-04  0.1216E-04  0.1139E-04  0.1067E-04  0.1002E-04  0.9405E-05  0.8822E-05  0.8264E-05  0.7730E-05  0.7216E-05  0.6724E-05  0.6249E-05  0.5785E-05  0.5326E-05  0.4870E-05  0.4430E-05  0.3996E-05  0.3571E-05  0.3161E-05  0.2780E-05  0.2410E-05  0.2079E-05  0.1776E-05  0.1507E-05  0.1263E-05  0.1037E-05  0.8318E-06  0.6651E-06  0.5115E-06  0.3805E-06  0.2644E-06  0.1533E-06  0.7446E-07  0.2111E-07  0.4172E-08
  0.3601E-07  0.4620E-07  0.5787E-07  0.7142E-07  0.8887E-07  0.1085E-06  0.1315E-06  0.1574E-06  0.1895E-06  0.2359E-06  0.2864E-06  0.3509E-06  0.1012E-05  0.2175E-05  0.3778E-05  0.5712E-05  0.8550E-05  0.1231E-04  0.1738E-04  0.2322E-04  0.2997E-04  0.3707E-04  0.4411E-04  0.5004E-04  0.5377E-04  0.5448E-04  0.5198E-04  0.4659E-04  0.3958E-04  0.3281E-04  0.2762E-04  0.2413E-04  0.2189E-04  0.2043E-04  0.1944E-04  0.1871E-04  0.1809E-04  0.1749E-04  0.1688E-04  0.1620E-04  0.1546E-04  0.1469E-04  0.1389E-04  0.1309E-04  0.1228E-04  0.1148E-04  0.1072E-04  0.1002E-04  0.9378E-05  0.8785E-05  0.8239E-05  0.7721E-05  0.7228E-05  0.6757E-05  0.6301E-05  0.5864E-05  0.5437E-05  0.5015E-05  0.4597E-05  0.4181E-05  0.3776E-05  0.3374E-05  0.2993E-05  0.2634E-05  0.2296E-05  0.1977E-05  0.1689E-05  0.1426E-05  0.1194E-05  0.9885E-06  0.8101E-06  0.6436E-06  0.4891E-06  0.3720E-06  0.2529E-06  0.1543E-06  0.6672E-07  0.1838E-07  0.4219E-08
  0.3769E-07  0.4878E-07  0.6106E-07  0.7476E-07  0.9242E-07  0.1135E-06  0.1369E-06  0.1637E-06  0.1962E-06  0.2404E-06  0.2923E-06  0.6132E-06  0.1287E-05  0.2458E-05  0.3849E-05  0.5798E-05  0.8397E-05  0.1180E-04  0.1621E-04  0.2137E-04  0.2725E-04  0.3344E-04  0.3967E-04  0.4527E-04  0.4929E-04  0.5121E-04  0.5055E-04  0.4720E-04  0.4184E-04  0.3559E-04  0.2979E-04  0.2549E-04  0.2247E-04  0.2041E-04  0.1899E-04  0.1796E-04  0.1716E-04  0.1648E-04  0.1585E-04  0.1519E-04  0.1450E-04  0.1377E-04  0.1302E-04  0.1226E-04  0.1151E-04  0.1077E-04  0.1006E-04  0.9382E-05  0.8758E-05  0.8187E-05  0.7669E-05  0.7188E-05  0.6731E-05  0.6295E-05  0.5875E-05  0.5474E-05  0.5083E-05  0.4697E-05  0.4314E-05  0.3928E-05  0.3547E-05  0.3175E-05  0.2822E-05  0.2492E-05  0.2174E-05  0.1873E-05  0.1606E-05  0.1362E-05  0.1149E-05  0.9550E-06  0.7676E-06  0.6085E-06  0.4726E-06  0.3488E-06  0.2352E-06  0.1458E-06  0.6207E-07  0.2262E-07  0.4250E-08
  0.3882E-07  0.5039E-07  0.6330E-07  0.7799E-07  0.9566E-07  0.1170E-06  0.1426E-06  0.1697E-06  0.2025E-06  0.2463E-06  0.3379E-06  0.7726E-06  0.1502E-05  0.2581E-05  0.3989E-05  0.5744E-05  0.8149E-05  0.1134E-04  0.1507E-04  0.1982E-04  0.2484E-04  0.3022E-04  0.3583E-04  0.4087E-04  0.4494E-04  0.4751E-04  0.4799E-04  0.4632E-04  0.4256E-04  0.3744E-04  0.3192E-04  0.2694E-04  0.2330E-04  0.2065E-04  0.1875E-04  0.1736E-04  0.1635E-04  0.1552E-04  0.1482E-04  0.1415E-04  0.1348E-04  0.1280E-04  0.1210E-04  0.1139E-04  0.1071E-04  0.1003E-04  0.9367E-05  0.8737E-05  0.8152E-05  0.7613E-05  0.7117E-05  0.6661E-05  0.6238E-05  0.5838E-05  0.5454E-05  0.5087E-05  0.4730E-05  0.4378E-05  0.4024E-05  0.3670E-05  0.3313E-05  0.2980E-05  0.2643E-05  0.2336E-05  0.2047E-05  0.1773E-05  0.1521E-05  0.1284E-05  0.1073E-05  0.8866E-06  0.7240E-06  0.5769E-06  0.4393E-06  0.3249E-06  0.2269E-06  0.1306E-06  0.6168E-07  0.1844E-07  0.4267E-08
  0.4083E-07  0.5200E-07  0.6576E-07  0.8140E-07  0.9919E-07  0.1201E-06  0.1447E-06  0.1745E-06  0.2066E-06  0.2490E-06  0.4488E-06  0.8965E-06  0.1672E-05  0.2688E-05  0.3903E-05  0.5680E-05  0.7852E-05  0.1067E-04  0.1423E-04  0.1818E-04  0.2265E-04  0.2735E-04  0.3230E-04  0.3689E-04  0.4089E-04  0.4367E-04  0.4495E-04  0.4430E-04  0.4197E-04  0.3810E-04  0.3330E-04  0.2839E-04  0.2417E-04  0.2102E-04  0.1868E-04  0.1695E-04  0.1564E-04  0.1466E-04  0.1384E-04  0.1314E-04  0.1248E-04  0.1182E-04  0.1118E-04  0.1053E-04  0.9894E-05  0.9270E-05  0.8670E-05  0.8094E-05  0.7552E-05  0.7047E-05  0.6583E-05  0.6155E-05  0.5759E-05  0.5391E-05  0.5042E-05  0.4710E-05  0.4384E-05  0.4059E-05  0.3739E-05  0.3412E-05  0.3091E-05  0.2777E-05  0.2472E-05  0.2197E-05  0.1924E-05  0.1661E-05  0.1426E-05  0.1209E-05  0.1022E-05  0.8453E-06  0.6740E-06  0.5391E-06  0.4232E-06  0.3084E-06  0.2089E-06  0.1241E-06  0.6114E-07  0.1841E-07  0.4269E-08
  0.4252E-07  0.5379E-07  0.6753E-07  0.8423E-07  0.1021E-06  0.1231E-06  0.1479E-06  0.1755E-06  0.2072E-06  0.2471E-06  0.5089E-06  0.9867E-06  0.1770E-05  0.2655E-05  0.3875E-05  0.5435E-05  0.7498E-05  0.1003E-04  0.1316E-04  0.1668E-04  0.2063E-04  0.2476E-04  0.2901E-04  0.3321E-04  0.3697E-04  0.3985E-04  0.4150E-04  0.4172E-04  0.4030E-04  0.3762E-04  0.3375E-04  0.2932E-04  0.2499E-04  0.2137E-04  0.1868E-04  0.1662E-04  0.1506E-04  0.1386E-04  0.1294E-04  0.1216E-04  0.1150E-04  0.1088E-04  0.1026E-04  0.9666E-05  0.9076E-05  0.8515E-05  0.7975E-05  0.7449E-05  0.6952E-05  0.6492E-05  0.6062E-05  0.5666E-05  0.5303E-05  0.4967E-05  0.4648E-05  0.4342E-05  0.4044E-05  0.3743E-05  0.3450E-05  0.3159E-05  0.2860E-05  0.2576E-05  0.2309E-05  0.2036E-05  0.1782E-05  0.1544E-05  0.1338E-05  0.1133E-05  0.9435E-06  0.7825E-06  0.6410E-06  0.5070E-06  0.3908E-06  0.2755E-06  0.1850E-06  0.9831E-07  0.4876E-07  0.1832E-07  0.4255E-08
  0.4454E-07  0.5567E-07  0.6869E-07  0.8513E-07  0.1044E-06  0.1256E-06  0.1500E-06  0.1773E-06  0.2080E-06  0.3101E-06  0.6190E-06  0.1089E-05  0.1776E-05  0.2688E-05  0.3764E-05  0.5263E-05  0.7096E-05  0.9466E-05  0.1209E-04  0.1538E-04  0.1877E-04  0.2238E-04  0.2620E-04  0.2995E-04  0.3338E-04  0.3611E-04  0.3791E-04  0.3867E-04  0.3804E-04  0.3614E-04  0.3322E-04  0.2948E-04  0.2545E-04  0.2168E-04  0.1861E-04  0.1631E-04  0.1453E-04  0.1316E-04  0.1209E-04  0.1127E-04  0.1057E-04  0.9955E-05  0.9382E-05  0.8836E-05  0.8296E-05  0.7786E-05  0.7295E-05  0.6824E-05  0.6375E-05  0.5951E-05  0.5560E-05  0.5197E-05  0.4866E-05  0.4552E-05  0.4261E-05  0.3985E-05  0.3712E-05  0.3447E-05  0.3177E-05  0.2910E-05  0.2645E-05  0.2385E-05  0.2135E-05  0.1898E-05  0.1676E-05  0.1456E-05  0.1245E-05  0.1059E-05  0.8882E-06  0.7299E-06  0.5852E-06  0.4641E-06  0.3534E-06  0.2625E-06  0.1661E-06  0.9198E-07  0.3479E-07  0.1816E-07  0.4227E-08
  0.4536E-07  0.5671E-07  0.7096E-07  0.8620E-07  0.1043E-06  0.1250E-06  0.1497E-06  0.1765E-06  0.2067E-06  0.3359E-06  0.6567E-06  0.1140E-05  0.1797E-05  0.2560E-05  0.3654E-05  0.5001E-05  0.6724E-05  0.8733E-05  0.1126E-04  0.1397E-04  0.1702E-04  0.2027E-04  0.2354E-04  0.2684E-04  0.2995E-04  0.3250E-04  0.3442E-04  0.3540E-04  0.3528E-04  0.3413E-04  0.3186E-04  0.2886E-04  0.2535E-04  0.2172E-04  0.1850E-04  0.1591E-04  0.1399E-04  0.1248E-04  0.1132E-04  0.1040E-04  0.9680E-05  0.9075E-05  0.8526E-05  0.8019E-05  0.7544E-05  0.7075E-05  0.6634E-05  0.6215E-05  0.5815E-05  0.5435E-05  0.5083E-05  0.4751E-05  0.4442E-05  0.4157E-05  0.3887E-05  0.3635E-05  0.3397E-05  0.3155E-05  0.2918E-05  0.2676E-05  0.2432E-05  0.2197E-05  0.1968E-05  0.1756E-05  0.1539E-05  0.1342E-05  0.1158E-05  0.9789E-06  0.8175E-06  0.6743E-06  0.5474E-06  0.4342E-06  0.3311E-06  0.2255E-06  0.1570E-06  0.8515E-07  0.3423E-07  0.9397E-08  0.4184E-08
  0.4569E-07  0.5835E-07  0.7247E-07  0.8756E-07  0.1048E-06  0.1251E-06  0.1480E-06  0.1745E-06  0.2034E-06  0.3792E-06  0.6538E-06  0.1150E-05  0.1724E-05  0.2484E-05  0.3472E-05  0.4700E-05  0.6266E-05  0.8119E-05  0.1026E-04  0.1269E-04  0.1538E-04  0.1822E-04  0.2108E-04  0.2396E-04  0.2665E-04  0.2909E-04  0.3095E-04  0.3208E-04  0.3229E-04  0.3163E-04  0.2998E-04  0.2754E-04  0.2460E-04  0.2135E-04  0.1819E-04  0.1548E-04  0.1337E-04  0.1178E-04  0.1056E-04  0.9605E-05  0.8839E-05  0.8229E-05  0.7714E-05  0.7244E-05  0.6801E-05  0.6389E-05  0.5995E-05  0.5629E-05  0.5272E-05  0.4935E-05  0.4613E-05  0.4316E-05  0.4038E-05  0.3780E-05  0.3542E-05  0.3311E-05  0.3095E-05  0.2877E-05  0.2664E-05  0.2448E-05  0.2229E-05  0.2011E-05  0.1807E-05  0.1614E-05  0.1427E-05  0.1250E-05  0.1070E-05  0.9085E-06  0.7579E-06  0.6279E-06  0.4987E-06  0.3903E-06  0.2956E-06  0.2089E-06  0.1341E-06  0.7188E-07  0.2947E-07  0.9252E-08  0.0000E+00
  0.4590E-07  0.5773E-07  0.7205E-07  0.8747E-07  0.1052E-06  0.1250E-06  0.1467E-06  0.1723E-06  0.2192E-06  0.3998E-06  0.6766E-06  0.1114E-05  0.1703E-05  0.2356E-05  0.3263E-05  0.4387E-05  0.5749E-05  0.7457E-05  0.9282E-05  0.1155E-04  0.1384E-04  0.1631E-04  0.1880E-04  0.2132E-04  0.2376E-04  0.2595E-04  0.2768E-04  0.2879E-04  0.2917E-04  0.2884E-04  0.2770E-04  0.2578E-04  0.2330E-04  0.2052E-04  0.1761E-04  0.1492E-04  0.1272E-04  0.1104E-04  0.9785E-05  0.8817E-05  0.8054E-05  0.7440E-05  0.6941E-05  0.6510E-05  0.6111E-05  0.5743E-05  0.5394E-05  0.5068E-05  0.4758E-05  0.4457E-05  0.4170E-05  0.3901E-05  0.3661E-05  0.3430E-05  0.3211E-05  0.3009E-05  0.2811E-05  0.2620E-05  0.2425E-05  0.2233E-05  0.2032E-05  0.1836E-05  0.1653E-05  0.1475E-05  0.1307E-05  0.1140E-05  0.9866E-06  0.8370E-06  0.6953E-06  0.5692E-06  0.4593E-06  0.3623E-06  0.2743E-06  0.1877E-06  0.1119E-06  0.6139E-07  0.2436E-07  0.9077E-08  0.0000E+00
  0.4637E-07  0.5793E-07  0.7150E-07  0.8563E-07  0.1026E-06  0.1207E-06  0.1421E-06  0.1666E-06  0.2330E-06  0.3959E-06  0.6734E-06  0.1102E-05  0.1568E-05  0.2235E-05  0.3037E-05  0.4059E-05  0.5324E-05  0.6747E-05  0.8511E-05  0.1034E-04  0.1239E-04  0.1454E-04  0.1671E-04  0.1888E-04  0.2101E-04  0.2294E-04  0.2453E-04  0.2558E-04  0.2610E-04  0.2599E-04  0.2516E-04  0.2369E-04  0.2166E-04  0.1926E-04  0.1671E-04  0.1420E-04  0.1200E-04  0.1028E-04  0.8987E-05  0.8035E-05  0.7294E-05  0.6702E-05  0.6214E-05  0.5814E-05  0.5462E-05  0.5129E-05  0.4827E-05  0.4537E-05  0.4267E-05  0.4001E-05  0.3750E-05  0.3523E-05  0.3301E-05  0.3094E-05  0.2898E-05  0.2714E-05  0.2540E-05  0.2370E-05  0.2202E-05  0.2027E-05  0.1850E-05  0.1673E-05  0.1500E-05  0.1342E-05  0.1187E-05  0.1045E-05  0.9062E-06  0.7641E-06  0.6335E-06  0.5262E-06  0.4165E-06  0.3204E-06  0.2361E-06  0.1582E-06  0.9705E-07  0.5534E-07  0.1945E-07  0.8873E-08  0.0000E+00
  0.4711E-07  0.5840E-07  0.7117E-07  0.8450E-07  0.1011E-06  0.1185E-06  0.1395E-06  0.1613E-06  0.2290E-06  0.4109E-06  0.6610E-06  0.1017E-05  0.1516E-05  0.2075E-05  0.2835E-05  0.3717E-05  0.4851E-05  0.6152E-05  0.7616E-05  0.9251E-05  0.1104E-04  0.1291E-04  0.1478E-04  0.1671E-04  0.1853E-04  0.2023E-04  0.2159E-04  0.2256E-04  0.2310E-04  0.2311E-04  0.2253E-04  0.2139E-04  0.1976E-04  0.1775E-04  0.1552E-04  0.1328E-04  0.1119E-04  0.9480E-05  0.8194E-05  0.7238E-05  0.6526E-05  0.5988E-05  0.5540E-05  0.5164E-05  0.4846E-05  0.4559E-05  0.4292E-05  0.4037E-05  0.3802E-05  0.3584E-05  0.3364E-05  0.3155E-05  0.2958E-05  0.2774E-05  0.2606E-05  0.2440E-05  0.2287E-05  0.2132E-05  0.1983E-05  0.1828E-05  0.1676E-05  0.1512E-05  0.1361E-05  0.1216E-05  0.1077E-05  0.9509E-06  0.8210E-06  0.6975E-06  0.5766E-06  0.4714E-06  0.3746E-06  0.2907E-06  0.2115E-06  0.1337E-06  0.7582E-07  0.4050E-07  0.1893E-07  0.4458E-08  0.0000E+00
