DSAA
          79         109
    318.3670    342.0670
   7336.5760   7369.2760
  0.0000E+00  0.1113E-04
  0.0000E+00  0.0000E+00  0.0000E+00  0.0000E+00  0.0000E+00  0.0000E+00  0.0000E+00  0.0000E+00  0.0000E+00  0.0000E+00  0.0000E+00  0.0000E+00  0.0000E+00  0.0000E+00  0.0000E+00  0.0000E+00  0.0000E+00  0.0000E+00  0.0000E+00  0.0000E+00  0.0000E+00  0.0000E+00  0.0000E+00  0.0000E+00  0.0000E+00  0.0000E+00  0.0000E+00  0.0000E+00  0.0000E+00  0.0000E+00  0.0000E+00  0.0000E+00  0.0000E+00  0.0000E+00  0.0000E+00  0.0000E+00  0.0000E+00  0.0000E+00  0.0000E+00  0.0000E+00  0.0000E+00  0.0000E+00  0.0000E+00  0.0000E+00  0.0000E+00  0.0000E+00  0.0000E+00  0.0000E+00  0.0000E+00  0.0000E+00  0.0000E+00  0.0000E+00  0.0000E+00  0.0000E+00  0.0000E+00  0.0000E+00  0.0000E+00  0.0000E+00  0.0000E+00  0.0000E+00  0.0000E+00  0.0000E+00  0.0000E+00  0.0000E+00  0.0000E+00  0.0000E+00  0.0000E+00  0.0000E+00  0.0000E+00  0.0000E+00  0.0000E+00  0.0000E+00  0.0000E+00  0.0000E+00  0.0000E+00  0.0000E+00  0.0000E+00  0.0000E+00  0.0000E+00
  0.0000E+00  0.0000E+00  0.0000E+00  0.0000E+00  0.0000E+00  0.0000E+00  0.0000E+00  0.0000E+00  0.0000E+00  0.0000E+00  0.0000E+00  0.0000E+00  0.0000E+00  0.0000E+00  0.0000E+00  0.0000E+00  0.0000E+00  0.0000E+00  0.0000E+00  0.0000E+00  0.0000E+00  0.0000E+00  0.0000E+00  0.0000E+00  0.0000E+00  0.0000E+00  0.0000E+00  0.0000E+00  0.0000E+00  0.0000E+00  0.0000E+00  0.0000E+00  0.0000E+00  0.0000E+00  0.0000E+00  0.0000E+00  0.0000E+00  0.0000E+00  0.0000E+00  0.0000E+00  0.0000E+00  0.0000E+00  0.0000E+00  0.0000E+00  0.0000E+00  0.0000E+00  0.0000E+00  0.0000E+00  0.0000E+00  0.0000E+00  0.0000E+00  0.0000E+00  0.0000E+00  0.0000E+00  0.0000E+00  0.0000E+00  0.0000E+00  0.0000E+00  0.0000E+00  0.0000E+00  0.0000E+00  0.0000E+00  0.0000E+00  0.0000E+00  0.0000E+00  0.0000E+00  0.0000E+00  0.0000E+00  0.0000E+00  0.0000E+00  0.0000E+00  0.0000E+00  0.0000E+00  0.0000E+00  0.0000E+00  0.0000E+00  0.0000E+00  0.0000E+00  0.0000E+00
  0.0000E+00  0.0000E+00  0.0000E+00  0.0000E+00  0.0000E+00  0.0000E+00  0.0000E+00  0.0000E+00  0.0000E+00  0.0000E+00  0.0000E+00  0.0000E+00  0.0000E+00  0.0000E+00  0.0000E+00  0.0000E+00  0.0000E+00  0.0000E+00  0.0000E+00  0.0000E+00  0.0000E+00  0.0000E+00  0.0000E+00  0.0000E+00  0.0000E+00  0.0000E+00  0.0000E+00  0.0000E+00  0.0000E+00  0.0000E+00  0.0000E+00  0.0000E+00  0.0000E+00  0.0000E+00  0.0000E+00  0.0000E+00  0.0000E+00  0.0000E+00  0.0000E+00  0.0000E+00  0.0000E+00  0.0000E+00  0.0000E+00  0.0000E+00  0.0000E+00  0.0000E+00  0.0000E+00  0.0000E+00  0.0000E+00  0.0000E+00  0.0000E+00  0.0000E+00  0.0000E+00  0.0000E+00  0.0000E+00  0.0000E+00  0.0000E+00  0.0000E+00  0.0000E+00  0.0000E+00  0.0000E+00  0.0000E+00  0.0000E+00  0.0000E+00  0.0000E+00  0.0000E+00  0.0000E+00  0.0000E+00  0.0000E+00  0.0000E+00  0.0000E+00  0.0000E+00  0.0000E+00  0.0000E+00  0.0000E+00  0.0000E+00  0.0000E+00  0.0000E+00  0.0000E+00
  0.0000E+00  0.0000E+00  0.0000E+00  0.0000E+00  0.0000E+00  0.0000E+00  0.0000E+00  0.0000E+00  0.0000E+00  0.0000E+00  0.0000E+00  0.0000E+00  0.0000E+00  0.0000E+00  0.0000E+00  0.0000E+00  0.0000E+00  0.0000E+00  0.0000E+00  0.0000E+00  0.0000E+00  0.0000E+00  0.0000E+00  0.0000E+00  0.0000E+00  0.0000E+00  0.0000E+00  0.0000E+00  0.0000E+00  0.0000E+00  0.0000E+00  0.0000E+00  0.0000E+00  0.0000E+00  0.0000E+00  0.0000E+00  0.0000E+00  0.0000E+00  0.0000E+00  0.0000E+00  0.0000E+00  0.0000E+00  0.0000E+00  0.0000E+00  0.0000E+00  0.0000E+00  0.0000E+00  0.0000E+00  0.0000E+00  0.0000E+00  0.0000E+00  0.0000E+00  0.0000E+00  0.0000E+00  0.0000E+00  0.0000E+00  0.0000E+00  0.0000E+00  0.0000E+00  0.0000E+00  0.0000E+00  0.0000E+00  0.0000E+00  0.0000E+00  0.0000E+00  0.0000E+00  0.0000E+00  0.0000E+00  0.0000E+00  0.0000E+00  0.0000E+00  0.0000E+00  0.0000E+00  0.0000E+00  0.0000E+00  0.0000E+00  0.0000E+00  0.0000E+00  0.0000E+00
  0.0000E+00  0.0000E+00  0.0000E+00  0.0000E+00  0.0000E+00  0.0000E+00  0.0000E+00  0.0000E+00  0.0000E+00  0.0000E+00  0.0000E+00  0.0000E+00  0.0000E+00  0.0000E+00  0.0000E+00  0.0000E+00  0.0000E+00  0.0000E+00  0.0000E+00  0.0000E+00  0.0000E+00  0.0000E+00  0.0000E+00  0.0000E+00  0.0000E+00  0.0000E+00  0.0000E+00  0.0000E+00  0.0000E+00  0.0000E+00  0.0000E+00  0.0000E+00  0.0000E+00  0.0000E+00  0.0000E+00  0.0000E+00  0.0000E+00  0.0000E+00  0.0000E+00  0.0000E+00  0.0000E+00  0.0000E+00  0.0000E+00  0.0000E+00  0.0000E+00  0.0000E+00  0.0000E+00  0.0000E+00  0.0000E+00  0.0000E+00  0.0000E+00  0.0000E+00  0.0000E+00  0.0000E+00  0.0000E+00  0.0000E+00  0.0000E+00  0.0000E+00  0.0000E+00  0.0000E+00  0.0000E+00  0.0000E+00  0.0000E+00  0.0000E+00  0.0000E+00  0.0000E+00  0.0000E+00  0.0000E+00  0.0000E+00  0.0000E+00  0.0000E+00  0.0000E+00  0.0000E+00  0.0000E+00  0.0000E+00  0.0000E+00  0.0000E+00  0.0000E+00  0.0000E+00
  0.0000E+00  0.0000E+00  0.0000E+00  0.0000E+00  0.0000E+00  0.0000E+00  0.0000E+00  0.0000E+00  0.0000E+00  0.0000E+00  0.0000E+00  0.0000E+00  0.0000E+00  0.0000E+00  0.0000E+00  0.0000E+00  0.0000E+00  0.0000E+00  0.0000E+00  0.0000E+00  0.0000E+00  0.0000E+00  0.0000E+00  0.0000E+00  0.0000E+00  0.0000E+00  0.0000E+00  0.0000E+00  0.0000E+00  0.0000E+00  0.0000E+00  0.0000E+00  0.0000E+00  0.0000E+00  0.0000E+00  0.0000E+00  0.0000E+00  0.0000E+00  0.0000E+00  0.0000E+00  0.0000E+00  0.0000E+00  0.0000E+00  0.0000E+00  0.0000E+00  0.0000E+00  0.0000E+00  0.0000E+00  0.0000E+00  0.0000E+00  0.0000E+00  0.0000E+00  0.0000E+00  0.0000E+00  0.0000E+00  0.0000E+00  0.0000E+00  0.0000E+00  0.0000E+00  0.0000E+00  0.0000E+00  0.0000E+00  0.0000E+00  0.0000E+00  0.0000E+00  0.0000E+00  0.0000E+00  0.0000E+00  0.0000E+00  0.0000E+00  0.0000E+00  0.0000E+00  0.0000E+00  0.0000E+00  0.0000E+00  0.0000E+00  0.0000E+00  0.0000E+00  0.0000E+00
  0.0000E+00  0.0000E+00  0.0000E+00  0.0000E+00  0.0000E+00  0.0000E+00  0.0000E+00  0.0000E+00  0.0000E+00  0.0000E+00  0.0000E+00  0.0000E+00  0.0000E+00  0.0000E+00  0.0000E+00  0.0000E+00  0.0000E+00  0.0000E+00  0.0000E+00  0.0000E+00  0.0000E+00  0.0000E+00  0.0000E+00  0.0000E+00  0.0000E+00  0.0000E+00  0.0000E+00  0.0000E+00  0.0000E+00  0.0000E+00  0.0000E+00  0.0000E+00  0.0000E+00  0.0000E+00  0.0000E+00  0.0000E+00  0.0000E+00  0.0000E+00  0.0000E+00  0.0000E+00  0.0000E+00  0.0000E+00  0.0000E+00  0.0000E+00  0.0000E+00  0.0000E+00  0.0000E+00  0.0000E+00  0.0000E+00  0.0000E+00  0.0000E+00  0.0000E+00  0.0000E+00  0.0000E+00  0.0000E+00  0.0000E+00  0.0000E+00  0.0000E+00  0.0000E+00  0.0000E+00  0.0000E+00  0.0000E+00  0.0000E+00  0.0000E+00  0.0000E+00  0.0000E+00  0.0000E+00  0.0000E+00  0.0000E+00  0.0000E+00  0.0000E+00  0.0000E+00  0.0000E+00  0.0000E+00  0.0000E+00  0.0000E+00  0.0000E+00  0.0000E+00  0.0000E+00
  0.0000E+00  0.0000E+00  0.0000E+00  0.0000E+00  0.0000E+00  0.0000E+00  0.0000E+00  0.0000E+00  0.0000E+00  0.0000E+00  0.0000E+00  0.0000E+00  0.0000E+00  0.0000E+00  0.0000E+00  0.0000E+00  0.0000E+00  0.0000E+00  0.0000E+00  0.0000E+00  0.0000E+00  0.0000E+00  0.0000E+00  0.0000E+00  0.0000E+00  0.0000E+00  0.0000E+00  0.0000E+00  0.0000E+00  0.0000E+00  0.0000E+00  0.0000E+00  0.0000E+00  0.0000E+00  0.0000E+00  0.0000E+00  0.0000E+00  0.0000E+00  0.0000E+00  0.0000E+00  0.0000E+00  0.0000E+00  0.0000E+00  0.0000E+00  0.0000E+00  0.0000E+00  0.0000E+00  0.0000E+00  0.0000E+00  0.0000E+00  0.0000E+00  0.0000E+00  0.0000E+00  0.0000E+00  0.0000E+00  0.0000E+00  0.0000E+00  0.0000E+00  0.0000E+00  0.0000E+00  0.0000E+00  0.0000E+00  0.0000E+00  0.0000E+00  0.0000E+00  0.0000E+00  0.0000E+00  0.0000E+00  0.0000E+00  0.0000E+00  0.0000E+00  0.0000E+00  0.0000E+00  0.0000E+00  0.0000E+00  0.0000E+00  0.0000E+00  0.0000E+00  0.0000E+00
  0.0000E+00  0.0000E+00  0.0000E+00  0.0000E+00  0.0000E+00  0.0000E+00  0.0000E+00  0.0000E+00  0.0000E+00  0.0000E+00  0.0000E+00  0.0000E+00  0.0000E+00  0.0000E+00  0.0000E+00  0.0000E+00  0.0000E+00  0.0000E+00  0.0000E+00  0.0000E+00  0.0000E+00  0.0000E+00  0.0000E+00  0.0000E+00  0.0000E+00  0.0000E+00  0.0000E+00  0.0000E+00  0.0000E+00  0.0000E+00  0.0000E+00  0.0000E+00  0.0000E+00  0.0000E+00  0.0000E+00  0.0000E+00  0.0000E+00  0.0000E+00  0.0000E+00  0.0000E+00  0.0000E+00  0.0000E+00  0.0000E+00  0.0000E+00  0.0000E+00  0.0000E+00  0.0000E+00  0.0000E+00  0.0000E+00  0.0000E+00  0.0000E+00  0.0000E+00  0.0000E+00  0.0000E+00  0.0000E+00  0.0000E+00  0.0000E+00  0.0000E+00  0.0000E+00  0.0000E+00  0.0000E+00  0.0000E+00  0.0000E+00  0.0000E+00  0.0000E+00  0.0000E+00  0.0000E+00  0.0000E+00  0.0000E+00  0.0000E+00  0.0000E+00  0.0000E+00  0.0000E+00  0.0000E+00  0.0000E+00  0.0000E+00  0.0000E+00  0.0000E+00  0.0000E+00
  0.0000E+00  0.0000E+00  0.0000E+00  0.0000E+00  0.0000E+00  0.0000E+00  0.0000E+00  0.0000E+00  0.0000E+00  0.0000E+00  0.0000E+00  0.0000E+00  0.0000E+00  0.0000E+00  0.0000E+00  0.0000E+00  0.0000E+00  0.0000E+00  0.0000E+00  0.0000E+00  0.0000E+00  0.0000E+00  0.0000E+00  0.0000E+00  0.0000E+00  0.0000E+00  0.0000E+00  0.0000E+00  0.0000E+00  0.0000E+00  0.0000E+00  0.0000E+00  0.0000E+00  0.0000E+00  0.0000E+00  0.0000E+00  0.0000E+00  0.0000E+00  0.0000E+00  0.0000E+00  0.0000E+00  0.0000E+00  0.0000E+00  0.0000E+00  0.0000E+00  0.0000E+00  0.0000E+00  0.0000E+00  0.0000E+00  0.0000E+00  0.0000E+00  0.0000E+00  0.0000E+00  0.0000E+00  0.0000E+00  0.0000E+00  0.0000E+00  0.0000E+00  0.0000E+00  0.0000E+00  0.0000E+00  0.0000E+00  0.0000E+00  0.0000E+00  0.0000E+00  0.0000E+00  0.0000E+00  0.0000E+00  0.0000E+00  0.0000E+00  0.0000E+00  0.0000E+00  0.0000E+00  0.0000E+00  0.0000E+00  0.0000E+00  0.0000E+00  0.0000E+00  0.0000E+00
  0.0000E+00  0.0000E+00  0.0000E+00  0.0000E+00  0.0000E+00  0.0000E+00  0.0000E+00  0.0000E+00  0.0000E+00  0.0000E+00  0.0000E+00  0.0000E+00  0.0000E+00  0.0000E+00  0.0000E+00  0.0000E+00  0.0000E+00  0.0000E+00  0.0000E+00  0.0000E+00  0.0000E+00  0.0000E+00  0.0000E+00  0.0000E+00  0.0000E+00  0.0000E+00  0.0000E+00  0.0000E+00  0.0000E+00  0.0000E+00  0.0000E+00  0.0000E+00  0.0000E+00  0.0000E+00  0.0000E+00  0.0000E+00  0.0000E+00  0.0000E+00  0.0000E+00  0.0000E+00  0.0000E+00  0.0000E+00  0.0000E+00  0.0000E+00  0.0000E+00  0.0000E+00  0.0000E+00  0.0000E+00  0.0000E+00  0.0000E+00  0.0000E+00  0.0000E+00  0.0000E+00  0.0000E+00  0.0000E+00  0.0000E+00  0.0000E+00  0.0000E+00  0.0000E+00  0.0000E+00  0.0000E+00  0.0000E+00  0.0000E+00  0.0000E+00  0.0000E+00  0.0000E+00  0.0000E+00  0.0000E+00  0.0000E+00  0.0000E+00  0.0000E+00  0.0000E+00  0.0000E+00  0.0000E+00  0.0000E+00  0.0000E+00  0.0000E+00  0.0000E+00  0.0000E+00
  0.0000E+00  0.0000E+00  0.0000E+00  0.0000E+00  0.0000E+00  0.0000E+00  0.0000E+00  0.0000E+00  0.0000E+00  0.0000E+00  0.0000E+00  0.0000E+00  0.0000E+00  0.0000E+00  0.0000E+00  0.0000E+00  0.0000E+00  0.0000E+00  0.0000E+00  0.0000E+00  0.0000E+00  0.0000E+00  0.0000E+00  0.0000E+00  0.0000E+00  0.0000E+00  0.0000E+00  0.0000E+00  0.0000E+00  0.0000E+00  0.0000E+00  0.0000E+00  0.0000E+00  0.0000E+00  0.0000E+00  0.0000E+00  0.0000E+00  0.0000E+00  0.0000E+00  0.0000E+00  0.0000E+00  0.0000E+00  0.0000E+00  0.0000E+00  0.0000E+00  0.0000E+00  0.0000E+00  0.0000E+00  0.0000E+00  0.0000E+00  0.0000E+00  0.0000E+00  0.0000E+00  0.0000E+00  0.0000E+00  0.0000E+00  0.0000E+00  0.0000E+00  0.0000E+00  0.0000E+00  0.0000E+00  0.0000E+00  0.0000E+00  0.0000E+00  0.0000E+00  0.0000E+00  0.0000E+00  0.0000E+00  0.0000E+00  0.0000E+00  0.0000E+00  0.0000E+00  0.0000E+00  0.0000E+00  0.0000E+00  0.0000E+00  0.0000E+00  0.0000E+00  0.0000E+00
  0.0000E+00  0.0000E+00  0.0000E+00  0.0000E+00  0.0000E+00  0.0000E+00  0.0000E+00  0.0000E+00  0.0000E+00  0.0000E+00  0.0000E+00  0.0000E+00  0.0000E+00  0.0000E+00  0.0000E+00  0.0000E+00  0.0000E+00  0.0000E+00  0.0000E+00  0.0000E+00  0.0000E+00  0.0000E+00  0.0000E+00  0.0000E+00  0.0000E+00  0.0000E+00  0.0000E+00  0.0000E+00  0.0000E+00  0.0000E+00  0.0000E+00  0.0000E+00  0.0000E+00  0.0000E+00  0.0000E+00  0.0000E+00  0.0000E+00  0.0000E+00  0.0000E+00  0.0000E+00  0.0000E+00  0.0000E+00  0.0000E+00  0.0000E+00  0.0000E+00  0.0000E+00  0.0000E+00  0.0000E+00  0.0000E+00  0.0000E+00  0.0000E+00  0.0000E+00  0.0000E+00  0.0000E+00  0.0000E+00  0.0000E+00  0.0000E+00  0.0000E+00  0.0000E+00  0.0000E+00  0.0000E+00  0.0000E+00  0.0000E+00  0.0000E+00  0.0000E+00  0.0000E+00  0.0000E+00  0.0000E+00  0.0000E+00  0.0000E+00  0.0000E+00  0.0000E+00  0.0000E+00  0.0000E+00  0.0000E+00  0.0000E+00  0.0000E+00  0.0000E+00  0.0000E+00
  0.0000E+00  0.0000E+00  0.0000E+00  0.0000E+00  0.0000E+00  0.0000E+00  0.0000E+00  0.0000E+00  0.0000E+00  0.0000E+00  0.0000E+00  0.0000E+00  0.0000E+00  0.0000E+00  0.0000E+00  0.0000E+00  0.0000E+00  0.0000E+00  0.0000E+00  0.0000E+00  0.0000E+00  0.0000E+00  0.0000E+00  0.0000E+00  0.0000E+00  0.0000E+00  0.0000E+00  0.0000E+00  0.0000E+00  0.0000E+00  0.0000E+00  0.0000E+00  0.0000E+00  0.0000E+00  0.0000E+00  0.0000E+00  0.0000E+00  0.0000E+00  0.0000E+00  0.0000E+00  0.0000E+00  0.0000E+00  0.0000E+00  0.0000E+00  0.0000E+00  0.0000E+00  0.0000E+00  0.0000E+00  0.0000E+00  0.0000E+00  0.0000E+00  0.0000E+00  0.0000E+00  0.0000E+00  0.0000E+00  0.0000E+00  0.0000E+00  0.0000E+00  0.0000E+00  0.0000E+00  0.0000E+00  0.0000E+00  0.0000E+00  0.0000E+00  0.0000E+00  0.0000E+00  0.0000E+00  0.0000E+00  0.0000E+00  0.0000E+00  0.0000E+00  0.0000E+00  0.0000E+00  0.0000E+00  0.0000E+00  0.0000E+00  0.0000E+00  0.0000E+00  0.0000E+00
  0.0000E+00  0.0000E+00  0.0000E+00  0.0000E+00  0.0000E+00  0.0000E+00  0.0000E+00  0.0000E+00  0.0000E+00  0.0000E+00  0.0000E+00  0.0000E+00  0.0000E+00  0.0000E+00  0.0000E+00  0.0000E+00  0.0000E+00  0.0000E+00  0.0000E+00  0.0000E+00  0.0000E+00  0.0000E+00  0.0000E+00  0.0000E+00  0.0000E+00  0.0000E+00  0.0000E+00  0.0000E+00  0.0000E+00  0.0000E+00  0.0000E+00  0.0000E+00  0.0000E+00  0.0000E+00  0.0000E+00  0.0000E+00  0.0000E+00  0.0000E+00  0.0000E+00  0.0000E+00  0.0000E+00  0.0000E+00  0.0000E+00  0.0000E+00  0.0000E+00  0.0000E+00  0.0000E+00  0.0000E+00  0.0000E+00  0.0000E+00  0.0000E+00  0.0000E+00  0.0000E+00  0.0000E+00  0.0000E+00  0.0000E+00  0.0000E+00  0.0000E+00  0.0000E+00  0.0000E+00  0.0000E+00  0.0000E+00  0.0000E+00  0.0000E+00  0.0000E+00  0.0000E+00  0.0000E+00  0.0000E+00  0.0000E+00  0.0000E+00  0.0000E+00  0.0000E+00  0.0000E+00  0.0000E+00  0.0000E+00  0.0000E+00  0.0000E+00  0.0000E+00  0.0000E+00
  0.0000E+00  0.0000E+00  0.0000E+00  0.0000E+00  0.0000E+00  0.0000E+00  0.0000E+00  0.0000E+00  0.0000E+00  0.0000E+00  0.0000E+00  0.0000E+00  0.0000E+00  0.0000E+00  0.0000E+00  0.0000E+00  0.0000E+00  0.0000E+00  0.0000E+00  0.0000E+00  0.0000E+00  0.0000E+00  0.0000E+00  0.0000E+00  0.0000E+00  0.0000E+00  0.0000E+00  0.0000E+00  0.0000E+00  0.0000E+00  0.0000E+00  0.0000E+00  0.0000E+00  0.0000E+00  0.0000E+00  0.0000E+00  0.0000E+00  0.0000E+00  0.0000E+00  0.0000E+00  0.0000E+00  0.0000E+00  0.0000E+00  0.0000E+00  0.0000E+00  0.0000E+00  0.0000E+00  0.0000E+00  0.0000E+00  0.0000E+00  0.0000E+00  0.0000E+00  0.0000E+00  0.0000E+00  0.0000E+00  0.0000E+00  0.0000E+00  0.0000E+00  0.0000E+00  0.0000E+00  0.0000E+00  0.0000E+00  0.0000E+00  0.0000E+00  0.0000E+00  0.0000E+00  0.0000E+00  0.0000E+00  0.0000E+00  0.0000E+00  0.0000E+00  0.0000E+00  0.0000E+00  0.0000E+00  0.0000E+00  0.0000E+00  0.0000E+00  0.0000E+00  0.0000E+00
  0.0000E+00  0.0000E+00  0.0000E+00  0.0000E+00  0.0000E+00  0.0000E+00  0.0000E+00  0.0000E+00  0.0000E+00  0.0000E+00  0.0000E+00  0.0000E+00  0.0000E+00  0.0000E+00  0.0000E+00  0.0000E+00  0.0000E+00  0.0000E+00  0.0000E+00  0.0000E+00  0.0000E+00  0.0000E+00  0.0000E+00  0.0000E+00  0.0000E+00  0.0000E+00  0.0000E+00  0.0000E+00  0.0000E+00  0.0000E+00  0.0000E+00  0.0000E+00  0.0000E+00  0.0000E+00  0.0000E+00  0.0000E+00  0.0000E+00  0.0000E+00  0.0000E+00  0.0000E+00  0.0000E+00  0.0000E+00  0.0000E+00  0.0000E+00  0.0000E+00  0.0000E+00  0.0000E+00  0.0000E+00  0.0000E+00  0.0000E+00  0.0000E+00  0.0000E+00  0.0000E+00  0.0000E+00  0.0000E+00  0.0000E+00  0.0000E+00  0.0000E+00  0.0000E+00  0.0000E+00  0.0000E+00  0.0000E+00  0.0000E+00  0.0000E+00  0.0000E+00  0.0000E+00  0.0000E+00  0.0000E+00  0.0000E+00  0.0000E+00  0.0000E+00  0.0000E+00  0.0000E+00  0.0000E+00  0.0000E+00  0.0000E+00  0.0000E+00  0.0000E+00  0.0000E+00
  0.0000E+00  0.0000E+00  0.0000E+00  0.0000E+00  0.0000E+00  0.0000E+00  0.0000E+00  0.0000E+00  0.0000E+00  0.0000E+00  0.0000E+00  0.0000E+00  0.0000E+00  0.0000E+00  0.0000E+00  0.0000E+00  0.0000E+00  0.0000E+00  0.0000E+00  0.0000E+00  0.0000E+00  0.0000E+00  0.0000E+00  0.0000E+00  0.0000E+00  0.0000E+00  0.0000E+00  0.0000E+00  0.0000E+00  0.0000E+00  0.0000E+00  0.0000E+00  0.0000E+00  0.0000E+00  0.0000E+00  0.0000E+00  0.0000E+00  0.0000E+00  0.0000E+00  0.0000E+00  0.0000E+00  0.0000E+00  0.0000E+00  0.0000E+00  0.0000E+00  0.0000E+00  0.0000E+00  0.0000E+00  0.0000E+00  0.0000E+00  0.0000E+00  0.0000E+00  0.0000E+00  0.0000E+00  0.0000E+00  0.0000E+00  0.0000E+00  0.0000E+00  0.0000E+00  0.0000E+00  0.0000E+00  0.0000E+00  0.0000E+00  0.0000E+00  0.0000E+00  0.0000E+00  0.0000E+00  0.0000E+00  0.0000E+00  0.0000E+00  0.0000E+00  0.0000E+00  0.0000E+00  0.0000E+00  0.0000E+00  0.0000E+00  0.0000E+00  0.0000E+00  0.0000E+00
  0.0000E+00  0.0000E+00  0.0000E+00  0.0000E+00  0.0000E+00  0.0000E+00  0.0000E+00  0.0000E+00  0.0000E+00  0.0000E+00  0.0000E+00  0.0000E+00  0.0000E+00  0.0000E+00  0.0000E+00  0.0000E+00  0.0000E+00  0.0000E+00  0.0000E+00  0.0000E+00  0.0000E+00  0.0000E+00  0.0000E+00  0.0000E+00  0.0000E+00  0.0000E+00  0.0000E+00  0.0000E+00  0.0000E+00  0.0000E+00  0.0000E+00  0.0000E+00  0.0000E+00  0.0000E+00  0.0000E+00  0.0000E+00  0.0000E+00  0.0000E+00  0.0000E+00  0.0000E+00  0.0000E+00  0.0000E+00  0.0000E+00  0.0000E+00  0.0000E+00  0.0000E+00  0.0000E+00  0.0000E+00  0.0000E+00  0.0000E+00  0.0000E+00  0.0000E+00  0.0000E+00  0.0000E+00  0.0000E+00  0.0000E+00  0.0000E+00  0.0000E+00  0.0000E+00  0.0000E+00  0.0000E+00  0.0000E+00  0.0000E+00  0.0000E+00  0.0000E+00  0.0000E+00  0.0000E+00  0.0000E+00  0.0000E+00  0.0000E+00  0.0000E+00  0.0000E+00  0.0000E+00  0.0000E+00  0.0000E+00  0.0000E+00  0.0000E+00  0.0000E+00  0.0000E+00
  0.0000E+00  0.0000E+00  0.0000E+00  0.0000E+00  0.0000E+00  0.0000E+00  0.0000E+00  0.0000E+00  0.0000E+00  0.0000E+00  0.0000E+00  0.0000E+00  0.0000E+00  0.0000E+00  0.0000E+00  0.0000E+00  0.0000E+00  0.0000E+00  0.0000E+00  0.0000E+00  0.0000E+00  0.0000E+00  0.0000E+00  0.0000E+00  0.0000E+00  0.0000E+00  0.0000E+00  0.0000E+00  0.0000E+00  0.0000E+00  0.0000E+00  0.0000E+00  0.0000E+00  0.0000E+00  0.0000E+00  0.0000E+00  0.0000E+00  0.0000E+00  0.0000E+00  0.0000E+00  0.0000E+00  0.0000E+00  0.0000E+00  0.0000E+00  0.0000E+00  0.0000E+00  0.0000E+00  0.0000E+00  0.0000E+00  0.0000E+00  0.0000E+00  0.0000E+00  0.0000E+00  0.0000E+00  0.0000E+00  0.0000E+00  0.0000E+00  0.0000E+00  0.0000E+00  0.0000E+00  0.0000E+00  0.0000E+00  0.0000E+00  0.0000E+00  0.0000E+00  0.0000E+00  0.0000E+00  0.0000E+00  0.0000E+00  0.0000E+00  0.0000E+00  0.0000E+00  0.0000E+00  0.0000E+00  0.0000E+00  0.0000E+00  0.0000E+00  0.0000E+00  0.0000E+00
  0.0000E+00  0.0000E+00  0.0000E+00  0.0000E+00  0.0000E+00  0.0000E+00  0.0000E+00  0.0000E+00  0.0000E+00  0.0000E+00  0.0000E+00  0.0000E+00  0.0000E+00  0.0000E+00  0.0000E+00  0.0000E+00  0.0000E+00  0.0000E+00  0.0000E+00  0.0000E+00  0.0000E+00  0.0000E+00  0.0000E+00  0.0000E+00  0.0000E+00  0.0000E+00  0.0000E+00  0.0000E+00  0.0000E+00  0.0000E+00  0.0000E+00  0.0000E+00  0.0000E+00  0.0000E+00  0.0000E+00  0.0000E+00  0.0000E+00  0.0000E+00  0.0000E+00  0.0000E+00  0.0000E+00  0.0000E+00  0.0000E+00  0.0000E+00  0.0000E+00  0.0000E+00  0.0000E+00  0.0000E+00  0.0000E+00  0.0000E+00  0.0000E+00  0.0000E+00  0.0000E+00  0.0000E+00  0.0000E+00  0.0000E+00  0.0000E+00  0.0000E+00  0.0000E+00  0.0000E+00  0.0000E+00  0.0000E+00  0.0000E+00  0.0000E+00  0.0000E+00  0.0000E+00  0.0000E+00  0.0000E+00  0.0000E+00  0.0000E+00  0.0000E+00  0.0000E+00  0.0000E+00  0.0000E+00  0.0000E+00  0.0000E+00  0.0000E+00  0.0000E+00  0.0000E+00
  0.0000E+00  0.0000E+00  0.0000E+00  0.0000E+00  0.0000E+00  0.0000E+00  0.0000E+00  0.0000E+00  0.0000E+00  0.0000E+00  0.0000E+00  0.0000E+00  0.0000E+00  0.0000E+00  0.0000E+00  0.0000E+00  0.0000E+00  0.0000E+00  0.0000E+00  0.0000E+00  0.0000E+00  0.0000E+00  0.0000E+00  0.0000E+00  0.0000E+00  0.0000E+00  0.0000E+00  0.0000E+00  0.0000E+00  0.0000E+00  0.0000E+00  0.0000E+00  0.0000E+00  0.0000E+00  0.0000E+00  0.0000E+00  0.0000E+00  0.0000E+00  0.0000E+00  0.0000E+00  0.0000E+00  0.0000E+00  0.0000E+00  0.0000E+00  0.0000E+00  0.0000E+00  0.0000E+00  0.0000E+00  0.0000E+00  0.0000E+00  0.0000E+00  0.0000E+00  0.0000E+00  0.0000E+00  0.0000E+00  0.0000E+00  0.0000E+00  0.0000E+00  0.0000E+00  0.0000E+00  0.0000E+00  0.0000E+00  0.0000E+00  0.0000E+00  0.0000E+00  0.0000E+00  0.0000E+00  0.0000E+00  0.0000E+00  0.0000E+00  0.0000E+00  0.0000E+00  0.0000E+00  0.0000E+00  0.0000E+00  0.0000E+00  0.0000E+00  0.0000E+00  0.0000E+00
  0.0000E+00  0.0000E+00  0.0000E+00  0.0000E+00  0.0000E+00  0.0000E+00  0.0000E+00  0.0000E+00  0.0000E+00  0.0000E+00  0.0000E+00  0.0000E+00  0.0000E+00  0.0000E+00  0.0000E+00  0.0000E+00  0.0000E+00  0.0000E+00  0.0000E+00  0.0000E+00  0.0000E+00  0.0000E+00  0.0000E+00  0.0000E+00  0.0000E+00  0.0000E+00  0.0000E+00  0.0000E+00  0.0000E+00  0.0000E+00  0.0000E+00  0.0000E+00  0.0000E+00  0.0000E+00  0.0000E+00  0.0000E+00  0.0000E+00  0.0000E+00  0.0000E+00  0.0000E+00  0.0000E+00  0.0000E+00  0.0000E+00  0.0000E+00  0.0000E+00  0.0000E+00  0.0000E+00  0.0000E+00  0.0000E+00  0.0000E+00  0.0000E+00  0.0000E+00  0.0000E+00  0.0000E+00  0.0000E+00  0.0000E+00  0.0000E+00  0.0000E+00  0.0000E+00  0.0000E+00  0.0000E+00  0.0000E+00  0.0000E+00  0.0000E+00  0.0000E+00  0.0000E+00  0.0000E+00  0.0000E+00  0.0000E+00  0.0000E+00  0.0000E+00  0.0000E+00  0.0000E+00  0.0000E+00  0.0000E+00  0.0000E+00  0.0000E+00  0.0000E+00  0.0000E+00
  0.0000E+00  0.0000E+00  0.0000E+00  0.0000E+00  0.0000E+00  0.0000E+00  0.0000E+00  0.0000E+00  0.0000E+00  0.0000E+00  0.0000E+00  0.0000E+00  0.0000E+00  0.0000E+00  0.0000E+00  0.0000E+00  0.0000E+00  0.0000E+00  0.0000E+00  0.0000E+00  0.0000E+00  0.0000E+00  0.0000E+00  0.0000E+00  0.0000E+00  0.0000E+00  0.0000E+00  0.0000E+00  0.0000E+00  0.0000E+00  0.0000E+00  0.0000E+00  0.0000E+00  0.0000E+00  0.0000E+00  0.0000E+00  0.0000E+00  0.0000E+00  0.0000E+00  0.0000E+00  0.0000E+00  0.0000E+00  0.0000E+00  0.0000E+00  0.0000E+00  0.0000E+00  0.0000E+00  0.0000E+00  0.0000E+00  0.0000E+00  0.0000E+00  0.0000E+00  0.0000E+00  0.0000E+00  0.0000E+00  0.0000E+00  0.0000E+00  0.0000E+00  0.0000E+00  0.0000E+00  0.0000E+00  0.0000E+00  0.0000E+00  0.0000E+00  0.0000E+00  0.0000E+00  0.0000E+00  0.0000E+00  0.0000E+00  0.0000E+00  0.0000E+00  0.0000E+00  0.0000E+00  0.0000E+00  0.0000E+00  0.0000E+00  0.0000E+00  0.0000E+00  0.0000E+00
  0.0000E+00  0.0000E+00  0.0000E+00  0.0000E+00  0.0000E+00  0.0000E+00  0.0000E+00  0.0000E+00  0.0000E+00  0.0000E+00  0.0000E+00  0.0000E+00  0.0000E+00  0.0000E+00  0.0000E+00  0.0000E+00  0.0000E+00  0.0000E+00  0.0000E+00  0.0000E+00  0.0000E+00  0.0000E+00  0.0000E+00  0.0000E+00  0.0000E+00  0.0000E+00  0.0000E+00  0.0000E+00  0.0000E+00  0.0000E+00  0.0000E+00  0.0000E+00  0.0000E+00  0.0000E+00  0.0000E+00  0.0000E+00  0.0000E+00  0.0000E+00  0.0000E+00  0.0000E+00  0.0000E+00  0.0000E+00  0.0000E+00  0.0000E+00  0.0000E+00  0.0000E+00  0.0000E+00  0.0000E+00  0.0000E+00  0.0000E+00  0.0000E+00  0.0000E+00  0.0000E+00  0.0000E+00  0.0000E+00  0.0000E+00  0.0000E+00  0.0000E+00  0.0000E+00  0.0000E+00  0.0000E+00  0.0000E+00  0.0000E+00  0.0000E+00  0.0000E+00  0.0000E+00  0.0000E+00  0.0000E+00  0.0000E+00  0.0000E+00  0.0000E+00  0.0000E+00  0.0000E+00  0.0000E+00  0.0000E+00  0.0000E+00  0.0000E+00  0.0000E+00  0.0000E+00
  0.0000E+00  0.0000E+00  0.0000E+00  0.0000E+00  0.0000E+00  0.0000E+00  0.0000E+00  0.0000E+00  0.0000E+00  0.0000E+00  0.0000E+00  0.0000E+00  0.0000E+00  0.0000E+00  0.0000E+00  0.0000E+00  0.0000E+00  0.0000E+00  0.0000E+00  0.0000E+00  0.0000E+00  0.0000E+00  0.0000E+00  0.0000E+00  0.0000E+00  0.0000E+00  0.0000E+00  0.0000E+00  0.0000E+00  0.0000E+00  0.0000E+00  0.0000E+00  0.0000E+00  0.0000E+00  0.0000E+00  0.0000E+00  0.0000E+00  0.0000E+00  0.0000E+00  0.0000E+00  0.0000E+00  0.0000E+00  0.0000E+00  0.0000E+00  0.0000E+00  0.0000E+00  0.0000E+00  0.0000E+00  0.0000E+00  0.0000E+00  0.0000E+00  0.0000E+00  0.0000E+00  0.0000E+00  0.0000E+00  0.0000E+00  0.0000E+00  0.0000E+00  0.0000E+00  0.0000E+00  0.0000E+00  0.0000E+00  0.0000E+00  0.0000E+00  0.0000E+00  0.0000E+00  0.0000E+00  0.0000E+00  0.0000E+00  0.0000E+00  0.0000E+00  0.0000E+00  0.0000E+00  0.0000E+00  0.0000E+00  0.0000E+00  0.0000E+00  0.0000E+00  0.0000E+00
  0.0000E+00  0.0000E+00  0.0000E+00  0.0000E+00  0.0000E+00  0.0000E+00  0.0000E+00  0.0000E+00  0.0000E+00  0.0000E+00  0.0000E+00  0.0000E+00  0.0000E+00  0.0000E+00  0.0000E+00  0.0000E+00  0.0000E+00  0.0000E+00  0.0000E+00  0.0000E+00  0.0000E+00  0.0000E+00  0.0000E+00  0.0000E+00  0.0000E+00  0.0000E+00  0.0000E+00  0.0000E+00  0.0000E+00  0.0000E+00  0.0000E+00  0.0000E+00  0.0000E+00  0.0000E+00  0.0000E+00  0.0000E+00  0.0000E+00  0.0000E+00  0.0000E+00  0.0000E+00  0.0000E+00  0.0000E+00  0.0000E+00  0.0000E+00  0.0000E+00  0.0000E+00  0.0000E+00  0.0000E+00  0.0000E+00  0.0000E+00  0.0000E+00  0.0000E+00  0.0000E+00  0.0000E+00  0.0000E+00  0.0000E+00  0.0000E+00  0.0000E+00  0.0000E+00  0.0000E+00  0.0000E+00  0.0000E+00  0.0000E+00  0.0000E+00  0.0000E+00  0.0000E+00  0.0000E+00  0.0000E+00  0.0000E+00  0.0000E+00  0.0000E+00  0.0000E+00  0.0000E+00  0.0000E+00  0.0000E+00  0.0000E+00  0.0000E+00  0.0000E+00  0.0000E+00
  0.0000E+00  0.0000E+00  0.0000E+00  0.0000E+00  0.0000E+00  0.0000E+00  0.0000E+00  0.0000E+00  0.0000E+00  0.0000E+00  0.0000E+00  0.0000E+00  0.0000E+00  0.0000E+00  0.0000E+00  0.0000E+00  0.0000E+00  0.0000E+00  0.0000E+00  0.0000E+00  0.0000E+00  0.0000E+00  0.0000E+00  0.0000E+00  0.0000E+00  0.0000E+00  0.0000E+00  0.0000E+00  0.0000E+00  0.0000E+00  0.0000E+00  0.0000E+00  0.0000E+00  0.0000E+00  0.0000E+00  0.0000E+00  0.0000E+00  0.0000E+00  0.0000E+00  0.0000E+00  0.0000E+00  0.0000E+00  0.0000E+00  0.0000E+00  0.0000E+00  0.0000E+00  0.0000E+00  0.0000E+00  0.0000E+00  0.0000E+00  0.0000E+00  0.0000E+00  0.0000E+00  0.0000E+00  0.0000E+00  0.0000E+00  0.0000E+00  0.0000E+00  0.0000E+00  0.0000E+00  0.0000E+00  0.0000E+00  0.0000E+00  0.0000E+00  0.0000E+00  0.0000E+00  0.0000E+00  0.0000E+00  0.0000E+00  0.0000E+00  0.0000E+00  0.0000E+00  0.0000E+00  0.0000E+00  0.0000E+00  0.0000E+00  0.0000E+00  0.0000E+00  0.0000E+00
  0.0000E+00  0.0000E+00  0.0000E+00  0.0000E+00  0.0000E+00  0.0000E+00  0.0000E+00  0.0000E+00  0.0000E+00  0.0000E+00  0.0000E+00  0.0000E+00  0.0000E+00  0.0000E+00  0.0000E+00  0.0000E+00  0.0000E+00  0.0000E+00  0.0000E+00  0.0000E+00  0.0000E+00  0.0000E+00  0.0000E+00  0.0000E+00  0.0000E+00  0.0000E+00  0.0000E+00  0.0000E+00  0.0000E+00  0.0000E+00  0.0000E+00  0.0000E+00  0.0000E+00  0.0000E+00  0.0000E+00  0.0000E+00  0.0000E+00  0.0000E+00  0.0000E+00  0.0000E+00  0.0000E+00  0.0000E+00  0.0000E+00  0.0000E+00  0.0000E+00  0.0000E+00  0.0000E+00  0.0000E+00  0.0000E+00  0.0000E+00  0.0000E+00  0.0000E+00  0.0000E+00  0.0000E+00  0.0000E+00  0.0000E+00  0.0000E+00  0.0000E+00  0.0000E+00  0.0000E+00  0.0000E+00  0.0000E+00  0.0000E+00  0.0000E+00  0.0000E+00  0.0000E+00  0.0000E+00  0.0000E+00  0.0000E+00  0.0000E+00  0.0000E+00  0.0000E+00  0.0000E+00  0.0000E+00  0.0000E+00  0.0000E+00  0.0000E+00  0.0000E+00  0.0000E+00
  0.0000E+00  0.0000E+00  0.0000E+00  0.0000E+00  0.0000E+00  0.0000E+00  0.0000E+00  0.0000E+00  0.0000E+00  0.0000E+00  0.0000E+00  0.0000E+00  0.0000E+00  0.0000E+00  0.0000E+00  0.0000E+00  0.0000E+00  0.0000E+00  0.0000E+00  0.0000E+00  0.0000E+00  0.0000E+00  0.0000E+00  0.0000E+00  0.0000E+00  0.0000E+00  0.0000E+00  0.0000E+00  0.0000E+00  0.0000E+00  0.0000E+00  0.0000E+00  0.0000E+00  0.0000E+00  0.0000E+00  0.0000E+00  0.0000E+00  0.0000E+00  0.0000E+00  0.0000E+00  0.0000E+00  0.0000E+00  0.0000E+00  0.0000E+00  0.0000E+00  0.0000E+00  0.0000E+00  0.0000E+00  0.0000E+00  0.0000E+00  0.0000E+00  0.0000E+00  0.0000E+00  0.0000E+00  0.0000E+00  0.0000E+00  0.0000E+00  0.0000E+00  0.0000E+00  0.0000E+00  0.0000E+00  0.0000E+00  0.0000E+00  0.0000E+00  0.0000E+00  0.0000E+00  0.0000E+00  0.0000E+00  0.0000E+00  0.0000E+00  0.0000E+00  0.0000E+00  0.0000E+00  0.0000E+00  0.0000E+00  0.0000E+00  0.0000E+00  0.0000E+00  0.0000E+00
  0.0000E+00  0.0000E+00  0.0000E+00  0.0000E+00  0.0000E+00  0.0000E+00  0.0000E+00  0.0000E+00  0.0000E+00  0.0000E+00  0.0000E+00  0.0000E+00  0.0000E+00  0.0000E+00  0.0000E+00  0.0000E+00  0.0000E+00  0.0000E+00  0.0000E+00  0.0000E+00  0.0000E+00  0.0000E+00  0.0000E+00  0.0000E+00  0.0000E+00  0.0000E+00  0.0000E+00  0.0000E+00  0.0000E+00  0.0000E+00  0.0000E+00  0.0000E+00  0.0000E+00  0.9890E-10  0.9308E-10  0.8684E-10  0.8025E-10  0.7339E-10  0.6638E-10  0.5930E-10  0.5227E-10  0.4542E-10  0.3884E-10  0.0000E+00  0.0000E+00  0.0000E+00  0.0000E+00  0.0000E+00  0.0000E+00  0.0000E+00  0.0000E+00  0.0000E+00  0.0000E+00  0.0000E+00  0.0000E+00  0.0000E+00  0.0000E+00  0.0000E+00  0.0000E+00  0.0000E+00  0.0000E+00  0.0000E+00  0.0000E+00  0.0000E+00  0.0000E+00  0.0000E+00  0.0000E+00  0.0000E+00  0.0000E+00  0.0000E+00  0.0000E+00  0.0000E+00  0.0000E+00  0.0000E+00  0.0000E+00  0.0000E+00  0.0000E+00  0.0000E+00  0.0000E+00
  0.0000E+00  0.0000E+00  0.0000E+00  0.0000E+00  0.0000E+00  0.0000E+00  0.0000E+00  0.0000E+00  0.0000E+00  0.0000E+00  0.0000E+00  0.0000E+00  0.0000E+00  0.0000E+00  0.0000E+00  0.0000E+00  0.0000E+00  0.0000E+00  0.0000E+00  0.0000E+00  0.0000E+00  0.0000E+00  0.0000E+00  0.0000E+00  0.0000E+00  0.0000E+00  0.0000E+00  0.0000E+00  0.0000E+00  0.1262E-09  0.1320E-09  0.1285E-09  0.2417E-09  0.3447E-09  0.3264E-09  0.3063E-09  0.4354E-09  0.4005E-09  0.4398E-09  0.4371E-09  0.3137E-09  0.2749E-09  0.1919E-09  0.1247E-09  0.0000E+00  0.0000E+00  0.0000E+00  0.0000E+00  0.0000E+00  0.0000E+00  0.0000E+00  0.0000E+00  0.0000E+00  0.0000E+00  0.0000E+00  0.0000E+00  0.0000E+00  0.0000E+00  0.0000E+00  0.0000E+00  0.0000E+00  0.0000E+00  0.0000E+00  0.0000E+00  0.0000E+00  0.0000E+00  0.0000E+00  0.0000E+00  0.0000E+00  0.0000E+00  0.0000E+00  0.0000E+00  0.0000E+00  0.0000E+00  0.0000E+00  0.0000E+00  0.0000E+00  0.0000E+00  0.0000E+00
  0.0000E+00  0.0000E+00  0.0000E+00  0.0000E+00  0.0000E+00  0.0000E+00  0.0000E+00  0.0000E+00  0.0000E+00  0.0000E+00  0.0000E+00  0.0000E+00  0.0000E+00  0.0000E+00  0.0000E+00  0.0000E+00  0.0000E+00  0.0000E+00  0.0000E+00  0.0000E+00  0.0000E+00  0.0000E+00  0.0000E+00  0.0000E+00  0.0000E+00  0.0000E+00  0.1259E-09  0.1337E-09  0.2657E-09  0.4160E-09  0.4367E-09  0.5708E-09  0.7912E-09  0.8912E-09  0.9326E-09  0.9924E-09  0.9995E-09  0.1088E-08  0.9938E-09  0.9476E-09  0.8415E-09  0.6592E-09  0.4641E-09  0.3954E-09  0.2563E-09  0.0000E+00  0.0000E+00  0.0000E+00  0.0000E+00  0.0000E+00  0.0000E+00  0.0000E+00  0.0000E+00  0.0000E+00  0.0000E+00  0.0000E+00  0.0000E+00  0.0000E+00  0.0000E+00  0.0000E+00  0.0000E+00  0.0000E+00  0.0000E+00  0.0000E+00  0.0000E+00  0.0000E+00  0.0000E+00  0.0000E+00  0.0000E+00  0.0000E+00  0.0000E+00  0.0000E+00  0.0000E+00  0.0000E+00  0.0000E+00  0.0000E+00  0.0000E+00  0.0000E+00  0.0000E+00
  0.0000E+00  0.0000E+00  0.0000E+00  0.0000E+00  0.0000E+00  0.0000E+00  0.0000E+00  0.0000E+00  0.0000E+00  0.0000E+00  0.0000E+00  0.0000E+00  0.0000E+00  0.0000E+00  0.0000E+00  0.0000E+00  0.0000E+00  0.0000E+00  0.0000E+00  0.0000E+00  0.0000E+00  0.0000E+00  0.0000E+00  0.0000E+00  0.1289E-09  0.1383E-09  0.4103E-09  0.4375E-09  0.7253E-09  0.9140E-09  0.1082E-08  0.1362E-08  0.1773E-08  0.1831E-08  0.1853E-08  0.1889E-08  0.2073E-08  0.1927E-08  0.1945E-08  0.1761E-08  0.1624E-08  0.1381E-08  0.9221E-09  0.6694E-09  0.4737E-09  0.2723E-09  0.7800E-10  0.0000E+00  0.0000E+00  0.0000E+00  0.0000E+00  0.0000E+00  0.0000E+00  0.0000E+00  0.0000E+00  0.0000E+00  0.0000E+00  0.0000E+00  0.0000E+00  0.0000E+00  0.0000E+00  0.0000E+00  0.0000E+00  0.0000E+00  0.0000E+00  0.0000E+00  0.0000E+00  0.0000E+00  0.0000E+00  0.0000E+00  0.0000E+00  0.0000E+00  0.0000E+00  0.0000E+00  0.0000E+00  0.0000E+00  0.0000E+00  0.0000E+00  0.0000E+00
  0.0000E+00  0.0000E+00  0.0000E+00  0.0000E+00  0.0000E+00  0.0000E+00  0.0000E+00  0.0000E+00  0.0000E+00  0.0000E+00  0.0000E+00  0.0000E+00  0.0000E+00  0.0000E+00  0.0000E+00  0.0000E+00  0.0000E+00  0.0000E+00  0.0000E+00  0.0000E+00  0.0000E+00  0.0000E+00  0.1288E-09  0.1395E-09  0.4164E-09  0.4485E-09  0.8902E-09  0.1093E-08  0.1296E-08  0.1814E-08  0.2036E-08  0.2506E-08  0.2985E-08  0.3074E-08  0.3085E-08  0.3211E-08  0.3287E-08  0.3212E-08  0.3056E-08  0.2787E-08  0.2569E-08  0.2329E-08  0.1821E-08  0.1416E-08  0.7816E-09  0.5055E-09  0.2865E-09  0.1201E-09  0.0000E+00  0.0000E+00  0.0000E+00  0.0000E+00  0.0000E+00  0.0000E+00  0.0000E+00  0.0000E+00  0.0000E+00  0.0000E+00  0.0000E+00  0.0000E+00  0.0000E+00  0.0000E+00  0.0000E+00  0.0000E+00  0.0000E+00  0.0000E+00  0.0000E+00  0.0000E+00  0.0000E+00  0.0000E+00  0.0000E+00  0.0000E+00  0.0000E+00  0.0000E+00  0.0000E+00  0.0000E+00  0.0000E+00  0.0000E+00  0.0000E+00
  0.0000E+00  0.0000E+00  0.0000E+00  0.0000E+00  0.0000E+00  0.0000E+00  0.0000E+00  0.0000E+00  0.0000E+00  0.0000E+00  0.0000E+00  0.0000E+00  0.0000E+00  0.0000E+00  0.0000E+00  0.0000E+00  0.0000E+00  0.0000E+00  0.0000E+00  0.0000E+00  0.1256E-09  0.1374E-09  0.4121E-09  0.4484E-09  0.8951E-09  0.1107E-08  0.1474E-08  0.1892E-08  0.2324E-08  0.2928E-08  0.3395E-08  0.3810E-08  0.4196E-08  0.4674E-08  0.4714E-08  0.4847E-08  0.4916E-08  0.4796E-08  0.4573E-08  0.4294E-08  0.3971E-08  0.3637E-08  0.3116E-08  0.2507E-08  0.1686E-08  0.1108E-08  0.6363E-09  0.2983E-09  0.8363E-10  0.0000E+00  0.0000E+00  0.0000E+00  0.0000E+00  0.0000E+00  0.0000E+00  0.0000E+00  0.0000E+00  0.0000E+00  0.0000E+00  0.0000E+00  0.0000E+00  0.0000E+00  0.0000E+00  0.0000E+00  0.0000E+00  0.0000E+00  0.0000E+00  0.0000E+00  0.0000E+00  0.0000E+00  0.0000E+00  0.0000E+00  0.0000E+00  0.0000E+00  0.0000E+00  0.0000E+00  0.0000E+00  0.0000E+00  0.0000E+00
  0.0000E+00  0.0000E+00  0.0000E+00  0.0000E+00  0.0000E+00  0.0000E+00  0.0000E+00  0.0000E+00  0.0000E+00  0.0000E+00  0.0000E+00  0.0000E+00  0.0000E+00  0.0000E+00  0.0000E+00  0.0000E+00  0.0000E+00  0.0000E+00  0.1195E-09  0.1320E-09  0.2692E-09  0.4370E-09  0.7390E-09  0.9587E-09  0.1325E-08  0.1897E-08  0.2209E-08  0.3181E-08  0.3585E-08  0.4317E-08  0.5093E-08  0.5449E-08  0.6110E-08  0.6540E-08  0.6646E-08  0.6829E-08  0.7076E-08  0.6916E-08  0.6622E-08  0.6249E-08  0.5952E-08  0.5336E-08  0.4771E-08  0.3982E-08  0.2995E-08  0.2076E-08  0.1233E-08  0.6657E-09  0.3066E-09  0.8491E-10  0.0000E+00  0.0000E+00  0.0000E+00  0.0000E+00  0.0000E+00  0.0000E+00  0.0000E+00  0.0000E+00  0.0000E+00  0.0000E+00  0.0000E+00  0.0000E+00  0.0000E+00  0.0000E+00  0.0000E+00  0.0000E+00  0.0000E+00  0.0000E+00  0.0000E+00  0.0000E+00  0.0000E+00  0.0000E+00  0.0000E+00  0.0000E+00  0.0000E+00  0.0000E+00  0.0000E+00  0.0000E+00  0.0000E+00
  0.0000E+00  0.0000E+00  0.0000E+00  0.0000E+00  0.0000E+00  0.0000E+00  0.0000E+00  0.0000E+00  0.0000E+00  0.0000E+00  0.0000E+00  0.0000E+00  0.0000E+00  0.0000E+00  0.0000E+00  0.0000E+00  0.0000E+00  0.1238E-09  0.1374E-09  0.4152E-09  0.4588E-09  0.9241E-09  0.1155E-08  0.1715E-08  0.2176E-08  0.3002E-08  0.3589E-08  0.4383E-08  0.5279E-08  0.6002E-08  0.6959E-08  0.7676E-08  0.8514E-08  0.9084E-08  0.9293E-08  0.9578E-08  0.9988E-08  0.9737E-08  0.9376E-08  0.9099E-08  0.8505E-08  0.7961E-08  0.7056E-08  0.6121E-08  0.4815E-08  0.3669E-08  0.2243E-08  0.1358E-08  0.6874E-09  0.3106E-09  0.8492E-10  0.0000E+00  0.0000E+00  0.0000E+00  0.0000E+00  0.0000E+00  0.0000E+00  0.0000E+00  0.0000E+00  0.0000E+00  0.0000E+00  0.0000E+00  0.0000E+00  0.0000E+00  0.0000E+00  0.0000E+00  0.0000E+00  0.0000E+00  0.0000E+00  0.0000E+00  0.0000E+00  0.0000E+00  0.0000E+00  0.0000E+00  0.0000E+00  0.0000E+00  0.0000E+00  0.0000E+00  0.0000E+00
  0.0000E+00  0.0000E+00  0.0000E+00  0.0000E+00  0.0000E+00  0.0000E+00  0.0000E+00  0.0000E+00  0.0000E+00  0.0000E+00  0.0000E+00  0.0000E+00  0.0000E+00  0.0000E+00  0.0000E+00  0.0000E+00  0.1269E-09  0.1415E-09  0.4293E-09  0.6028E-09  0.9640E-09  0.1487E-08  0.1946E-08  0.2444E-08  0.3338E-08  0.3980E-08  0.5054E-08  0.5677E-08  0.7111E-08  0.7859E-08  0.9196E-08  0.1017E-07  0.1100E-07  0.1226E-07  0.1264E-07  0.1308E-07  0.1366E-07  0.1346E-07  0.1305E-07  0.1272E-07  0.1220E-07  0.1128E-07  0.1009E-07  0.8934E-08  0.7364E-08  0.5722E-08  0.4080E-08  0.2679E-08  0.1476E-08  0.6985E-09  0.3094E-09  0.4311E-10  0.0000E+00  0.0000E+00  0.0000E+00  0.0000E+00  0.0000E+00  0.0000E+00  0.0000E+00  0.0000E+00  0.0000E+00  0.0000E+00  0.0000E+00  0.0000E+00  0.0000E+00  0.0000E+00  0.0000E+00  0.0000E+00  0.0000E+00  0.0000E+00  0.0000E+00  0.0000E+00  0.0000E+00  0.0000E+00  0.0000E+00  0.0000E+00  0.0000E+00  0.0000E+00  0.0000E+00
  0.0000E+00  0.0000E+00  0.0000E+00  0.0000E+00  0.0000E+00  0.0000E+00  0.0000E+00  0.0000E+00  0.0000E+00  0.0000E+00  0.0000E+00  0.0000E+00  0.0000E+00  0.0000E+00  0.0000E+00  0.1288E-09  0.2661E-09  0.4393E-09  0.7529E-09  0.9950E-09  0.1690E-08  0.2023E-08  0.3022E-08  0.3497E-08  0.4707E-08  0.5522E-08  0.6588E-08  0.7799E-08  0.9075E-08  0.1049E-07  0.1168E-07  0.1315E-07  0.1429E-07  0.1587E-07  0.1655E-07  0.1751E-07  0.1835E-07  0.1830E-07  0.1792E-07  0.1758E-07  0.1698E-07  0.1584E-07  0.1469E-07  0.1311E-07  0.1103E-07  0.8951E-08  0.6499E-08  0.4569E-08  0.2898E-08  0.1518E-08  0.6419E-09  0.2576E-09  0.0000E+00  0.0000E+00  0.0000E+00  0.0000E+00  0.0000E+00  0.0000E+00  0.0000E+00  0.0000E+00  0.0000E+00  0.0000E+00  0.0000E+00  0.0000E+00  0.0000E+00  0.0000E+00  0.0000E+00  0.0000E+00  0.0000E+00  0.0000E+00  0.0000E+00  0.0000E+00  0.0000E+00  0.0000E+00  0.0000E+00  0.0000E+00  0.0000E+00  0.0000E+00  0.0000E+00
  0.0000E+00  0.0000E+00  0.0000E+00  0.0000E+00  0.0000E+00  0.0000E+00  0.0000E+00  0.0000E+00  0.0000E+00  0.0000E+00  0.0000E+00  0.0000E+00  0.0000E+00  0.0000E+00  0.1295E-09  0.2685E-09  0.4451E-09  0.9050E-09  0.1016E-08  0.1731E-08  0.2080E-08  0.3117E-08  0.3788E-08  0.4899E-08  0.5773E-08  0.7136E-08  0.8238E-08  0.1008E-07  0.1123E-07  0.1337E-07  0.1467E-07  0.1698E-07  0.1826E-07  0.2023E-07  0.2162E-07  0.2242E-07  0.2394E-07  0.2453E-07  0.2435E-07  0.2448E-07  0.2346E-07  0.2361E-07  0.2172E-07  0.1951E-07  0.1689E-07  0.1344E-07  0.1048E-07  0.7420E-08  0.4875E-08  0.3015E-08  0.1535E-08  0.6280E-09  0.2010E-09  0.0000E+00  0.0000E+00  0.0000E+00  0.0000E+00  0.0000E+00  0.0000E+00  0.0000E+00  0.0000E+00  0.0000E+00  0.0000E+00  0.0000E+00  0.0000E+00  0.0000E+00  0.0000E+00  0.0000E+00  0.0000E+00  0.0000E+00  0.0000E+00  0.0000E+00  0.0000E+00  0.0000E+00  0.0000E+00  0.0000E+00  0.0000E+00  0.0000E+00  0.0000E+00
  0.0000E+00  0.0000E+00  0.0000E+00  0.0000E+00  0.0000E+00  0.0000E+00  0.0000E+00  0.0000E+00  0.0000E+00  0.0000E+00  0.0000E+00  0.0000E+00  0.0000E+00  0.1290E-09  0.2682E-09  0.4463E-09  0.9098E-09  0.1027E-08  0.1753E-08  0.2116E-08  0.3180E-08  0.4038E-08  0.5040E-08  0.6142E-08  0.7596E-08  0.8794E-08  0.1057E-07  0.1227E-07  0.1420E-07  0.1622E-07  0.1844E-07  0.2065E-07  0.2326E-07  0.2488E-07  0.2741E-07  0.2910E-07  0.3090E-07  0.3377E-07  0.3457E-07  0.3680E-07  0.3579E-07  0.3543E-07  0.3411E-07  0.3081E-07  0.2732E-07  0.2292E-07  0.1584E-07  0.1159E-07  0.8111E-08  0.5213E-08  0.2999E-08  0.1459E-08  0.4938E-09  0.9863E-10  0.0000E+00  0.0000E+00  0.0000E+00  0.0000E+00  0.0000E+00  0.0000E+00  0.0000E+00  0.0000E+00  0.0000E+00  0.0000E+00  0.0000E+00  0.0000E+00  0.0000E+00  0.0000E+00  0.0000E+00  0.0000E+00  0.0000E+00  0.0000E+00  0.0000E+00  0.0000E+00  0.0000E+00  0.0000E+00  0.0000E+00  0.0000E+00  0.0000E+00
  0.0000E+00  0.0000E+00  0.0000E+00  0.0000E+00  0.0000E+00  0.0000E+00  0.0000E+00  0.0000E+00  0.0000E+00  0.0000E+00  0.0000E+00  0.0000E+00  0.1272E-09  0.2653E-09  0.4431E-09  0.9052E-09  0.1027E-08  0.1757E-08  0.2131E-08  0.3209E-08  0.4091E-08  0.5129E-08  0.6276E-08  0.7795E-08  0.9280E-08  0.1096E-07  0.1302E-07  0.1512E-07  0.1766E-07  0.1991E-07  0.2286E-07  0.2536E-07  0.2850E-07  0.3115E-07  0.3435E-07  0.3863E-07  0.4149E-07  0.4788E-07  0.4953E-07  0.5712E-07  0.5636E-07  0.5611E-07  0.5374E-07  0.5066E-07  0.4451E-07  0.3697E-07  0.2904E-07  0.1865E-07  0.1294E-07  0.8724E-08  0.5280E-08  0.2918E-08  0.1281E-08  0.4091E-09  0.1357E-09  0.0000E+00  0.0000E+00  0.0000E+00  0.0000E+00  0.0000E+00  0.0000E+00  0.0000E+00  0.0000E+00  0.0000E+00  0.0000E+00  0.0000E+00  0.0000E+00  0.0000E+00  0.0000E+00  0.0000E+00  0.0000E+00  0.0000E+00  0.0000E+00  0.0000E+00  0.0000E+00  0.0000E+00  0.0000E+00  0.0000E+00  0.0000E+00
  0.0000E+00  0.0000E+00  0.0000E+00  0.0000E+00  0.0000E+00  0.0000E+00  0.0000E+00  0.0000E+00  0.0000E+00  0.0000E+00  0.0000E+00  0.1242E-09  0.1419E-09  0.4354E-09  0.7561E-09  0.1017E-08  0.1742E-08  0.2122E-08  0.3203E-08  0.4098E-08  0.5159E-08  0.6339E-08  0.7905E-08  0.9455E-08  0.1122E-07  0.1364E-07  0.1563E-07  0.1836E-07  0.2083E-07  0.2440E-07  0.2705E-07  0.3114E-07  0.3437E-07  0.4015E-07  0.4595E-07  0.5228E-07  0.5880E-07  0.6751E-07  0.7410E-07  0.8613E-07  0.8569E-07  0.8803E-07  0.8431E-07  0.7906E-07  0.6922E-07  0.5789E-07  0.4767E-07  0.3359E-07  0.2374E-07  0.1386E-07  0.8941E-08  0.5314E-08  0.2696E-08  0.1235E-08  0.3978E-09  0.1443E-09  0.0000E+00  0.0000E+00  0.0000E+00  0.0000E+00  0.0000E+00  0.0000E+00  0.0000E+00  0.0000E+00  0.0000E+00  0.0000E+00  0.0000E+00  0.0000E+00  0.0000E+00  0.0000E+00  0.0000E+00  0.0000E+00  0.0000E+00  0.0000E+00  0.0000E+00  0.0000E+00  0.0000E+00  0.0000E+00  0.0000E+00
  0.0000E+00  0.0000E+00  0.0000E+00  0.0000E+00  0.0000E+00  0.0000E+00  0.0000E+00  0.0000E+00  0.0000E+00  0.0000E+00  0.1200E-09  0.1378E-09  0.4235E-09  0.6098E-09  0.9954E-09  0.1561E-08  0.2091E-08  0.3020E-08  0.3749E-08  0.5131E-08  0.6331E-08  0.7923E-08  0.9518E-08  0.1135E-07  0.1385E-07  0.1596E-07  0.1883E-07  0.2148E-07  0.2531E-07  0.2859E-07  0.3287E-07  0.3703E-07  0.4373E-07  0.5072E-07  0.6084E-07  0.7144E-07  0.8558E-07  0.1012E-06  0.1082E-06  0.1265E-06  0.1309E-06  0.1303E-06  0.1253E-06  0.1177E-06  0.1033E-06  0.8953E-07  0.6985E-07  0.5604E-07  0.3819E-07  0.2622E-07  0.1455E-07  0.8823E-08  0.5020E-08  0.2819E-08  0.1642E-08  0.8390E-09  0.3012E-09  0.0000E+00  0.0000E+00  0.0000E+00  0.0000E+00  0.0000E+00  0.0000E+00  0.0000E+00  0.0000E+00  0.0000E+00  0.0000E+00  0.0000E+00  0.0000E+00  0.0000E+00  0.0000E+00  0.0000E+00  0.0000E+00  0.0000E+00  0.0000E+00  0.0000E+00  0.0000E+00  0.0000E+00  0.0000E+00
  0.0000E+00  0.0000E+00  0.0000E+00  0.0000E+00  0.0000E+00  0.0000E+00  0.0000E+00  0.0000E+00  0.0000E+00  0.0000E+00  0.1326E-09  0.4078E-09  0.4693E-09  0.9645E-09  0.1378E-08  0.1901E-08  0.2790E-08  0.3679E-08  0.5047E-08  0.6083E-08  0.7674E-08  0.9269E-08  0.1134E-07  0.1344E-07  0.1585E-07  0.1906E-07  0.2186E-07  0.2587E-07  0.2942E-07  0.3406E-07  0.3872E-07  0.4609E-07  0.5619E-07  0.6804E-07  0.8368E-07  0.9828E-07  0.1227E-06  0.1410E-06  0.1560E-06  0.1791E-06  0.1859E-06  0.1859E-06  0.1790E-06  0.1677E-06  0.1526E-06  0.1287E-06  0.1094E-06  0.8319E-07  0.6465E-07  0.4243E-07  0.2809E-07  0.1451E-07  0.8687E-08  0.5207E-08  0.3523E-08  0.2327E-08  0.1325E-08  0.5281E-09  0.8782E-10  0.0000E+00  0.0000E+00  0.0000E+00  0.0000E+00  0.0000E+00  0.0000E+00  0.0000E+00  0.0000E+00  0.0000E+00  0.0000E+00  0.0000E+00  0.0000E+00  0.0000E+00  0.0000E+00  0.0000E+00  0.0000E+00  0.0000E+00  0.0000E+00  0.0000E+00  0.0000E+00
  0.0000E+00  0.0000E+00  0.0000E+00  0.0000E+00  0.0000E+00  0.0000E+00  0.0000E+00  0.0000E+00  0.0000E+00  0.1263E-09  0.2663E-09  0.4496E-09  0.9247E-09  0.1066E-08  0.1834E-08  0.2550E-08  0.3422E-08  0.4583E-08  0.5774E-08  0.7517E-08  0.8931E-08  0.1099E-07  0.1310E-07  0.1577E-07  0.1876E-07  0.2195E-07  0.2581E-07  0.2953E-07  0.3470E-07  0.3940E-07  0.4717E-07  0.6060E-07  0.7388E-07  0.8932E-07  0.1117E-06  0.1353E-06  0.1697E-06  0.1987E-06  0.2267E-06  0.2442E-06  0.2565E-06  0.2581E-06  0.2503E-06  0.2384E-06  0.2157E-06  0.1916E-06  0.1585E-06  0.1314E-06  0.9705E-07  0.7157E-07  0.4561E-07  0.2797E-07  0.1468E-07  0.9307E-08  0.6685E-08  0.4635E-08  0.2856E-08  0.1550E-08  0.7780E-09  0.8885E-10  0.0000E+00  0.0000E+00  0.0000E+00  0.0000E+00  0.0000E+00  0.0000E+00  0.0000E+00  0.0000E+00  0.0000E+00  0.0000E+00  0.0000E+00  0.0000E+00  0.0000E+00  0.0000E+00  0.0000E+00  0.0000E+00  0.0000E+00  0.0000E+00  0.0000E+00
  0.0000E+00  0.0000E+00  0.0000E+00  0.0000E+00  0.0000E+00  0.0000E+00  0.0000E+00  0.0000E+00  0.1192E-09  0.1383E-09  0.4264E-09  0.6193E-09  0.1017E-08  0.1604E-08  0.2164E-08  0.3288E-08  0.4255E-08  0.5419E-08  0.6928E-08  0.8505E-08  0.1072E-07  0.1263E-07  0.1528E-07  0.1804E-07  0.2150E-07  0.2536E-07  0.2952E-07  0.3452E-07  0.3944E-07  0.4777E-07  0.5963E-07  0.7584E-07  0.9479E-07  0.1200E-06  0.1529E-06  0.1848E-06  0.2296E-06  0.2685E-06  0.3055E-06  0.3294E-06  0.3449E-06  0.3500E-06  0.3441E-06  0.3310E-06  0.3055E-06  0.2762E-06  0.2375E-06  0.1949E-06  0.1544E-06  0.1116E-06  0.7663E-07  0.4761E-07  0.2875E-07  0.1658E-07  0.1186E-07  0.7913E-08  0.5126E-08  0.3372E-08  0.1898E-08  0.8041E-09  0.1563E-09  0.0000E+00  0.0000E+00  0.0000E+00  0.0000E+00  0.0000E+00  0.0000E+00  0.0000E+00  0.0000E+00  0.0000E+00  0.0000E+00  0.0000E+00  0.0000E+00  0.0000E+00  0.0000E+00  0.0000E+00  0.0000E+00  0.0000E+00  0.0000E+00
  0.0000E+00  0.0000E+00  0.0000E+00  0.0000E+00  0.0000E+00  0.0000E+00  0.0000E+00  0.0000E+00  0.1298E-09  0.2746E-09  0.4653E-09  0.9596E-09  0.1381E-08  0.1918E-08  0.2830E-08  0.3758E-08  0.5181E-08  0.6471E-08  0.8006E-08  0.9755E-08  0.1203E-07  0.1460E-07  0.1737E-07  0.2078E-07  0.2438E-07  0.2882E-07  0.3381E-07  0.3922E-07  0.4718E-07  0.5874E-07  0.7554E-07  0.9586E-07  0.1280E-06  0.1589E-06  0.2040E-06  0.2530E-06  0.3049E-06  0.3560E-06  0.4037E-06  0.4359E-06  0.4582E-06  0.4675E-06  0.4658E-06  0.4487E-06  0.4263E-06  0.3867E-06  0.3433E-06  0.2884E-06  0.2317E-06  0.1757E-06  0.1220E-06  0.8311E-07  0.4924E-07  0.3389E-07  0.2312E-07  0.1301E-07  0.8833E-08  0.5798E-08  0.3484E-08  0.1876E-08  0.8901E-09  0.1798E-09  0.0000E+00  0.0000E+00  0.0000E+00  0.0000E+00  0.0000E+00  0.0000E+00  0.0000E+00  0.0000E+00  0.0000E+00  0.0000E+00  0.0000E+00  0.0000E+00  0.0000E+00  0.0000E+00  0.0000E+00  0.0000E+00  0.0000E+00
  0.0000E+00  0.0000E+00  0.0000E+00  0.0000E+00  0.0000E+00  0.0000E+00  0.0000E+00  0.1206E-09  0.1406E-09  0.4345E-09  0.7646E-09  0.1044E-08  0.1801E-08  0.2377E-08  0.3404E-08  0.4423E-08  0.5821E-08  0.7425E-08  0.8946E-08  0.1132E-07  0.1361E-07  0.1652E-07  0.1982E-07  0.2315E-07  0.2777E-07  0.3244E-07  0.3813E-07  0.4417E-07  0.5514E-07  0.7159E-07  0.9207E-07  0.1227E-06  0.1632E-06  0.2149E-06  0.2672E-06  0.3377E-06  0.4054E-06  0.4640E-06  0.5248E-06  0.5675E-06  0.5981E-06  0.6164E-06  0.6149E-06  0.6069E-06  0.5765E-06  0.5397E-06  0.4808E-06  0.4157E-06  0.3403E-06  0.2629E-06  0.1928E-06  0.1330E-06  0.8734E-07  0.5851E-07  0.3630E-07  0.2504E-07  0.1401E-07  0.9159E-08  0.5790E-08  0.3420E-08  0.1797E-08  0.8279E-09  0.1348E-09  0.0000E+00  0.0000E+00  0.0000E+00  0.0000E+00  0.0000E+00  0.0000E+00  0.0000E+00  0.0000E+00  0.0000E+00  0.0000E+00  0.0000E+00  0.0000E+00  0.0000E+00  0.0000E+00  0.0000E+00  0.0000E+00
  0.0000E+00  0.0000E+00  0.0000E+00  0.0000E+00  0.0000E+00  0.0000E+00  0.0000E+00  0.1301E-09  0.2763E-09  0.4694E-09  0.9699E-09  0.1401E-08  0.1952E-08  0.2887E-08  0.3847E-08  0.5317E-08  0.6667E-08  0.8281E-08  0.1034E-07  0.1254E-07  0.1528E-07  0.1826E-07  0.2219E-07  0.2588E-07  0.3073E-07  0.3623E-07  0.4227E-07  0.5139E-07  0.6671E-07  0.8836E-07  0.1213E-06  0.1600E-06  0.2112E-06  0.2739E-06  0.3518E-06  0.4348E-06  0.5246E-06  0.5962E-06  0.6725E-06  0.7288E-06  0.7722E-06  0.7990E-06  0.8099E-06  0.8015E-06  0.7788E-06  0.7305E-06  0.6676E-06  0.5824E-06  0.4880E-06  0.3875E-06  0.2909E-06  0.2057E-06  0.1399E-06  0.9232E-07  0.6241E-07  0.3671E-07  0.2522E-07  0.1366E-07  0.8793E-08  0.5380E-08  0.3246E-08  0.1676E-08  0.6215E-09  0.6710E-10  0.0000E+00  0.0000E+00  0.0000E+00  0.0000E+00  0.0000E+00  0.0000E+00  0.0000E+00  0.0000E+00  0.0000E+00  0.0000E+00  0.0000E+00  0.0000E+00  0.0000E+00  0.0000E+00  0.0000E+00
  0.0000E+00  0.0000E+00  0.0000E+00  0.0000E+00  0.0000E+00  0.0000E+00  0.1192E-09  0.1396E-09  0.4318E-09  0.7622E-09  0.1044E-08  0.1656E-08  0.2249E-08  0.3431E-08  0.4473E-08  0.5904E-08  0.7554E-08  0.9140E-08  0.1160E-07  0.1400E-07  0.1705E-07  0.2054E-07  0.2410E-07  0.2871E-07  0.3405E-07  0.4020E-07  0.4682E-07  0.6058E-07  0.7900E-07  0.1082E-06  0.1481E-06  0.2019E-06  0.2690E-06  0.3581E-06  0.4473E-06  0.5565E-06  0.6643E-06  0.7599E-06  0.8504E-06  0.9227E-06  0.9836E-06  0.1023E-05  0.1049E-05  0.1048E-05  0.1028E-05  0.9788E-06  0.9021E-06  0.8012E-06  0.6808E-06  0.5548E-06  0.4240E-06  0.3092E-06  0.2175E-06  0.1435E-06  0.9515E-07  0.6175E-07  0.3551E-07  0.2361E-07  0.1263E-07  0.7836E-08  0.4875E-08  0.2730E-08  0.1436E-08  0.4727E-09  0.0000E+00  0.0000E+00  0.0000E+00  0.0000E+00  0.0000E+00  0.0000E+00  0.0000E+00  0.0000E+00  0.0000E+00  0.0000E+00  0.0000E+00  0.0000E+00  0.0000E+00  0.0000E+00  0.0000E+00
  0.0000E+00  0.0000E+00  0.0000E+00  0.0000E+00  0.0000E+00  0.0000E+00  0.1272E-09  0.2711E-09  0.4617E-09  0.9549E-09  0.1251E-08  0.1933E-08  0.2867E-08  0.3833E-08  0.5129E-08  0.6509E-08  0.8318E-08  0.1022E-07  0.1268E-07  0.1551E-07  0.1860E-07  0.2242E-07  0.2655E-07  0.3163E-07  0.3743E-07  0.4386E-07  0.5115E-07  0.6892E-07  0.9782E-07  0.1352E-06  0.1842E-06  0.2546E-06  0.3419E-06  0.4564E-06  0.5705E-06  0.6985E-06  0.8291E-06  0.9488E-06  0.1059E-05  0.1155E-05  0.1234E-05  0.1297E-05  0.1333E-05  0.1350E-05  0.1332E-05  0.1281E-05  0.1195E-05  0.1074E-05  0.9301E-06  0.7683E-06  0.6020E-06  0.4501E-06  0.3131E-06  0.2136E-06  0.1394E-06  0.8730E-07  0.5474E-07  0.3182E-07  0.1877E-07  0.1105E-07  0.6818E-08  0.4091E-08  0.2185E-08  0.1009E-08  0.2141E-09  0.0000E+00  0.0000E+00  0.0000E+00  0.0000E+00  0.0000E+00  0.0000E+00  0.0000E+00  0.0000E+00  0.0000E+00  0.0000E+00  0.0000E+00  0.0000E+00  0.0000E+00  0.0000E+00
  0.0000E+00  0.0000E+00  0.0000E+00  0.0000E+00  0.0000E+00  0.0000E+00  0.1352E-09  0.4183E-09  0.6159E-09  0.1017E-08  0.1617E-08  0.2204E-08  0.3364E-08  0.4402E-08  0.5660E-08  0.7125E-08  0.9070E-08  0.1132E-07  0.1376E-07  0.1683E-07  0.2014E-07  0.2427E-07  0.2900E-07  0.3423E-07  0.4019E-07  0.4745E-07  0.5935E-07  0.8080E-07  0.1165E-06  0.1633E-06  0.2296E-06  0.3192E-06  0.4380E-06  0.5660E-06  0.7169E-06  0.8667E-06  0.1027E-05  0.1178E-05  0.1311E-05  0.1428E-05  0.1537E-05  0.1615E-05  0.1681E-05  0.1705E-05  0.1699E-05  0.1643E-05  0.1545E-05  0.1403E-05  0.1226E-05  0.1026E-05  0.8188E-06  0.6161E-06  0.4423E-06  0.2959E-06  0.1943E-06  0.1234E-06  0.7353E-07  0.4314E-07  0.2683E-07  0.1467E-07  0.9050E-08  0.5581E-08  0.3136E-08  0.1661E-08  0.6713E-09  0.6917E-10  0.0000E+00  0.0000E+00  0.0000E+00  0.0000E+00  0.0000E+00  0.0000E+00  0.0000E+00  0.0000E+00  0.0000E+00  0.0000E+00  0.0000E+00  0.0000E+00  0.0000E+00
  0.0000E+00  0.0000E+00  0.0000E+00  0.0000E+00  0.0000E+00  0.1214E-09  0.1429E-09  0.4427E-09  0.7844E-09  0.1078E-08  0.1864E-08  0.2628E-08  0.3567E-08  0.4833E-08  0.6176E-08  0.7926E-08  0.9820E-08  0.1224E-07  0.1484E-07  0.1813E-07  0.2191E-07  0.2609E-07  0.3087E-07  0.3674E-07  0.4352E-07  0.5093E-07  0.6784E-07  0.9708E-07  0.1345E-06  0.2002E-06  0.2868E-06  0.3918E-06  0.5402E-06  0.7041E-06  0.8811E-06  0.1069E-05  0.1258E-05  0.1441E-05  0.1605E-05  0.1755E-05  0.1890E-05  0.2001E-05  0.2082E-05  0.2130E-05  0.2123E-05  0.2067E-05  0.1950E-05  0.1783E-05  0.1569E-05  0.1326E-05  0.1067E-05  0.8159E-06  0.5830E-06  0.3968E-06  0.2569E-06  0.1616E-06  0.9809E-07  0.5770E-07  0.3361E-07  0.1852E-07  0.1177E-07  0.7132E-08  0.4281E-08  0.2353E-08  0.1152E-08  0.3033E-09  0.0000E+00  0.0000E+00  0.0000E+00  0.0000E+00  0.0000E+00  0.0000E+00  0.0000E+00  0.0000E+00  0.0000E+00  0.0000E+00  0.0000E+00  0.0000E+00  0.0000E+00
  0.0000E+00  0.0000E+00  0.0000E+00  0.0000E+00  0.0000E+00  0.1278E-09  0.2733E-09  0.4662E-09  0.9651E-09  0.1406E-08  0.1965E-08  0.2922E-08  0.3918E-08  0.5257E-08  0.6690E-08  0.8565E-08  0.1056E-07  0.1313E-07  0.1611E-07  0.1915E-07  0.2315E-07  0.2783E-07  0.3324E-07  0.3915E-07  0.4605E-07  0.5427E-07  0.7742E-07  0.1129E-06  0.1616E-06  0.2383E-06  0.3424E-06  0.4848E-06  0.6613E-06  0.8579E-06  0.1083E-05  0.1311E-05  0.1526E-05  0.1746E-05  0.1945E-05  0.2134E-05  0.2299E-05  0.2445E-05  0.2550E-05  0.2611E-05  0.2612E-05  0.2543E-05  0.2411E-05  0.2208E-05  0.1950E-05  0.1656E-05  0.1336E-05  0.1026E-05  0.7413E-06  0.5008E-06  0.3244E-06  0.2028E-06  0.1228E-06  0.7127E-07  0.4195E-07  0.2387E-07  0.1432E-07  0.9206E-08  0.5539E-08  0.3183E-08  0.1681E-08  0.6813E-09  0.1349E-09  0.0000E+00  0.0000E+00  0.0000E+00  0.0000E+00  0.0000E+00  0.0000E+00  0.0000E+00  0.0000E+00  0.0000E+00  0.0000E+00  0.0000E+00  0.0000E+00
  0.0000E+00  0.0000E+00  0.0000E+00  0.0000E+00  0.0000E+00  0.1338E-09  0.4139E-09  0.6124E-09  0.1012E-08  0.1613E-08  0.2205E-08  0.3210E-08  0.4268E-08  0.5695E-08  0.7193E-08  0.9172E-08  0.1147E-07  0.1378E-07  0.1690E-07  0.2034E-07  0.2483E-07  0.2947E-07  0.3490E-07  0.4111E-07  0.4869E-07  0.5733E-07  0.8732E-07  0.1332E-06  0.1948E-06  0.2819E-06  0.4184E-06  0.5852E-06  0.8119E-06  0.1042E-05  0.1303E-05  0.1578E-05  0.1835E-05  0.2094E-05  0.2339E-05  0.2562E-05  0.2774E-05  0.2943E-05  0.3076E-05  0.3147E-05  0.3143E-05  0.3063E-05  0.2898E-05  0.2652E-05  0.2344E-05  0.1981E-05  0.1605E-05  0.1230E-05  0.8879E-06  0.6023E-06  0.3875E-06  0.2399E-06  0.1435E-06  0.8458E-07  0.5040E-07  0.2925E-07  0.1707E-07  0.1087E-07  0.6707E-08  0.4047E-08  0.2203E-08  0.1038E-08  0.2982E-09  0.0000E+00  0.0000E+00  0.0000E+00  0.0000E+00  0.0000E+00  0.0000E+00  0.0000E+00  0.0000E+00  0.0000E+00  0.0000E+00  0.0000E+00  0.0000E+00
  0.0000E+00  0.0000E+00  0.0000E+00  0.0000E+00  0.1178E-09  0.1394E-09  0.4315E-09  0.7667E-09  0.1056E-08  0.1683E-08  0.2300E-08  0.3511E-08  0.4611E-08  0.6108E-08  0.7673E-08  0.9567E-08  0.1196E-07  0.1459E-07  0.1785E-07  0.2145E-07  0.2589E-07  0.3073E-07  0.3639E-07  0.4318E-07  0.5073E-07  0.5972E-07  0.9537E-07  0.1526E-06  0.2295E-06  0.3410E-06  0.4985E-06  0.7133E-06  0.9784E-06  0.1256E-05  0.1562E-05  0.1883E-05  0.2193E-05  0.2496E-05  0.2782E-05  0.3061E-05  0.3299E-05  0.3508E-05  0.3652E-05  0.3727E-05  0.3713E-05  0.3601E-05  0.3391E-05  0.3092E-05  0.2712E-05  0.2288E-05  0.1838E-05  0.1404E-05  0.1012E-05  0.6828E-06  0.4361E-06  0.2714E-06  0.1646E-06  0.9706E-07  0.5649E-07  0.3296E-07  0.1975E-07  0.1272E-07  0.7881E-08  0.4737E-08  0.2718E-08  0.1410E-08  0.5281E-09  0.6700E-10  0.0000E+00  0.0000E+00  0.0000E+00  0.0000E+00  0.0000E+00  0.0000E+00  0.0000E+00  0.0000E+00  0.0000E+00  0.0000E+00  0.0000E+00
  0.0000E+00  0.0000E+00  0.0000E+00  0.0000E+00  0.1222E-09  0.1445E-09  0.4475E-09  0.7956E-09  0.1095E-08  0.1746E-08  0.2680E-08  0.3794E-08  0.4936E-08  0.6335E-08  0.8144E-08  0.1011E-07  0.1241E-07  0.1533E-07  0.1875E-07  0.2246E-07  0.2682E-07  0.3182E-07  0.3796E-07  0.4498E-07  0.5246E-07  0.6172E-07  0.1067E-06  0.1740E-06  0.2750E-06  0.4145E-06  0.6000E-06  0.8587E-06  0.1172E-05  0.1505E-05  0.1860E-05  0.2235E-05  0.2601E-05  0.2954E-05  0.3298E-05  0.3615E-05  0.3897E-05  0.4121E-05  0.4277E-05  0.4332E-05  0.4292E-05  0.4126E-05  0.3856E-05  0.3485E-05  0.3032E-05  0.2525E-05  0.2014E-05  0.1525E-05  0.1090E-05  0.7345E-06  0.4705E-06  0.2911E-06  0.1771E-06  0.1054E-06  0.6235E-07  0.3631E-07  0.2190E-07  0.1416E-07  0.9102E-08  0.5486E-08  0.3266E-08  0.1667E-08  0.7191E-09  0.1437E-09  0.0000E+00  0.0000E+00  0.0000E+00  0.0000E+00  0.0000E+00  0.0000E+00  0.0000E+00  0.0000E+00  0.0000E+00  0.0000E+00  0.0000E+00
  0.0000E+00  0.0000E+00  0.0000E+00  0.0000E+00  0.1260E-09  0.2705E-09  0.4618E-09  0.8214E-09  0.1398E-08  0.1954E-08  0.2766E-08  0.3914E-08  0.5259E-08  0.6533E-08  0.8398E-08  0.1042E-07  0.1299E-07  0.1600E-07  0.1931E-07  0.2312E-07  0.2759E-07  0.3273E-07  0.3902E-07  0.4620E-07  0.5416E-07  0.6329E-07  0.1191E-06  0.2028E-06  0.3188E-06  0.4880E-06  0.7274E-06  0.1036E-05  0.1400E-05  0.1802E-05  0.2220E-05  0.2641E-05  0.3070E-05  0.3479E-05  0.3877E-05  0.4235E-05  0.4542E-05  0.4777E-05  0.4914E-05  0.4944E-05  0.4843E-05  0.4607E-05  0.4253E-05  0.3787E-05  0.3247E-05  0.2674E-05  0.2101E-05  0.1574E-05  0.1118E-05  0.7481E-06  0.4790E-06  0.2973E-06  0.1809E-06  0.1077E-06  0.6382E-07  0.3862E-07  0.2371E-07  0.1551E-07  0.9954E-08  0.6165E-08  0.3752E-08  0.2043E-08  0.8787E-09  0.3013E-09  0.0000E+00  0.0000E+00  0.0000E+00  0.0000E+00  0.0000E+00  0.0000E+00  0.0000E+00  0.0000E+00  0.0000E+00  0.0000E+00  0.0000E+00
  0.0000E+00  0.0000E+00  0.0000E+00  0.0000E+00  0.1294E-09  0.2779E-09  0.5945E-09  0.9808E-09  0.1435E-08  0.2147E-08  0.2982E-08  0.4016E-08  0.5395E-08  0.6875E-08  0.8611E-08  0.1087E-07  0.1330E-07  0.1638E-07  0.1976E-07  0.2365E-07  0.2847E-07  0.3344E-07  0.3982E-07  0.4711E-07  0.5541E-07  0.7901E-07  0.1301E-06  0.2288E-06  0.3690E-06  0.5843E-06  0.8649E-06  0.1242E-05  0.1662E-05  0.2135E-05  0.2620E-05  0.3110E-05  0.3601E-05  0.4081E-05  0.4518E-05  0.4915E-05  0.5231E-05  0.5451E-05  0.5549E-05  0.5511E-05  0.5320E-05  0.4991E-05  0.4523E-05  0.3963E-05  0.3337E-05  0.2697E-05  0.2088E-05  0.1543E-05  0.1085E-05  0.7230E-06  0.4621E-06  0.2882E-06  0.1761E-06  0.1071E-06  0.6470E-07  0.3868E-07  0.2509E-07  0.1654E-07  0.1081E-07  0.6775E-08  0.4055E-08  0.2312E-08  0.1125E-08  0.4012E-09  0.0000E+00  0.0000E+00  0.0000E+00  0.0000E+00  0.0000E+00  0.0000E+00  0.0000E+00  0.0000E+00  0.0000E+00  0.0000E+00  0.0000E+00
  0.0000E+00  0.0000E+00  0.0000E+00  0.0000E+00  0.1322E-09  0.2840E-09  0.6075E-09  0.1002E-08  0.1466E-08  0.2192E-08  0.3196E-08  0.4098E-08  0.5504E-08  0.7011E-08  0.8958E-08  0.1107E-07  0.1355E-07  0.1667E-07  0.2009E-07  0.2404E-07  0.2890E-07  0.3393E-07  0.4108E-07  0.4862E-07  0.5763E-07  0.8633E-07  0.1480E-06  0.2623E-06  0.4359E-06  0.6918E-06  0.1027E-05  0.1487E-05  0.1977E-05  0.2520E-05  0.3086E-05  0.3644E-05  0.4216E-05  0.4739E-05  0.5232E-05  0.5638E-05  0.5944E-05  0.6110E-05  0.6132E-05  0.5986E-05  0.5681E-05  0.5214E-05  0.4636E-05  0.3971E-05  0.3273E-05  0.2594E-05  0.1974E-05  0.1438E-05  0.9992E-06  0.6628E-06  0.4239E-06  0.2668E-06  0.1662E-06  0.1010E-06  0.6248E-07  0.3817E-07  0.2576E-07  0.1726E-07  0.1121E-07  0.7158E-08  0.4307E-08  0.2516E-08  0.1296E-08  0.5005E-09  0.6943E-10  0.0000E+00  0.0000E+00  0.0000E+00  0.0000E+00  0.0000E+00  0.0000E+00  0.0000E+00  0.0000E+00  0.0000E+00  0.0000E+00
  0.0000E+00  0.0000E+00  0.0000E+00  0.0000E+00  0.1344E-09  0.4150E-09  0.6177E-09  0.1018E-08  0.1490E-08  0.2226E-08  0.3245E-08  0.4160E-08  0.5584E-08  0.7110E-08  0.9079E-08  0.1140E-07  0.1372E-07  0.1686E-07  0.2006E-07  0.2451E-07  0.2988E-07  0.3548E-07  0.4324E-07  0.5145E-07  0.6081E-07  0.9941E-07  0.1621E-06  0.3039E-06  0.5126E-06  0.8191E-06  0.1234E-05  0.1771E-05  0.2360E-05  0.2973E-05  0.3633E-05  0.4285E-05  0.4920E-05  0.5504E-05  0.6007E-05  0.6398E-05  0.6638E-05  0.6719E-05  0.6617E-05  0.6321E-05  0.5859E-05  0.5256E-05  0.4548E-05  0.3801E-05  0.3060E-05  0.2373E-05  0.1772E-05  0.1272E-05  0.8759E-06  0.5789E-06  0.3735E-06  0.2368E-06  0.1490E-06  0.9356E-07  0.5919E-07  0.3822E-07  0.2613E-07  0.1765E-07  0.1156E-07  0.7425E-08  0.4611E-08  0.2729E-08  0.1448E-08  0.5727E-09  0.1398E-09  0.0000E+00  0.0000E+00  0.0000E+00  0.0000E+00  0.0000E+00  0.0000E+00  0.0000E+00  0.0000E+00  0.0000E+00  0.0000E+00
  0.0000E+00  0.0000E+00  0.0000E+00  0.0000E+00  0.1359E-09  0.4196E-09  0.6248E-09  0.1028E-08  0.1506E-08  0.2249E-08  0.3277E-08  0.4359E-08  0.5634E-08  0.7169E-08  0.9150E-08  0.1148E-07  0.1380E-07  0.1695E-07  0.2087E-07  0.2563E-07  0.3106E-07  0.3783E-07  0.4579E-07  0.5425E-07  0.6419E-07  0.1133E-06  0.2034E-06  0.3572E-06  0.6098E-06  0.9834E-06  0.1491E-05  0.2121E-05  0.2811E-05  0.3533E-05  0.4291E-05  0.5033E-05  0.5720E-05  0.6332E-05  0.6816E-05  0.7140E-05  0.7278E-05  0.7209E-05  0.6926E-05  0.6458E-05  0.5818E-05  0.5066E-05  0.4265E-05  0.3463E-05  0.2718E-05  0.2061E-05  0.1513E-05  0.1073E-05  0.7340E-06  0.4871E-06  0.3142E-06  0.2022E-06  0.1297E-06  0.8382E-07  0.5302E-07  0.3719E-07  0.2580E-07  0.1746E-07  0.1154E-07  0.7561E-08  0.4726E-08  0.2811E-08  0.1545E-08  0.6753E-09  0.1462E-09  0.0000E+00  0.0000E+00  0.0000E+00  0.0000E+00  0.0000E+00  0.0000E+00  0.0000E+00  0.0000E+00  0.0000E+00  0.0000E+00
  0.0000E+00  0.0000E+00  0.0000E+00  0.0000E+00  0.1368E-09  0.4221E-09  0.6288E-09  0.1034E-08  0.1515E-08  0.2260E-08  0.3292E-08  0.4377E-08  0.5654E-08  0.7189E-08  0.9168E-08  0.1149E-07  0.1425E-07  0.1791E-07  0.2217E-07  0.2754E-07  0.3342E-07  0.4132E-07  0.4946E-07  0.5971E-07  0.7233E-07  0.1329E-06  0.2418E-06  0.4253E-06  0.7401E-06  0.1197E-05  0.1802E-05  0.2549E-05  0.3370E-05  0.4209E-05  0.5071E-05  0.5876E-05  0.6611E-05  0.7196E-05  0.7616E-05  0.7810E-05  0.7778E-05  0.7503E-05  0.7016E-05  0.6334E-05  0.5529E-05  0.4661E-05  0.3797E-05  0.2997E-05  0.2292E-05  0.1704E-05  0.1234E-05  0.8678E-06  0.5916E-06  0.3946E-06  0.2590E-06  0.1694E-06  0.1112E-06  0.7433E-07  0.5065E-07  0.3568E-07  0.2474E-07  0.1688E-07  0.1132E-07  0.7435E-08  0.4700E-08  0.2848E-08  0.1573E-08  0.6917E-09  0.2144E-09  0.0000E+00  0.0000E+00  0.0000E+00  0.0000E+00  0.0000E+00  0.0000E+00  0.0000E+00  0.0000E+00  0.0000E+00  0.0000E+00
  0.0000E+00  0.0000E+00  0.0000E+00  0.0000E+00  0.1371E-09  0.4225E-09  0.6296E-09  0.1034E-08  0.1515E-08  0.2259E-08  0.3290E-08  0.4370E-08  0.5642E-08  0.7169E-08  0.9134E-08  0.1183E-07  0.1503E-07  0.1901E-07  0.2386E-07  0.2970E-07  0.3713E-07  0.4552E-07  0.5607E-07  0.7003E-07  0.8718E-07  0.1658E-06  0.3016E-06  0.5259E-06  0.9229E-06  0.1455E-05  0.2198E-05  0.3079E-05  0.4019E-05  0.5002E-05  0.5958E-05  0.6831E-05  0.7542E-05  0.8056E-05  0.8320E-05  0.8319E-05  0.8051E-05  0.7531E-05  0.6804E-05  0.5933E-05  0.4993E-05  0.4066E-05  0.3209E-05  0.2466E-05  0.1848E-05  0.1351E-05  0.9644E-06  0.6767E-06  0.4647E-06  0.3108E-06  0.2096E-06  0.1388E-06  0.9434E-07  0.6489E-07  0.4709E-07  0.3382E-07  0.2367E-07  0.1628E-07  0.1098E-07  0.7250E-08  0.4603E-08  0.2749E-08  0.1493E-08  0.6974E-09  0.2176E-09  0.0000E+00  0.0000E+00  0.0000E+00  0.0000E+00  0.0000E+00  0.0000E+00  0.0000E+00  0.0000E+00  0.0000E+00  0.0000E+00
  0.0000E+00  0.0000E+00  0.0000E+00  0.0000E+00  0.1367E-09  0.4208E-09  0.6273E-09  0.1029E-08  0.1508E-08  0.2246E-08  0.3120E-08  0.4341E-08  0.5599E-08  0.7260E-08  0.9552E-08  0.1229E-07  0.1604E-07  0.2048E-07  0.2634E-07  0.3312E-07  0.4222E-07  0.5409E-07  0.6698E-07  0.8290E-07  0.1023E-06  0.1946E-06  0.3667E-06  0.6510E-06  0.1134E-05  0.1822E-05  0.2671E-05  0.3719E-05  0.4819E-05  0.5957E-05  0.6997E-05  0.7865E-05  0.8478E-05  0.8814E-05  0.8844E-05  0.8565E-05  0.8009E-05  0.7219E-05  0.6266E-05  0.5251E-05  0.4254E-05  0.3353E-05  0.2577E-05  0.1945E-05  0.1433E-05  0.1037E-05  0.7426E-06  0.5183E-06  0.3567E-06  0.2442E-06  0.1659E-06  0.1163E-06  0.8050E-07  0.5989E-07  0.4340E-07  0.3103E-07  0.2195E-07  0.1530E-07  0.1048E-07  0.6846E-08  0.4388E-08  0.2697E-08  0.1475E-08  0.6152E-09  0.2176E-09  0.0000E+00  0.0000E+00  0.0000E+00  0.0000E+00  0.0000E+00  0.0000E+00  0.0000E+00  0.0000E+00  0.0000E+00  0.0000E+00
  0.0000E+00  0.0000E+00  0.0000E+00  0.0000E+00  0.1356E-09  0.2918E-09  0.6217E-09  0.1018E-08  0.1493E-08  0.2221E-08  0.3086E-08  0.4131E-08  0.5493E-08  0.7435E-08  0.9966E-08  0.1335E-07  0.1732E-07  0.2245E-07  0.2955E-07  0.3844E-07  0.4909E-07  0.6296E-07  0.7839E-07  0.9497E-07  0.1131E-06  0.2245E-06  0.4336E-06  0.7985E-06  0.1412E-05  0.2251E-05  0.3323E-05  0.4553E-05  0.5849E-05  0.7111E-05  0.8166E-05  0.8922E-05  0.9320E-05  0.9379E-05  0.9085E-05  0.8478E-05  0.7608E-05  0.6554E-05  0.5431E-05  0.4360E-05  0.3406E-05  0.2615E-05  0.1977E-05  0.1470E-05  0.1086E-05  0.7910E-06  0.5654E-06  0.3989E-06  0.2815E-06  0.1903E-06  0.1328E-06  0.9708E-07  0.7388E-07  0.5437E-07  0.3973E-07  0.2855E-07  0.2020E-07  0.1407E-07  0.9672E-08  0.6410E-08  0.4110E-08  0.2516E-08  0.1305E-08  0.6027E-09  0.2143E-09  0.0000E+00  0.0000E+00  0.0000E+00  0.0000E+00  0.0000E+00  0.0000E+00  0.0000E+00  0.0000E+00  0.0000E+00  0.0000E+00
  0.0000E+00  0.0000E+00  0.0000E+00  0.0000E+00  0.1338E-09  0.2880E-09  0.6131E-09  0.8676E-09  0.1471E-08  0.2038E-08  0.3037E-08  0.4002E-08  0.5833E-08  0.7790E-08  0.1076E-07  0.1425E-07  0.1913E-07  0.2579E-07  0.3395E-07  0.4431E-07  0.5593E-07  0.6915E-07  0.8387E-07  0.1004E-06  0.1184E-06  0.2525E-06  0.5377E-06  0.1030E-05  0.1793E-05  0.2846E-05  0.4168E-05  0.5672E-05  0.7164E-05  0.8452E-05  0.9372E-05  0.9867E-05  0.9932E-05  0.9614E-05  0.8948E-05  0.7991E-05  0.6820E-05  0.5578E-05  0.4405E-05  0.3396E-05  0.2583E-05  0.1944E-05  0.1461E-05  0.1096E-05  0.8212E-06  0.6060E-06  0.4444E-06  0.3215E-06  0.2212E-06  0.1651E-06  0.1139E-06  0.8804E-07  0.6664E-07  0.4996E-07  0.3652E-07  0.2609E-07  0.1844E-07  0.1295E-07  0.8831E-08  0.5851E-08  0.3733E-08  0.2259E-08  0.1252E-08  0.5814E-09  0.1458E-09  0.0000E+00  0.0000E+00  0.0000E+00  0.0000E+00  0.0000E+00  0.0000E+00  0.0000E+00  0.0000E+00  0.0000E+00  0.0000E+00
  0.0000E+00  0.0000E+00  0.0000E+00  0.0000E+00  0.1315E-09  0.2829E-09  0.6015E-09  0.8507E-09  0.1441E-08  0.1996E-08  0.3053E-08  0.4189E-08  0.6154E-08  0.8306E-08  0.1164E-07  0.1581E-07  0.2187E-07  0.2919E-07  0.3808E-07  0.4757E-07  0.5922E-07  0.7197E-07  0.8693E-07  0.1047E-06  0.1322E-06  0.3143E-06  0.6943E-06  0.1354E-05  0.2351E-05  0.3720E-05  0.5376E-05  0.7125E-05  0.8684E-05  0.9821E-05  0.1040E-04  0.1049E-04  0.1013E-04  0.9408E-05  0.8366E-05  0.7074E-05  0.5701E-05  0.4416E-05  0.3348E-05  0.2512E-05  0.1883E-05  0.1417E-05  0.1074E-05  0.8124E-06  0.6229E-06  0.4731E-06  0.3609E-06  0.2778E-06  0.2089E-06  0.1461E-06  0.1153E-06  0.7903E-07  0.6108E-07  0.4574E-07  0.3359E-07  0.2401E-07  0.1691E-07  0.1148E-07  0.7929E-08  0.5413E-08  0.3480E-08  0.2120E-08  0.1183E-08  0.4846E-09  0.1392E-09  0.0000E+00  0.0000E+00  0.0000E+00  0.0000E+00  0.0000E+00  0.0000E+00  0.0000E+00  0.0000E+00  0.0000E+00  0.0000E+00
  0.0000E+00  0.0000E+00  0.0000E+00  0.0000E+00  0.1285E-09  0.2766E-09  0.5871E-09  0.8297E-09  0.1405E-08  0.2006E-08  0.3179E-08  0.4370E-08  0.6409E-08  0.9075E-08  0.1274E-07  0.1803E-07  0.2402E-07  0.3120E-07  0.3981E-07  0.4939E-07  0.6124E-07  0.7509E-07  0.9155E-07  0.1108E-06  0.1977E-06  0.4287E-06  0.9665E-06  0.1869E-05  0.3214E-05  0.4981E-05  0.6949E-05  0.8774E-05  0.1012E-04  0.1083E-04  0.1093E-04  0.1054E-04  0.9781E-05  0.8667E-05  0.7283E-05  0.5774E-05  0.4389E-05  0.3260E-05  0.2415E-05  0.1807E-05  0.1369E-05  0.1053E-05  0.8158E-06  0.6273E-06  0.4908E-06  0.3937E-06  0.3220E-06  0.2615E-06  0.2044E-06  0.1560E-06  0.1145E-06  0.8205E-07  0.5536E-07  0.4230E-07  0.3110E-07  0.2220E-07  0.1567E-07  0.1062E-07  0.6908E-08  0.4688E-08  0.2965E-08  0.1835E-08  0.9877E-09  0.3453E-09  0.6880E-10  0.0000E+00  0.0000E+00  0.0000E+00  0.0000E+00  0.0000E+00  0.0000E+00  0.0000E+00  0.0000E+00  0.0000E+00  0.0000E+00
  0.0000E+00  0.0000E+00  0.0000E+00  0.0000E+00  0.1250E-09  0.2690E-09  0.4530E-09  0.8051E-09  0.1278E-08  0.2092E-08  0.3148E-08  0.4398E-08  0.6923E-08  0.9912E-08  0.1423E-07  0.1909E-07  0.2507E-07  0.3242E-07  0.4098E-07  0.5159E-07  0.6391E-07  0.7909E-07  0.9636E-07  0.1172E-06  0.2579E-06  0.6498E-06  0.1446E-05  0.2671E-05  0.4467E-05  0.6592E-05  0.8657E-05  0.1020E-04  0.1101E-04  0.1113E-04  0.1076E-04  0.9999E-05  0.8865E-05  0.7396E-05  0.5795E-05  0.4319E-05  0.3138E-05  0.2302E-05  0.1725E-05  0.1317E-05  0.1026E-05  0.8197E-06  0.6592E-06  0.5387E-06  0.4477E-06  0.3670E-06  0.3036E-06  0.2495E-06  0.2061E-06  0.1636E-06  0.1218E-06  0.8787E-07  0.5926E-07  0.3865E-07  0.2894E-07  0.2127E-07  0.1464E-07  0.9840E-08  0.6580E-08  0.4081E-08  0.2557E-08  0.1474E-08  0.7220E-09  0.2486E-09  0.0000E+00  0.0000E+00  0.0000E+00  0.0000E+00  0.0000E+00  0.0000E+00  0.0000E+00  0.0000E+00  0.0000E+00  0.0000E+00  0.0000E+00
  0.0000E+00  0.0000E+00  0.0000E+00  0.0000E+00  0.1210E-09  0.1431E-09  0.4376E-09  0.6514E-09  0.1275E-08  0.1967E-08  0.2984E-08  0.4868E-08  0.7104E-08  0.1062E-07  0.1455E-07  0.1955E-07  0.2593E-07  0.3323E-07  0.4227E-07  0.5341E-07  0.6694E-07  0.8303E-07  0.1018E-06  0.1758E-06  0.4325E-06  0.1061E-05  0.2211E-05  0.3890E-05  0.6060E-05  0.8280E-05  0.9992E-05  0.1089E-04  0.1104E-04  0.1070E-04  0.9995E-05  0.8890E-05  0.7399E-05  0.5732E-05  0.4195E-05  0.3010E-05  0.2219E-05  0.1691E-05  0.1316E-05  0.1036E-05  0.8455E-06  0.7028E-06  0.6015E-06  0.5133E-06  0.4343E-06  0.3654E-06  0.3029E-06  0.2538E-06  0.2082E-06  0.1730E-06  0.1334E-06  0.9380E-07  0.6604E-07  0.4237E-07  0.2728E-07  0.1972E-07  0.1425E-07  0.9556E-08  0.6024E-08  0.3713E-08  0.2242E-08  0.1286E-08  0.6154E-09  0.2272E-09  0.0000E+00  0.0000E+00  0.0000E+00  0.0000E+00  0.0000E+00  0.0000E+00  0.0000E+00  0.0000E+00  0.0000E+00  0.0000E+00  0.0000E+00
  0.0000E+00  0.0000E+00  0.0000E+00  0.0000E+00  0.0000E+00  0.1379E-09  0.2962E-09  0.6262E-09  0.9589E-09  0.1905E-08  0.2840E-08  0.5075E-08  0.7333E-08  0.1102E-07  0.1477E-07  0.2017E-07  0.2638E-07  0.3401E-07  0.4392E-07  0.5570E-07  0.7038E-07  0.8742E-07  0.1300E-06  0.2970E-06  0.7624E-06  0.1760E-05  0.3369E-05  0.5458E-05  0.7716E-05  0.9489E-05  0.1043E-04  0.1059E-04  0.1033E-04  0.9722E-05  0.8720E-05  0.7247E-05  0.5546E-05  0.4022E-05  0.2877E-05  0.2200E-05  0.1860E-05  0.1602E-05  0.1284E-05  0.9875E-06  0.7836E-06  0.6665E-06  0.5811E-06  0.5061E-06  0.4405E-06  0.3759E-06  0.3172E-06  0.2694E-06  0.2251E-06  0.1776E-06  0.1428E-06  0.1073E-06  0.7328E-07  0.4993E-07  0.3052E-07  0.1923E-07  0.1345E-07  0.9639E-08  0.6145E-08  0.3566E-08  0.1691E-08  0.9501E-09  0.4834E-09  0.1425E-09  0.0000E+00  0.0000E+00  0.0000E+00  0.0000E+00  0.0000E+00  0.0000E+00  0.0000E+00  0.0000E+00  0.0000E+00  0.0000E+00  0.0000E+00
  0.0000E+00  0.0000E+00  0.0000E+00  0.0000E+00  0.0000E+00  0.1322E-09  0.2838E-09  0.5989E-09  0.1071E-08  0.2053E-08  0.3032E-08  0.5082E-08  0.7790E-08  0.1112E-07  0.1532E-07  0.2065E-07  0.2729E-07  0.3563E-07  0.4596E-07  0.5857E-07  0.7344E-07  0.9165E-07  0.2031E-06  0.5592E-06  0.1383E-05  0.2844E-05  0.4881E-05  0.7082E-05  0.8836E-05  0.9745E-05  0.9834E-05  0.9605E-05  0.9181E-05  0.8344E-05  0.6955E-05  0.5250E-05  0.3719E-05  0.2732E-05  0.2224E-05  0.2154E-05  0.2322E-05  0.2213E-05  0.1681E-05  0.1144E-05  0.8238E-06  0.6737E-06  0.5828E-06  0.5132E-06  0.4501E-06  0.3941E-06  0.3441E-06  0.2878E-06  0.2450E-06  0.1972E-06  0.1507E-06  0.1181E-06  0.8711E-07  0.5780E-07  0.3805E-07  0.2231E-07  0.1368E-07  0.9206E-08  0.6198E-08  0.3697E-08  0.1912E-08  0.7242E-09  0.2558E-09  0.0000E+00  0.0000E+00  0.0000E+00  0.0000E+00  0.0000E+00  0.0000E+00  0.0000E+00  0.0000E+00  0.0000E+00  0.0000E+00  0.0000E+00  0.0000E+00
  0.0000E+00  0.0000E+00  0.0000E+00  0.0000E+00  0.0000E+00  0.1261E-09  0.2706E-09  0.6098E-09  0.1289E-08  0.2051E-08  0.3061E-08  0.5216E-08  0.7919E-08  0.1134E-07  0.1598E-07  0.2120E-07  0.2823E-07  0.3662E-07  0.4770E-07  0.6142E-07  0.7766E-07  0.1421E-06  0.3938E-06  0.1081E-05  0.2394E-05  0.4337E-05  0.6535E-05  0.8234E-05  0.9007E-05  0.8941E-05  0.8650E-05  0.8365E-05  0.7754E-05  0.6516E-05  0.4849E-05  0.3338E-05  0.2405E-05  0.2139E-05  0.2370E-05  0.3029E-05  0.3646E-05  0.3337E-05  0.2370E-05  0.1463E-05  0.9377E-06  0.7068E-06  0.6003E-06  0.5359E-06  0.4749E-06  0.4187E-06  0.3659E-06  0.3173E-06  0.2599E-06  0.2185E-06  0.1725E-06  0.1285E-06  0.9643E-07  0.6959E-07  0.4449E-07  0.2786E-07  0.1598E-07  0.9780E-08  0.6288E-08  0.3852E-08  0.2117E-08  0.8183E-09  0.2235E-09  0.0000E+00  0.0000E+00  0.0000E+00  0.0000E+00  0.0000E+00  0.0000E+00  0.0000E+00  0.0000E+00  0.0000E+00  0.0000E+00  0.0000E+00  0.0000E+00
  0.0000E+00  0.0000E+00  0.0000E+00  0.0000E+00  0.0000E+00  0.1197E-09  0.2995E-09  0.6533E-09  0.1351E-08  0.2120E-08  0.3106E-08  0.5447E-08  0.7994E-08  0.1160E-07  0.1622E-07  0.2168E-07  0.2913E-07  0.3851E-07  0.5048E-07  0.6480E-07  0.9644E-07  0.2543E-06  0.7914E-06  0.1971E-05  0.3856E-05  0.6017E-05  0.7738E-05  0.8353E-05  0.8056E-05  0.7601E-05  0.7386E-05  0.6993E-05  0.5934E-05  0.4391E-05  0.2961E-05  0.2040E-05  0.1761E-05  0.2174E-05  0.3212E-05  0.4347E-05  0.4750E-05  0.4207E-05  0.3001E-05  0.1812E-05  0.1089E-05  0.7694E-06  0.6484E-06  0.5725E-06  0.5077E-06  0.4467E-06  0.3900E-06  0.3374E-06  0.2896E-06  0.2337E-06  0.1921E-06  0.1486E-06  0.1099E-06  0.8004E-07  0.5448E-07  0.3439E-07  0.2003E-07  0.1094E-07  0.6625E-08  0.4211E-08  0.2326E-08  0.9858E-09  0.6925E-10  0.0000E+00  0.0000E+00  0.0000E+00  0.0000E+00  0.0000E+00  0.0000E+00  0.0000E+00  0.0000E+00  0.0000E+00  0.0000E+00  0.0000E+00  0.0000E+00
  0.0000E+00  0.0000E+00  0.0000E+00  0.0000E+00  0.0000E+00  0.1568E-09  0.4808E-09  0.8635E-09  0.1516E-08  0.2234E-08  0.3355E-08  0.5624E-08  0.8091E-08  0.1201E-07  0.1673E-07  0.2271E-07  0.3068E-07  0.4042E-07  0.5277E-07  0.6803E-07  0.1503E-06  0.5081E-06  0.1546E-05  0.3515E-05  0.5926E-05  0.7649E-05  0.8008E-05  0.7266E-05  0.6560E-05  0.6350E-05  0.6143E-05  0.5303E-05  0.3928E-05  0.2610E-05  0.1732E-05  0.1379E-05  0.1605E-05  0.2748E-05  0.4122E-05  0.4773E-05  0.4812E-05  0.4255E-05  0.3085E-05  0.1891E-05  0.1156E-05  0.8337E-06  0.6968E-06  0.6140E-06  0.5434E-06  0.4775E-06  0.4164E-06  0.3604E-06  0.3089E-06  0.2618E-06  0.2111E-06  0.1679E-06  0.1249E-06  0.9201E-07  0.6424E-07  0.4274E-07  0.2623E-07  0.1457E-07  0.7371E-08  0.4681E-08  0.2769E-08  0.1235E-08  0.2345E-09  0.0000E+00  0.0000E+00  0.0000E+00  0.0000E+00  0.0000E+00  0.0000E+00  0.0000E+00  0.0000E+00  0.0000E+00  0.0000E+00  0.0000E+00  0.0000E+00
  0.0000E+00  0.0000E+00  0.0000E+00  0.0000E+00  0.1526E-09  0.3385E-09  0.6889E-09  0.1102E-08  0.1601E-08  0.2310E-08  0.3564E-08  0.5760E-08  0.8754E-08  0.1253E-07  0.1732E-07  0.2325E-07  0.3182E-07  0.4249E-07  0.5584E-07  0.8042E-07  0.2214E-06  0.8149E-06  0.2481E-05  0.5433E-05  0.8504E-05  0.9644E-05  0.8468E-05  0.6735E-05  0.5819E-05  0.5380E-05  0.4631E-05  0.3436E-05  0.2242E-05  0.1494E-05  0.1165E-05  0.1184E-05  0.2045E-05  0.3324E-05  0.3904E-05  0.3944E-05  0.3660E-05  0.3089E-05  0.2279E-05  0.1562E-05  0.1099E-05  0.8635E-06  0.7405E-06  0.6565E-06  0.5805E-06  0.5100E-06  0.4446E-06  0.3845E-06  0.3301E-06  0.2806E-06  0.2333E-06  0.1861E-06  0.1438E-06  0.1049E-06  0.7524E-07  0.5156E-07  0.3298E-07  0.1959E-07  0.1073E-07  0.5256E-08  0.3289E-08  0.1621E-08  0.7230E-09  0.0000E+00  0.0000E+00  0.0000E+00  0.0000E+00  0.0000E+00  0.0000E+00  0.0000E+00  0.0000E+00  0.0000E+00  0.0000E+00  0.0000E+00  0.0000E+00
  0.0000E+00  0.0000E+00  0.0000E+00  0.7696E-10  0.2562E-09  0.4744E-09  0.7382E-09  0.1192E-08  0.1725E-08  0.2565E-08  0.3888E-08  0.6009E-08  0.8758E-08  0.1270E-07  0.1778E-07  0.2469E-07  0.3361E-07  0.4468E-07  0.5864E-07  0.8748E-07  0.2433E-06  0.8977E-06  0.2735E-05  0.6004E-05  0.9431E-05  0.1095E-04  0.1043E-04  0.9502E-05  0.8437E-05  0.6602E-05  0.4136E-05  0.2146E-05  0.1287E-05  0.1060E-05  0.1052E-05  0.1418E-05  0.2224E-05  0.2501E-05  0.2401E-05  0.2191E-05  0.1987E-05  0.1772E-05  0.1509E-05  0.1242E-05  0.1033E-05  0.8866E-06  0.7873E-06  0.6999E-06  0.6185E-06  0.5432E-06  0.4734E-06  0.4095E-06  0.3514E-06  0.2993E-06  0.2514E-06  0.2056E-06  0.1603E-06  0.1207E-06  0.8616E-07  0.6045E-07  0.4023E-07  0.2446E-07  0.1335E-07  0.6807E-08  0.3935E-08  0.2138E-08  0.7682E-09  0.2342E-09  0.0000E+00  0.0000E+00  0.0000E+00  0.0000E+00  0.0000E+00  0.0000E+00  0.0000E+00  0.0000E+00  0.0000E+00  0.0000E+00  0.0000E+00
  0.0000E+00  0.0000E+00  0.7292E-10  0.2427E-09  0.4492E-09  0.6993E-09  0.1000E-08  0.1432E-08  0.2012E-08  0.2768E-08  0.3946E-08  0.6260E-08  0.9271E-08  0.1337E-07  0.1875E-07  0.2552E-07  0.3490E-07  0.4695E-07  0.6207E-07  0.8886E-07  0.1971E-06  0.6307E-06  0.1804E-05  0.3863E-05  0.6073E-05  0.7549E-05  0.8444E-05  0.9006E-05  0.8647E-05  0.7254E-05  0.5481E-05  0.3718E-05  0.2096E-05  0.1100E-05  0.1239E-05  0.1246E-05  0.1315E-05  0.1365E-05  0.1398E-05  0.1418E-05  0.1417E-05  0.1363E-05  0.1267E-05  0.1153E-05  0.1037E-05  0.9288E-06  0.8314E-06  0.7407E-06  0.6556E-06  0.5754E-06  0.5020E-06  0.4345E-06  0.3735E-06  0.3184E-06  0.2690E-06  0.2217E-06  0.1779E-06  0.1342E-06  0.9981E-07  0.7070E-07  0.4681E-07  0.3072E-07  0.1724E-07  0.9579E-08  0.3942E-08  0.2509E-08  0.1295E-08  0.4856E-09  0.0000E+00  0.0000E+00  0.0000E+00  0.0000E+00  0.0000E+00  0.0000E+00  0.0000E+00  0.0000E+00  0.0000E+00  0.0000E+00  0.0000E+00
  0.0000E+00  0.0000E+00  0.1598E-09  0.3547E-09  0.5915E-09  0.8774E-09  0.1221E-08  0.1697E-08  0.2213E-08  0.3019E-08  0.4355E-08  0.6778E-08  0.9633E-08  0.1373E-07  0.1931E-07  0.2710E-07  0.3695E-07  0.4947E-07  0.6521E-07  0.8540E-07  0.1319E-06  0.2963E-06  0.6982E-06  0.1359E-05  0.2110E-05  0.2943E-05  0.3863E-05  0.4365E-05  0.3839E-05  0.2764E-05  0.1886E-05  0.1366E-05  0.1369E-05  0.1287E-05  0.1155E-05  0.1227E-05  0.1292E-05  0.1342E-05  0.1379E-05  0.1399E-05  0.1392E-05  0.1346E-05  0.1267E-05  0.1169E-05  0.1067E-05  0.9661E-06  0.8697E-06  0.7776E-06  0.6898E-06  0.6070E-06  0.5298E-06  0.4589E-06  0.3948E-06  0.3371E-06  0.2851E-06  0.2368E-06  0.1927E-06  0.1505E-06  0.1118E-06  0.8063E-07  0.5579E-07  0.3696E-07  0.2196E-07  0.1295E-07  0.6223E-08  0.3150E-08  0.1851E-08  0.7507E-09  0.2293E-09  0.0000E+00  0.0000E+00  0.0000E+00  0.0000E+00  0.0000E+00  0.0000E+00  0.0000E+00  0.0000E+00  0.0000E+00  0.0000E+00
  0.1292E-11  0.8239E-10  0.2677E-09  0.4911E-09  0.7636E-09  0.1090E-08  0.1428E-08  0.1906E-08  0.2601E-08  0.3379E-08  0.4741E-08  0.7113E-08  0.1017E-07  0.1459E-07  0.2057E-07  0.2846E-07  0.3872E-07  0.5240E-07  0.6939E-07  0.9059E-07  0.1164E-06  0.1639E-06  0.2546E-06  0.3924E-06  0.6438E-06  0.1111E-05  0.1615E-05  0.1884E-05  0.1716E-05  0.1693E-05  0.2328E-05  0.3163E-05  0.2134E-05  0.1281E-05  0.1217E-05  0.1270E-05  0.1337E-05  0.1385E-05  0.1414E-05  0.1421E-05  0.1401E-05  0.1351E-05  0.1277E-05  0.1189E-05  0.1094E-05  0.9988E-06  0.9031E-06  0.8103E-06  0.7210E-06  0.6352E-06  0.5557E-06  0.4820E-06  0.4153E-06  0.3549E-06  0.3006E-06  0.2510E-06  0.2061E-06  0.1628E-06  0.1245E-06  0.9067E-07  0.6505E-07  0.4358E-07  0.2679E-07  0.1609E-07  0.8485E-08  0.3553E-08  0.2181E-08  0.1254E-08  0.4702E-09  0.0000E+00  0.0000E+00  0.0000E+00  0.0000E+00  0.0000E+00  0.0000E+00  0.0000E+00  0.0000E+00  0.0000E+00  0.0000E+00
  0.3809E-11  0.1743E-09  0.3840E-09  0.6382E-09  0.9452E-09  0.1256E-08  0.1704E-08  0.2245E-08  0.2844E-08  0.3749E-08  0.5195E-08  0.7779E-08  0.1104E-07  0.1532E-07  0.2174E-07  0.3022E-07  0.4139E-07  0.5575E-07  0.7349E-07  0.9604E-07  0.1239E-06  0.1575E-06  0.1975E-06  0.2637E-06  0.4006E-06  0.7264E-06  0.1175E-05  0.1806E-05  0.2813E-05  0.4176E-05  0.4530E-05  0.2901E-05  0.1727E-05  0.1277E-05  0.1286E-05  0.1319E-05  0.1377E-05  0.1421E-05  0.1443E-05  0.1441E-05  0.1413E-05  0.1361E-05  0.1290E-05  0.1208E-05  0.1118E-05  0.1025E-05  0.9309E-06  0.8381E-06  0.7475E-06  0.6609E-06  0.5787E-06  0.5031E-06  0.4338E-06  0.3715E-06  0.3149E-06  0.2645E-06  0.2174E-06  0.1741E-06  0.1356E-06  0.1013E-06  0.7305E-07  0.5010E-07  0.3378E-07  0.1962E-07  0.1017E-07  0.5139E-08  0.2536E-08  0.1311E-08  0.4915E-09  0.0000E+00  0.0000E+00  0.0000E+00  0.0000E+00  0.0000E+00  0.0000E+00  0.0000E+00  0.0000E+00  0.0000E+00  0.0000E+00
  0.8897E-10  0.2830E-09  0.5147E-09  0.7986E-09  0.1076E-08  0.1496E-08  0.2002E-08  0.2566E-08  0.3291E-08  0.4396E-08  0.5980E-08  0.8563E-08  0.1204E-07  0.1683E-07  0.2360E-07  0.3239E-07  0.4396E-07  0.5916E-07  0.7830E-07  0.1022E-06  0.1315E-06  0.1674E-06  0.2102E-06  0.3080E-06  0.6375E-06  0.1380E-05  0.2723E-05  0.4380E-05  0.5516E-05  0.5088E-05  0.3395E-05  0.2271E-05  0.1615E-05  0.1331E-05  0.1361E-05  0.1371E-05  0.1412E-05  0.1451E-05  0.1467E-05  0.1458E-05  0.1427E-05  0.1374E-05  0.1305E-05  0.1224E-05  0.1137E-05  0.1045E-05  0.9521E-06  0.8595E-06  0.7690E-06  0.6814E-06  0.5986E-06  0.5213E-06  0.4505E-06  0.3860E-06  0.3274E-06  0.2758E-06  0.2273E-06  0.1837E-06  0.1444E-06  0.1109E-06  0.8155E-07  0.5701E-07  0.3820E-07  0.2358E-07  0.1346E-07  0.7259E-08  0.2884E-08  0.1844E-08  0.7475E-09  0.2292E-09  0.0000E+00  0.0000E+00  0.0000E+00  0.0000E+00  0.0000E+00  0.0000E+00  0.0000E+00  0.0000E+00  0.0000E+00
  0.1811E-09  0.3963E-09  0.6564E-09  0.9080E-09  0.1288E-08  0.1756E-08  0.2268E-08  0.2946E-08  0.3788E-08  0.5124E-08  0.7161E-08  0.9998E-08  0.1342E-07  0.1849E-07  0.2551E-07  0.3483E-07  0.4709E-07  0.6295E-07  0.8323E-07  0.1085E-06  0.1398E-06  0.1775E-06  0.2397E-06  0.4968E-06  0.1273E-05  0.3009E-05  0.5300E-05  0.6402E-05  0.5267E-05  0.3510E-05  0.2763E-05  0.2253E-05  0.1636E-05  0.1473E-05  0.1474E-05  0.1453E-05  0.1466E-05  0.1488E-05  0.1495E-05  0.1480E-05  0.1443E-05  0.1388E-05  0.1317E-05  0.1238E-05  0.1151E-05  0.1060E-05  0.9679E-06  0.8758E-06  0.7850E-06  0.6978E-06  0.6141E-06  0.5362E-06  0.4644E-06  0.3984E-06  0.3392E-06  0.2857E-06  0.2365E-06  0.1924E-06  0.1528E-06  0.1186E-06  0.8918E-07  0.6420E-07  0.4459E-07  0.2806E-07  0.1605E-07  0.8770E-08  0.4019E-08  0.1912E-08  0.1002E-08  0.2378E-09  0.0000E+00  0.0000E+00  0.0000E+00  0.0000E+00  0.0000E+00  0.0000E+00  0.0000E+00  0.0000E+00  0.0000E+00
  0.2848E-09  0.5209E-09  0.7361E-09  0.1086E-08  0.1507E-08  0.1972E-08  0.2593E-08  0.3308E-08  0.4389E-08  0.6027E-08  0.8335E-08  0.1141E-07  0.1536E-07  0.2064E-07  0.2781E-07  0.3744E-07  0.5042E-07  0.6723E-07  0.8850E-07  0.1150E-06  0.1482E-06  0.1882E-06  0.2779E-06  0.6865E-06  0.1862E-05  0.4138E-05  0.6350E-05  0.6169E-05  0.4016E-05  0.2778E-05  0.2681E-05  0.2376E-05  0.1935E-05  0.1750E-05  0.1664E-05  0.1596E-05  0.1563E-05  0.1552E-05  0.1537E-05  0.1508E-05  0.1463E-05  0.1402E-05  0.1330E-05  0.1248E-05  0.1160E-05  0.1070E-05  0.9778E-06  0.8861E-06  0.7959E-06  0.7089E-06  0.6259E-06  0.5477E-06  0.4751E-06  0.4086E-06  0.3484E-06  0.2939E-06  0.2439E-06  0.1994E-06  0.1597E-06  0.1248E-06  0.9604E-07  0.7034E-07  0.4887E-07  0.3220E-07  0.1960E-07  0.1077E-07  0.5583E-08  0.2214E-08  0.1035E-08  0.4775E-09  0.0000E+00  0.0000E+00  0.0000E+00  0.0000E+00  0.0000E+00  0.0000E+00  0.0000E+00  0.0000E+00  0.0000E+00
  0.3951E-09  0.5869E-09  0.8952E-09  0.1206E-08  0.1679E-08  0.2204E-08  0.2903E-08  0.3742E-08  0.5064E-08  0.7024E-08  0.9712E-08  0.1306E-07  0.1719E-07  0.2277E-07  0.3056E-07  0.4071E-07  0.5431E-07  0.7172E-07  0.9403E-07  0.1221E-06  0.1567E-06  0.1987E-06  0.3046E-06  0.7349E-06  0.1951E-05  0.4101E-05  0.6003E-05  0.5813E-05  0.4045E-05  0.2839E-05  0.2622E-05  0.2507E-05  0.2338E-05  0.2175E-05  0.2005E-05  0.1857E-05  0.1752E-05  0.1679E-05  0.1620E-05  0.1561E-05  0.1496E-05  0.1424E-05  0.1344E-05  0.1257E-05  0.1167E-05  0.1075E-05  0.9830E-06  0.8912E-06  0.8015E-06  0.7152E-06  0.6328E-06  0.5551E-06  0.4827E-06  0.4160E-06  0.3556E-06  0.2991E-06  0.2490E-06  0.2047E-06  0.1643E-06  0.1304E-06  0.1018E-06  0.7618E-07  0.5468E-07  0.3697E-07  0.2238E-07  0.1266E-07  0.6202E-08  0.2276E-08  0.1307E-08  0.4911E-09  0.0000E+00  0.0000E+00  0.0000E+00  0.0000E+00  0.0000E+00  0.0000E+00  0.0000E+00  0.0000E+00  0.0000E+00
  0.4367E-09  0.7181E-09  0.9955E-09  0.1411E-08  0.1867E-08  0.2475E-08  0.3186E-08  0.4206E-08  0.5790E-08  0.8048E-08  0.1086E-07  0.1449E-07  0.1925E-07  0.2548E-07  0.3376E-07  0.4442E-07  0.5843E-07  0.7658E-07  0.1001E-06  0.1292E-06  0.1653E-06  0.2092E-06  0.3129E-06  0.6838E-06  0.1721E-05  0.3545E-05  0.5422E-05  0.5942E-05  0.4811E-05  0.3428E-05  0.2698E-05  0.2545E-05  0.2553E-05  0.2526E-05  0.2399E-05  0.2221E-05  0.2043E-05  0.1893E-05  0.1767E-05  0.1659E-05  0.1558E-05  0.1462E-05  0.1365E-05  0.1269E-05  0.1173E-05  0.1078E-05  0.9835E-06  0.8917E-06  0.8026E-06  0.7169E-06  0.6358E-06  0.5586E-06  0.4867E-06  0.4206E-06  0.3596E-06  0.3048E-06  0.2544E-06  0.2095E-06  0.1689E-06  0.1350E-06  0.1054E-06  0.8059E-07  0.5899E-07  0.4054E-07  0.2577E-07  0.1455E-07  0.7573E-08  0.3111E-08  0.1573E-08  0.5029E-09  0.2256E-09  0.0000E+00  0.0000E+00  0.0000E+00  0.0000E+00  0.0000E+00  0.0000E+00  0.0000E+00  0.0000E+00
  0.5569E-09  0.7850E-09  0.1152E-08  0.1551E-08  0.2048E-08  0.2720E-08  0.3479E-08  0.4719E-08  0.6511E-08  0.9020E-08  0.1211E-07  0.1613E-07  0.2168E-07  0.2860E-07  0.3716E-07  0.4818E-07  0.6286E-07  0.8176E-07  0.1058E-06  0.1363E-06  0.1738E-06  0.2192E-06  0.3099E-06  0.6024E-06  0.1406E-05  0.2952E-05  0.4815E-05  0.5965E-05  0.5623E-05  0.4241E-05  0.3040E-05  0.2584E-05  0.2540E-05  0.2594E-05  0.2580E-05  0.2474E-05  0.2308E-05  0.2124E-05  0.1949E-05  0.1791E-05  0.1649E-05  0.1520E-05  0.1400E-05  0.1287E-05  0.1180E-05  0.1079E-05  0.9819E-06  0.8885E-06  0.7991E-06  0.7140E-06  0.6338E-06  0.5586E-06  0.4877E-06  0.4219E-06  0.3611E-06  0.3054E-06  0.2559E-06  0.2115E-06  0.1722E-06  0.1377E-06  0.1098E-06  0.8399E-07  0.6237E-07  0.4372E-07  0.2827E-07  0.1630E-07  0.8603E-08  0.4464E-08  0.1604E-08  0.5130E-09  0.2304E-09  0.0000E+00  0.0000E+00  0.0000E+00  0.0000E+00  0.0000E+00  0.0000E+00  0.0000E+00  0.0000E+00
  0.6045E-09  0.8618E-09  0.1259E-08  0.1690E-08  0.2284E-08  0.2950E-08  0.3838E-08  0.5196E-08  0.7279E-08  0.9949E-08  0.1354E-07  0.1822E-07  0.2409E-07  0.3132E-07  0.4058E-07  0.5241E-07  0.6758E-07  0.8716E-07  0.1121E-06  0.1434E-06  0.1820E-06  0.2287E-06  0.2986E-06  0.5274E-06  0.1159E-05  0.2450E-05  0.4236E-05  0.5761E-05  0.6105E-05  0.5111E-05  0.3680E-05  0.2761E-05  0.2459E-05  0.2441E-05  0.2477E-05  0.2466E-05  0.2380E-05  0.2240E-05  0.2075E-05  0.1905E-05  0.1740E-05  0.1586E-05  0.1444E-05  0.1311E-05  0.1189E-05  0.1078E-05  0.9767E-06  0.8813E-06  0.7915E-06  0.7069E-06  0.6282E-06  0.5539E-06  0.4852E-06  0.4207E-06  0.3613E-06  0.3067E-06  0.2575E-06  0.2133E-06  0.1745E-06  0.1402E-06  0.1117E-06  0.8623E-07  0.6630E-07  0.4713E-07  0.3119E-07  0.1878E-07  0.9547E-08  0.4561E-08  0.1629E-08  0.9829E-09  0.2342E-09  0.0000E+00  0.0000E+00  0.0000E+00  0.0000E+00  0.0000E+00  0.0000E+00  0.0000E+00  0.0000E+00
  0.6623E-09  0.9936E-09  0.1350E-08  0.1828E-08  0.2459E-08  0.3149E-08  0.4167E-08  0.5664E-08  0.8156E-08  0.1112E-07  0.1488E-07  0.1991E-07  0.2621E-07  0.3407E-07  0.4405E-07  0.5654E-07  0.7232E-07  0.9241E-07  0.1179E-06  0.1500E-06  0.1895E-06  0.2370E-06  0.2934E-06  0.4794E-06  0.1008E-05  0.2104E-05  0.3721E-05  0.5392E-05  0.6295E-05  0.5875E-05  0.4518E-05  0.3227E-05  0.2537E-05  0.2309E-05  0.2276E-05  0.2290E-05  0.2279E-05  0.2206E-05  0.2089E-05  0.1947E-05  0.1792E-05  0.1633E-05  0.1479E-05  0.1333E-05  0.1200E-05  0.1078E-05  0.9690E-06  0.8710E-06  0.7805E-06  0.6965E-06  0.6188E-06  0.5468E-06  0.4788E-06  0.4153E-06  0.3575E-06  0.3035E-06  0.2554E-06  0.2134E-06  0.1758E-06  0.1423E-06  0.1130E-06  0.8844E-07  0.6790E-07  0.4903E-07  0.3321E-07  0.2091E-07  0.1138E-07  0.5444E-08  0.2055E-08  0.9944E-09  0.2372E-09  0.0000E+00  0.0000E+00  0.0000E+00  0.0000E+00  0.0000E+00  0.0000E+00  0.0000E+00  0.0000E+00
  0.7730E-09  0.1069E-08  0.1447E-08  0.1999E-08  0.2626E-08  0.3378E-08  0.4601E-08  0.6460E-08  0.8905E-08  0.1200E-07  0.1626E-07  0.2162E-07  0.2826E-07  0.3676E-07  0.4736E-07  0.6047E-07  0.7704E-07  0.9756E-07  0.1235E-06  0.1561E-06  0.1960E-06  0.2441E-06  0.3006E-06  0.4901E-06  0.9513E-06  0.1879E-05  0.3281E-05  0.4938E-05  0.6209E-05  0.6392E-05  0.5422E-05  0.3972E-05  0.2876E-05  0.2359E-05  0.2185E-05  0.2142E-05  0.2121E-05  0.2090E-05  0.2019E-05  0.1914E-05  0.1784E-05  0.1639E-05  0.1490E-05  0.1342E-05  0.1202E-05  0.1074E-05  0.9588E-06  0.8566E-06  0.7655E-06  0.6825E-06  0.6062E-06  0.5354E-06  0.4704E-06  0.4097E-06  0.3529E-06  0.3019E-06  0.2547E-06  0.2129E-06  0.1744E-06  0.1424E-06  0.1143E-06  0.8948E-07  0.6967E-07  0.5089E-07  0.3489E-07  0.2250E-07  0.1198E-07  0.5274E-08  0.2079E-08  0.1002E-08  0.2393E-09  0.0000E+00  0.0000E+00  0.0000E+00  0.0000E+00  0.0000E+00  0.0000E+00  0.0000E+00  0.0000E+00
  0.8144E-09  0.1144E-08  0.1565E-08  0.2099E-08  0.2851E-08  0.3789E-08  0.5084E-08  0.7034E-08  0.9587E-08  0.1304E-07  0.1754E-07  0.2321E-07  0.3029E-07  0.3917E-07  0.5044E-07  0.6412E-07  0.8102E-07  0.1022E-06  0.1285E-06  0.1612E-06  0.2013E-06  0.2494E-06  0.3061E-06  0.5028E-06  0.9145E-06  0.1714E-05  0.2867E-05  0.4359E-05  0.5771E-05  0.6499E-05  0.6115E-05  0.4856E-05  0.3505E-05  0.2632E-05  0.2234E-05  0.2082E-05  0.2024E-05  0.1974E-05  0.1910E-05  0.1829E-05  0.1725E-05  0.1601E-05  0.1467E-05  0.1328E-05  0.1191E-05  0.1063E-05  0.9451E-06  0.8398E-06  0.7468E-06  0.6646E-06  0.5900E-06  0.5219E-06  0.4586E-06  0.3998E-06  0.3445E-06  0.2940E-06  0.2490E-06  0.2086E-06  0.1730E-06  0.1415E-06  0.1143E-06  0.9054E-07  0.6947E-07  0.5149E-07  0.3640E-07  0.2370E-07  0.1300E-07  0.6466E-08  0.2453E-08  0.1005E-08  0.2404E-09  0.0000E+00  0.0000E+00  0.0000E+00  0.0000E+00  0.0000E+00  0.0000E+00  0.0000E+00  0.0000E+00
  0.8495E-09  0.1193E-08  0.1630E-08  0.2352E-08  0.3048E-08  0.4025E-08  0.5509E-08  0.7530E-08  0.1031E-07  0.1388E-07  0.1868E-07  0.2463E-07  0.3200E-07  0.4142E-07  0.5296E-07  0.6710E-07  0.8447E-07  0.1062E-06  0.1329E-06  0.1657E-06  0.2053E-06  0.2529E-06  0.3518E-06  0.5691E-06  0.9608E-06  0.1594E-05  0.2528E-05  0.3754E-05  0.5063E-05  0.6048E-05  0.6247E-05  0.5518E-05  0.4250E-05  0.3111E-05  0.2441E-05  0.2123E-05  0.1978E-05  0.1896E-05  0.1822E-05  0.1735E-05  0.1635E-05  0.1530E-05  0.1412E-05  0.1288E-05  0.1161E-05  0.1039E-05  0.9239E-06  0.8198E-06  0.7268E-06  0.6441E-06  0.5713E-06  0.5054E-06  0.4451E-06  0.3894E-06  0.3372E-06  0.2887E-06  0.2445E-06  0.2053E-06  0.1699E-06  0.1393E-06  0.1136E-06  0.9063E-07  0.6898E-07  0.5258E-07  0.3686E-07  0.2415E-07  0.1429E-07  0.6898E-08  0.2882E-08  0.1005E-08  0.2405E-09  0.0000E+00  0.0000E+00  0.0000E+00  0.0000E+00  0.0000E+00  0.0000E+00  0.0000E+00  0.0000E+00
  0.8778E-09  0.1313E-08  0.1802E-08  0.2496E-08  0.3276E-08  0.4240E-08  0.5840E-08  0.7956E-08  0.1087E-07  0.1487E-07  0.1974E-07  0.2584E-07  0.3359E-07  0.4304E-07  0.5497E-07  0.6943E-07  0.8731E-07  0.1093E-06  0.1362E-06  0.1686E-06  0.2077E-06  0.2544E-06  0.3751E-06  0.5967E-06  0.9739E-06  0.1512E-05  0.2276E-05  0.3259E-05  0.4345E-05  0.5310E-05  0.5850E-05  0.5656E-05  0.4801E-05  0.3684E-05  0.2792E-05  0.2269E-05  0.2002E-05  0.1847E-05  0.1746E-05  0.1652E-05  0.1557E-05  0.1449E-05  0.1338E-05  0.1227E-05  0.1114E-05  0.1001E-05  0.8939E-06  0.7944E-06  0.7040E-06  0.6230E-06  0.5507E-06  0.4868E-06  0.4294E-06  0.3756E-06  0.3250E-06  0.2791E-06  0.2371E-06  0.2000E-06  0.1666E-06  0.1374E-06  0.1123E-06  0.8931E-07  0.6935E-07  0.5298E-07  0.3696E-07  0.2523E-07  0.1455E-07  0.7380E-08  0.2890E-08  0.7658E-09  0.2397E-09  0.0000E+00  0.0000E+00  0.0000E+00  0.0000E+00  0.0000E+00  0.0000E+00  0.0000E+00  0.0000E+00
  0.9871E-09  0.1404E-08  0.1898E-08  0.2574E-08  0.3451E-08  0.4490E-08  0.6215E-08  0.8521E-08  0.1150E-07  0.1557E-07  0.2062E-07  0.2688E-07  0.3482E-07  0.4443E-07  0.5637E-07  0.7112E-07  0.8908E-07  0.1109E-06  0.1377E-06  0.1698E-06  0.2086E-06  0.2884E-06  0.4251E-06  0.6536E-06  0.9783E-06  0.1446E-05  0.2089E-05  0.2891E-05  0.3788E-05  0.4637E-05  0.5245E-05  0.5392E-05  0.4973E-05  0.4128E-05  0.3216E-05  0.2522E-05  0.2108E-05  0.1864E-05  0.1701E-05  0.1583E-05  0.1474E-05  0.1370E-05  0.1266E-05  0.1159E-05  0.1054E-05  0.9529E-06  0.8545E-06  0.7618E-06  0.6767E-06  0.5993E-06  0.5298E-06  0.4675E-06  0.4120E-06  0.3617E-06  0.3144E-06  0.2698E-06  0.2294E-06  0.1937E-06  0.1621E-06  0.1330E-06  0.1088E-06  0.8748E-07  0.6908E-07  0.5193E-07  0.3780E-07  0.2551E-07  0.1464E-07  0.7545E-08  0.2887E-08  0.7599E-09  0.2380E-09  0.0000E+00  0.0000E+00  0.0000E+00  0.0000E+00  0.0000E+00  0.0000E+00  0.0000E+00  0.0000E+00
  0.1044E-08  0.1498E-08  0.1993E-08  0.2710E-08  0.3568E-08  0.4748E-08  0.6554E-08  0.8821E-08  0.1196E-07  0.1614E-07  0.2112E-07  0.2770E-07  0.3556E-07  0.4516E-07  0.5724E-07  0.7205E-07  0.8997E-07  0.1115E-06  0.1379E-06  0.1696E-06  0.2070E-06  0.2997E-06  0.4405E-06  0.6654E-06  0.9551E-06  0.1378E-05  0.1936E-05  0.2607E-05  0.3359E-05  0.4098E-05  0.4692E-05  0.4988E-05  0.4864E-05  0.4353E-05  0.3588E-05  0.2837E-05  0.2285E-05  0.1933E-05  0.1704E-05  0.1537E-05  0.1408E-05  0.1296E-05  0.1192E-05  0.1090E-05  0.9905E-06  0.8972E-06  0.8084E-06  0.7237E-06  0.6448E-06  0.5726E-06  0.5068E-06  0.4477E-06  0.3942E-06  0.3449E-06  0.2995E-06  0.2589E-06  0.2209E-06  0.1867E-06  0.1562E-06  0.1298E-06  0.1059E-06  0.8519E-07  0.6748E-07  0.5114E-07  0.3739E-07  0.2557E-07  0.1547E-07  0.7554E-08  0.2633E-08  0.7510E-09  0.2353E-09  0.0000E+00  0.0000E+00  0.0000E+00  0.0000E+00  0.0000E+00  0.0000E+00  0.0000E+00  0.0000E+00
  0.1108E-08  0.1570E-08  0.2109E-08  0.2843E-08  0.3734E-08  0.4950E-08  0.6821E-08  0.9117E-08  0.1237E-07  0.1660E-07  0.2164E-07  0.2792E-07  0.3572E-07  0.4528E-07  0.5731E-07  0.7203E-07  0.8958E-07  0.1110E-06  0.1365E-06  0.1672E-06  0.2259E-06  0.3250E-06  0.4688E-06  0.6691E-06  0.9422E-06  0.1308E-05  0.1797E-05  0.2359E-05  0.3004E-05  0.3645E-05  0.4197E-05  0.4557E-05  0.4625E-05  0.4352E-05  0.3799E-05  0.3122E-05  0.2505E-05  0.2051E-05  0.1743E-05  0.1525E-05  0.1362E-05  0.1233E-05  0.1123E-05  0.1022E-05  0.9293E-06  0.8404E-06  0.7581E-06  0.6820E-06  0.6101E-06  0.5434E-06  0.4823E-06  0.4259E-06  0.3740E-06  0.3278E-06  0.2860E-06  0.2480E-06  0.2118E-06  0.1786E-06  0.1495E-06  0.1237E-06  0.1018E-06  0.8245E-07  0.6490E-07  0.5033E-07  0.3726E-07  0.2520E-07  0.1521E-07  0.7219E-08  0.2972E-08  0.7391E-09  0.2317E-09  0.0000E+00  0.0000E+00  0.0000E+00  0.0000E+00  0.0000E+00  0.0000E+00  0.0000E+00  0.0000E+00
  0.1162E-08  0.1642E-08  0.2225E-08  0.2937E-08  0.3889E-08  0.5143E-08  0.6918E-08  0.9355E-08  0.1269E-07  0.1674E-07  0.2165E-07  0.2788E-07  0.3564E-07  0.4520E-07  0.5688E-07  0.7133E-07  0.8850E-07  0.1090E-06  0.1337E-06  0.1631E-06  0.2276E-06  0.3210E-06  0.4705E-06  0.6604E-06  0.9103E-06  0.1246E-05  0.1660E-05  0.2148E-05  0.2693E-05  0.3245E-05  0.3755E-05  0.4126E-05  0.4294E-05  0.4204E-05  0.3848E-05  0.3305E-05  0.2704E-05  0.2190E-05  0.1807E-05  0.1536E-05  0.1336E-05  0.1184E-05  0.1061E-05  0.9588E-06  0.8673E-06  0.7851E-06  0.7072E-06  0.6378E-06  0.5728E-06  0.5123E-06  0.4554E-06  0.4021E-06  0.3541E-06  0.3107E-06  0.2708E-06  0.2353E-06  0.2019E-06  0.1712E-06  0.1440E-06  0.1197E-06  0.9846E-07  0.7932E-07  0.6196E-07  0.4742E-07  0.3557E-07  0.2436E-07  0.1524E-07  0.7186E-08  0.2948E-08  0.4993E-09  0.2272E-09  0.0000E+00  0.0000E+00  0.0000E+00  0.0000E+00  0.0000E+00  0.0000E+00  0.0000E+00  0.0000E+00
  0.1190E-08  0.1711E-08  0.2300E-08  0.3032E-08  0.4018E-08  0.5241E-08  0.7122E-08  0.9498E-08  0.1271E-07  0.1658E-07  0.2159E-07  0.2767E-07  0.3512E-07  0.4441E-07  0.5579E-07  0.6977E-07  0.8631E-07  0.1063E-06  0.1298E-06  0.1695E-06  0.2330E-06  0.3283E-06  0.4667E-06  0.6383E-06  0.8668E-06  0.1170E-05  0.1522E-05  0.1963E-05  0.2422E-05  0.2895E-05  0.3336E-05  0.3707E-05  0.3926E-05  0.3940E-05  0.3743E-05  0.3348E-05  0.2836E-05  0.2313E-05  0.1880E-05  0.1559E-05  0.1323E-05  0.1146E-05  0.1010E-05  0.9003E-06  0.8094E-06  0.7309E-06  0.6587E-06  0.5935E-06  0.5343E-06  0.4794E-06  0.4271E-06  0.3784E-06  0.3337E-06  0.2929E-06  0.2554E-06  0.2218E-06  0.1907E-06  0.1622E-06  0.1364E-06  0.1127E-06  0.9268E-07  0.7536E-07  0.6056E-07  0.4566E-07  0.3377E-07  0.2332E-07  0.1472E-07  0.7508E-08  0.2682E-08  0.2550E-09  0.0000E+00  0.0000E+00  0.0000E+00  0.0000E+00  0.0000E+00  0.0000E+00  0.0000E+00  0.0000E+00  0.0000E+00
  0.1236E-08  0.1765E-08  0.2382E-08  0.3128E-08  0.4027E-08  0.5324E-08  0.7190E-08  0.9611E-08  0.1263E-07  0.1652E-07  0.2120E-07  0.2697E-07  0.3446E-07  0.4338E-07  0.5438E-07  0.6768E-07  0.8347E-07  0.1024E-06  0.1247E-06  0.1669E-06  0.2304E-06  0.3255E-06  0.4476E-06  0.6128E-06  0.8168E-06  0.1080E-05  0.1410E-05  0.1771E-05  0.2170E-05  0.2580E-05  0.2977E-05  0.3317E-05  0.3549E-05  0.3626E-05  0.3524E-05  0.3261E-05  0.2858E-05  0.2389E-05  0.1940E-05  0.1581E-05  0.1313E-05  0.1114E-05  0.9641E-06  0.8474E-06  0.7542E-06  0.6776E-06  0.6102E-06  0.5489E-06  0.4947E-06  0.4450E-06  0.3983E-06  0.3539E-06  0.3125E-06  0.2748E-06  0.2408E-06  0.2095E-06  0.1807E-06  0.1541E-06  0.1296E-06  0.1076E-06  0.8843E-07  0.7152E-07  0.5654E-07  0.4408E-07  0.3225E-07  0.2252E-07  0.1387E-07  0.6568E-08  0.2409E-08  0.2481E-09  0.0000E+00  0.0000E+00  0.0000E+00  0.0000E+00  0.0000E+00  0.0000E+00  0.0000E+00  0.0000E+00  0.0000E+00
  0.1179E-08  0.1765E-08  0.2396E-08  0.3154E-08  0.4051E-08  0.5286E-08  0.7064E-08  0.9402E-08  0.1242E-07  0.1619E-07  0.2064E-07  0.2631E-07  0.3336E-07  0.4188E-07  0.5231E-07  0.6483E-07  0.7999E-07  0.9784E-07  0.1205E-06  0.1624E-06  0.2244E-06  0.3121E-06  0.4273E-06  0.5716E-06  0.7613E-06  0.9999E-06  0.1278E-05  0.1594E-05  0.1938E-05  0.2289E-05  0.2633E-05  0.2941E-05  0.3168E-05  0.3275E-05  0.3250E-05  0.3071E-05  0.2774E-05  0.2385E-05  0.1967E-05  0.1590E-05  0.1295E-05  0.1081E-05  0.9199E-06  0.7978E-06  0.7023E-06  0.6254E-06  0.5622E-06  0.5065E-06  0.4561E-06  0.4116E-06  0.3694E-06  0.3289E-06  0.2918E-06  0.2575E-06  0.2253E-06  0.1954E-06  0.1683E-06  0.1430E-06  0.1211E-06  0.1009E-06  0.8329E-07  0.6751E-07  0.5399E-07  0.4112E-07  0.3057E-07  0.2036E-07  0.1262E-07  0.6475E-08  0.1952E-08  0.2404E-09  0.0000E+00  0.0000E+00  0.0000E+00  0.0000E+00  0.0000E+00  0.0000E+00  0.0000E+00  0.0000E+00  0.0000E+00
  0.1216E-08  0.1724E-08  0.2464E-08  0.3214E-08  0.4127E-08  0.5330E-08  0.6850E-08  0.9180E-08  0.1202E-07  0.1549E-07  0.1989E-07  0.2503E-07  0.3174E-07  0.3988E-07  0.4978E-07  0.6169E-07  0.7565E-07  0.9233E-07  0.1162E-06  0.1568E-06  0.2147E-06  0.2991E-06  0.4004E-06  0.5353E-06  0.7006E-06  0.9126E-06  0.1147E-05  0.1434E-05  0.1722E-05  0.2022E-05  0.2324E-05  0.2594E-05  0.2799E-05  0.2917E-05  0.2935E-05  0.2827E-05  0.2602E-05  0.2297E-05  0.1936E-05  0.1575E-05  0.1270E-05  0.1039E-05  0.8727E-06  0.7474E-06  0.6521E-06  0.5767E-06  0.5158E-06  0.4648E-06  0.4181E-06  0.3781E-06  0.3404E-06  0.3043E-06  0.2702E-06  0.2384E-06  0.2090E-06  0.1830E-06  0.1587E-06  0.1358E-06  0.1143E-06  0.9555E-07  0.7831E-07  0.6346E-07  0.4889E-07  0.3800E-07  0.2828E-07  0.1938E-07  0.1113E-07  0.5612E-08  0.1562E-08  0.2320E-09  0.0000E+00  0.0000E+00  0.0000E+00  0.0000E+00  0.0000E+00  0.0000E+00  0.0000E+00  0.0000E+00  0.0000E+00
  0.1237E-08  0.1751E-08  0.2391E-08  0.3199E-08  0.4165E-08  0.5268E-08  0.6744E-08  0.8967E-08  0.1168E-07  0.1488E-07  0.1884E-07  0.2401E-07  0.3022E-07  0.3776E-07  0.4695E-07  0.5810E-07  0.7119E-07  0.8653E-07  0.1114E-06  0.1508E-06  0.2036E-06  0.2767E-06  0.3725E-06  0.4915E-06  0.6426E-06  0.8192E-06  0.1038E-05  0.1268E-05  0.1520E-05  0.1781E-05  0.2033E-05  0.2265E-05  0.2450E-05  0.2572E-05  0.2607E-05  0.2543E-05  0.2383E-05  0.2139E-05  0.1844E-05  0.1525E-05  0.1227E-05  0.9906E-06  0.8174E-06  0.6943E-06  0.6011E-06  0.5297E-06  0.4717E-06  0.4234E-06  0.3825E-06  0.3453E-06  0.3121E-06  0.2796E-06  0.2494E-06  0.2204E-06  0.1943E-06  0.1696E-06  0.1464E-06  0.1251E-06  0.1062E-06  0.8829E-07  0.7254E-07  0.5846E-07  0.4677E-07  0.3590E-07  0.2617E-07  0.1755E-07  0.1036E-07  0.4577E-08  0.1071E-08  0.0000E+00  0.0000E+00  0.0000E+00  0.0000E+00  0.0000E+00  0.0000E+00  0.0000E+00  0.0000E+00  0.0000E+00  0.0000E+00
  0.1266E-08  0.1783E-08  0.2410E-08  0.3074E-08  0.3952E-08  0.5005E-08  0.6529E-08  0.8494E-08  0.1114E-07  0.1395E-07  0.1777E-07  0.2246E-07  0.2828E-07  0.3546E-07  0.4402E-07  0.5400E-07  0.6613E-07  0.8045E-07  0.1038E-06  0.1389E-06  0.1882E-06  0.2555E-06  0.3400E-06  0.4450E-06  0.5787E-06  0.7364E-06  0.9170E-06  0.1117E-05  0.1332E-05  0.1547E-05  0.1764E-05  0.1957E-05  0.2124E-05  0.2238E-05  0.2283E-05  0.2248E-05  0.2134E-05  0.1946E-05  0.1700E-05  0.1431E-05  0.1164E-05  0.9333E-06  0.7594E-06  0.6368E-06  0.5476E-06  0.4815E-06  0.4285E-06  0.3845E-06  0.3466E-06  0.3137E-06  0.2842E-06  0.2561E-06  0.2283E-06  0.2028E-06  0.1780E-06  0.1555E-06  0.1363E-06  0.1172E-06  0.9927E-07  0.8251E-07  0.6716E-07  0.5439E-07  0.4213E-07  0.3229E-07  0.2395E-07  0.1571E-07  0.9213E-08  0.4066E-08  0.1031E-08  0.0000E+00  0.0000E+00  0.0000E+00  0.0000E+00  0.0000E+00  0.0000E+00  0.0000E+00  0.0000E+00  0.0000E+00  0.0000E+00
  0.1150E-08  0.1745E-08  0.2361E-08  0.3040E-08  0.3892E-08  0.4913E-08  0.6118E-08  0.8038E-08  0.1038E-07  0.1323E-07  0.1677E-07  0.2114E-07  0.2647E-07  0.3271E-07  0.4057E-07  0.4995E-07  0.6101E-07  0.7404E-07  0.9616E-07  0.1289E-06  0.1752E-06  0.2311E-06  0.3058E-06  0.3988E-06  0.5110E-06  0.6521E-06  0.8012E-06  0.9820E-06  0.1159E-05  0.1345E-05  0.1522E-05  0.1688E-05  0.1831E-05  0.1931E-05  0.1975E-05  0.1954E-05  0.1871E-05  0.1729E-05  0.1532E-05  0.1306E-05  0.1077E-05  0.8656E-06  0.6979E-06  0.5784E-06  0.4938E-06  0.4320E-06  0.3860E-06  0.3472E-06  0.3130E-06  0.2837E-06  0.2570E-06  0.2321E-06  0.2077E-06  0.1849E-06  0.1632E-06  0.1436E-06  0.1247E-06  0.1067E-06  0.9111E-07  0.7577E-07  0.6202E-07  0.4995E-07  0.3912E-07  0.2981E-07  0.2120E-07  0.1391E-07  0.8094E-08  0.3488E-08  0.9869E-09  0.0000E+00  0.0000E+00  0.0000E+00  0.0000E+00  0.0000E+00  0.0000E+00  0.0000E+00  0.0000E+00  0.0000E+00  0.0000E+00
  0.1098E-08  0.1609E-08  0.2258E-08  0.2990E-08  0.3791E-08  0.4688E-08  0.5843E-08  0.7495E-08  0.9612E-08  0.1220E-07  0.1525E-07  0.1950E-07  0.2438E-07  0.3034E-07  0.3741E-07  0.4588E-07  0.5588E-07  0.6754E-07  0.8804E-07  0.1165E-06  0.1559E-06  0.2086E-06  0.2718E-06  0.3528E-06  0.4537E-06  0.5667E-06  0.7059E-06  0.8472E-06  0.9998E-06  0.1155E-05  0.1302E-05  0.1440E-05  0.1560E-05  0.1647E-05  0.1686E-05  0.1678E-05  0.1616E-05  0.1505E-05  0.1350E-05  0.1165E-05  0.9701E-06  0.7881E-06  0.6334E-06  0.5193E-06  0.4408E-06  0.3850E-06  0.3428E-06  0.3104E-06  0.2814E-06  0.2547E-06  0.2321E-06  0.2096E-06  0.1883E-06  0.1676E-06  0.1482E-06  0.1298E-06  0.1135E-06  0.9818E-07  0.8399E-07  0.6978E-07  0.5685E-07  0.4604E-07  0.3505E-07  0.2636E-07  0.1936E-07  0.1225E-07  0.6654E-08  0.2222E-08  0.3664E-09  0.0000E+00  0.0000E+00  0.0000E+00  0.0000E+00  0.0000E+00  0.0000E+00  0.0000E+00  0.0000E+00  0.0000E+00  0.0000E+00
  0.1097E-08  0.1576E-08  0.2116E-08  0.2690E-08  0.3464E-08  0.4358E-08  0.5394E-08  0.6932E-08  0.8859E-08  0.1118E-07  0.1413E-07  0.1783E-07  0.2221E-07  0.2769E-07  0.3422E-07  0.4168E-07  0.5067E-07  0.6120E-07  0.7794E-07  0.1037E-06  0.1419E-06  0.1841E-06  0.2415E-06  0.3083E-06  0.3949E-06  0.4940E-06  0.6050E-06  0.7266E-06  0.8555E-06  0.9849E-06  0.1106E-05  0.1219E-05  0.1321E-05  0.1385E-05  0.1425E-05  0.1421E-05  0.1375E-05  0.1288E-05  0.1166E-05  0.1017E-05  0.8570E-06  0.7021E-06  0.5675E-06  0.4605E-06  0.3899E-06  0.3398E-06  0.3027E-06  0.2736E-06  0.2494E-06  0.2280E-06  0.2076E-06  0.1887E-06  0.1692E-06  0.1511E-06  0.1337E-06  0.1181E-06  0.1034E-06  0.8911E-07  0.7603E-07  0.6365E-07  0.5189E-07  0.4140E-07  0.3184E-07  0.2404E-07  0.1704E-07  0.1016E-07  0.4890E-08  0.1776E-08  0.3589E-09  0.0000E+00  0.0000E+00  0.0000E+00  0.0000E+00  0.0000E+00  0.0000E+00  0.0000E+00  0.0000E+00  0.0000E+00  0.0000E+00
