DSAA
          79         109
    318.3670    342.0670
   7336.5760   7369.2760
  0.0000E+00  0.5292E-04
  0.0000E+00  0.0000E+00  0.0000E+00  0.0000E+00  0.0000E+00  0.0000E+00  0.0000E+00  0.0000E+00  0.0000E+00  0.0000E+00  0.0000E+00  0.0000E+00  0.0000E+00  0.0000E+00  0.0000E+00  0.0000E+00  0.0000E+00  0.0000E+00  0.0000E+00  0.0000E+00  0.0000E+00  0.0000E+00  0.0000E+00  0.0000E+00  0.0000E+00  0.0000E+00  0.0000E+00  0.0000E+00  0.0000E+00  0.0000E+00  0.0000E+00  0.0000E+00  0.0000E+00  0.0000E+00  0.0000E+00  0.0000E+00  0.0000E+00  0.0000E+00  0.0000E+00  0.0000E+00  0.0000E+00  0.0000E+00  0.0000E+00  0.0000E+00  0.0000E+00  0.0000E+00  0.0000E+00  0.0000E+00  0.0000E+00  0.0000E+00  0.0000E+00  0.0000E+00  0.0000E+00  0.0000E+00  0.0000E+00  0.0000E+00  0.0000E+00  0.0000E+00  0.0000E+00  0.0000E+00  0.0000E+00  0.0000E+00  0.0000E+00  0.0000E+00  0.0000E+00  0.0000E+00  0.0000E+00  0.0000E+00  0.0000E+00  0.0000E+00  0.0000E+00  0.0000E+00  0.0000E+00  0.0000E+00  0.0000E+00  0.0000E+00  0.0000E+00  0.0000E+00  0.0000E+00
  0.0000E+00  0.0000E+00  0.0000E+00  0.0000E+00  0.0000E+00  0.0000E+00  0.0000E+00  0.0000E+00  0.0000E+00  0.0000E+00  0.0000E+00  0.0000E+00  0.0000E+00  0.0000E+00  0.0000E+00  0.0000E+00  0.0000E+00  0.0000E+00  0.0000E+00  0.0000E+00  0.0000E+00  0.0000E+00  0.0000E+00  0.0000E+00  0.0000E+00  0.0000E+00  0.0000E+00  0.0000E+00  0.0000E+00  0.0000E+00  0.0000E+00  0.0000E+00  0.0000E+00  0.0000E+00  0.0000E+00  0.0000E+00  0.0000E+00  0.0000E+00  0.0000E+00  0.0000E+00  0.0000E+00  0.0000E+00  0.0000E+00  0.0000E+00  0.0000E+00  0.0000E+00  0.0000E+00  0.0000E+00  0.0000E+00  0.0000E+00  0.0000E+00  0.0000E+00  0.0000E+00  0.0000E+00  0.0000E+00  0.0000E+00  0.0000E+00  0.0000E+00  0.0000E+00  0.0000E+00  0.0000E+00  0.0000E+00  0.0000E+00  0.0000E+00  0.0000E+00  0.0000E+00  0.0000E+00  0.0000E+00  0.0000E+00  0.0000E+00  0.0000E+00  0.0000E+00  0.0000E+00  0.0000E+00  0.0000E+00  0.0000E+00  0.0000E+00  0.0000E+00  0.0000E+00
  0.0000E+00  0.0000E+00  0.0000E+00  0.0000E+00  0.0000E+00  0.0000E+00  0.0000E+00  0.0000E+00  0.0000E+00  0.0000E+00  0.0000E+00  0.0000E+00  0.0000E+00  0.0000E+00  0.0000E+00  0.0000E+00  0.0000E+00  0.0000E+00  0.0000E+00  0.0000E+00  0.0000E+00  0.0000E+00  0.0000E+00  0.0000E+00  0.0000E+00  0.0000E+00  0.0000E+00  0.0000E+00  0.0000E+00  0.0000E+00  0.0000E+00  0.0000E+00  0.0000E+00  0.0000E+00  0.0000E+00  0.0000E+00  0.0000E+00  0.0000E+00  0.0000E+00  0.0000E+00  0.0000E+00  0.0000E+00  0.0000E+00  0.0000E+00  0.0000E+00  0.0000E+00  0.0000E+00  0.0000E+00  0.0000E+00  0.0000E+00  0.0000E+00  0.0000E+00  0.0000E+00  0.0000E+00  0.0000E+00  0.0000E+00  0.0000E+00  0.0000E+00  0.0000E+00  0.0000E+00  0.0000E+00  0.0000E+00  0.0000E+00  0.0000E+00  0.0000E+00  0.0000E+00  0.0000E+00  0.0000E+00  0.0000E+00  0.0000E+00  0.0000E+00  0.0000E+00  0.0000E+00  0.0000E+00  0.0000E+00  0.0000E+00  0.0000E+00  0.0000E+00  0.0000E+00
  0.0000E+00  0.0000E+00  0.0000E+00  0.0000E+00  0.0000E+00  0.0000E+00  0.0000E+00  0.0000E+00  0.0000E+00  0.0000E+00  0.0000E+00  0.0000E+00  0.0000E+00  0.0000E+00  0.0000E+00  0.0000E+00  0.0000E+00  0.0000E+00  0.0000E+00  0.0000E+00  0.0000E+00  0.0000E+00  0.0000E+00  0.0000E+00  0.0000E+00  0.0000E+00  0.0000E+00  0.0000E+00  0.0000E+00  0.0000E+00  0.0000E+00  0.0000E+00  0.0000E+00  0.0000E+00  0.0000E+00  0.0000E+00  0.0000E+00  0.0000E+00  0.0000E+00  0.0000E+00  0.0000E+00  0.0000E+00  0.0000E+00  0.0000E+00  0.0000E+00  0.0000E+00  0.0000E+00  0.0000E+00  0.0000E+00  0.0000E+00  0.0000E+00  0.0000E+00  0.0000E+00  0.0000E+00  0.0000E+00  0.0000E+00  0.0000E+00  0.0000E+00  0.0000E+00  0.0000E+00  0.0000E+00  0.0000E+00  0.0000E+00  0.0000E+00  0.0000E+00  0.0000E+00  0.0000E+00  0.0000E+00  0.0000E+00  0.0000E+00  0.0000E+00  0.0000E+00  0.0000E+00  0.0000E+00  0.0000E+00  0.0000E+00  0.0000E+00  0.0000E+00  0.0000E+00
  0.0000E+00  0.0000E+00  0.0000E+00  0.0000E+00  0.0000E+00  0.0000E+00  0.0000E+00  0.0000E+00  0.0000E+00  0.0000E+00  0.0000E+00  0.0000E+00  0.0000E+00  0.0000E+00  0.0000E+00  0.0000E+00  0.0000E+00  0.0000E+00  0.0000E+00  0.0000E+00  0.0000E+00  0.0000E+00  0.0000E+00  0.0000E+00  0.0000E+00  0.0000E+00  0.0000E+00  0.0000E+00  0.0000E+00  0.0000E+00  0.0000E+00  0.0000E+00  0.0000E+00  0.0000E+00  0.0000E+00  0.0000E+00  0.0000E+00  0.0000E+00  0.0000E+00  0.0000E+00  0.0000E+00  0.0000E+00  0.0000E+00  0.0000E+00  0.0000E+00  0.0000E+00  0.0000E+00  0.0000E+00  0.0000E+00  0.0000E+00  0.0000E+00  0.0000E+00  0.0000E+00  0.0000E+00  0.0000E+00  0.0000E+00  0.0000E+00  0.0000E+00  0.0000E+00  0.0000E+00  0.0000E+00  0.0000E+00  0.0000E+00  0.0000E+00  0.0000E+00  0.0000E+00  0.0000E+00  0.0000E+00  0.0000E+00  0.0000E+00  0.0000E+00  0.0000E+00  0.0000E+00  0.0000E+00  0.0000E+00  0.0000E+00  0.0000E+00  0.0000E+00  0.0000E+00
  0.0000E+00  0.0000E+00  0.0000E+00  0.0000E+00  0.0000E+00  0.0000E+00  0.0000E+00  0.0000E+00  0.0000E+00  0.0000E+00  0.0000E+00  0.0000E+00  0.0000E+00  0.0000E+00  0.0000E+00  0.0000E+00  0.0000E+00  0.0000E+00  0.0000E+00  0.0000E+00  0.0000E+00  0.0000E+00  0.0000E+00  0.0000E+00  0.0000E+00  0.0000E+00  0.0000E+00  0.0000E+00  0.0000E+00  0.0000E+00  0.0000E+00  0.0000E+00  0.0000E+00  0.0000E+00  0.0000E+00  0.0000E+00  0.0000E+00  0.0000E+00  0.0000E+00  0.0000E+00  0.0000E+00  0.0000E+00  0.0000E+00  0.0000E+00  0.0000E+00  0.0000E+00  0.0000E+00  0.0000E+00  0.0000E+00  0.0000E+00  0.0000E+00  0.0000E+00  0.0000E+00  0.0000E+00  0.0000E+00  0.0000E+00  0.0000E+00  0.0000E+00  0.0000E+00  0.0000E+00  0.0000E+00  0.0000E+00  0.0000E+00  0.0000E+00  0.0000E+00  0.0000E+00  0.0000E+00  0.0000E+00  0.0000E+00  0.0000E+00  0.0000E+00  0.0000E+00  0.0000E+00  0.0000E+00  0.0000E+00  0.0000E+00  0.0000E+00  0.0000E+00  0.0000E+00
  0.0000E+00  0.0000E+00  0.0000E+00  0.0000E+00  0.0000E+00  0.0000E+00  0.0000E+00  0.0000E+00  0.0000E+00  0.0000E+00  0.0000E+00  0.0000E+00  0.0000E+00  0.0000E+00  0.0000E+00  0.0000E+00  0.0000E+00  0.0000E+00  0.0000E+00  0.0000E+00  0.0000E+00  0.0000E+00  0.0000E+00  0.0000E+00  0.0000E+00  0.0000E+00  0.0000E+00  0.0000E+00  0.0000E+00  0.0000E+00  0.0000E+00  0.0000E+00  0.0000E+00  0.0000E+00  0.0000E+00  0.0000E+00  0.0000E+00  0.0000E+00  0.0000E+00  0.0000E+00  0.0000E+00  0.0000E+00  0.0000E+00  0.0000E+00  0.0000E+00  0.0000E+00  0.0000E+00  0.0000E+00  0.0000E+00  0.0000E+00  0.0000E+00  0.0000E+00  0.0000E+00  0.0000E+00  0.0000E+00  0.0000E+00  0.0000E+00  0.0000E+00  0.0000E+00  0.0000E+00  0.0000E+00  0.0000E+00  0.0000E+00  0.0000E+00  0.0000E+00  0.0000E+00  0.0000E+00  0.0000E+00  0.0000E+00  0.0000E+00  0.0000E+00  0.0000E+00  0.0000E+00  0.0000E+00  0.0000E+00  0.0000E+00  0.0000E+00  0.0000E+00  0.0000E+00
  0.0000E+00  0.0000E+00  0.0000E+00  0.0000E+00  0.0000E+00  0.0000E+00  0.0000E+00  0.0000E+00  0.0000E+00  0.0000E+00  0.0000E+00  0.0000E+00  0.0000E+00  0.0000E+00  0.0000E+00  0.0000E+00  0.0000E+00  0.0000E+00  0.0000E+00  0.0000E+00  0.0000E+00  0.0000E+00  0.0000E+00  0.0000E+00  0.0000E+00  0.0000E+00  0.0000E+00  0.0000E+00  0.0000E+00  0.0000E+00  0.0000E+00  0.0000E+00  0.0000E+00  0.0000E+00  0.0000E+00  0.0000E+00  0.0000E+00  0.0000E+00  0.0000E+00  0.0000E+00  0.0000E+00  0.0000E+00  0.0000E+00  0.0000E+00  0.0000E+00  0.0000E+00  0.0000E+00  0.0000E+00  0.0000E+00  0.0000E+00  0.0000E+00  0.0000E+00  0.0000E+00  0.0000E+00  0.0000E+00  0.0000E+00  0.0000E+00  0.0000E+00  0.0000E+00  0.0000E+00  0.0000E+00  0.0000E+00  0.0000E+00  0.0000E+00  0.0000E+00  0.0000E+00  0.0000E+00  0.0000E+00  0.0000E+00  0.0000E+00  0.0000E+00  0.0000E+00  0.0000E+00  0.0000E+00  0.0000E+00  0.0000E+00  0.0000E+00  0.0000E+00  0.0000E+00
  0.0000E+00  0.0000E+00  0.0000E+00  0.0000E+00  0.0000E+00  0.0000E+00  0.0000E+00  0.0000E+00  0.0000E+00  0.0000E+00  0.0000E+00  0.0000E+00  0.0000E+00  0.0000E+00  0.0000E+00  0.0000E+00  0.0000E+00  0.0000E+00  0.0000E+00  0.0000E+00  0.0000E+00  0.0000E+00  0.0000E+00  0.0000E+00  0.0000E+00  0.0000E+00  0.0000E+00  0.0000E+00  0.0000E+00  0.0000E+00  0.0000E+00  0.0000E+00  0.0000E+00  0.0000E+00  0.0000E+00  0.0000E+00  0.0000E+00  0.0000E+00  0.0000E+00  0.0000E+00  0.0000E+00  0.0000E+00  0.0000E+00  0.0000E+00  0.0000E+00  0.0000E+00  0.0000E+00  0.0000E+00  0.0000E+00  0.0000E+00  0.0000E+00  0.0000E+00  0.0000E+00  0.0000E+00  0.0000E+00  0.0000E+00  0.0000E+00  0.0000E+00  0.0000E+00  0.0000E+00  0.0000E+00  0.0000E+00  0.0000E+00  0.0000E+00  0.0000E+00  0.0000E+00  0.0000E+00  0.0000E+00  0.0000E+00  0.0000E+00  0.0000E+00  0.0000E+00  0.0000E+00  0.0000E+00  0.0000E+00  0.0000E+00  0.0000E+00  0.0000E+00  0.0000E+00
  0.0000E+00  0.0000E+00  0.0000E+00  0.0000E+00  0.0000E+00  0.0000E+00  0.0000E+00  0.0000E+00  0.0000E+00  0.0000E+00  0.0000E+00  0.0000E+00  0.0000E+00  0.0000E+00  0.0000E+00  0.0000E+00  0.0000E+00  0.0000E+00  0.0000E+00  0.0000E+00  0.0000E+00  0.0000E+00  0.0000E+00  0.0000E+00  0.0000E+00  0.0000E+00  0.0000E+00  0.0000E+00  0.0000E+00  0.0000E+00  0.0000E+00  0.0000E+00  0.0000E+00  0.0000E+00  0.0000E+00  0.0000E+00  0.0000E+00  0.0000E+00  0.0000E+00  0.0000E+00  0.0000E+00  0.0000E+00  0.0000E+00  0.0000E+00  0.0000E+00  0.0000E+00  0.0000E+00  0.0000E+00  0.0000E+00  0.0000E+00  0.0000E+00  0.0000E+00  0.0000E+00  0.0000E+00  0.0000E+00  0.0000E+00  0.0000E+00  0.0000E+00  0.0000E+00  0.0000E+00  0.0000E+00  0.0000E+00  0.0000E+00  0.0000E+00  0.0000E+00  0.0000E+00  0.0000E+00  0.0000E+00  0.0000E+00  0.0000E+00  0.0000E+00  0.0000E+00  0.0000E+00  0.0000E+00  0.0000E+00  0.0000E+00  0.0000E+00  0.0000E+00  0.0000E+00
  0.0000E+00  0.0000E+00  0.0000E+00  0.0000E+00  0.0000E+00  0.0000E+00  0.0000E+00  0.0000E+00  0.0000E+00  0.0000E+00  0.0000E+00  0.0000E+00  0.0000E+00  0.0000E+00  0.0000E+00  0.0000E+00  0.0000E+00  0.0000E+00  0.0000E+00  0.0000E+00  0.0000E+00  0.0000E+00  0.0000E+00  0.0000E+00  0.0000E+00  0.0000E+00  0.0000E+00  0.0000E+00  0.0000E+00  0.0000E+00  0.0000E+00  0.0000E+00  0.0000E+00  0.0000E+00  0.0000E+00  0.0000E+00  0.0000E+00  0.0000E+00  0.0000E+00  0.0000E+00  0.0000E+00  0.0000E+00  0.0000E+00  0.0000E+00  0.0000E+00  0.0000E+00  0.0000E+00  0.0000E+00  0.0000E+00  0.0000E+00  0.0000E+00  0.0000E+00  0.0000E+00  0.0000E+00  0.0000E+00  0.0000E+00  0.0000E+00  0.0000E+00  0.0000E+00  0.0000E+00  0.0000E+00  0.0000E+00  0.0000E+00  0.0000E+00  0.0000E+00  0.0000E+00  0.0000E+00  0.0000E+00  0.0000E+00  0.0000E+00  0.0000E+00  0.0000E+00  0.0000E+00  0.0000E+00  0.0000E+00  0.0000E+00  0.0000E+00  0.0000E+00  0.0000E+00
  0.0000E+00  0.0000E+00  0.0000E+00  0.0000E+00  0.0000E+00  0.0000E+00  0.0000E+00  0.0000E+00  0.0000E+00  0.0000E+00  0.0000E+00  0.0000E+00  0.0000E+00  0.0000E+00  0.0000E+00  0.0000E+00  0.0000E+00  0.0000E+00  0.0000E+00  0.0000E+00  0.0000E+00  0.0000E+00  0.0000E+00  0.0000E+00  0.0000E+00  0.0000E+00  0.0000E+00  0.0000E+00  0.0000E+00  0.0000E+00  0.0000E+00  0.0000E+00  0.0000E+00  0.0000E+00  0.0000E+00  0.0000E+00  0.0000E+00  0.0000E+00  0.0000E+00  0.0000E+00  0.0000E+00  0.0000E+00  0.0000E+00  0.0000E+00  0.0000E+00  0.0000E+00  0.0000E+00  0.0000E+00  0.0000E+00  0.0000E+00  0.0000E+00  0.0000E+00  0.0000E+00  0.0000E+00  0.0000E+00  0.0000E+00  0.0000E+00  0.0000E+00  0.0000E+00  0.0000E+00  0.0000E+00  0.0000E+00  0.0000E+00  0.0000E+00  0.0000E+00  0.0000E+00  0.0000E+00  0.0000E+00  0.0000E+00  0.0000E+00  0.0000E+00  0.0000E+00  0.0000E+00  0.0000E+00  0.0000E+00  0.0000E+00  0.0000E+00  0.0000E+00  0.0000E+00
  0.0000E+00  0.0000E+00  0.0000E+00  0.0000E+00  0.0000E+00  0.0000E+00  0.0000E+00  0.0000E+00  0.0000E+00  0.0000E+00  0.0000E+00  0.0000E+00  0.0000E+00  0.0000E+00  0.0000E+00  0.0000E+00  0.0000E+00  0.0000E+00  0.0000E+00  0.0000E+00  0.0000E+00  0.0000E+00  0.0000E+00  0.0000E+00  0.0000E+00  0.0000E+00  0.0000E+00  0.0000E+00  0.0000E+00  0.0000E+00  0.0000E+00  0.0000E+00  0.0000E+00  0.0000E+00  0.0000E+00  0.0000E+00  0.0000E+00  0.0000E+00  0.0000E+00  0.0000E+00  0.0000E+00  0.0000E+00  0.0000E+00  0.0000E+00  0.0000E+00  0.0000E+00  0.0000E+00  0.0000E+00  0.0000E+00  0.0000E+00  0.0000E+00  0.0000E+00  0.0000E+00  0.0000E+00  0.0000E+00  0.0000E+00  0.0000E+00  0.0000E+00  0.0000E+00  0.0000E+00  0.0000E+00  0.0000E+00  0.0000E+00  0.0000E+00  0.0000E+00  0.0000E+00  0.0000E+00  0.0000E+00  0.0000E+00  0.0000E+00  0.0000E+00  0.0000E+00  0.0000E+00  0.0000E+00  0.0000E+00  0.0000E+00  0.0000E+00  0.0000E+00  0.0000E+00
  0.0000E+00  0.0000E+00  0.0000E+00  0.0000E+00  0.0000E+00  0.0000E+00  0.0000E+00  0.0000E+00  0.0000E+00  0.0000E+00  0.0000E+00  0.0000E+00  0.0000E+00  0.0000E+00  0.0000E+00  0.0000E+00  0.0000E+00  0.0000E+00  0.0000E+00  0.0000E+00  0.0000E+00  0.0000E+00  0.0000E+00  0.0000E+00  0.0000E+00  0.0000E+00  0.0000E+00  0.0000E+00  0.0000E+00  0.0000E+00  0.0000E+00  0.0000E+00  0.0000E+00  0.0000E+00  0.0000E+00  0.0000E+00  0.0000E+00  0.0000E+00  0.0000E+00  0.0000E+00  0.0000E+00  0.0000E+00  0.0000E+00  0.0000E+00  0.0000E+00  0.0000E+00  0.0000E+00  0.0000E+00  0.0000E+00  0.0000E+00  0.0000E+00  0.0000E+00  0.0000E+00  0.0000E+00  0.0000E+00  0.0000E+00  0.0000E+00  0.0000E+00  0.0000E+00  0.0000E+00  0.0000E+00  0.0000E+00  0.0000E+00  0.0000E+00  0.0000E+00  0.0000E+00  0.0000E+00  0.0000E+00  0.0000E+00  0.0000E+00  0.0000E+00  0.0000E+00  0.0000E+00  0.0000E+00  0.0000E+00  0.0000E+00  0.0000E+00  0.0000E+00  0.0000E+00
  0.0000E+00  0.0000E+00  0.0000E+00  0.0000E+00  0.0000E+00  0.0000E+00  0.0000E+00  0.0000E+00  0.0000E+00  0.0000E+00  0.0000E+00  0.0000E+00  0.0000E+00  0.0000E+00  0.0000E+00  0.0000E+00  0.0000E+00  0.0000E+00  0.0000E+00  0.0000E+00  0.0000E+00  0.0000E+00  0.0000E+00  0.0000E+00  0.0000E+00  0.0000E+00  0.0000E+00  0.0000E+00  0.0000E+00  0.0000E+00  0.0000E+00  0.0000E+00  0.0000E+00  0.0000E+00  0.0000E+00  0.0000E+00  0.0000E+00  0.0000E+00  0.0000E+00  0.0000E+00  0.0000E+00  0.0000E+00  0.0000E+00  0.0000E+00  0.0000E+00  0.0000E+00  0.0000E+00  0.0000E+00  0.0000E+00  0.0000E+00  0.0000E+00  0.0000E+00  0.0000E+00  0.0000E+00  0.0000E+00  0.0000E+00  0.0000E+00  0.0000E+00  0.0000E+00  0.0000E+00  0.0000E+00  0.0000E+00  0.0000E+00  0.0000E+00  0.0000E+00  0.0000E+00  0.0000E+00  0.0000E+00  0.0000E+00  0.0000E+00  0.0000E+00  0.0000E+00  0.0000E+00  0.0000E+00  0.0000E+00  0.0000E+00  0.0000E+00  0.0000E+00  0.0000E+00
  0.0000E+00  0.0000E+00  0.0000E+00  0.0000E+00  0.0000E+00  0.0000E+00  0.0000E+00  0.0000E+00  0.0000E+00  0.0000E+00  0.0000E+00  0.0000E+00  0.0000E+00  0.0000E+00  0.0000E+00  0.0000E+00  0.0000E+00  0.0000E+00  0.0000E+00  0.0000E+00  0.0000E+00  0.0000E+00  0.0000E+00  0.0000E+00  0.0000E+00  0.0000E+00  0.0000E+00  0.0000E+00  0.0000E+00  0.0000E+00  0.0000E+00  0.0000E+00  0.0000E+00  0.0000E+00  0.0000E+00  0.0000E+00  0.0000E+00  0.0000E+00  0.0000E+00  0.0000E+00  0.0000E+00  0.0000E+00  0.0000E+00  0.0000E+00  0.0000E+00  0.0000E+00  0.0000E+00  0.0000E+00  0.0000E+00  0.0000E+00  0.0000E+00  0.0000E+00  0.0000E+00  0.0000E+00  0.0000E+00  0.0000E+00  0.0000E+00  0.0000E+00  0.0000E+00  0.0000E+00  0.0000E+00  0.0000E+00  0.0000E+00  0.0000E+00  0.0000E+00  0.0000E+00  0.0000E+00  0.0000E+00  0.0000E+00  0.0000E+00  0.0000E+00  0.0000E+00  0.0000E+00  0.0000E+00  0.0000E+00  0.0000E+00  0.0000E+00  0.0000E+00  0.0000E+00
  0.0000E+00  0.0000E+00  0.0000E+00  0.0000E+00  0.0000E+00  0.0000E+00  0.0000E+00  0.0000E+00  0.0000E+00  0.0000E+00  0.0000E+00  0.0000E+00  0.0000E+00  0.0000E+00  0.0000E+00  0.0000E+00  0.0000E+00  0.0000E+00  0.0000E+00  0.0000E+00  0.0000E+00  0.0000E+00  0.0000E+00  0.0000E+00  0.0000E+00  0.0000E+00  0.0000E+00  0.0000E+00  0.0000E+00  0.0000E+00  0.0000E+00  0.0000E+00  0.0000E+00  0.0000E+00  0.0000E+00  0.0000E+00  0.0000E+00  0.0000E+00  0.0000E+00  0.0000E+00  0.0000E+00  0.0000E+00  0.0000E+00  0.0000E+00  0.0000E+00  0.0000E+00  0.0000E+00  0.0000E+00  0.0000E+00  0.0000E+00  0.0000E+00  0.0000E+00  0.0000E+00  0.0000E+00  0.0000E+00  0.0000E+00  0.0000E+00  0.0000E+00  0.0000E+00  0.0000E+00  0.0000E+00  0.0000E+00  0.0000E+00  0.0000E+00  0.0000E+00  0.0000E+00  0.0000E+00  0.0000E+00  0.0000E+00  0.0000E+00  0.0000E+00  0.0000E+00  0.0000E+00  0.0000E+00  0.0000E+00  0.0000E+00  0.0000E+00  0.0000E+00  0.0000E+00
  0.0000E+00  0.0000E+00  0.0000E+00  0.0000E+00  0.0000E+00  0.0000E+00  0.0000E+00  0.0000E+00  0.0000E+00  0.0000E+00  0.0000E+00  0.0000E+00  0.0000E+00  0.0000E+00  0.0000E+00  0.0000E+00  0.0000E+00  0.0000E+00  0.0000E+00  0.0000E+00  0.0000E+00  0.0000E+00  0.0000E+00  0.0000E+00  0.0000E+00  0.0000E+00  0.0000E+00  0.0000E+00  0.0000E+00  0.0000E+00  0.0000E+00  0.0000E+00  0.0000E+00  0.0000E+00  0.0000E+00  0.0000E+00  0.0000E+00  0.0000E+00  0.0000E+00  0.0000E+00  0.0000E+00  0.0000E+00  0.0000E+00  0.0000E+00  0.0000E+00  0.0000E+00  0.0000E+00  0.0000E+00  0.0000E+00  0.0000E+00  0.0000E+00  0.0000E+00  0.0000E+00  0.0000E+00  0.0000E+00  0.0000E+00  0.0000E+00  0.0000E+00  0.0000E+00  0.0000E+00  0.0000E+00  0.0000E+00  0.0000E+00  0.0000E+00  0.0000E+00  0.0000E+00  0.0000E+00  0.0000E+00  0.0000E+00  0.0000E+00  0.0000E+00  0.0000E+00  0.0000E+00  0.0000E+00  0.0000E+00  0.0000E+00  0.0000E+00  0.0000E+00  0.0000E+00
  0.0000E+00  0.0000E+00  0.0000E+00  0.0000E+00  0.0000E+00  0.0000E+00  0.0000E+00  0.0000E+00  0.0000E+00  0.0000E+00  0.0000E+00  0.0000E+00  0.0000E+00  0.0000E+00  0.0000E+00  0.0000E+00  0.0000E+00  0.0000E+00  0.0000E+00  0.0000E+00  0.0000E+00  0.0000E+00  0.0000E+00  0.0000E+00  0.0000E+00  0.0000E+00  0.0000E+00  0.0000E+00  0.0000E+00  0.0000E+00  0.0000E+00  0.0000E+00  0.0000E+00  0.0000E+00  0.0000E+00  0.0000E+00  0.0000E+00  0.0000E+00  0.0000E+00  0.0000E+00  0.0000E+00  0.0000E+00  0.0000E+00  0.0000E+00  0.0000E+00  0.0000E+00  0.0000E+00  0.0000E+00  0.0000E+00  0.0000E+00  0.0000E+00  0.0000E+00  0.0000E+00  0.0000E+00  0.0000E+00  0.0000E+00  0.0000E+00  0.0000E+00  0.0000E+00  0.0000E+00  0.0000E+00  0.0000E+00  0.0000E+00  0.0000E+00  0.0000E+00  0.0000E+00  0.0000E+00  0.0000E+00  0.0000E+00  0.0000E+00  0.0000E+00  0.0000E+00  0.0000E+00  0.0000E+00  0.0000E+00  0.0000E+00  0.0000E+00  0.0000E+00  0.0000E+00
  0.0000E+00  0.0000E+00  0.0000E+00  0.0000E+00  0.0000E+00  0.0000E+00  0.0000E+00  0.0000E+00  0.0000E+00  0.0000E+00  0.0000E+00  0.0000E+00  0.0000E+00  0.0000E+00  0.0000E+00  0.0000E+00  0.0000E+00  0.0000E+00  0.0000E+00  0.0000E+00  0.0000E+00  0.0000E+00  0.0000E+00  0.0000E+00  0.0000E+00  0.0000E+00  0.0000E+00  0.0000E+00  0.0000E+00  0.0000E+00  0.0000E+00  0.0000E+00  0.0000E+00  0.0000E+00  0.0000E+00  0.0000E+00  0.0000E+00  0.0000E+00  0.0000E+00  0.0000E+00  0.0000E+00  0.0000E+00  0.0000E+00  0.0000E+00  0.0000E+00  0.0000E+00  0.0000E+00  0.0000E+00  0.0000E+00  0.0000E+00  0.0000E+00  0.0000E+00  0.0000E+00  0.0000E+00  0.0000E+00  0.0000E+00  0.0000E+00  0.0000E+00  0.0000E+00  0.0000E+00  0.0000E+00  0.0000E+00  0.0000E+00  0.0000E+00  0.0000E+00  0.0000E+00  0.0000E+00  0.0000E+00  0.0000E+00  0.0000E+00  0.0000E+00  0.0000E+00  0.0000E+00  0.0000E+00  0.0000E+00  0.0000E+00  0.0000E+00  0.0000E+00  0.0000E+00
  0.0000E+00  0.0000E+00  0.0000E+00  0.0000E+00  0.0000E+00  0.0000E+00  0.0000E+00  0.0000E+00  0.0000E+00  0.0000E+00  0.0000E+00  0.0000E+00  0.0000E+00  0.0000E+00  0.0000E+00  0.0000E+00  0.0000E+00  0.0000E+00  0.0000E+00  0.0000E+00  0.0000E+00  0.0000E+00  0.0000E+00  0.0000E+00  0.0000E+00  0.0000E+00  0.0000E+00  0.0000E+00  0.0000E+00  0.0000E+00  0.0000E+00  0.0000E+00  0.0000E+00  0.0000E+00  0.0000E+00  0.0000E+00  0.0000E+00  0.0000E+00  0.0000E+00  0.0000E+00  0.0000E+00  0.0000E+00  0.0000E+00  0.0000E+00  0.0000E+00  0.0000E+00  0.0000E+00  0.0000E+00  0.0000E+00  0.0000E+00  0.0000E+00  0.0000E+00  0.0000E+00  0.0000E+00  0.0000E+00  0.0000E+00  0.0000E+00  0.0000E+00  0.0000E+00  0.0000E+00  0.0000E+00  0.0000E+00  0.0000E+00  0.0000E+00  0.0000E+00  0.0000E+00  0.0000E+00  0.0000E+00  0.0000E+00  0.0000E+00  0.0000E+00  0.0000E+00  0.0000E+00  0.0000E+00  0.0000E+00  0.0000E+00  0.0000E+00  0.0000E+00  0.0000E+00
  0.0000E+00  0.0000E+00  0.0000E+00  0.0000E+00  0.0000E+00  0.0000E+00  0.0000E+00  0.0000E+00  0.0000E+00  0.0000E+00  0.0000E+00  0.0000E+00  0.0000E+00  0.0000E+00  0.0000E+00  0.0000E+00  0.0000E+00  0.0000E+00  0.0000E+00  0.0000E+00  0.0000E+00  0.0000E+00  0.0000E+00  0.0000E+00  0.0000E+00  0.0000E+00  0.0000E+00  0.0000E+00  0.0000E+00  0.0000E+00  0.0000E+00  0.0000E+00  0.0000E+00  0.0000E+00  0.0000E+00  0.0000E+00  0.0000E+00  0.0000E+00  0.0000E+00  0.0000E+00  0.0000E+00  0.0000E+00  0.0000E+00  0.0000E+00  0.0000E+00  0.0000E+00  0.0000E+00  0.0000E+00  0.0000E+00  0.0000E+00  0.0000E+00  0.0000E+00  0.0000E+00  0.0000E+00  0.0000E+00  0.0000E+00  0.0000E+00  0.6913E-10  0.7019E-10  0.7105E-10  0.7171E-10  0.7218E-10  0.4838E-10  0.2429E-10  0.0000E+00  0.0000E+00  0.0000E+00  0.0000E+00  0.0000E+00  0.0000E+00  0.0000E+00  0.0000E+00  0.0000E+00  0.0000E+00  0.0000E+00  0.0000E+00  0.0000E+00  0.0000E+00  0.0000E+00
  0.0000E+00  0.0000E+00  0.0000E+00  0.0000E+00  0.0000E+00  0.0000E+00  0.0000E+00  0.0000E+00  0.0000E+00  0.0000E+00  0.0000E+00  0.0000E+00  0.0000E+00  0.0000E+00  0.0000E+00  0.0000E+00  0.0000E+00  0.0000E+00  0.0000E+00  0.0000E+00  0.0000E+00  0.0000E+00  0.0000E+00  0.0000E+00  0.0000E+00  0.0000E+00  0.0000E+00  0.0000E+00  0.0000E+00  0.0000E+00  0.0000E+00  0.0000E+00  0.0000E+00  0.0000E+00  0.0000E+00  0.0000E+00  0.0000E+00  0.0000E+00  0.0000E+00  0.0000E+00  0.0000E+00  0.0000E+00  0.0000E+00  0.0000E+00  0.0000E+00  0.0000E+00  0.0000E+00  0.0000E+00  0.0000E+00  0.0000E+00  0.0000E+00  0.4917E-10  0.7537E-10  0.7757E-10  0.7953E-10  0.1565E-09  0.1595E-09  0.1620E-09  0.1640E-09  0.1655E-09  0.2165E-09  0.1924E-09  0.1658E-09  0.1134E-09  0.5747E-10  0.2870E-10  0.0000E+00  0.0000E+00  0.0000E+00  0.0000E+00  0.0000E+00  0.0000E+00  0.0000E+00  0.0000E+00  0.0000E+00  0.0000E+00  0.0000E+00  0.0000E+00  0.0000E+00
  0.0000E+00  0.0000E+00  0.0000E+00  0.0000E+00  0.0000E+00  0.0000E+00  0.0000E+00  0.0000E+00  0.0000E+00  0.0000E+00  0.0000E+00  0.0000E+00  0.0000E+00  0.0000E+00  0.0000E+00  0.0000E+00  0.0000E+00  0.0000E+00  0.0000E+00  0.0000E+00  0.0000E+00  0.0000E+00  0.0000E+00  0.0000E+00  0.0000E+00  0.0000E+00  0.0000E+00  0.0000E+00  0.0000E+00  0.0000E+00  0.0000E+00  0.0000E+00  0.0000E+00  0.0000E+00  0.0000E+00  0.0000E+00  0.0000E+00  0.0000E+00  0.0000E+00  0.0000E+00  0.0000E+00  0.0000E+00  0.0000E+00  0.0000E+00  0.0000E+00  0.0000E+00  0.0000E+00  0.5215E-10  0.8061E-10  0.1105E-09  0.1677E-09  0.1735E-09  0.2057E-09  0.2651E-09  0.2713E-09  0.2766E-09  0.2811E-09  0.3665E-09  0.3703E-09  0.3730E-09  0.3745E-09  0.3469E-09  0.2881E-09  0.2285E-09  0.1652E-09  0.9909E-10  0.3341E-10  0.0000E+00  0.0000E+00  0.0000E+00  0.0000E+00  0.0000E+00  0.0000E+00  0.0000E+00  0.0000E+00  0.0000E+00  0.0000E+00  0.0000E+00  0.0000E+00
  0.0000E+00  0.0000E+00  0.0000E+00  0.0000E+00  0.0000E+00  0.0000E+00  0.0000E+00  0.0000E+00  0.0000E+00  0.0000E+00  0.0000E+00  0.0000E+00  0.0000E+00  0.0000E+00  0.0000E+00  0.0000E+00  0.0000E+00  0.0000E+00  0.0000E+00  0.0000E+00  0.0000E+00  0.0000E+00  0.0000E+00  0.0000E+00  0.0000E+00  0.0000E+00  0.0000E+00  0.0000E+00  0.0000E+00  0.0000E+00  0.0000E+00  0.0000E+00  0.0000E+00  0.0000E+00  0.0000E+00  0.0000E+00  0.0000E+00  0.0000E+00  0.0000E+00  0.0000E+00  0.0000E+00  0.0000E+00  0.0000E+00  0.2689E-10  0.8220E-10  0.1147E-09  0.1760E-09  0.1848E-09  0.2507E-09  0.2896E-09  0.3001E-09  0.3690E-09  0.4090E-09  0.4189E-09  0.4572E-09  0.5247E-09  0.5320E-09  0.5375E-09  0.5413E-09  0.5435E-09  0.5737E-09  0.5117E-09  0.4440E-09  0.3753E-09  0.3367E-09  0.2274E-09  0.1525E-09  0.7630E-10  0.3782E-10  0.0000E+00  0.0000E+00  0.0000E+00  0.0000E+00  0.0000E+00  0.0000E+00  0.0000E+00  0.0000E+00  0.0000E+00  0.0000E+00
  0.0000E+00  0.0000E+00  0.0000E+00  0.0000E+00  0.0000E+00  0.0000E+00  0.0000E+00  0.0000E+00  0.0000E+00  0.0000E+00  0.0000E+00  0.0000E+00  0.0000E+00  0.0000E+00  0.0000E+00  0.0000E+00  0.0000E+00  0.0000E+00  0.0000E+00  0.0000E+00  0.0000E+00  0.0000E+00  0.0000E+00  0.0000E+00  0.0000E+00  0.0000E+00  0.0000E+00  0.0000E+00  0.0000E+00  0.0000E+00  0.0000E+00  0.0000E+00  0.0000E+00  0.0000E+00  0.0000E+00  0.0000E+00  0.0000E+00  0.0000E+00  0.0000E+00  0.0000E+00  0.2780E-10  0.8532E-10  0.1208E-09  0.1871E-09  0.2290E-09  0.3022E-09  0.3490E-09  0.4269E-09  0.4454E-09  0.5260E-09  0.5757E-09  0.5929E-09  0.6405E-09  0.7197E-09  0.7327E-09  0.7432E-09  0.7836E-09  0.8548E-09  0.8589E-09  0.8270E-09  0.8259E-09  0.7532E-09  0.6786E-09  0.5985E-09  0.5144E-09  0.3894E-09  0.3441E-09  0.2567E-09  0.1285E-09  0.4281E-10  0.0000E+00  0.0000E+00  0.0000E+00  0.0000E+00  0.0000E+00  0.0000E+00  0.0000E+00  0.0000E+00  0.0000E+00
  0.0000E+00  0.0000E+00  0.0000E+00  0.0000E+00  0.0000E+00  0.0000E+00  0.0000E+00  0.0000E+00  0.0000E+00  0.0000E+00  0.0000E+00  0.0000E+00  0.0000E+00  0.0000E+00  0.0000E+00  0.0000E+00  0.0000E+00  0.0000E+00  0.0000E+00  0.0000E+00  0.0000E+00  0.0000E+00  0.0000E+00  0.0000E+00  0.0000E+00  0.0000E+00  0.0000E+00  0.0000E+00  0.0000E+00  0.0000E+00  0.0000E+00  0.0000E+00  0.0000E+00  0.0000E+00  0.0000E+00  0.0000E+00  0.0000E+00  0.0000E+00  0.5878E-10  0.1230E-09  0.1925E-09  0.2392E-09  0.3191E-09  0.3733E-09  0.4615E-09  0.5211E-09  0.6147E-09  0.6770E-09  0.7393E-09  0.8011E-09  0.8617E-09  0.9559E-09  0.9782E-09  0.9966E-09  0.1084E-08  0.1132E-08  0.1142E-08  0.1147E-08  0.1149E-08  0.1147E-08  0.1104E-08  0.1017E-08  0.9287E-09  0.8342E-09  0.7356E-09  0.6373E-09  0.5370E-09  0.4360E-09  0.2901E-09  0.1918E-09  0.9496E-10  0.4681E-10  0.0000E+00  0.0000E+00  0.0000E+00  0.0000E+00  0.0000E+00  0.0000E+00  0.0000E+00
  0.0000E+00  0.0000E+00  0.0000E+00  0.0000E+00  0.0000E+00  0.0000E+00  0.0000E+00  0.0000E+00  0.0000E+00  0.0000E+00  0.0000E+00  0.0000E+00  0.0000E+00  0.0000E+00  0.0000E+00  0.0000E+00  0.0000E+00  0.0000E+00  0.0000E+00  0.0000E+00  0.0000E+00  0.0000E+00  0.0000E+00  0.0000E+00  0.0000E+00  0.0000E+00  0.0000E+00  0.0000E+00  0.5592E-10  0.8567E-10  0.8820E-10  0.9037E-10  0.9216E-10  0.1820E-09  0.1840E-09  0.1852E-09  0.1863E-09  0.1932E-09  0.2409E-09  0.2950E-09  0.3866E-09  0.4837E-09  0.5538E-09  0.6607E-09  0.7726E-09  0.8504E-09  0.9295E-09  0.1045E-08  0.1085E-08  0.1200E-08  0.1274E-08  0.1305E-08  0.1411E-08  0.1474E-08  0.1492E-08  0.1505E-08  0.1591E-08  0.1634E-08  0.1592E-08  0.1545E-08  0.1490E-08  0.1345E-08  0.1285E-08  0.1172E-08  0.1009E-08  0.8926E-09  0.7750E-09  0.6572E-09  0.4901E-09  0.3764E-09  0.2650E-09  0.1567E-09  0.5174E-10  0.0000E+00  0.0000E+00  0.0000E+00  0.0000E+00  0.0000E+00  0.0000E+00
  0.0000E+00  0.0000E+00  0.0000E+00  0.0000E+00  0.0000E+00  0.0000E+00  0.0000E+00  0.0000E+00  0.0000E+00  0.0000E+00  0.0000E+00  0.0000E+00  0.0000E+00  0.0000E+00  0.0000E+00  0.0000E+00  0.0000E+00  0.0000E+00  0.0000E+00  0.0000E+00  0.0000E+00  0.0000E+00  0.0000E+00  0.2762E-10  0.8444E-10  0.8902E-10  0.1524E-09  0.1887E-09  0.1965E-09  0.2352E-09  0.3056E-09  0.3141E-09  0.3213E-09  0.3269E-09  0.3310E-09  0.4334E-09  0.4389E-09  0.4221E-09  0.4893E-09  0.5678E-09  0.6863E-09  0.7769E-09  0.9074E-09  0.1044E-08  0.1143E-08  0.1285E-08  0.1385E-08  0.1485E-08  0.1623E-08  0.1673E-08  0.1805E-08  0.1888E-08  0.1921E-08  0.1946E-08  0.2097E-08  0.2110E-08  0.2114E-08  0.2112E-08  0.2102E-08  0.2040E-08  0.1923E-08  0.1801E-08  0.1671E-08  0.1535E-08  0.1343E-08  0.1205E-08  0.1121E-08  0.9274E-09  0.7348E-09  0.6024E-09  0.4735E-09  0.3487E-09  0.1722E-09  0.5666E-10  0.0000E+00  0.0000E+00  0.0000E+00  0.0000E+00  0.0000E+00
  0.0000E+00  0.0000E+00  0.0000E+00  0.0000E+00  0.0000E+00  0.0000E+00  0.0000E+00  0.0000E+00  0.0000E+00  0.0000E+00  0.0000E+00  0.0000E+00  0.0000E+00  0.0000E+00  0.0000E+00  0.0000E+00  0.0000E+00  0.0000E+00  0.0000E+00  0.0000E+00  0.2774E-10  0.8532E-10  0.1205E-09  0.1869E-09  0.1985E-09  0.2735E-09  0.3198E-09  0.3688E-09  0.4518E-09  0.4699E-09  0.4863E-09  0.6080E-09  0.6237E-09  0.6365E-09  0.6462E-09  0.6537E-09  0.6675E-09  0.6995E-09  0.8272E-09  0.8958E-09  0.1050E-08  0.1210E-08  0.1378E-08  0.1506E-08  0.1680E-08  0.1808E-08  0.1981E-08  0.2104E-08  0.2222E-08  0.2381E-08  0.2438E-08  0.2533E-08  0.2668E-08  0.2697E-08  0.2714E-08  0.2721E-08  0.3253E-08  0.3062E-08  0.2862E-08  0.2600E-08  0.2453E-08  0.2302E-08  0.2143E-08  0.1978E-08  0.1750E-08  0.1646E-08  0.1481E-08  0.1255E-08  0.1032E-08  0.8765E-09  0.7263E-09  0.5817E-09  0.3811E-09  0.1876E-09  0.6153E-10  0.0000E+00  0.0000E+00  0.0000E+00  0.0000E+00
  0.0000E+00  0.0000E+00  0.0000E+00  0.0000E+00  0.0000E+00  0.0000E+00  0.0000E+00  0.0000E+00  0.0000E+00  0.0000E+00  0.0000E+00  0.0000E+00  0.0000E+00  0.0000E+00  0.0000E+00  0.0000E+00  0.0000E+00  0.0000E+00  0.5627E-10  0.8920E-10  0.1567E-09  0.1989E-09  0.2775E-09  0.3288E-09  0.4180E-09  0.4774E-09  0.5754E-09  0.6412E-09  0.6718E-09  0.7780E-09  0.8464E-09  0.8746E-09  0.9806E-09  0.1044E-08  0.1063E-08  0.1082E-08  0.1113E-08  0.1166E-08  0.1241E-08  0.1382E-08  0.1579E-08  0.1787E-08  0.1951E-08  0.2166E-08  0.2331E-08  0.2545E-08  0.2703E-08  0.2907E-08  0.3051E-08  0.3129E-08  0.3621E-08  0.3896E-08  0.3948E-08  0.3980E-08  0.3995E-08  0.3992E-08  0.4336E-08  0.4122E-08  0.3895E-08  0.3614E-08  0.3263E-08  0.2979E-08  0.2782E-08  0.2513E-08  0.2313E-08  0.2112E-08  0.1913E-08  0.1648E-08  0.1389E-08  0.1136E-08  0.1030E-08  0.8619E-09  0.6328E-09  0.4130E-09  0.2027E-09  0.6632E-10  0.0000E+00  0.0000E+00  0.0000E+00
  0.0000E+00  0.0000E+00  0.0000E+00  0.0000E+00  0.0000E+00  0.0000E+00  0.0000E+00  0.0000E+00  0.0000E+00  0.0000E+00  0.0000E+00  0.0000E+00  0.0000E+00  0.0000E+00  0.0000E+00  0.0000E+00  0.5702E-10  0.1202E-09  0.1897E-09  0.2380E-09  0.3215E-09  0.3816E-09  0.4790E-09  0.5851E-09  0.6612E-09  0.7427E-09  0.8648E-09  0.9539E-09  0.1084E-08  0.1135E-08  0.1269E-08  0.1360E-08  0.1403E-08  0.1486E-08  0.1611E-08  0.1651E-08  0.1710E-08  0.1792E-08  0.1897E-08  0.2029E-08  0.2231E-08  0.2492E-08  0.2760E-08  0.2972E-08  0.3240E-08  0.3443E-08  0.4057E-08  0.4439E-08  0.4577E-08  0.4909E-08  0.5436E-08  0.5518E-08  0.5572E-08  0.5597E-08  0.5596E-08  0.5570E-08  0.5705E-08  0.5636E-08  0.5140E-08  0.4818E-08  0.4491E-08  0.4118E-08  0.3673E-08  0.3158E-08  0.2913E-08  0.2669E-08  0.2430E-08  0.2119E-08  0.1815E-08  0.1521E-08  0.1315E-08  0.1196E-08  0.9331E-09  0.6825E-09  0.4439E-09  0.2174E-09  0.7093E-10  0.0000E+00  0.0000E+00
  0.0000E+00  0.0000E+00  0.0000E+00  0.0000E+00  0.0000E+00  0.0000E+00  0.0000E+00  0.0000E+00  0.0000E+00  0.0000E+00  0.0000E+00  0.0000E+00  0.0000E+00  0.0000E+00  0.5644E-10  0.1197E-09  0.1904E-09  0.2411E-09  0.3281E-09  0.4259E-09  0.4976E-09  0.6133E-09  0.7375E-09  0.8697E-09  0.9741E-09  0.1122E-08  0.1238E-08  0.1399E-08  0.1476E-08  0.1646E-08  0.1768E-08  0.1890E-08  0.2056E-08  0.2117E-08  0.2175E-08  0.2354E-08  0.2504E-08  0.2626E-08  0.2772E-08  0.2947E-08  0.3148E-08  0.3481E-08  0.3756E-08  0.4490E-08  0.4985E-08  0.5464E-08  0.6167E-08  0.6386E-08  0.6566E-08  0.7366E-08  0.7490E-08  0.7571E-08  0.7611E-08  0.7611E-08  0.7576E-08  0.7877E-08  0.7595E-08  0.7056E-08  0.6685E-08  0.6303E-08  0.5871E-08  0.5439E-08  0.4700E-08  0.4156E-08  0.3630E-08  0.3334E-08  0.3045E-08  0.2677E-08  0.2321E-08  0.1979E-08  0.1736E-08  0.1506E-08  0.1289E-08  0.1002E-08  0.7305E-09  0.4737E-09  0.2314E-09  0.7537E-10  0.0000E+00
  0.0000E+00  0.0000E+00  0.0000E+00  0.0000E+00  0.0000E+00  0.0000E+00  0.0000E+00  0.0000E+00  0.0000E+00  0.0000E+00  0.0000E+00  0.0000E+00  0.2817E-10  0.8833E-10  0.1589E-09  0.2381E-09  0.3264E-09  0.4272E-09  0.5036E-09  0.6261E-09  0.7594E-09  0.9035E-09  0.1062E-08  0.1189E-08  0.1369E-08  0.1513E-08  0.1712E-08  0.1869E-08  0.2082E-08  0.2246E-08  0.2465E-08  0.2629E-08  0.2730E-08  0.2941E-08  0.3100E-08  0.3221E-08  0.3628E-08  0.4318E-08  0.4535E-08  0.4775E-08  0.5043E-08  0.5367E-08  0.5989E-08  0.6873E-08  0.7485E-08  0.8073E-08  0.8631E-08  0.8900E-08  0.9560E-08  0.9951E-08  0.1007E-07  0.1013E-07  0.1013E-07  0.1009E-07  0.9992E-08  0.1004E-07  0.9449E-08  0.9017E-08  0.8567E-08  0.8057E-08  0.7544E-08  0.6712E-08  0.6171E-08  0.5283E-08  0.4741E-08  0.4121E-08  0.3772E-08  0.3336E-08  0.2917E-08  0.2517E-08  0.2136E-08  0.1867E-08  0.1706E-08  0.1377E-08  0.1067E-08  0.7717E-09  0.4943E-09  0.2385E-09  0.7609E-10
  0.0000E+00  0.0000E+00  0.0000E+00  0.0000E+00  0.0000E+00  0.0000E+00  0.0000E+00  0.0000E+00  0.0000E+00  0.0000E+00  0.0000E+00  0.5790E-10  0.1241E-09  0.1994E-09  0.2875E-09  0.3864E-09  0.4967E-09  0.6226E-09  0.7613E-09  0.9135E-09  0.1044E-08  0.1225E-08  0.1424E-08  0.1637E-08  0.1863E-08  0.2058E-08  0.2309E-08  0.2522E-08  0.2792E-08  0.3015E-08  0.3295E-08  0.3714E-08  0.4396E-08  0.4595E-08  0.4799E-08  0.5022E-08  0.5797E-08  0.6334E-08  0.6632E-08  0.6945E-08  0.7340E-08  0.8113E-08  0.8928E-08  0.9723E-08  0.1071E-07  0.1141E-07  0.1180E-07  0.1210E-07  0.1302E-07  0.1318E-07  0.1327E-07  0.1328E-07  0.1322E-07  0.1309E-07  0.1291E-07  0.1244E-07  0.1216E-07  0.1162E-07  0.1078E-07  0.1016E-07  0.9215E-08  0.8562E-08  0.7551E-08  0.7261E-08  0.6622E-08  0.5623E-08  0.4902E-08  0.4109E-08  0.3615E-08  0.3147E-08  0.2704E-08  0.2286E-08  0.1989E-08  0.1710E-08  0.1446E-08  0.1103E-08  0.7841E-09  0.4943E-09  0.2362E-09
  0.0000E+00  0.0000E+00  0.0000E+00  0.0000E+00  0.0000E+00  0.0000E+00  0.0000E+00  0.0000E+00  0.0000E+00  0.2791E-10  0.8823E-10  0.1605E-09  0.2432E-09  0.3372E-09  0.4468E-09  0.5699E-09  0.7075E-09  0.8644E-09  0.1038E-08  0.1228E-08  0.1440E-08  0.1671E-08  0.1919E-08  0.2143E-08  0.2429E-08  0.2737E-08  0.3003E-08  0.3342E-08  0.3886E-08  0.4651E-08  0.4955E-08  0.5785E-08  0.6369E-08  0.6700E-08  0.7040E-08  0.7666E-08  0.8572E-08  0.8962E-08  0.9356E-08  0.9800E-08  0.1042E-07  0.1173E-07  0.1275E-07  0.1370E-07  0.1483E-07  0.1537E-07  0.1581E-07  0.1660E-07  0.1706E-07  0.1718E-07  0.1720E-07  0.1712E-07  0.1695E-07  0.1671E-07  0.1640E-07  0.1579E-07  0.1514E-07  0.1416E-07  0.1342E-07  0.1232E-07  0.1153E-07  0.1108E-07  0.9942E-08  0.9162E-08  0.8012E-08  0.7267E-08  0.6131E-08  0.5317E-08  0.4430E-08  0.3881E-08  0.3365E-08  0.2878E-08  0.2419E-08  0.1985E-08  0.1576E-08  0.1465E-08  0.1102E-08  0.7768E-09  0.4882E-09
  0.0000E+00  0.0000E+00  0.0000E+00  0.0000E+00  0.0000E+00  0.0000E+00  0.0000E+00  0.0000E+00  0.5582E-10  0.1209E-09  0.1962E-09  0.2859E-09  0.3886E-09  0.5054E-09  0.6413E-09  0.7941E-09  0.9651E-09  0.1160E-08  0.1375E-08  0.1613E-08  0.1878E-08  0.2167E-08  0.2506E-08  0.2848E-08  0.3157E-08  0.3547E-08  0.4157E-08  0.4983E-08  0.5918E-08  0.6643E-08  0.7397E-08  0.8424E-08  0.8939E-08  0.9448E-08  0.9961E-08  0.1130E-07  0.1183E-07  0.1235E-07  0.1286E-07  0.1357E-07  0.1483E-07  0.1641E-07  0.1738E-07  0.1876E-07  0.1976E-07  0.2037E-07  0.2082E-07  0.2183E-07  0.2201E-07  0.2205E-07  0.2195E-07  0.2174E-07  0.2142E-07  0.2100E-07  0.2027E-07  0.1948E-07  0.1834E-07  0.1743E-07  0.1651E-07  0.1553E-07  0.1457E-07  0.1325E-07  0.1229E-07  0.1095E-07  0.1004E-07  0.8723E-08  0.7874E-08  0.6607E-08  0.5704E-08  0.4725E-08  0.4115E-08  0.3538E-08  0.2997E-08  0.2489E-08  0.2015E-08  0.1579E-08  0.1184E-08  0.8334E-09  0.5232E-09
  0.0000E+00  0.0000E+00  0.0000E+00  0.0000E+00  0.0000E+00  0.0000E+00  0.0000E+00  0.5734E-10  0.1246E-09  0.2030E-09  0.2971E-09  0.4054E-09  0.5641E-09  0.7086E-09  0.8763E-09  0.1093E-08  0.1361E-08  0.1605E-08  0.1934E-08  0.2261E-08  0.2596E-08  0.2990E-08  0.3384E-08  0.3846E-08  0.4500E-08  0.5408E-08  0.6415E-08  0.7530E-08  0.8715E-08  0.9374E-08  0.1065E-07  0.1163E-07  0.1232E-07  0.1304E-07  0.1403E-07  0.1532E-07  0.1602E-07  0.1670E-07  0.1746E-07  0.1858E-07  0.2055E-07  0.2215E-07  0.2358E-07  0.2511E-07  0.2595E-07  0.2657E-07  0.2748E-07  0.2797E-07  0.2803E-07  0.2792E-07  0.2764E-07  0.2723E-07  0.2670E-07  0.2581E-07  0.2484E-07  0.2351E-07  0.2239E-07  0.2125E-07  0.2006E-07  0.1887E-07  0.1731E-07  0.1613E-07  0.1456E-07  0.1344E-07  0.1190E-07  0.1085E-07  0.9383E-08  0.8415E-08  0.7015E-08  0.6011E-08  0.4938E-08  0.4258E-08  0.3625E-08  0.3036E-08  0.2493E-08  0.1999E-08  0.1557E-08  0.1165E-08  0.8190E-09
  0.0000E+00  0.0000E+00  0.0000E+00  0.0000E+00  0.0000E+00  0.0000E+00  0.5833E-10  0.1272E-09  0.2385E-09  0.3354E-09  0.4511E-09  0.5845E-09  0.8219E-09  0.1006E-08  0.1302E-08  0.1540E-08  0.1905E-08  0.2255E-08  0.2662E-08  0.3072E-08  0.3493E-08  0.3985E-08  0.4516E-08  0.5459E-08  0.6780E-08  0.7997E-08  0.9327E-08  0.1077E-07  0.1202E-07  0.1329E-07  0.1481E-07  0.1586E-07  0.1686E-07  0.1782E-07  0.1963E-07  0.2054E-07  0.2140E-07  0.2221E-07  0.2348E-07  0.2550E-07  0.2783E-07  0.2941E-07  0.3131E-07  0.3271E-07  0.3357E-07  0.3417E-07  0.3524E-07  0.3535E-07  0.3523E-07  0.3489E-07  0.3437E-07  0.3368E-07  0.3261E-07  0.3143E-07  0.2985E-07  0.2848E-07  0.2738E-07  0.2560E-07  0.2413E-07  0.2228E-07  0.2083E-07  0.1898E-07  0.1759E-07  0.1578E-07  0.1449E-07  0.1277E-07  0.1157E-07  0.9917E-08  0.8292E-08  0.7262E-08  0.6172E-08  0.5038E-08  0.4305E-08  0.3629E-08  0.3012E-08  0.2457E-08  0.1964E-08  0.1527E-08  0.1142E-08
  0.0000E+00  0.0000E+00  0.0000E+00  0.0000E+00  0.0000E+00  0.5877E-10  0.1568E-09  0.2417E-09  0.3412E-09  0.5452E-09  0.6904E-09  0.9481E-09  0.1240E-08  0.1513E-08  0.1878E-08  0.2182E-08  0.2596E-08  0.3017E-08  0.3480E-08  0.4030E-08  0.4553E-08  0.5162E-08  0.6516E-08  0.8292E-08  0.9468E-08  0.1132E-07  0.1305E-07  0.1489E-07  0.1623E-07  0.1821E-07  0.1989E-07  0.2131E-07  0.2264E-07  0.2457E-07  0.2608E-07  0.2727E-07  0.2836E-07  0.2961E-07  0.3146E-07  0.3431E-07  0.3669E-07  0.3879E-07  0.4085E-07  0.4203E-07  0.4286E-07  0.4385E-07  0.4427E-07  0.4415E-07  0.4374E-07  0.4309E-07  0.4223E-07  0.4092E-07  0.3948E-07  0.3793E-07  0.3623E-07  0.3450E-07  0.3237E-07  0.3056E-07  0.2836E-07  0.2656E-07  0.2436E-07  0.2264E-07  0.2051E-07  0.1891E-07  0.1688E-07  0.1541E-07  0.1346E-07  0.1206E-07  0.1021E-07  0.8468E-08  0.6735E-08  0.5469E-08  0.4652E-08  0.4033E-08  0.3574E-08  0.2954E-08  0.2405E-08  0.1920E-08  0.1492E-08
  0.0000E+00  0.0000E+00  0.0000E+00  0.0000E+00  0.5865E-10  0.1569E-09  0.2427E-09  0.4314E-09  0.6497E-09  0.8083E-09  0.1087E-08  0.1404E-08  0.1701E-08  0.2101E-08  0.2438E-08  0.2933E-08  0.3364E-08  0.4014E-08  0.4551E-08  0.5274E-08  0.6128E-08  0.7606E-08  0.9630E-08  0.1129E-07  0.1343E-07  0.1554E-07  0.1777E-07  0.1984E-07  0.2200E-07  0.2448E-07  0.2631E-07  0.2821E-07  0.3003E-07  0.3265E-07  0.3429E-07  0.3579E-07  0.3719E-07  0.3922E-07  0.4225E-07  0.4553E-07  0.4786E-07  0.5037E-07  0.5219E-07  0.5334E-07  0.5404E-07  0.5508E-07  0.5498E-07  0.5451E-07  0.5371E-07  0.5264E-07  0.5106E-07  0.4930E-07  0.4739E-07  0.4531E-07  0.4317E-07  0.4062E-07  0.3839E-07  0.3574E-07  0.3353E-07  0.3090E-07  0.2878E-07  0.2624E-07  0.2427E-07  0.2187E-07  0.2006E-07  0.1777E-07  0.1603E-07  0.1382E-07  0.1172E-07  0.9789E-08  0.8495E-08  0.6726E-08  0.5427E-08  0.4585E-08  0.3830E-08  0.3162E-08  0.2571E-08  0.2050E-08  0.1590E-08
  0.0000E+00  0.0000E+00  0.0000E+00  0.5797E-10  0.1276E-09  0.3295E-09  0.5298E-09  0.7019E-09  0.9359E-09  0.1236E-08  0.1477E-08  0.1901E-08  0.2336E-08  0.2709E-08  0.3254E-08  0.3816E-08  0.4449E-08  0.5184E-08  0.5862E-08  0.6900E-08  0.8761E-08  0.1068E-07  0.1295E-07  0.1540E-07  0.1817E-07  0.2082E-07  0.2343E-07  0.2611E-07  0.2919E-07  0.3196E-07  0.3449E-07  0.3687E-07  0.3992E-07  0.4250E-07  0.4452E-07  0.4639E-07  0.4854E-07  0.5193E-07  0.5573E-07  0.5910E-07  0.6192E-07  0.6452E-07  0.6600E-07  0.6688E-07  0.6779E-07  0.6800E-07  0.6747E-07  0.6652E-07  0.6521E-07  0.6332E-07  0.6118E-07  0.5885E-07  0.5631E-07  0.5368E-07  0.5061E-07  0.4786E-07  0.4468E-07  0.4196E-07  0.3881E-07  0.3620E-07  0.3363E-07  0.3074E-07  0.2788E-07  0.2567E-07  0.2296E-07  0.2083E-07  0.1821E-07  0.1622E-07  0.1388E-07  0.1171E-07  0.9727E-08  0.7911E-08  0.6613E-08  0.5314E-08  0.4474E-08  0.3732E-08  0.3077E-08  0.2499E-08  0.1991E-08
  0.1744E-09  0.2105E-09  0.2758E-09  0.3822E-09  0.4733E-09  0.5867E-09  0.8245E-09  0.1071E-08  0.1323E-08  0.1656E-08  0.2071E-08  0.2543E-08  0.2993E-08  0.3589E-08  0.4163E-08  0.4906E-08  0.5723E-08  0.6481E-08  0.7672E-08  0.9870E-08  0.1235E-07  0.1479E-07  0.1815E-07  0.2158E-07  0.2473E-07  0.2786E-07  0.3148E-07  0.3495E-07  0.3880E-07  0.4209E-07  0.4535E-07  0.4887E-07  0.5257E-07  0.5521E-07  0.5755E-07  0.5975E-07  0.6312E-07  0.6799E-07  0.7230E-07  0.7596E-07  0.7895E-07  0.8119E-07  0.8247E-07  0.8302E-07  0.8372E-07  0.8305E-07  0.8193E-07  0.8035E-07  0.7809E-07  0.7551E-07  0.7294E-07  0.6958E-07  0.6636E-07  0.6266E-07  0.5929E-07  0.5547E-07  0.5257E-07  0.4929E-07  0.4563E-07  0.4199E-07  0.3906E-07  0.3564E-07  0.3240E-07  0.2920E-07  0.2661E-07  0.2350E-07  0.2105E-07  0.1824E-07  0.1563E-07  0.1323E-07  0.1104E-07  0.9033E-08  0.7583E-08  0.6304E-08  0.5043E-08  0.4343E-08  0.3619E-08  0.2981E-08  0.2419E-08
  0.4620E-09  0.5456E-09  0.6952E-09  0.8358E-09  0.9968E-09  0.1143E-08  0.1346E-08  0.1627E-08  0.1890E-08  0.2288E-08  0.2669E-08  0.3283E-08  0.3931E-08  0.4517E-08  0.5324E-08  0.6226E-08  0.7121E-08  0.8421E-08  0.1073E-07  0.1413E-07  0.1715E-07  0.2062E-07  0.2480E-07  0.2881E-07  0.3256E-07  0.3690E-07  0.4115E-07  0.4588E-07  0.5039E-07  0.5460E-07  0.5875E-07  0.6344E-07  0.6735E-07  0.7066E-07  0.7361E-07  0.7731E-07  0.8228E-07  0.8793E-07  0.9210E-07  0.9619E-07  0.9916E-07  0.1009E-06  0.1018E-06  0.1021E-06  0.1019E-06  0.1005E-06  0.9848E-07  0.9573E-07  0.9292E-07  0.8950E-07  0.8547E-07  0.8155E-07  0.7712E-07  0.7299E-07  0.6928E-07  0.6477E-07  0.6075E-07  0.5635E-07  0.5256E-07  0.4840E-07  0.4431E-07  0.4103E-07  0.3722E-07  0.3352E-07  0.2986E-07  0.2687E-07  0.2351E-07  0.2037E-07  0.1749E-07  0.1484E-07  0.1294E-07  0.1074E-07  0.8768E-08  0.6874E-08  0.5506E-08  0.4624E-08  0.3849E-08  0.3167E-08  0.2567E-08
  0.8858E-09  0.1032E-08  0.1199E-08  0.1416E-08  0.1627E-08  0.1865E-08  0.2134E-08  0.2392E-08  0.2771E-08  0.3178E-08  0.3620E-08  0.4198E-08  0.4919E-08  0.5928E-08  0.6661E-08  0.7795E-08  0.9635E-08  0.1238E-07  0.1626E-07  0.1963E-07  0.2350E-07  0.2820E-07  0.3309E-07  0.3755E-07  0.4269E-07  0.4815E-07  0.5355E-07  0.5944E-07  0.6477E-07  0.7009E-07  0.7565E-07  0.8109E-07  0.8556E-07  0.8964E-07  0.9381E-07  0.9921E-07  0.1057E-06  0.1116E-06  0.1167E-06  0.1207E-06  0.1226E-06  0.1239E-06  0.1242E-06  0.1242E-06  0.1226E-06  0.1203E-06  0.1173E-06  0.1135E-06  0.1092E-06  0.1044E-06  0.9968E-07  0.9479E-07  0.8977E-07  0.8475E-07  0.7933E-07  0.7442E-07  0.6915E-07  0.6452E-07  0.5953E-07  0.5528E-07  0.5065E-07  0.4612E-07  0.4174E-07  0.3800E-07  0.3383E-07  0.2983E-07  0.2608E-07  0.2317E-07  0.1998E-07  0.1707E-07  0.1442E-07  0.1202E-07  0.9879E-08  0.7972E-08  0.6626E-08  0.5308E-08  0.4454E-08  0.3704E-08  0.3045E-08
  0.1443E-08  0.1634E-08  0.1897E-08  0.2148E-08  0.2507E-08  0.3258E-08  0.3888E-08  0.5204E-08  0.6290E-08  0.8183E-08  0.9822E-08  0.1134E-07  0.1372E-07  0.1502E-07  0.1658E-07  0.1741E-07  0.1981E-07  0.2256E-07  0.2700E-07  0.3067E-07  0.3491E-07  0.3990E-07  0.4441E-07  0.4966E-07  0.5548E-07  0.6180E-07  0.6888E-07  0.7584E-07  0.8254E-07  0.8918E-07  0.9609E-07  0.1024E-06  0.1079E-06  0.1131E-06  0.1191E-06  0.1265E-06  0.1340E-06  0.1402E-06  0.1453E-06  0.1485E-06  0.1505E-06  0.1507E-06  0.1500E-06  0.1488E-06  0.1461E-06  0.1426E-06  0.1380E-06  0.1329E-06  0.1271E-06  0.1212E-06  0.1153E-06  0.1092E-06  0.1032E-06  0.9665E-07  0.9069E-07  0.8436E-07  0.7873E-07  0.7276E-07  0.6758E-07  0.6206E-07  0.5730E-07  0.5211E-07  0.4702E-07  0.4210E-07  0.3737E-07  0.3349E-07  0.2935E-07  0.2554E-07  0.2205E-07  0.1886E-07  0.1598E-07  0.1338E-07  0.1105E-07  0.8997E-08  0.7040E-08  0.5629E-08  0.4719E-08  0.3920E-08  0.3220E-08
  0.2592E-08  0.3294E-08  0.4296E-08  0.5978E-08  0.7495E-08  0.9586E-08  0.1162E-07  0.1350E-07  0.1579E-07  0.1832E-07  0.2050E-07  0.2220E-07  0.2371E-07  0.2435E-07  0.2542E-07  0.2780E-07  0.3100E-07  0.3565E-07  0.3982E-07  0.4441E-07  0.5025E-07  0.5595E-07  0.6177E-07  0.6834E-07  0.7487E-07  0.8208E-07  0.8934E-07  0.9695E-07  0.1045E-06  0.1129E-06  0.1212E-06  0.1285E-06  0.1352E-06  0.1419E-06  0.1502E-06  0.1594E-06  0.1674E-06  0.1740E-06  0.1786E-06  0.1812E-06  0.1821E-06  0.1811E-06  0.1800E-06  0.1767E-06  0.1723E-06  0.1670E-06  0.1609E-06  0.1540E-06  0.1470E-06  0.1401E-06  0.1323E-06  0.1249E-06  0.1171E-06  0.1099E-06  0.1023E-06  0.9551E-07  0.8838E-07  0.8211E-07  0.7552E-07  0.6978E-07  0.6364E-07  0.5765E-07  0.5187E-07  0.4631E-07  0.4163E-07  0.3672E-07  0.3218E-07  0.2801E-07  0.2420E-07  0.2073E-07  0.1760E-07  0.1479E-07  0.1229E-07  0.1007E-07  0.8109E-08  0.6729E-08  0.5384E-08  0.4511E-08  0.3745E-08
  0.5438E-08  0.7180E-08  0.8837E-08  0.1080E-07  0.1331E-07  0.1592E-07  0.1850E-07  0.2138E-07  0.2399E-07  0.2671E-07  0.2871E-07  0.3058E-07  0.3192E-07  0.3365E-07  0.3545E-07  0.3956E-07  0.4409E-07  0.4975E-07  0.5484E-07  0.6080E-07  0.6808E-07  0.7495E-07  0.8239E-07  0.9030E-07  0.9880E-07  0.1076E-06  0.1168E-06  0.1255E-06  0.1341E-06  0.1438E-06  0.1521E-06  0.1601E-06  0.1682E-06  0.1774E-06  0.1882E-06  0.1984E-06  0.2065E-06  0.2127E-06  0.2166E-06  0.2185E-06  0.2179E-06  0.2158E-06  0.2127E-06  0.2078E-06  0.2014E-06  0.1938E-06  0.1860E-06  0.1776E-06  0.1689E-06  0.1596E-06  0.1507E-06  0.1412E-06  0.1325E-06  0.1235E-06  0.1153E-06  0.1068E-06  0.9921E-07  0.9137E-07  0.8447E-07  0.7720E-07  0.7015E-07  0.6399E-07  0.5745E-07  0.5126E-07  0.4545E-07  0.4006E-07  0.3511E-07  0.3057E-07  0.2643E-07  0.2268E-07  0.1982E-07  0.1627E-07  0.1357E-07  0.1119E-07  0.9094E-08  0.7109E-08  0.5679E-08  0.4754E-08  0.3944E-08
  0.9915E-08  0.1217E-07  0.1451E-07  0.1718E-07  0.2042E-07  0.2370E-07  0.2696E-07  0.3003E-07  0.3262E-07  0.3525E-07  0.3740E-07  0.3929E-07  0.4121E-07  0.4346E-07  0.4748E-07  0.5279E-07  0.5938E-07  0.6552E-07  0.7237E-07  0.8039E-07  0.8909E-07  0.9781E-07  0.1074E-06  0.1177E-06  0.1279E-06  0.1384E-06  0.1492E-06  0.1599E-06  0.1709E-06  0.1825E-06  0.1930E-06  0.2031E-06  0.2130E-06  0.2247E-06  0.2362E-06  0.2463E-06  0.2532E-06  0.2581E-06  0.2602E-06  0.2599E-06  0.2578E-06  0.2545E-06  0.2488E-06  0.2415E-06  0.2328E-06  0.2234E-06  0.2130E-06  0.2027E-06  0.1916E-06  0.1809E-06  0.1697E-06  0.1591E-06  0.1483E-06  0.1383E-06  0.1283E-06  0.1192E-06  0.1099E-06  0.1016E-06  0.9305E-07  0.8541E-07  0.7745E-07  0.6980E-07  0.6255E-07  0.5572E-07  0.4936E-07  0.4414E-07  0.3886E-07  0.3365E-07  0.2989E-07  0.2609E-07  0.2212E-07  0.1904E-07  0.1688E-07  0.1399E-07  0.1190E-07  0.1007E-07  0.8815E-08  0.7479E-08  0.6338E-08
  0.1539E-07  0.1826E-07  0.2127E-07  0.2511E-07  0.2913E-07  0.3286E-07  0.3610E-07  0.3925E-07  0.4215E-07  0.4487E-07  0.4748E-07  0.5004E-07  0.5318E-07  0.5642E-07  0.6326E-07  0.6983E-07  0.7828E-07  0.8595E-07  0.9513E-07  0.1057E-06  0.1173E-06  0.1284E-06  0.1408E-06  0.1529E-06  0.1654E-06  0.1779E-06  0.1905E-06  0.2029E-06  0.2168E-06  0.2292E-06  0.2415E-06  0.2533E-06  0.2660E-06  0.2808E-06  0.2935E-06  0.3027E-06  0.3093E-06  0.3125E-06  0.3121E-06  0.3087E-06  0.3033E-06  0.2967E-06  0.2883E-06  0.2779E-06  0.2672E-06  0.2548E-06  0.2424E-06  0.2289E-06  0.2161E-06  0.2029E-06  0.1903E-06  0.1774E-06  0.1655E-06  0.1534E-06  0.1425E-06  0.1315E-06  0.1216E-06  0.1115E-06  0.1024E-06  0.9311E-07  0.8422E-07  0.7588E-07  0.6814E-07  0.6158E-07  0.5495E-07  0.4891E-07  0.4341E-07  0.3835E-07  0.3382E-07  0.2923E-07  0.2609E-07  0.2289E-07  0.1952E-07  0.1697E-07  0.1479E-07  0.1285E-07  0.1095E-07  0.9562E-08  0.8558E-08
  0.2199E-07  0.2557E-07  0.2933E-07  0.3447E-07  0.3874E-07  0.4239E-07  0.4611E-07  0.4950E-07  0.5261E-07  0.5634E-07  0.6021E-07  0.6448E-07  0.6877E-07  0.7556E-07  0.8431E-07  0.9391E-07  0.1037E-06  0.1146E-06  0.1260E-06  0.1386E-06  0.1514E-06  0.1649E-06  0.1790E-06  0.1937E-06  0.2094E-06  0.2247E-06  0.2403E-06  0.2563E-06  0.2717E-06  0.2859E-06  0.2996E-06  0.3133E-06  0.3293E-06  0.3457E-06  0.3584E-06  0.3668E-06  0.3723E-06  0.3730E-06  0.3700E-06  0.3645E-06  0.3557E-06  0.3456E-06  0.3323E-06  0.3182E-06  0.3035E-06  0.2888E-06  0.2728E-06  0.2579E-06  0.2417E-06  0.2274E-06  0.2129E-06  0.1982E-06  0.1839E-06  0.1708E-06  0.1577E-06  0.1452E-06  0.1333E-06  0.1224E-06  0.1116E-06  0.1014E-06  0.9253E-07  0.8354E-07  0.7522E-07  0.6752E-07  0.6045E-07  0.5399E-07  0.4811E-07  0.4279E-07  0.3792E-07  0.3356E-07  0.2961E-07  0.2554E-07  0.2240E-07  0.2013E-07  0.1715E-07  0.1448E-07  0.1242E-07  0.1140E-07  0.1008E-07
  0.2959E-07  0.3421E-07  0.3965E-07  0.4417E-07  0.4895E-07  0.5350E-07  0.5846E-07  0.6361E-07  0.6878E-07  0.7409E-07  0.7974E-07  0.8536E-07  0.9129E-07  0.1013E-06  0.1114E-06  0.1237E-06  0.1360E-06  0.1482E-06  0.1620E-06  0.1768E-06  0.1914E-06  0.2073E-06  0.2239E-06  0.2419E-06  0.2605E-06  0.2791E-06  0.2974E-06  0.3167E-06  0.3343E-06  0.3514E-06  0.3676E-06  0.3847E-06  0.4039E-06  0.4202E-06  0.4316E-06  0.4385E-06  0.4418E-06  0.4397E-06  0.4340E-06  0.4246E-06  0.4132E-06  0.3986E-06  0.3821E-06  0.3636E-06  0.3445E-06  0.3250E-06  0.3065E-06  0.2885E-06  0.2704E-06  0.2527E-06  0.2354E-06  0.2192E-06  0.2031E-06  0.1877E-06  0.1729E-06  0.1595E-06  0.1460E-06  0.1333E-06  0.1220E-06  0.1109E-06  0.1005E-06  0.9089E-07  0.8198E-07  0.7378E-07  0.6622E-07  0.5925E-07  0.5288E-07  0.4709E-07  0.4188E-07  0.3719E-07  0.3242E-07  0.2865E-07  0.2583E-07  0.2233E-07  0.1917E-07  0.1683E-07  0.1527E-07  0.1331E-07  0.1184E-07
  0.3891E-07  0.4478E-07  0.5296E-07  0.6023E-07  0.6705E-07  0.7275E-07  0.7889E-07  0.8546E-07  0.9174E-07  0.9843E-07  0.1058E-06  0.1127E-06  0.1218E-06  0.1347E-06  0.1481E-06  0.1620E-06  0.1758E-06  0.1907E-06  0.2063E-06  0.2228E-06  0.2404E-06  0.2597E-06  0.2804E-06  0.3023E-06  0.3240E-06  0.3455E-06  0.3680E-06  0.3893E-06  0.4095E-06  0.4290E-06  0.4481E-06  0.4689E-06  0.4892E-06  0.5041E-06  0.5141E-06  0.5190E-06  0.5177E-06  0.5125E-06  0.5032E-06  0.4899E-06  0.4743E-06  0.4555E-06  0.4349E-06  0.4128E-06  0.3902E-06  0.3667E-06  0.3431E-06  0.3206E-06  0.2990E-06  0.2785E-06  0.2590E-06  0.2402E-06  0.2227E-06  0.2055E-06  0.1889E-06  0.1732E-06  0.1582E-06  0.1449E-06  0.1319E-06  0.1200E-06  0.1089E-06  0.9851E-07  0.8895E-07  0.8012E-07  0.7202E-07  0.6461E-07  0.5785E-07  0.5173E-07  0.4618E-07  0.4061E-07  0.3667E-07  0.3266E-07  0.2855E-07  0.2483E-07  0.2249E-07  0.1998E-07  0.1727E-07  0.1518E-07  0.1360E-07
  0.5536E-07  0.6432E-07  0.7242E-07  0.7967E-07  0.8630E-07  0.9372E-07  0.1014E-06  0.1096E-06  0.1179E-06  0.1264E-06  0.1349E-06  0.1441E-06  0.1576E-06  0.1732E-06  0.1898E-06  0.2052E-06  0.2213E-06  0.2393E-06  0.2583E-06  0.2787E-06  0.3007E-06  0.3241E-06  0.3492E-06  0.3750E-06  0.4006E-06  0.4267E-06  0.4533E-06  0.4777E-06  0.5011E-06  0.5231E-06  0.5463E-06  0.5690E-06  0.5875E-06  0.5997E-06  0.6070E-06  0.6073E-06  0.6018E-06  0.5920E-06  0.5768E-06  0.5598E-06  0.5396E-06  0.5163E-06  0.4906E-06  0.4642E-06  0.4370E-06  0.4097E-06  0.3820E-06  0.3549E-06  0.3288E-06  0.3051E-06  0.2824E-06  0.2618E-06  0.2416E-06  0.2223E-06  0.2040E-06  0.1873E-06  0.1710E-06  0.1559E-06  0.1420E-06  0.1292E-06  0.1174E-06  0.1064E-06  0.9621E-07  0.8749E-07  0.7828E-07  0.7043E-07  0.6328E-07  0.5678E-07  0.5030E-07  0.4556E-07  0.4080E-07  0.3598E-07  0.3159E-07  0.2868E-07  0.2565E-07  0.2243E-07  0.1955E-07  0.1728E-07  0.1559E-07
  0.7346E-07  0.8265E-07  0.9099E-07  0.9894E-07  0.1074E-06  0.1167E-06  0.1264E-06  0.1364E-06  0.1472E-06  0.1578E-06  0.1690E-06  0.1812E-06  0.1994E-06  0.2180E-06  0.2358E-06  0.2539E-06  0.2740E-06  0.2960E-06  0.3192E-06  0.3443E-06  0.3711E-06  0.3994E-06  0.4295E-06  0.4595E-06  0.4903E-06  0.5215E-06  0.5518E-06  0.5803E-06  0.6071E-06  0.6332E-06  0.6607E-06  0.6839E-06  0.6993E-06  0.7090E-06  0.7113E-06  0.7056E-06  0.6949E-06  0.6785E-06  0.6584E-06  0.6342E-06  0.6072E-06  0.5783E-06  0.5484E-06  0.5169E-06  0.4854E-06  0.4532E-06  0.4222E-06  0.3913E-06  0.3615E-06  0.3332E-06  0.3074E-06  0.2828E-06  0.2612E-06  0.2400E-06  0.2197E-06  0.2007E-06  0.1833E-06  0.1672E-06  0.1532E-06  0.1396E-06  0.1270E-06  0.1154E-06  0.1047E-06  0.9412E-07  0.8507E-07  0.7739E-07  0.6920E-07  0.6230E-07  0.5605E-07  0.5042E-07  0.4478E-07  0.3965E-07  0.3610E-07  0.3243E-07  0.2863E-07  0.2519E-07  0.2209E-07  0.2015E-07  0.1856E-07
  0.9049E-07  0.1002E-06  0.1095E-06  0.1196E-06  0.1301E-06  0.1414E-06  0.1535E-06  0.1662E-06  0.1792E-06  0.1927E-06  0.2065E-06  0.2234E-06  0.2450E-06  0.2666E-06  0.2874E-06  0.3101E-06  0.3349E-06  0.3615E-06  0.3898E-06  0.4202E-06  0.4524E-06  0.4866E-06  0.5222E-06  0.5580E-06  0.5945E-06  0.6312E-06  0.6660E-06  0.6986E-06  0.7295E-06  0.7613E-06  0.7911E-06  0.8120E-06  0.8247E-06  0.8302E-06  0.8267E-06  0.8162E-06  0.7988E-06  0.7749E-06  0.7464E-06  0.7140E-06  0.6799E-06  0.6448E-06  0.6080E-06  0.5716E-06  0.5342E-06  0.4986E-06  0.4628E-06  0.4287E-06  0.3952E-06  0.3639E-06  0.3327E-06  0.3057E-06  0.2799E-06  0.2566E-06  0.2346E-06  0.2144E-06  0.1967E-06  0.1797E-06  0.1641E-06  0.1498E-06  0.1366E-06  0.1243E-06  0.1124E-06  0.1026E-06  0.9306E-07  0.8366E-07  0.7564E-07  0.6834E-07  0.6174E-07  0.5517E-07  0.4974E-07  0.4486E-07  0.4046E-07  0.3600E-07  0.3194E-07  0.2829E-07  0.2645E-07  0.2346E-07  0.2109E-07
  0.1094E-06  0.1200E-06  0.1313E-06  0.1433E-06  0.1556E-06  0.1695E-06  0.1841E-06  0.1992E-06  0.2149E-06  0.2312E-06  0.2478E-06  0.2705E-06  0.2950E-06  0.3200E-06  0.3453E-06  0.3729E-06  0.4029E-06  0.4351E-06  0.4694E-06  0.5057E-06  0.5443E-06  0.5854E-06  0.6269E-06  0.6694E-06  0.7130E-06  0.7557E-06  0.7960E-06  0.8336E-06  0.8707E-06  0.9072E-06  0.9358E-06  0.9540E-06  0.9631E-06  0.9623E-06  0.9528E-06  0.9353E-06  0.9098E-06  0.8783E-06  0.8414E-06  0.8007E-06  0.7580E-06  0.7143E-06  0.6711E-06  0.6280E-06  0.5865E-06  0.5444E-06  0.5048E-06  0.4660E-06  0.4293E-06  0.3941E-06  0.3614E-06  0.3289E-06  0.2992E-06  0.2737E-06  0.2504E-06  0.2292E-06  0.2099E-06  0.1920E-06  0.1757E-06  0.1606E-06  0.1467E-06  0.1339E-06  0.1220E-06  0.1111E-06  0.1004E-06  0.9110E-07  0.8264E-07  0.7494E-07  0.6733E-07  0.6095E-07  0.5516E-07  0.4993E-07  0.4469E-07  0.3991E-07  0.3560E-07  0.3321E-07  0.2965E-07  0.2644E-07  0.2384E-07
  0.1292E-06  0.1417E-06  0.1552E-06  0.1691E-06  0.1849E-06  0.2012E-06  0.2182E-06  0.2365E-06  0.2552E-06  0.2740E-06  0.2946E-06  0.3225E-06  0.3520E-06  0.3806E-06  0.4110E-06  0.4449E-06  0.4809E-06  0.5187E-06  0.5601E-06  0.6036E-06  0.6496E-06  0.6982E-06  0.7487E-06  0.7996E-06  0.8512E-06  0.9002E-06  0.9463E-06  0.9907E-06  0.1034E-05  0.1071E-05  0.1096E-05  0.1111E-05  0.1115E-05  0.1107E-05  0.1089E-05  0.1062E-05  0.1028E-05  0.9878E-06  0.9422E-06  0.8926E-06  0.8410E-06  0.7889E-06  0.7368E-06  0.6871E-06  0.6381E-06  0.5922E-06  0.5473E-06  0.5048E-06  0.4642E-06  0.4259E-06  0.3883E-06  0.3541E-06  0.3210E-06  0.2912E-06  0.2659E-06  0.2438E-06  0.2235E-06  0.2050E-06  0.1879E-06  0.1722E-06  0.1576E-06  0.1442E-06  0.1317E-06  0.1195E-06  0.1089E-06  0.9981E-07  0.9026E-07  0.8148E-07  0.7402E-07  0.6781E-07  0.6109E-07  0.5493E-07  0.4929E-07  0.4421E-07  0.4115E-07  0.3698E-07  0.3317E-07  0.2967E-07  0.2690E-07
  0.1509E-06  0.1660E-06  0.1814E-06  0.1988E-06  0.2167E-06  0.2358E-06  0.2561E-06  0.2772E-06  0.2988E-06  0.3213E-06  0.3467E-06  0.3809E-06  0.4138E-06  0.4486E-06  0.4848E-06  0.5253E-06  0.5681E-06  0.6139E-06  0.6630E-06  0.7152E-06  0.7703E-06  0.8288E-06  0.8877E-06  0.9484E-06  0.1008E-05  0.1064E-05  0.1117E-05  0.1168E-05  0.1217E-05  0.1254E-05  0.1276E-05  0.1287E-05  0.1283E-05  0.1264E-05  0.1236E-05  0.1199E-05  0.1155E-05  0.1104E-05  0.1047E-05  0.9883E-06  0.9279E-06  0.8670E-06  0.8078E-06  0.7499E-06  0.6940E-06  0.6404E-06  0.5906E-06  0.5443E-06  0.4993E-06  0.4566E-06  0.4174E-06  0.3790E-06  0.3431E-06  0.3106E-06  0.2830E-06  0.2593E-06  0.2382E-06  0.2190E-06  0.2011E-06  0.1846E-06  0.1693E-06  0.1551E-06  0.1414E-06  0.1300E-06  0.1188E-06  0.1079E-06  0.9782E-07  0.8915E-07  0.8182E-07  0.7402E-07  0.6684E-07  0.6031E-07  0.5432E-07  0.5045E-07  0.4553E-07  0.4102E-07  0.3697E-07  0.3320E-07  0.3016E-07
  0.1749E-06  0.1922E-06  0.2110E-06  0.2306E-06  0.2518E-06  0.2743E-06  0.2979E-06  0.3219E-06  0.3472E-06  0.3743E-06  0.4042E-06  0.4455E-06  0.4837E-06  0.5244E-06  0.5684E-06  0.6157E-06  0.6665E-06  0.7208E-06  0.7799E-06  0.8427E-06  0.9085E-06  0.9775E-06  0.1047E-05  0.1117E-05  0.1184E-05  0.1246E-05  0.1309E-05  0.1370E-05  0.1422E-05  0.1459E-05  0.1478E-05  0.1479E-05  0.1464E-05  0.1436E-05  0.1397E-05  0.1349E-05  0.1291E-05  0.1227E-05  0.1159E-05  0.1089E-05  0.1019E-05  0.9484E-06  0.8811E-06  0.8147E-06  0.7511E-06  0.6910E-06  0.6345E-06  0.5821E-06  0.5331E-06  0.4878E-06  0.4447E-06  0.4045E-06  0.3673E-06  0.3339E-06  0.3030E-06  0.2765E-06  0.2548E-06  0.2342E-06  0.2157E-06  0.1987E-06  0.1831E-06  0.1675E-06  0.1544E-06  0.1416E-06  0.1291E-06  0.1175E-06  0.1075E-06  0.9859E-07  0.8926E-07  0.8064E-07  0.7305E-07  0.6605E-07  0.6137E-07  0.5550E-07  0.5019E-07  0.4540E-07  0.4100E-07  0.3696E-07  0.3371E-07
  0.2015E-06  0.2214E-06  0.2425E-06  0.2658E-06  0.2905E-06  0.3157E-06  0.3431E-06  0.3712E-06  0.3999E-06  0.4308E-06  0.4698E-06  0.5167E-06  0.5613E-06  0.6091E-06  0.6615E-06  0.7170E-06  0.7777E-06  0.8434E-06  0.9132E-06  0.9880E-06  0.1066E-05  0.1146E-05  0.1226E-05  0.1305E-05  0.1382E-05  0.1456E-05  0.1532E-05  0.1602E-05  0.1655E-05  0.1686E-05  0.1699E-05  0.1691E-05  0.1665E-05  0.1625E-05  0.1572E-05  0.1508E-05  0.1435E-05  0.1358E-05  0.1279E-05  0.1195E-05  0.1112E-05  0.1032E-05  0.9538E-06  0.8814E-06  0.8108E-06  0.7430E-06  0.6802E-06  0.6216E-06  0.5679E-06  0.5180E-06  0.4720E-06  0.4319E-06  0.3953E-06  0.3608E-06  0.3280E-06  0.2985E-06  0.2725E-06  0.2516E-06  0.2334E-06  0.2152E-06  0.1991E-06  0.1836E-06  0.1691E-06  0.1549E-06  0.1414E-06  0.1301E-06  0.1189E-06  0.1080E-06  0.9793E-07  0.8818E-07  0.7962E-07  0.7393E-07  0.6711E-07  0.6088E-07  0.5520E-07  0.5002E-07  0.4530E-07  0.4101E-07  0.3792E-07
  0.2305E-06  0.2523E-06  0.2775E-06  0.3043E-06  0.3316E-06  0.3617E-06  0.3921E-06  0.4242E-06  0.4580E-06  0.4930E-06  0.5434E-06  0.5948E-06  0.6465E-06  0.7030E-06  0.7629E-06  0.8293E-06  0.9017E-06  0.9795E-06  0.1063E-05  0.1153E-05  0.1242E-05  0.1336E-05  0.1429E-05  0.1520E-05  0.1607E-05  0.1695E-05  0.1784E-05  0.1858E-05  0.1910E-05  0.1938E-05  0.1941E-05  0.1924E-05  0.1885E-05  0.1831E-05  0.1760E-05  0.1679E-05  0.1593E-05  0.1501E-05  0.1404E-05  0.1307E-05  0.1212E-05  0.1118E-05  0.1031E-05  0.9492E-06  0.8728E-06  0.7980E-06  0.7273E-06  0.6620E-06  0.6026E-06  0.5503E-06  0.5028E-06  0.4610E-06  0.4227E-06  0.3880E-06  0.3554E-06  0.3235E-06  0.2958E-06  0.2723E-06  0.2523E-06  0.2343E-06  0.2177E-06  0.2015E-06  0.1853E-06  0.1702E-06  0.1572E-06  0.1441E-06  0.1310E-06  0.1185E-06  0.1074E-06  0.9654E-07  0.8891E-07  0.8042E-07  0.7322E-07  0.6650E-07  0.6042E-07  0.5495E-07  0.4983E-07  0.4522E-07  0.4239E-07
  0.2608E-06  0.2874E-06  0.3147E-06  0.3452E-06  0.3768E-06  0.4101E-06  0.4456E-06  0.4818E-06  0.5208E-06  0.5638E-06  0.6220E-06  0.6797E-06  0.7399E-06  0.8051E-06  0.8765E-06  0.9549E-06  0.1040E-05  0.1132E-05  0.1233E-05  0.1336E-05  0.1440E-05  0.1549E-05  0.1657E-05  0.1760E-05  0.1864E-05  0.1969E-05  0.2066E-05  0.2139E-05  0.2190E-05  0.2214E-05  0.2210E-05  0.2179E-05  0.2125E-05  0.2053E-05  0.1964E-05  0.1869E-05  0.1765E-05  0.1654E-05  0.1541E-05  0.1430E-05  0.1317E-05  0.1212E-05  0.1112E-05  0.1020E-05  0.9332E-06  0.8526E-06  0.7778E-06  0.7076E-06  0.6416E-06  0.5847E-06  0.5350E-06  0.4921E-06  0.4530E-06  0.4172E-06  0.3849E-06  0.3542E-06  0.3251E-06  0.2979E-06  0.2757E-06  0.2571E-06  0.2394E-06  0.2218E-06  0.2045E-06  0.1896E-06  0.1743E-06  0.1594E-06  0.1450E-06  0.1316E-06  0.1187E-06  0.1088E-06  0.9765E-07  0.8815E-07  0.7955E-07  0.7245E-07  0.6596E-07  0.6003E-07  0.5454E-07  0.5017E-07  0.4661E-07
  0.2935E-06  0.3236E-06  0.3554E-06  0.3895E-06  0.4254E-06  0.4626E-06  0.5020E-06  0.5442E-06  0.5887E-06  0.6410E-06  0.7073E-06  0.7716E-06  0.8409E-06  0.9170E-06  0.1001E-05  0.1093E-05  0.1194E-05  0.1306E-05  0.1424E-05  0.1543E-05  0.1666E-05  0.1790E-05  0.1913E-05  0.2034E-05  0.2155E-05  0.2276E-05  0.2379E-05  0.2459E-05  0.2504E-05  0.2520E-05  0.2503E-05  0.2456E-05  0.2387E-05  0.2295E-05  0.2192E-05  0.2075E-05  0.1950E-05  0.1821E-05  0.1692E-05  0.1560E-05  0.1433E-05  0.1312E-05  0.1199E-05  0.1094E-05  0.9977E-06  0.9102E-06  0.8291E-06  0.7539E-06  0.6860E-06  0.6237E-06  0.5702E-06  0.5258E-06  0.4862E-06  0.4503E-06  0.4170E-06  0.3872E-06  0.3592E-06  0.3313E-06  0.3063E-06  0.2839E-06  0.2644E-06  0.2455E-06  0.2281E-06  0.2106E-06  0.1935E-06  0.1765E-06  0.1610E-06  0.1457E-06  0.1340E-06  0.1205E-06  0.1089E-06  0.9716E-07  0.8742E-07  0.7869E-07  0.7158E-07  0.6525E-07  0.5997E-07  0.5468E-07  0.5081E-07
  0.3297E-06  0.3630E-06  0.3986E-06  0.4363E-06  0.4765E-06  0.5188E-06  0.5632E-06  0.6113E-06  0.6612E-06  0.7249E-06  0.7985E-06  0.8724E-06  0.9517E-06  0.1040E-05  0.1139E-05  0.1247E-05  0.1368E-05  0.1500E-05  0.1636E-05  0.1774E-05  0.1918E-05  0.2057E-05  0.2197E-05  0.2341E-05  0.2487E-05  0.2621E-05  0.2730E-05  0.2808E-05  0.2850E-05  0.2855E-05  0.2826E-05  0.2767E-05  0.2678E-05  0.2569E-05  0.2442E-05  0.2302E-05  0.2156E-05  0.2008E-05  0.1855E-05  0.1706E-05  0.1561E-05  0.1423E-05  0.1293E-05  0.1175E-05  0.1067E-05  0.9704E-06  0.8818E-06  0.8032E-06  0.7321E-06  0.6687E-06  0.6124E-06  0.5641E-06  0.5243E-06  0.4875E-06  0.4540E-06  0.4245E-06  0.3986E-06  0.3717E-06  0.3427E-06  0.3152E-06  0.2933E-06  0.2736E-06  0.2537E-06  0.2340E-06  0.2146E-06  0.1961E-06  0.1783E-06  0.1639E-06  0.1482E-06  0.1342E-06  0.1205E-06  0.1084E-06  0.9582E-07  0.8582E-07  0.7787E-07  0.7074E-07  0.6491E-07  0.5929E-07  0.5495E-07
  0.3675E-06  0.4045E-06  0.4442E-06  0.4863E-06  0.5312E-06  0.5782E-06  0.6291E-06  0.6831E-06  0.7405E-06  0.8153E-06  0.8969E-06  0.9811E-06  0.1073E-05  0.1176E-05  0.1291E-05  0.1418E-05  0.1564E-05  0.1716E-05  0.1872E-05  0.2034E-05  0.2198E-05  0.2360E-05  0.2526E-05  0.2698E-05  0.2866E-05  0.3011E-05  0.3120E-05  0.3194E-05  0.3232E-05  0.3231E-05  0.3190E-05  0.3111E-05  0.3005E-05  0.2874E-05  0.2721E-05  0.2557E-05  0.2387E-05  0.2212E-05  0.2039E-05  0.1868E-05  0.1704E-05  0.1546E-05  0.1398E-05  0.1264E-05  0.1143E-05  0.1035E-05  0.9397E-06  0.8543E-06  0.7837E-06  0.7204E-06  0.6626E-06  0.6117E-06  0.5670E-06  0.5308E-06  0.4989E-06  0.4726E-06  0.4460E-06  0.4179E-06  0.3860E-06  0.3550E-06  0.3286E-06  0.3056E-06  0.2828E-06  0.2602E-06  0.2388E-06  0.2176E-06  0.2003E-06  0.1814E-06  0.1648E-06  0.1482E-06  0.1338E-06  0.1185E-06  0.1052E-06  0.9467E-07  0.8482E-07  0.7688E-07  0.7029E-07  0.6395E-07  0.5882E-07
  0.4074E-06  0.4484E-06  0.4923E-06  0.5391E-06  0.5888E-06  0.6417E-06  0.6991E-06  0.7589E-06  0.8269E-06  0.9121E-06  0.1002E-05  0.1097E-05  0.1205E-05  0.1325E-05  0.1460E-05  0.1614E-05  0.1778E-05  0.1953E-05  0.2136E-05  0.2324E-05  0.2511E-05  0.2705E-05  0.2902E-05  0.3104E-05  0.3288E-05  0.3441E-05  0.3556E-05  0.3632E-05  0.3662E-05  0.3650E-05  0.3591E-05  0.3498E-05  0.3370E-05  0.3214E-05  0.3035E-05  0.2846E-05  0.2645E-05  0.2445E-05  0.2246E-05  0.2052E-05  0.1864E-05  0.1684E-05  0.1517E-05  0.1364E-05  0.1229E-05  0.1109E-05  0.1004E-05  0.9151E-06  0.8404E-06  0.7755E-06  0.7197E-06  0.6699E-06  0.6238E-06  0.5853E-06  0.5572E-06  0.5299E-06  0.5009E-06  0.4699E-06  0.4382E-06  0.4042E-06  0.3699E-06  0.3400E-06  0.3135E-06  0.2885E-06  0.2640E-06  0.2434E-06  0.2213E-06  0.2012E-06  0.1814E-06  0.1615E-06  0.1453E-06  0.1296E-06  0.1164E-06  0.1026E-06  0.9236E-07  0.8368E-07  0.7627E-07  0.6918E-07  0.6334E-07
  0.4490E-06  0.4945E-06  0.5429E-06  0.5951E-06  0.6498E-06  0.7089E-06  0.7729E-06  0.8402E-06  0.9188E-06  0.1013E-05  0.1114E-05  0.1225E-05  0.1350E-05  0.1489E-05  0.1650E-05  0.1826E-05  0.2016E-05  0.2216E-05  0.2430E-05  0.2646E-05  0.2866E-05  0.3095E-05  0.3330E-05  0.3555E-05  0.3762E-05  0.3923E-05  0.4043E-05  0.4120E-05  0.4142E-05  0.4114E-05  0.4044E-05  0.3930E-05  0.3779E-05  0.3596E-05  0.3392E-05  0.3169E-05  0.2938E-05  0.2708E-05  0.2482E-05  0.2258E-05  0.2043E-05  0.1841E-05  0.1652E-05  0.1478E-05  0.1324E-05  0.1190E-05  0.1078E-05  0.9838E-06  0.9053E-06  0.8408E-06  0.7863E-06  0.7372E-06  0.6943E-06  0.6593E-06  0.6277E-06  0.5976E-06  0.5651E-06  0.5309E-06  0.4959E-06  0.4564E-06  0.4167E-06  0.3788E-06  0.3469E-06  0.3176E-06  0.2922E-06  0.2672E-06  0.2436E-06  0.2205E-06  0.1973E-06  0.1775E-06  0.1582E-06  0.1419E-06  0.1258E-06  0.1120E-06  0.1008E-06  0.9068E-07  0.8222E-07  0.7500E-07  0.6832E-07
  0.4927E-06  0.5423E-06  0.5956E-06  0.6527E-06  0.7138E-06  0.7803E-06  0.8501E-06  0.9258E-06  0.1016E-05  0.1122E-05  0.1234E-05  0.1362E-05  0.1508E-05  0.1671E-05  0.1856E-05  0.2058E-05  0.2278E-05  0.2511E-05  0.2757E-05  0.3007E-05  0.3269E-05  0.3538E-05  0.3808E-05  0.4067E-05  0.4291E-05  0.4471E-05  0.4595E-05  0.4664E-05  0.4678E-05  0.4641E-05  0.4553E-05  0.4417E-05  0.4238E-05  0.4028E-05  0.3790E-05  0.3532E-05  0.3268E-05  0.3004E-05  0.2742E-05  0.2488E-05  0.2246E-05  0.2017E-05  0.1801E-05  0.1605E-05  0.1431E-05  0.1285E-05  0.1163E-05  0.1063E-05  0.9823E-06  0.9173E-06  0.8625E-06  0.8182E-06  0.7816E-06  0.7483E-06  0.7130E-06  0.6768E-06  0.6396E-06  0.5999E-06  0.5571E-06  0.5134E-06  0.4670E-06  0.4223E-06  0.3829E-06  0.3498E-06  0.3200E-06  0.2921E-06  0.2638E-06  0.2380E-06  0.2149E-06  0.1922E-06  0.1711E-06  0.1528E-06  0.1360E-06  0.1214E-06  0.1088E-06  0.9782E-07  0.8884E-07  0.8054E-07  0.7325E-07
  0.5380E-06  0.5924E-06  0.6513E-06  0.7138E-06  0.7805E-06  0.8540E-06  0.9311E-06  0.1015E-05  0.1122E-05  0.1236E-05  0.1364E-05  0.1512E-05  0.1680E-05  0.1867E-05  0.2082E-05  0.2315E-05  0.2569E-05  0.2839E-05  0.3122E-05  0.3411E-05  0.3719E-05  0.4038E-05  0.4357E-05  0.4647E-05  0.4888E-05  0.5081E-05  0.5213E-05  0.5277E-05  0.5285E-05  0.5235E-05  0.5129E-05  0.4964E-05  0.4756E-05  0.4509E-05  0.4230E-05  0.3938E-05  0.3636E-05  0.3330E-05  0.3033E-05  0.2745E-05  0.2471E-05  0.2209E-05  0.1968E-05  0.1746E-05  0.1554E-05  0.1390E-05  0.1259E-05  0.1153E-05  0.1071E-05  0.1006E-05  0.9562E-06  0.9178E-06  0.8865E-06  0.8534E-06  0.8125E-06  0.7685E-06  0.7234E-06  0.6738E-06  0.6227E-06  0.5712E-06  0.5200E-06  0.4693E-06  0.4229E-06  0.3827E-06  0.3477E-06  0.3149E-06  0.2842E-06  0.2568E-06  0.2302E-06  0.2058E-06  0.1841E-06  0.1643E-06  0.1466E-06  0.1313E-06  0.1173E-06  0.1050E-06  0.9528E-07  0.8672E-07  0.7872E-07
  0.5846E-06  0.6442E-06  0.7086E-06  0.7771E-06  0.8519E-06  0.9310E-06  0.1017E-05  0.1111E-05  0.1230E-05  0.1359E-05  0.1504E-05  0.1672E-05  0.1863E-05  0.2080E-05  0.2330E-05  0.2598E-05  0.2894E-05  0.3209E-05  0.3535E-05  0.3882E-05  0.4244E-05  0.4616E-05  0.4979E-05  0.5296E-05  0.5566E-05  0.5771E-05  0.5907E-05  0.5975E-05  0.5976E-05  0.5903E-05  0.5767E-05  0.5579E-05  0.5338E-05  0.5045E-05  0.4724E-05  0.4386E-05  0.4039E-05  0.3692E-05  0.3352E-05  0.3025E-05  0.2713E-05  0.2421E-05  0.2148E-05  0.1903E-05  0.1688E-05  0.1509E-05  0.1367E-05  0.1256E-05  0.1173E-05  0.1112E-05  0.1071E-05  0.1039E-05  0.1009E-05  0.9723E-06  0.9259E-06  0.8706E-06  0.8127E-06  0.7522E-06  0.6906E-06  0.6310E-06  0.5733E-06  0.5160E-06  0.4647E-06  0.4170E-06  0.3749E-06  0.3380E-06  0.3049E-06  0.2732E-06  0.2446E-06  0.2191E-06  0.1962E-06  0.1757E-06  0.1562E-06  0.1399E-06  0.1251E-06  0.1130E-06  0.1021E-06  0.9268E-07  0.8436E-07
  0.6333E-06  0.6978E-06  0.7677E-06  0.8423E-06  0.9246E-06  0.1011E-05  0.1105E-05  0.1213E-05  0.1344E-05  0.1487E-05  0.1650E-05  0.1842E-05  0.2063E-05  0.2313E-05  0.2600E-05  0.2911E-05  0.3256E-05  0.3622E-05  0.4002E-05  0.4414E-05  0.4845E-05  0.5274E-05  0.5677E-05  0.6030E-05  0.6326E-05  0.6552E-05  0.6699E-05  0.6766E-05  0.6748E-05  0.6651E-05  0.6487E-05  0.6257E-05  0.5969E-05  0.5642E-05  0.5271E-05  0.4877E-05  0.4473E-05  0.4078E-05  0.3693E-05  0.3323E-05  0.2971E-05  0.2643E-05  0.2340E-05  0.2069E-05  0.1833E-05  0.1637E-05  0.1484E-05  0.1370E-05  0.1291E-05  0.1239E-05  0.1204E-05  0.1179E-05  0.1148E-05  0.1105E-05  0.1049E-05  0.9790E-06  0.9058E-06  0.8318E-06  0.7602E-06  0.6907E-06  0.6245E-06  0.5621E-06  0.5028E-06  0.4503E-06  0.4017E-06  0.3608E-06  0.3228E-06  0.2874E-06  0.2582E-06  0.2313E-06  0.2063E-06  0.1851E-06  0.1661E-06  0.1488E-06  0.1334E-06  0.1197E-06  0.1082E-06  0.9875E-07  0.8969E-07
  0.6831E-06  0.7531E-06  0.8293E-06  0.9120E-06  0.9995E-06  0.1095E-05  0.1195E-05  0.1319E-05  0.1463E-05  0.1621E-05  0.1806E-05  0.2024E-05  0.2279E-05  0.2565E-05  0.2896E-05  0.3260E-05  0.3663E-05  0.4086E-05  0.4532E-05  0.5021E-05  0.5523E-05  0.6010E-05  0.6474E-05  0.6875E-05  0.7197E-05  0.7445E-05  0.7598E-05  0.7658E-05  0.7615E-05  0.7492E-05  0.7284E-05  0.7000E-05  0.6665E-05  0.6284E-05  0.5864E-05  0.5407E-05  0.4942E-05  0.4483E-05  0.4048E-05  0.3631E-05  0.3236E-05  0.2870E-05  0.2536E-05  0.2237E-05  0.1984E-05  0.1773E-05  0.1610E-05  0.1497E-05  0.1426E-05  0.1384E-05  0.1360E-05  0.1337E-05  0.1300E-05  0.1246E-05  0.1174E-05  0.1090E-05  0.1002E-05  0.9139E-06  0.8274E-06  0.7483E-06  0.6742E-06  0.6054E-06  0.5417E-06  0.4818E-06  0.4280E-06  0.3780E-06  0.3374E-06  0.3026E-06  0.2694E-06  0.2412E-06  0.2163E-06  0.1944E-06  0.1749E-06  0.1568E-06  0.1411E-06  0.1264E-06  0.1140E-06  0.1042E-06  0.9518E-07
  0.7342E-06  0.8103E-06  0.8925E-06  0.9817E-06  0.1076E-05  0.1180E-05  0.1291E-05  0.1432E-05  0.1589E-05  0.1764E-05  0.1972E-05  0.2219E-05  0.2507E-05  0.2838E-05  0.3225E-05  0.3646E-05  0.4113E-05  0.4609E-05  0.5140E-05  0.5704E-05  0.6287E-05  0.6861E-05  0.7381E-05  0.7833E-05  0.8197E-05  0.8459E-05  0.8614E-05  0.8654E-05  0.8591E-05  0.8421E-05  0.8152E-05  0.7813E-05  0.7412E-05  0.6961E-05  0.6472E-05  0.5965E-05  0.5433E-05  0.4906E-05  0.4396E-05  0.3931E-05  0.3492E-05  0.3090E-05  0.2728E-05  0.2406E-05  0.2130E-05  0.1906E-05  0.1742E-05  0.1634E-05  0.1577E-05  0.1551E-05  0.1535E-05  0.1510E-05  0.1463E-05  0.1390E-05  0.1299E-05  0.1199E-05  0.1094E-05  0.9912E-06  0.8937E-06  0.8016E-06  0.7196E-06  0.6450E-06  0.5745E-06  0.5088E-06  0.4504E-06  0.3967E-06  0.3526E-06  0.3147E-06  0.2814E-06  0.2520E-06  0.2251E-06  0.2019E-06  0.1821E-06  0.1644E-06  0.1478E-06  0.1332E-06  0.1207E-06  0.1092E-06  0.1001E-06
  0.7862E-06  0.8687E-06  0.9579E-06  0.1054E-05  0.1157E-05  0.1267E-05  0.1391E-05  0.1546E-05  0.1718E-05  0.1911E-05  0.2142E-05  0.2423E-05  0.2751E-05  0.3136E-05  0.3581E-05  0.4074E-05  0.4615E-05  0.5196E-05  0.5832E-05  0.6498E-05  0.7166E-05  0.7836E-05  0.8426E-05  0.8930E-05  0.9336E-05  0.9617E-05  0.9760E-05  0.9783E-05  0.9671E-05  0.9436E-05  0.9103E-05  0.8684E-05  0.8197E-05  0.7662E-05  0.7099E-05  0.6514E-05  0.5920E-05  0.5321E-05  0.4747E-05  0.4209E-05  0.3729E-05  0.3294E-05  0.2901E-05  0.2555E-05  0.2266E-05  0.2038E-05  0.1876E-05  0.1782E-05  0.1745E-05  0.1735E-05  0.1727E-05  0.1695E-05  0.1628E-05  0.1533E-05  0.1421E-05  0.1301E-05  0.1179E-05  0.1061E-05  0.9524E-06  0.8520E-06  0.7611E-06  0.6779E-06  0.6011E-06  0.5314E-06  0.4696E-06  0.4139E-06  0.3652E-06  0.3261E-06  0.2917E-06  0.2603E-06  0.2336E-06  0.2094E-06  0.1890E-06  0.1712E-06  0.1536E-06  0.1388E-06  0.1263E-06  0.1154E-06  0.1050E-06
  0.8404E-06  0.9289E-06  0.1025E-05  0.1127E-05  0.1239E-05  0.1356E-05  0.1498E-05  0.1666E-05  0.1851E-05  0.2065E-05  0.2323E-05  0.2638E-05  0.3014E-05  0.3461E-05  0.3972E-05  0.4548E-05  0.5181E-05  0.5871E-05  0.6629E-05  0.7411E-05  0.8195E-05  0.8958E-05  0.9637E-05  0.1021E-04  0.1065E-04  0.1093E-04  0.1107E-04  0.1104E-04  0.1086E-04  0.1055E-04  0.1012E-04  0.9594E-05  0.9003E-05  0.8373E-05  0.7710E-05  0.7040E-05  0.6372E-05  0.5713E-05  0.5068E-05  0.4468E-05  0.3926E-05  0.3463E-05  0.3045E-05  0.2684E-05  0.2387E-05  0.2161E-05  0.2014E-05  0.1947E-05  0.1936E-05  0.1944E-05  0.1935E-05  0.1883E-05  0.1790E-05  0.1670E-05  0.1533E-05  0.1393E-05  0.1253E-05  0.1124E-05  0.1003E-05  0.8947E-06  0.7953E-06  0.7041E-06  0.6231E-06  0.5506E-06  0.4862E-06  0.4301E-06  0.3769E-06  0.3353E-06  0.3002E-06  0.2681E-06  0.2405E-06  0.2167E-06  0.1956E-06  0.1763E-06  0.1593E-06  0.1445E-06  0.1315E-06  0.1209E-06  0.1102E-06
  0.8954E-06  0.9899E-06  0.1092E-05  0.1203E-05  0.1322E-05  0.1449E-05  0.1607E-05  0.1785E-05  0.1983E-05  0.2222E-05  0.2509E-05  0.2865E-05  0.3297E-05  0.3807E-05  0.4405E-05  0.5079E-05  0.5828E-05  0.6638E-05  0.7536E-05  0.8469E-05  0.9397E-05  0.1026E-04  0.1104E-04  0.1168E-04  0.1213E-04  0.1243E-04  0.1252E-04  0.1242E-04  0.1215E-04  0.1172E-04  0.1117E-04  0.1052E-04  0.9807E-05  0.9050E-05  0.8279E-05  0.7510E-05  0.6761E-05  0.6038E-05  0.5349E-05  0.4689E-05  0.4096E-05  0.3584E-05  0.3150E-05  0.2782E-05  0.2486E-05  0.2275E-05  0.2157E-05  0.2128E-05  0.2149E-05  0.2172E-05  0.2147E-05  0.2066E-05  0.1942E-05  0.1791E-05  0.1631E-05  0.1469E-05  0.1317E-05  0.1175E-05  0.1046E-05  0.9265E-06  0.8176E-06  0.7263E-06  0.6423E-06  0.5650E-06  0.4985E-06  0.4406E-06  0.3887E-06  0.3435E-06  0.3067E-06  0.2738E-06  0.2465E-06  0.2225E-06  0.2015E-06  0.1816E-06  0.1642E-06  0.1493E-06  0.1367E-06  0.1256E-06  0.1151E-06
  0.9508E-06  0.1052E-05  0.1161E-05  0.1280E-05  0.1406E-05  0.1545E-05  0.1716E-05  0.1906E-05  0.2119E-05  0.2381E-05  0.2703E-05  0.3097E-05  0.3590E-05  0.4187E-05  0.4881E-05  0.5678E-05  0.6567E-05  0.7539E-05  0.8586E-05  0.9688E-05  0.1079E-04  0.1181E-04  0.1268E-04  0.1336E-04  0.1386E-04  0.1410E-04  0.1413E-04  0.1392E-04  0.1352E-04  0.1294E-04  0.1223E-04  0.1143E-04  0.1056E-04  0.9664E-05  0.8770E-05  0.7905E-05  0.7069E-05  0.6285E-05  0.5552E-05  0.4861E-05  0.4223E-05  0.3674E-05  0.3213E-05  0.2843E-05  0.2559E-05  0.2379E-05  0.2311E-05  0.2333E-05  0.2390E-05  0.2409E-05  0.2355E-05  0.2235E-05  0.2077E-05  0.1896E-05  0.1710E-05  0.1533E-05  0.1365E-05  0.1214E-05  0.1076E-05  0.9483E-06  0.8404E-06  0.7409E-06  0.6547E-06  0.5783E-06  0.5100E-06  0.4491E-06  0.3980E-06  0.3513E-06  0.3121E-06  0.2797E-06  0.2505E-06  0.2276E-06  0.2066E-06  0.1863E-06  0.1684E-06  0.1538E-06  0.1411E-06  0.1298E-06  0.1198E-06
  0.1008E-05  0.1115E-05  0.1233E-05  0.1358E-05  0.1492E-05  0.1642E-05  0.1823E-05  0.2025E-05  0.2256E-05  0.2539E-05  0.2894E-05  0.3342E-05  0.3906E-05  0.4590E-05  0.5408E-05  0.6343E-05  0.7398E-05  0.8570E-05  0.9836E-05  0.1113E-04  0.1245E-04  0.1363E-04  0.1460E-04  0.1534E-04  0.1581E-04  0.1599E-04  0.1588E-04  0.1552E-04  0.1492E-04  0.1415E-04  0.1324E-04  0.1225E-04  0.1121E-04  0.1017E-04  0.9162E-05  0.8197E-05  0.7293E-05  0.6454E-05  0.5676E-05  0.4971E-05  0.4322E-05  0.3741E-05  0.3251E-05  0.2867E-05  0.2614E-05  0.2485E-05  0.2489E-05  0.2575E-05  0.2651E-05  0.2649E-05  0.2555E-05  0.2394E-05  0.2198E-05  0.1986E-05  0.1780E-05  0.1583E-05  0.1405E-05  0.1239E-05  0.1092E-05  0.9642E-06  0.8515E-06  0.7526E-06  0.6645E-06  0.5859E-06  0.5184E-06  0.4585E-06  0.4065E-06  0.3589E-06  0.3178E-06  0.2847E-06  0.2553E-06  0.2296E-06  0.2095E-06  0.1909E-06  0.1728E-06  0.1579E-06  0.1456E-06  0.1343E-06  0.1235E-06
  0.1065E-05  0.1180E-05  0.1305E-05  0.1437E-05  0.1579E-05  0.1743E-05  0.1933E-05  0.2148E-05  0.2392E-05  0.2697E-05  0.3087E-05  0.3595E-05  0.4231E-05  0.5033E-05  0.5997E-05  0.7134E-05  0.8392E-05  0.9820E-05  0.1134E-04  0.1291E-04  0.1448E-04  0.1581E-04  0.1689E-04  0.1765E-04  0.1804E-04  0.1807E-04  0.1775E-04  0.1713E-04  0.1626E-04  0.1523E-04  0.1410E-04  0.1290E-04  0.1171E-04  0.1055E-04  0.9440E-05  0.8401E-05  0.7438E-05  0.6563E-05  0.5765E-05  0.5036E-05  0.4386E-05  0.3896E-05  0.3438E-05  0.3109E-05  0.2918E-05  0.2925E-05  0.3060E-05  0.3248E-05  0.3342E-05  0.3297E-05  0.3099E-05  0.2788E-05  0.2437E-05  0.2105E-05  0.1846E-05  0.1630E-05  0.1436E-05  0.1261E-05  0.1108E-05  0.9736E-06  0.8584E-06  0.7590E-06  0.6697E-06  0.5908E-06  0.5235E-06  0.4646E-06  0.4134E-06  0.3657E-06  0.3235E-06  0.2893E-06  0.2604E-06  0.2345E-06  0.2120E-06  0.1917E-06  0.1774E-06  0.1618E-06  0.1489E-06  0.1381E-06  0.1274E-06
  0.1123E-05  0.1245E-05  0.1378E-05  0.1518E-05  0.1668E-05  0.1844E-05  0.2043E-05  0.2268E-05  0.2529E-05  0.2856E-05  0.3290E-05  0.3851E-05  0.4587E-05  0.5524E-05  0.6692E-05  0.8061E-05  0.9585E-05  0.1137E-04  0.1327E-04  0.1521E-04  0.1701E-04  0.1853E-04  0.1965E-04  0.2033E-04  0.2051E-04  0.2024E-04  0.1956E-04  0.1856E-04  0.1742E-04  0.1610E-04  0.1471E-04  0.1335E-04  0.1203E-04  0.1078E-04  0.9628E-05  0.8569E-05  0.7914E-05  0.7584E-05  0.7317E-05  0.6980E-05  0.6565E-05  0.6134E-05  0.5716E-05  0.5349E-05  0.5141E-05  0.5149E-05  0.5315E-05  0.5468E-05  0.5448E-05  0.5161E-05  0.4597E-05  0.3815E-05  0.3041E-05  0.2423E-05  0.1968E-05  0.1687E-05  0.1473E-05  0.1287E-05  0.1126E-05  0.9835E-06  0.8632E-06  0.7608E-06  0.6710E-06  0.5932E-06  0.5253E-06  0.4688E-06  0.4186E-06  0.3726E-06  0.3309E-06  0.2944E-06  0.2652E-06  0.2398E-06  0.2163E-06  0.1956E-06  0.1788E-06  0.1650E-06  0.1528E-06  0.1414E-06  0.1308E-06
  0.1185E-05  0.1314E-05  0.1452E-05  0.1602E-05  0.1760E-05  0.1945E-05  0.2152E-05  0.2386E-05  0.2660E-05  0.3010E-05  0.3485E-05  0.4124E-05  0.4973E-05  0.6111E-05  0.7532E-05  0.9238E-05  0.1121E-04  0.1351E-04  0.1597E-04  0.1840E-04  0.2057E-04  0.2227E-04  0.2337E-04  0.2383E-04  0.2379E-04  0.2321E-04  0.2235E-04  0.2134E-04  0.2077E-04  0.2062E-04  0.2163E-04  0.2490E-04  0.2573E-04  0.1118E-04  0.9822E-05  0.9409E-05  0.1585E-04  0.1903E-04  0.1763E-04  0.1574E-04  0.1419E-04  0.1289E-04  0.1182E-04  0.1095E-04  0.1034E-04  0.9966E-05  0.9985E-05  0.9993E-05  0.9755E-05  0.9030E-05  0.7633E-05  0.5831E-05  0.4176E-05  0.2975E-05  0.2234E-05  0.1797E-05  0.1526E-05  0.1316E-05  0.1144E-05  0.9958E-06  0.8715E-06  0.7650E-06  0.6725E-06  0.5938E-06  0.5277E-06  0.4699E-06  0.4198E-06  0.3778E-06  0.3380E-06  0.3020E-06  0.2703E-06  0.2439E-06  0.2214E-06  0.2015E-06  0.1835E-06  0.1687E-06  0.1564E-06  0.1446E-06  0.1338E-06
  0.1251E-05  0.1387E-05  0.1533E-05  0.1689E-05  0.1855E-05  0.2048E-05  0.2263E-05  0.2510E-05  0.2793E-05  0.3167E-05  0.3685E-05  0.4410E-05  0.5444E-05  0.6838E-05  0.8693E-05  0.1093E-04  0.1363E-04  0.1670E-04  0.2000E-04  0.2327E-04  0.2602E-04  0.2792E-04  0.2911E-04  0.2965E-04  0.2992E-04  0.3032E-04  0.3152E-04  0.3426E-04  0.3917E-04  0.4484E-04  0.4573E-04  0.2894E-04  0.1263E-04  0.1130E-04  0.1016E-04  0.1660E-04  0.1198E-04  0.1465E-04  0.2457E-04  0.2941E-04  0.2807E-04  0.2432E-04  0.2070E-04  0.1796E-04  0.1620E-04  0.1529E-04  0.1498E-04  0.1483E-04  0.1461E-04  0.1370E-04  0.1150E-04  0.8438E-05  0.5594E-05  0.3693E-05  0.2552E-05  0.1945E-05  0.1591E-05  0.1356E-05  0.1166E-05  0.1012E-05  0.8828E-06  0.7705E-06  0.6770E-06  0.5973E-06  0.5303E-06  0.4742E-06  0.4244E-06  0.3808E-06  0.3412E-06  0.3061E-06  0.2770E-06  0.2498E-06  0.2245E-06  0.2055E-06  0.1890E-06  0.1733E-06  0.1600E-06  0.1478E-06  0.1363E-06
  0.1319E-05  0.1464E-05  0.1622E-05  0.1787E-05  0.1961E-05  0.2160E-05  0.2382E-05  0.2633E-05  0.2927E-05  0.3328E-05  0.3890E-05  0.4779E-05  0.6102E-05  0.7982E-05  0.1042E-04  0.1345E-04  0.1710E-04  0.2121E-04  0.2586E-04  0.3037E-04  0.3413E-04  0.3670E-04  0.3839E-04  0.3991E-04  0.4203E-04  0.4509E-04  0.4847E-04  0.5089E-04  0.4976E-04  0.3951E-04  0.2077E-04  0.1344E-04  0.1298E-04  0.1118E-04  0.1044E-04  0.1392E-04  0.3312E-04  0.1467E-04  0.1270E-04  0.1901E-04  0.2653E-04  0.3123E-04  0.3175E-04  0.2945E-04  0.2638E-04  0.2364E-04  0.2159E-04  0.2019E-04  0.1950E-04  0.1838E-04  0.1565E-04  0.1153E-04  0.7543E-05  0.4695E-05  0.3022E-05  0.2151E-05  0.1691E-05  0.1403E-05  0.1196E-05  0.1029E-05  0.8967E-06  0.7816E-06  0.6855E-06  0.6046E-06  0.5365E-06  0.4793E-06  0.4304E-06  0.3873E-06  0.3483E-06  0.3134E-06  0.2830E-06  0.2565E-06  0.2326E-06  0.2096E-06  0.1927E-06  0.1782E-06  0.1639E-06  0.1507E-06  0.1389E-06
  0.1389E-05  0.1547E-05  0.1715E-05  0.1894E-05  0.2082E-05  0.2288E-05  0.2516E-05  0.2776E-05  0.3075E-05  0.3493E-05  0.4212E-05  0.5357E-05  0.7172E-05  0.9871E-05  0.1343E-04  0.1768E-04  0.2244E-04  0.2769E-04  0.3350E-04  0.3925E-04  0.4405E-04  0.4737E-04  0.4948E-04  0.5099E-04  0.5179E-04  0.5153E-04  0.4925E-04  0.4234E-04  0.2879E-04  0.1693E-04  0.1390E-04  0.1393E-04  0.1263E-04  0.1100E-04  0.1059E-04  0.1567E-04  0.2025E-04  0.3825E-04  0.1638E-04  0.1249E-04  0.1621E-04  0.2136E-04  0.2695E-04  0.3137E-04  0.3365E-04  0.3377E-04  0.3222E-04  0.3016E-04  0.2848E-04  0.2620E-04  0.2201E-04  0.1623E-04  0.1057E-04  0.6403E-05  0.3842E-05  0.2506E-05  0.1830E-05  0.1465E-05  0.1234E-05  0.1053E-05  0.9101E-06  0.7932E-06  0.6971E-06  0.6106E-06  0.5427E-06  0.4869E-06  0.4360E-06  0.3932E-06  0.3549E-06  0.3209E-06  0.2894E-06  0.2621E-06  0.2394E-06  0.2198E-06  0.2003E-06  0.1829E-06  0.1683E-06  0.1543E-06  0.1417E-06
  0.1459E-05  0.1627E-05  0.1810E-05  0.2003E-05  0.2206E-05  0.2429E-05  0.2670E-05  0.2942E-05  0.3255E-05  0.3782E-05  0.4726E-05  0.6475E-05  0.9359E-05  0.1361E-04  0.1890E-04  0.2464E-04  0.3040E-04  0.3605E-04  0.4198E-04  0.4758E-04  0.5147E-04  0.5292E-04  0.5224E-04  0.5044E-04  0.4759E-04  0.4227E-04  0.3270E-04  0.2139E-04  0.1507E-04  0.1374E-04  0.1405E-04  0.1354E-04  0.1169E-04  0.1067E-04  0.1050E-04  0.1543E-04  0.1684E-04  0.3131E-04  0.3763E-04  0.1774E-04  0.1363E-04  0.1592E-04  0.1958E-04  0.2431E-04  0.2960E-04  0.3420E-04  0.3704E-04  0.3822E-04  0.3826E-04  0.3619E-04  0.3101E-04  0.2334E-04  0.1544E-04  0.9195E-05  0.5171E-05  0.3028E-05  0.2029E-05  0.1545E-05  0.1282E-05  0.1089E-05  0.9365E-06  0.8124E-06  0.7112E-06  0.6265E-06  0.5541E-06  0.4954E-06  0.4442E-06  0.3994E-06  0.3616E-06  0.3278E-06  0.2956E-06  0.2694E-06  0.2466E-06  0.2261E-06  0.2086E-06  0.1912E-06  0.1725E-06  0.1583E-06  0.1446E-06
  0.1523E-05  0.1702E-05  0.1898E-05  0.2107E-05  0.2327E-05  0.2565E-05  0.2825E-05  0.3115E-05  0.3486E-05  0.4203E-05  0.5619E-05  0.8428E-05  0.1315E-04  0.1978E-04  0.2735E-04  0.3436E-04  0.4013E-04  0.4439E-04  0.4769E-04  0.4977E-04  0.4998E-04  0.4841E-04  0.4556E-04  0.4111E-04  0.3399E-04  0.2472E-04  0.1710E-04  0.1368E-04  0.1310E-04  0.1356E-04  0.1367E-04  0.1225E-04  0.1067E-04  0.1011E-04  0.1007E-04  0.1404E-04  0.1834E-04  0.1955E-04  0.3870E-04  0.3539E-04  0.1865E-04  0.1514E-04  0.1721E-04  0.2083E-04  0.2524E-04  0.2995E-04  0.3422E-04  0.3777E-04  0.4035E-04  0.4034E-04  0.3646E-04  0.2892E-04  0.1995E-04  0.1206E-04  0.6673E-05  0.3648E-05  0.2239E-05  0.1628E-05  0.1330E-05  0.1126E-05  0.9684E-06  0.8364E-06  0.7308E-06  0.6423E-06  0.5676E-06  0.5059E-06  0.4541E-06  0.4087E-06  0.3695E-06  0.3352E-06  0.3044E-06  0.2778E-06  0.2543E-06  0.2339E-06  0.2150E-06  0.1976E-06  0.1805E-06  0.1614E-06  0.1478E-06
  0.1577E-05  0.1768E-05  0.1975E-05  0.2198E-05  0.2433E-05  0.2688E-05  0.2965E-05  0.3282E-05  0.3750E-05  0.4689E-05  0.6791E-05  0.1100E-04  0.1788E-04  0.2696E-04  0.3624E-04  0.4318E-04  0.4673E-04  0.4765E-04  0.4702E-04  0.4566E-04  0.4342E-04  0.3980E-04  0.3414E-04  0.2657E-04  0.1914E-04  0.1445E-04  0.1244E-04  0.1224E-04  0.1274E-04  0.1323E-04  0.1244E-04  0.1072E-04  0.9680E-05  0.9394E-05  0.9387E-05  0.1234E-04  0.1849E-04  0.1655E-04  0.2539E-04  0.4120E-04  0.3277E-04  0.1932E-04  0.1676E-04  0.1936E-04  0.2302E-04  0.2704E-04  0.3071E-04  0.3373E-04  0.3610E-04  0.3686E-04  0.3461E-04  0.2883E-04  0.2087E-04  0.1308E-04  0.7377E-05  0.4029E-05  0.2389E-05  0.1715E-05  0.1378E-05  0.1160E-05  0.9982E-06  0.8612E-06  0.7553E-06  0.6637E-06  0.5847E-06  0.5200E-06  0.4667E-06  0.4189E-06  0.3781E-06  0.3436E-06  0.3126E-06  0.2862E-06  0.2621E-06  0.2417E-06  0.2221E-06  0.2034E-06  0.1857E-06  0.1694E-06  0.1518E-06
  0.1621E-05  0.1819E-05  0.2033E-05  0.2268E-05  0.2518E-05  0.2782E-05  0.3073E-05  0.3417E-05  0.3951E-05  0.5107E-05  0.7774E-05  0.1304E-04  0.2132E-04  0.3144E-04  0.4065E-04  0.4623E-04  0.4746E-04  0.4594E-04  0.4315E-04  0.3947E-04  0.3455E-04  0.2811E-04  0.2114E-04  0.1599E-04  0.1299E-04  0.1172E-04  0.1157E-04  0.1195E-04  0.1253E-04  0.1229E-04  0.1084E-04  0.9398E-05  0.8782E-05  0.8648E-05  0.8613E-05  0.1080E-04  0.1719E-04  0.1739E-04  0.1730E-04  0.3119E-04  0.4086E-04  0.3069E-04  0.2017E-04  0.1859E-04  0.2107E-04  0.2427E-04  0.2724E-04  0.2949E-04  0.3077E-04  0.3078E-04  0.2881E-04  0.2436E-04  0.1816E-04  0.1186E-04  0.6996E-05  0.4013E-05  0.2489E-05  0.1764E-05  0.1430E-05  0.1208E-05  0.1035E-05  0.8938E-06  0.7794E-06  0.6848E-06  0.6040E-06  0.5375E-06  0.4807E-06  0.4317E-06  0.3890E-06  0.3539E-06  0.3234E-06  0.2958E-06  0.2711E-06  0.2488E-06  0.2284E-06  0.2092E-06  0.1916E-06  0.1740E-06  0.1575E-06
  0.1648E-05  0.1851E-05  0.2074E-05  0.2311E-05  0.2567E-05  0.2838E-05  0.3135E-05  0.3489E-05  0.4042E-05  0.5296E-05  0.8159E-05  0.1364E-04  0.2206E-04  0.3194E-04  0.4043E-04  0.4495E-04  0.4480E-04  0.4149E-04  0.3639E-04  0.3019E-04  0.2369E-04  0.1812E-04  0.1442E-04  0.1249E-04  0.1169E-04  0.1148E-04  0.1163E-04  0.1197E-04  0.1195E-04  0.1093E-04  0.9382E-05  0.8388E-05  0.8068E-05  0.8056E-05  0.8085E-05  0.9691E-05  0.1542E-04  0.1829E-04  0.1544E-04  0.2118E-04  0.3563E-04  0.4001E-04  0.2981E-04  0.2122E-04  0.1974E-04  0.2146E-04  0.2364E-04  0.2523E-04  0.2586E-04  0.2511E-04  0.2285E-04  0.1901E-04  0.1426E-04  0.9638E-05  0.6057E-05  0.3750E-05  0.2488E-05  0.1814E-05  0.1475E-05  0.1253E-05  0.1072E-05  0.9287E-06  0.8089E-06  0.7097E-06  0.6281E-06  0.5568E-06  0.4950E-06  0.4443E-06  0.4020E-06  0.3651E-06  0.3342E-06  0.3070E-06  0.2810E-06  0.2568E-06  0.2349E-06  0.2152E-06  0.1965E-06  0.1789E-06  0.1616E-06
  0.1661E-05  0.1864E-05  0.2086E-05  0.2324E-05  0.2582E-05  0.2859E-05  0.3149E-05  0.3484E-05  0.4036E-05  0.5269E-05  0.7968E-05  0.1319E-04  0.2117E-04  0.3038E-04  0.3778E-04  0.4061E-04  0.3835E-04  0.3273E-04  0.2609E-04  0.2011E-04  0.1584E-04  0.1343E-04  0.1228E-04  0.1178E-04  0.1153E-04  0.1145E-04  0.1152E-04  0.1148E-04  0.1080E-04  0.9476E-05  0.8253E-05  0.7704E-05  0.7615E-05  0.7687E-05  0.7816E-05  0.9067E-05  0.1391E-04  0.1874E-04  0.1676E-04  0.1660E-04  0.2660E-04  0.3894E-04  0.3916E-04  0.2913E-04  0.2150E-04  0.1962E-04  0.2036E-04  0.2133E-04  0.2139E-04  0.2019E-04  0.1783E-04  0.1457E-04  0.1093E-04  0.7677E-05  0.5165E-05  0.3459E-05  0.2452E-05  0.1860E-05  0.1520E-05  0.1292E-05  0.1109E-05  0.9622E-06  0.8352E-06  0.7347E-06  0.6478E-06  0.5741E-06  0.5138E-06  0.4620E-06  0.4177E-06  0.3787E-06  0.3467E-06  0.3173E-06  0.2901E-06  0.2645E-06  0.2422E-06  0.2213E-06  0.2015E-06  0.1826E-06  0.1655E-06
  0.1657E-05  0.1855E-05  0.2073E-05  0.2307E-05  0.2563E-05  0.2832E-05  0.3114E-05  0.3428E-05  0.3953E-05  0.5053E-05  0.7472E-05  0.1210E-04  0.1902E-04  0.2651E-04  0.3143E-04  0.3163E-04  0.2754E-04  0.2166E-04  0.1669E-04  0.1343E-04  0.1176E-04  0.1108E-04  0.1106E-04  0.1099E-04  0.1081E-04  0.1066E-04  0.1052E-04  0.1011E-04  0.9256E-05  0.8210E-05  0.7509E-05  0.7304E-05  0.7398E-05  0.7578E-05  0.7823E-05  0.8882E-05  0.1286E-04  0.1851E-04  0.1863E-04  0.1608E-04  0.2016E-04  0.3154E-04  0.4041E-04  0.3744E-04  0.2760E-04  0.2073E-04  0.1837E-04  0.1800E-04  0.1759E-04  0.1621E-04  0.1401E-04  0.1134E-04  0.8659E-05  0.6335E-05  0.4521E-05  0.3278E-05  0.2451E-05  0.1915E-05  0.1574E-05  0.1328E-05  0.1145E-05  0.9927E-06  0.8652E-06  0.7631E-06  0.6733E-06  0.5998E-06  0.5353E-06  0.4785E-06  0.4331E-06  0.3941E-06  0.3593E-06  0.3285E-06  0.2993E-06  0.2728E-06  0.2490E-06  0.2266E-06  0.2065E-06  0.1876E-06  0.1695E-06
  0.1634E-05  0.1826E-05  0.2038E-05  0.2263E-05  0.2510E-05  0.2769E-05  0.3036E-05  0.3329E-05  0.3767E-05  0.4676E-05  0.6633E-05  0.1017E-04  0.1505E-04  0.1960E-04  0.2168E-04  0.2023E-04  0.1678E-04  0.1333E-04  0.1100E-04  0.9821E-05  0.9405E-05  0.9352E-05  0.9408E-05  0.9465E-05  0.9340E-05  0.9109E-05  0.8852E-05  0.8423E-05  0.7843E-05  0.7303E-05  0.7081E-05  0.7135E-05  0.7367E-05  0.7647E-05  0.7993E-05  0.8927E-05  0.1218E-04  0.1783E-04  0.2014E-04  0.1746E-04  0.1714E-04  0.2412E-04  0.3470E-04  0.3992E-04  0.3484E-04  0.2552E-04  0.1904E-04  0.1605E-04  0.1460E-04  0.1315E-04  0.1128E-04  0.9217E-05  0.7224E-05  0.5487E-05  0.4146E-05  0.3140E-05  0.2434E-05  0.1957E-05  0.1614E-05  0.1361E-05  0.1179E-05  0.1024E-05  0.8953E-06  0.7903E-06  0.6960E-06  0.6225E-06  0.5552E-06  0.5000E-06  0.4514E-06  0.4085E-06  0.3712E-06  0.3385E-06  0.3090E-06  0.2813E-06  0.2562E-06  0.2330E-06  0.2115E-06  0.1917E-06  0.1729E-06
  0.1597E-05  0.1782E-05  0.1984E-05  0.2198E-05  0.2432E-05  0.2675E-05  0.2926E-05  0.3197E-05  0.3546E-05  0.4231E-05  0.5484E-05  0.7614E-05  0.1026E-04  0.1235E-04  0.1279E-04  0.1172E-04  0.1003E-04  0.8718E-05  0.7939E-05  0.7801E-05  0.7781E-05  0.7795E-05  0.7796E-05  0.7779E-05  0.7696E-05  0.7499E-05  0.7302E-05  0.7104E-05  0.6911E-05  0.6810E-05  0.6892E-05  0.7125E-05  0.7444E-05  0.7808E-05  0.8223E-05  0.9053E-05  0.1167E-04  0.1686E-04  0.2060E-04  0.1904E-04  0.1656E-04  0.1909E-04  0.2738E-04  0.3620E-04  0.3831E-04  0.3191E-04  0.2295E-04  0.1655E-04  0.1308E-04  0.1105E-04  0.9408E-05  0.7794E-05  0.6268E-05  0.4940E-05  0.3869E-05  0.3042E-05  0.2430E-05  0.1987E-05  0.1652E-05  0.1399E-05  0.1208E-05  0.1055E-05  0.9263E-06  0.8167E-06  0.7239E-06  0.6477E-06  0.5775E-06  0.5196E-06  0.4671E-06  0.4235E-06  0.3839E-06  0.3497E-06  0.3184E-06  0.2888E-06  0.2621E-06  0.2383E-06  0.2167E-06  0.1962E-06  0.1770E-06
  0.1548E-05  0.1725E-05  0.1915E-05  0.2116E-05  0.2331E-05  0.2557E-05  0.2792E-05  0.3032E-05  0.3313E-05  0.3719E-05  0.4450E-05  0.5482E-05  0.6620E-05  0.7417E-05  0.7531E-05  0.7172E-05  0.6745E-05  0.6430E-05  0.6397E-05  0.6470E-05  0.6510E-05  0.6542E-05  0.6535E-05  0.6499E-05  0.6447E-05  0.6378E-05  0.6333E-05  0.6359E-05  0.6444E-05  0.6607E-05  0.6867E-05  0.7195E-05  0.7559E-05  0.7960E-05  0.8393E-05  0.9122E-05  0.1121E-04  0.1570E-04  0.2014E-04  0.2010E-04  0.1713E-04  0.1652E-04  0.2155E-04  0.3006E-04  0.3674E-04  0.3606E-04  0.2856E-04  0.1978E-04  0.1361E-04  0.1020E-04  0.8238E-05  0.6830E-05  0.5606E-05  0.4538E-05  0.3657E-05  0.2960E-05  0.2421E-05  0.2003E-05  0.1681E-05  0.1432E-05  0.1235E-05  0.1084E-05  0.9561E-06  0.8467E-06  0.7506E-06  0.6709E-06  0.5982E-06  0.5380E-06  0.4831E-06  0.4376E-06  0.3955E-06  0.3596E-06  0.3267E-06  0.2967E-06  0.2692E-06  0.2448E-06  0.2216E-06  0.2000E-06  0.1796E-06
  0.1490E-05  0.1658E-05  0.1835E-05  0.2022E-05  0.2221E-05  0.2428E-05  0.2642E-05  0.2856E-05  0.3086E-05  0.3351E-05  0.3697E-05  0.4188E-05  0.4638E-05  0.4989E-05  0.5127E-05  0.5146E-05  0.5160E-05  0.5296E-05  0.5411E-05  0.5510E-05  0.5570E-05  0.5601E-05  0.5627E-05  0.5642E-05  0.5672E-05  0.5739E-05  0.5844E-05  0.6018E-05  0.6271E-05  0.6577E-05  0.6916E-05  0.7270E-05  0.7652E-05  0.8049E-05  0.8475E-05  0.9088E-05  0.1073E-04  0.1438E-04  0.1877E-04  0.2002E-04  0.1759E-04  0.1578E-04  0.1808E-04  0.2488E-04  0.3259E-04  0.3612E-04  0.3269E-04  0.2464E-04  0.1651E-04  0.1101E-04  0.7961E-05  0.6258E-05  0.5132E-05  0.4244E-05  0.3491E-05  0.2877E-05  0.2402E-05  0.2003E-05  0.1700E-05  0.1458E-05  0.1266E-05  0.1115E-05  0.9826E-06  0.8716E-06  0.7767E-06  0.6930E-06  0.6195E-06  0.5561E-06  0.4981E-06  0.4499E-06  0.4066E-06  0.3697E-06  0.3357E-06  0.3045E-06  0.2753E-06  0.2494E-06  0.2259E-06  0.2040E-06  0.1836E-06
  0.1424E-05  0.1581E-05  0.1747E-05  0.1920E-05  0.2100E-05  0.2288E-05  0.2482E-05  0.2677E-05  0.2869E-05  0.3073E-05  0.3284E-05  0.3507E-05  0.3735E-05  0.3935E-05  0.4083E-05  0.4252E-05  0.4421E-05  0.4554E-05  0.4667E-05  0.4764E-05  0.4857E-05  0.4920E-05  0.5005E-05  0.5098E-05  0.5227E-05  0.5411E-05  0.5620E-05  0.5903E-05  0.6247E-05  0.6597E-05  0.6948E-05  0.7312E-05  0.7674E-05  0.8054E-05  0.8455E-05  0.8977E-05  0.1021E-04  0.1296E-04  0.1663E-04  0.1844E-04  0.1717E-04  0.1561E-04  0.1685E-04  0.2204E-04  0.2883E-04  0.3348E-04  0.3347E-04  0.2855E-04  0.2089E-04  0.1368E-04  0.8825E-05  0.6231E-05  0.4852E-05  0.4002E-05  0.3354E-05  0.2812E-05  0.2367E-05  0.2001E-05  0.1718E-05  0.1482E-05  0.1290E-05  0.1136E-05  0.1009E-05  0.8959E-06  0.7981E-06  0.7139E-06  0.6372E-06  0.5717E-06  0.5133E-06  0.4629E-06  0.4188E-06  0.3796E-06  0.3436E-06  0.3106E-06  0.2811E-06  0.2547E-06  0.2305E-06  0.2079E-06  0.1865E-06
  0.1355E-05  0.1501E-05  0.1652E-05  0.1812E-05  0.1977E-05  0.2145E-05  0.2319E-05  0.2493E-05  0.2661E-05  0.2832E-05  0.3000E-05  0.3160E-05  0.3305E-05  0.3464E-05  0.3612E-05  0.3759E-05  0.3875E-05  0.4003E-05  0.4104E-05  0.4215E-05  0.4321E-05  0.4435E-05  0.4569E-05  0.4748E-05  0.4959E-05  0.5216E-05  0.5515E-05  0.5873E-05  0.6231E-05  0.6581E-05  0.6930E-05  0.7269E-05  0.7615E-05  0.7974E-05  0.8346E-05  0.8787E-05  0.9743E-05  0.1161E-04  0.1424E-04  0.1599E-04  0.1597E-04  0.1557E-04  0.1712E-04  0.2129E-04  0.2659E-04  0.3045E-04  0.3182E-04  0.3012E-04  0.2480E-04  0.1734E-04  0.1084E-04  0.6844E-05  0.4849E-05  0.3833E-05  0.3225E-05  0.2742E-05  0.2329E-05  0.1999E-05  0.1721E-05  0.1496E-05  0.1311E-05  0.1158E-05  0.1029E-05  0.9170E-06  0.8186E-06  0.7303E-06  0.6535E-06  0.5873E-06  0.5263E-06  0.4749E-06  0.4289E-06  0.3876E-06  0.3509E-06  0.3175E-06  0.2871E-06  0.2599E-06  0.2344E-06  0.2107E-06  0.1893E-06
  0.1281E-05  0.1416E-05  0.1555E-05  0.1701E-05  0.1852E-05  0.2003E-05  0.2158E-05  0.2312E-05  0.2464E-05  0.2608E-05  0.2753E-05  0.2885E-05  0.3014E-05  0.3142E-05  0.3262E-05  0.3368E-05  0.3480E-05  0.3577E-05  0.3679E-05  0.3807E-05  0.3932E-05  0.4091E-05  0.4279E-05  0.4510E-05  0.4792E-05  0.5094E-05  0.5448E-05  0.5810E-05  0.6165E-05  0.6505E-05  0.6829E-05  0.7155E-05  0.7479E-05  0.7797E-05  0.8178E-05  0.8599E-05  0.9347E-05  0.1059E-04  0.1231E-04  0.1384E-04  0.1470E-04  0.1559E-04  0.1782E-04  0.2141E-04  0.2535E-04  0.2814E-04  0.2970E-04  0.2991E-04  0.2699E-04  0.2050E-04  0.1318E-04  0.7863E-05  0.5094E-05  0.3784E-05  0.3129E-05  0.2671E-05  0.2297E-05  0.1983E-05  0.1719E-05  0.1503E-05  0.1324E-05  0.1171E-05  0.1046E-05  0.9330E-06  0.8331E-06  0.7452E-06  0.6683E-06  0.5993E-06  0.5381E-06  0.4846E-06  0.4362E-06  0.3953E-06  0.3579E-06  0.3234E-06  0.2921E-06  0.2635E-06  0.2374E-06  0.2135E-06  0.1917E-06
  0.1203E-05  0.1327E-05  0.1456E-05  0.1590E-05  0.1727E-05  0.1865E-05  0.2002E-05  0.2139E-05  0.2269E-05  0.2397E-05  0.2518E-05  0.2636E-05  0.2749E-05  0.2865E-05  0.2961E-05  0.3060E-05  0.3152E-05  0.3247E-05  0.3363E-05  0.3496E-05  0.3649E-05  0.3833E-05  0.4059E-05  0.4335E-05  0.4640E-05  0.4985E-05  0.5352E-05  0.5706E-05  0.6048E-05  0.6365E-05  0.6676E-05  0.6973E-05  0.7272E-05  0.7615E-05  0.7988E-05  0.8440E-05  0.9060E-05  0.9985E-05  0.1122E-04  0.1259E-04  0.1397E-04  0.1569E-04  0.1820E-04  0.2141E-04  0.2439E-04  0.2674E-04  0.2829E-04  0.2897E-04  0.2717E-04  0.2182E-04  0.1473E-04  0.8847E-05  0.5365E-05  0.3784E-05  0.3054E-05  0.2604E-05  0.2262E-05  0.1961E-05  0.1715E-05  0.1504E-05  0.1330E-05  0.1183E-05  0.1056E-05  0.9437E-06  0.8449E-06  0.7574E-06  0.6799E-06  0.6099E-06  0.5480E-06  0.4929E-06  0.4442E-06  0.4028E-06  0.3645E-06  0.3287E-06  0.2960E-06  0.2672E-06  0.2410E-06  0.2166E-06  0.1944E-06
  0.1124E-05  0.1238E-05  0.1359E-05  0.1480E-05  0.1603E-05  0.1727E-05  0.1851E-05  0.1971E-05  0.2089E-05  0.2199E-05  0.2306E-05  0.2402E-05  0.2511E-05  0.2610E-05  0.2703E-05  0.2795E-05  0.2884E-05  0.2982E-05  0.3105E-05  0.3248E-05  0.3422E-05  0.3631E-05  0.3885E-05  0.4182E-05  0.4512E-05  0.4865E-05  0.5223E-05  0.5562E-05  0.5881E-05  0.6176E-05  0.6461E-05  0.6744E-05  0.7049E-05  0.7387E-05  0.7795E-05  0.8284E-05  0.8904E-05  0.9741E-05  0.1083E-04  0.1218E-04  0.1379E-04  0.1579E-04  0.1824E-04  0.2107E-04  0.2376E-04  0.2596E-04  0.2748E-04  0.2784E-04  0.2598E-04  0.2113E-04  0.1469E-04  0.9081E-05  0.5546E-05  0.3796E-05  0.2972E-05  0.2553E-05  0.2221E-05  0.1941E-05  0.1700E-05  0.1502E-05  0.1333E-05  0.1187E-05  0.1064E-05  0.9525E-06  0.8547E-06  0.7673E-06  0.6894E-06  0.6191E-06  0.5561E-06  0.4998E-06  0.4511E-06  0.4090E-06  0.3692E-06  0.3326E-06  0.2997E-06  0.2703E-06  0.2434E-06  0.2188E-06  0.1953E-06
  0.1047E-05  0.1151E-05  0.1258E-05  0.1371E-05  0.1481E-05  0.1595E-05  0.1705E-05  0.1815E-05  0.1918E-05  0.2019E-05  0.2107E-05  0.2200E-05  0.2295E-05  0.2383E-05  0.2475E-05  0.2560E-05  0.2654E-05  0.2761E-05  0.2889E-05  0.3043E-05  0.3233E-05  0.3460E-05  0.3725E-05  0.4033E-05  0.4371E-05  0.4725E-05  0.5063E-05  0.5378E-05  0.5672E-05  0.5951E-05  0.6217E-05  0.6486E-05  0.6791E-05  0.7143E-05  0.7584E-05  0.8127E-05  0.8817E-05  0.9706E-05  0.1083E-04  0.1222E-04  0.1390E-04  0.1587E-04  0.1817E-04  0.2069E-04  0.2317E-04  0.2519E-04  0.2638E-04  0.2605E-04  0.2360E-04  0.1894E-04  0.1335E-04  0.8551E-05  0.5446E-05  0.3760E-05  0.2914E-05  0.2498E-05  0.2186E-05  0.1915E-05  0.1686E-05  0.1494E-05  0.1328E-05  0.1189E-05  0.1067E-05  0.9583E-06  0.8608E-06  0.7734E-06  0.6945E-06  0.6238E-06  0.5619E-06  0.5062E-06  0.4567E-06  0.4130E-06  0.3725E-06  0.3360E-06  0.3026E-06  0.2728E-06  0.2456E-06  0.2200E-06  0.1962E-06
  0.9723E-06  0.1064E-05  0.1164E-05  0.1263E-05  0.1367E-05  0.1467E-05  0.1569E-05  0.1663E-05  0.1762E-05  0.1848E-05  0.1933E-05  0.2014E-05  0.2100E-05  0.2190E-05  0.2269E-05  0.2354E-05  0.2449E-05  0.2561E-05  0.2695E-05  0.2857E-05  0.3057E-05  0.3290E-05  0.3562E-05  0.3879E-05  0.4214E-05  0.4553E-05  0.4866E-05  0.5162E-05  0.5431E-05  0.5679E-05  0.5935E-05  0.6205E-05  0.6515E-05  0.6896E-05  0.7377E-05  0.7995E-05  0.8777E-05  0.9746E-05  0.1095E-04  0.1238E-04  0.1403E-04  0.1594E-04  0.1805E-04  0.2025E-04  0.2231E-04  0.2382E-04  0.2426E-04  0.2317E-04  0.2026E-04  0.1601E-04  0.1142E-04  0.7628E-05  0.5103E-05  0.3690E-05  0.2882E-05  0.2441E-05  0.2143E-05  0.1887E-05  0.1667E-05  0.1478E-05  0.1325E-05  0.1186E-05  0.1065E-05  0.9592E-06  0.8638E-06  0.7781E-06  0.6994E-06  0.6289E-06  0.5653E-06  0.5111E-06  0.4610E-06  0.4159E-06  0.3750E-06  0.3381E-06  0.3043E-06  0.2743E-06  0.2464E-06  0.2206E-06  0.1967E-06
  0.8971E-06  0.9843E-06  0.1073E-05  0.1164E-05  0.1256E-05  0.1349E-05  0.1437E-05  0.1530E-05  0.1613E-05  0.1694E-05  0.1773E-05  0.1847E-05  0.1927E-05  0.2009E-05  0.2088E-05  0.2170E-05  0.2267E-05  0.2381E-05  0.2517E-05  0.2682E-05  0.2878E-05  0.3113E-05  0.3390E-05  0.3697E-05  0.4024E-05  0.4343E-05  0.4642E-05  0.4912E-05  0.5164E-05  0.5402E-05  0.5648E-05  0.5919E-05  0.6241E-05  0.6655E-05  0.7186E-05  0.7869E-05  0.8724E-05  0.9771E-05  0.1101E-04  0.1245E-04  0.1407E-04  0.1584E-04  0.1769E-04  0.1942E-04  0.2084E-04  0.2157E-04  0.2125E-04  0.1959E-04  0.1673E-04  0.1312E-04  0.9555E-05  0.6689E-05  0.4761E-05  0.3569E-05  0.2849E-05  0.2402E-05  0.2092E-05  0.1854E-05  0.1639E-05  0.1463E-05  0.1310E-05  0.1175E-05  0.1061E-05  0.9572E-06  0.8625E-06  0.7777E-06  0.7009E-06  0.6303E-06  0.5687E-06  0.5123E-06  0.4629E-06  0.4173E-06  0.3766E-06  0.3394E-06  0.3056E-06  0.2746E-06  0.2467E-06  0.2206E-06  0.1967E-06
  0.8285E-06  0.9078E-06  0.9883E-06  0.1071E-05  0.1155E-05  0.1236E-05  0.1321E-05  0.1400E-05  0.1476E-05  0.1555E-05  0.1624E-05  0.1696E-05  0.1778E-05  0.1854E-05  0.1929E-05  0.2013E-05  0.2107E-05  0.2219E-05  0.2354E-05  0.2517E-05  0.2712E-05  0.2945E-05  0.3216E-05  0.3519E-05  0.3831E-05  0.4127E-05  0.4404E-05  0.4659E-05  0.4893E-05  0.5118E-05  0.5358E-05  0.5633E-05  0.5977E-05  0.6420E-05  0.6998E-05  0.7729E-05  0.8625E-05  0.9700E-05  0.1095E-04  0.1236E-04  0.1388E-04  0.1545E-04  0.1695E-04  0.1819E-04  0.1894E-04  0.1897E-04  0.1807E-04  0.1626E-04  0.1368E-04  0.1079E-04  0.8083E-05  0.5946E-05  0.4419E-05  0.3439E-05  0.2799E-05  0.2360E-05  0.2045E-05  0.1811E-05  0.1611E-05  0.1440E-05  0.1290E-05  0.1167E-05  0.1052E-05  0.9499E-06  0.8579E-06  0.7757E-06  0.6986E-06  0.6293E-06  0.5681E-06  0.5125E-06  0.4633E-06  0.4177E-06  0.3766E-06  0.3394E-06  0.3053E-06  0.2743E-06  0.2460E-06  0.2198E-06  0.1961E-06
  0.7643E-06  0.8366E-06  0.9071E-06  0.9857E-06  0.1058E-05  0.1135E-05  0.1210E-05  0.1281E-05  0.1357E-05  0.1425E-05  0.1489E-05  0.1559E-05  0.1637E-05  0.1711E-05  0.1786E-05  0.1870E-05  0.1964E-05  0.2076E-05  0.2208E-05  0.2365E-05  0.2554E-05  0.2780E-05  0.3047E-05  0.3338E-05  0.3630E-05  0.3907E-05  0.4165E-05  0.4401E-05  0.4622E-05  0.4840E-05  0.5077E-05  0.5357E-05  0.5713E-05  0.6185E-05  0.6783E-05  0.7531E-05  0.8441E-05  0.9512E-05  0.1073E-04  0.1205E-04  0.1341E-04  0.1472E-04  0.1585E-04  0.1660E-04  0.1686E-04  0.1645E-04  0.1529E-04  0.1353E-04  0.1135E-04  0.9082E-05  0.7012E-05  0.5357E-05  0.4151E-05  0.3319E-05  0.2734E-05  0.2311E-05  0.2000E-05  0.1761E-05  0.1577E-05  0.1410E-05  0.1273E-05  0.1148E-05  0.1040E-05  0.9418E-06  0.8515E-06  0.7688E-06  0.6947E-06  0.6264E-06  0.5664E-06  0.5111E-06  0.4616E-06  0.4163E-06  0.3753E-06  0.3378E-06  0.3045E-06  0.2731E-06  0.2442E-06  0.2187E-06  0.1955E-06
  0.7057E-06  0.7673E-06  0.8384E-06  0.9032E-06  0.9724E-06  0.1042E-05  0.1108E-05  0.1173E-05  0.1244E-05  0.1306E-05  0.1367E-05  0.1436E-05  0.1507E-05  0.1582E-05  0.1656E-05  0.1739E-05  0.1831E-05  0.1942E-05  0.2072E-05  0.2223E-05  0.2408E-05  0.2631E-05  0.2884E-05  0.3157E-05  0.3431E-05  0.3685E-05  0.3920E-05  0.4139E-05  0.4347E-05  0.4557E-05  0.4786E-05  0.5068E-05  0.5437E-05  0.5908E-05  0.6514E-05  0.7266E-05  0.8164E-05  0.9192E-05  0.1033E-04  0.1152E-04  0.1267E-04  0.1371E-04  0.1448E-04  0.1488E-04  0.1480E-04  0.1417E-04  0.1300E-04  0.1141E-04  0.9621E-05  0.7821E-05  0.6209E-05  0.4891E-05  0.3883E-05  0.3170E-05  0.2643E-05  0.2244E-05  0.1943E-05  0.1716E-05  0.1536E-05  0.1383E-05  0.1246E-05  0.1129E-05  0.1025E-05  0.9271E-06  0.8400E-06  0.7610E-06  0.6883E-06  0.6210E-06  0.5608E-06  0.5079E-06  0.4587E-06  0.4136E-06  0.3728E-06  0.3354E-06  0.3022E-06  0.2709E-06  0.2424E-06  0.2171E-06  0.1929E-06
  0.6490E-06  0.7091E-06  0.7684E-06  0.8287E-06  0.8945E-06  0.9558E-06  0.1016E-05  0.1082E-05  0.1142E-05  0.1200E-05  0.1258E-05  0.1322E-05  0.1390E-05  0.1461E-05  0.1534E-05  0.1616E-05  0.1708E-05  0.1813E-05  0.1934E-05  0.2084E-05  0.2261E-05  0.2474E-05  0.2712E-05  0.2963E-05  0.3211E-05  0.3449E-05  0.3665E-05  0.3865E-05  0.4057E-05  0.4256E-05  0.4486E-05  0.4772E-05  0.5135E-05  0.5606E-05  0.6203E-05  0.6933E-05  0.7787E-05  0.8736E-05  0.9754E-05  0.1078E-04  0.1172E-04  0.1249E-04  0.1299E-04  0.1314E-04  0.1286E-04  0.1215E-04  0.1108E-04  0.9718E-05  0.8271E-05  0.6818E-05  0.5539E-05  0.4468E-05  0.3637E-05  0.3012E-05  0.2527E-05  0.2170E-05  0.1882E-05  0.1664E-05  0.1493E-05  0.1347E-05  0.1217E-05  0.1106E-05  0.1003E-05  0.9119E-06  0.8272E-06  0.7484E-06  0.6780E-06  0.6140E-06  0.5551E-06  0.5016E-06  0.4539E-06  0.4092E-06  0.3690E-06  0.3320E-06  0.2982E-06  0.2682E-06  0.2397E-06  0.2141E-06  0.1903E-06
  0.5994E-06  0.6528E-06  0.7067E-06  0.7651E-06  0.8214E-06  0.8775E-06  0.9351E-06  0.9943E-06  0.1050E-05  0.1104E-05  0.1160E-05  0.1222E-05  0.1284E-05  0.1352E-05  0.1422E-05  0.1500E-05  0.1587E-05  0.1689E-05  0.1803E-05  0.1943E-05  0.2112E-05  0.2310E-05  0.2529E-05  0.2759E-05  0.2983E-05  0.3197E-05  0.3396E-05  0.3585E-05  0.3770E-05  0.3965E-05  0.4188E-05  0.4466E-05  0.4820E-05  0.5278E-05  0.5852E-05  0.6536E-05  0.7316E-05  0.8170E-05  0.9040E-05  0.9894E-05  0.1063E-04  0.1118E-04  0.1148E-04  0.1145E-04  0.1111E-04  0.1042E-04  0.9478E-05  0.8344E-05  0.7157E-05  0.5998E-05  0.4965E-05  0.4088E-05  0.3387E-05  0.2840E-05  0.2412E-05  0.2079E-05  0.1816E-05  0.1607E-05  0.1444E-05  0.1306E-05  0.1186E-05  0.1077E-05  0.9816E-06  0.8928E-06  0.8089E-06  0.7354E-06  0.6668E-06  0.6040E-06  0.5464E-06  0.4945E-06  0.4469E-06  0.4036E-06  0.3631E-06  0.3273E-06  0.2942E-06  0.2641E-06  0.2358E-06  0.2100E-06  0.1868E-06
