DSAA
          79         109
    318.3670    342.0670
   7336.5760   7369.2760
  0.0000E+00  0.1231E-02
  0.0000E+00  0.0000E+00  0.0000E+00  0.0000E+00  0.0000E+00  0.0000E+00  0.0000E+00  0.0000E+00  0.0000E+00  0.0000E+00  0.0000E+00  0.0000E+00  0.0000E+00  0.0000E+00  0.0000E+00  0.0000E+00  0.0000E+00  0.0000E+00  0.0000E+00  0.0000E+00  0.0000E+00  0.0000E+00  0.0000E+00  0.0000E+00  0.0000E+00  0.0000E+00  0.0000E+00  0.0000E+00  0.0000E+00  0.0000E+00  0.0000E+00  0.0000E+00  0.0000E+00  0.0000E+00  0.0000E+00  0.0000E+00  0.0000E+00  0.0000E+00  0.0000E+00  0.0000E+00  0.0000E+00  0.0000E+00  0.0000E+00  0.0000E+00  0.0000E+00  0.0000E+00  0.0000E+00  0.0000E+00  0.0000E+00  0.0000E+00  0.0000E+00  0.0000E+00  0.0000E+00  0.0000E+00  0.0000E+00  0.0000E+00  0.0000E+00  0.0000E+00  0.0000E+00  0.0000E+00  0.0000E+00  0.0000E+00  0.0000E+00  0.0000E+00  0.0000E+00  0.0000E+00  0.0000E+00  0.0000E+00  0.0000E+00  0.0000E+00  0.0000E+00  0.0000E+00  0.0000E+00  0.0000E+00  0.0000E+00  0.0000E+00  0.0000E+00  0.0000E+00  0.0000E+00
  0.0000E+00  0.0000E+00  0.0000E+00  0.0000E+00  0.0000E+00  0.0000E+00  0.0000E+00  0.0000E+00  0.0000E+00  0.0000E+00  0.0000E+00  0.0000E+00  0.0000E+00  0.0000E+00  0.0000E+00  0.0000E+00  0.0000E+00  0.0000E+00  0.0000E+00  0.0000E+00  0.0000E+00  0.0000E+00  0.0000E+00  0.0000E+00  0.0000E+00  0.0000E+00  0.0000E+00  0.0000E+00  0.0000E+00  0.0000E+00  0.0000E+00  0.0000E+00  0.0000E+00  0.0000E+00  0.0000E+00  0.0000E+00  0.0000E+00  0.0000E+00  0.0000E+00  0.0000E+00  0.0000E+00  0.0000E+00  0.0000E+00  0.0000E+00  0.0000E+00  0.0000E+00  0.0000E+00  0.0000E+00  0.0000E+00  0.0000E+00  0.0000E+00  0.0000E+00  0.0000E+00  0.0000E+00  0.0000E+00  0.0000E+00  0.0000E+00  0.0000E+00  0.0000E+00  0.0000E+00  0.0000E+00  0.0000E+00  0.0000E+00  0.0000E+00  0.0000E+00  0.0000E+00  0.0000E+00  0.0000E+00  0.0000E+00  0.0000E+00  0.0000E+00  0.0000E+00  0.0000E+00  0.0000E+00  0.0000E+00  0.0000E+00  0.0000E+00  0.0000E+00  0.0000E+00
  0.0000E+00  0.0000E+00  0.0000E+00  0.0000E+00  0.0000E+00  0.0000E+00  0.0000E+00  0.0000E+00  0.0000E+00  0.0000E+00  0.0000E+00  0.0000E+00  0.0000E+00  0.0000E+00  0.0000E+00  0.0000E+00  0.0000E+00  0.0000E+00  0.0000E+00  0.0000E+00  0.0000E+00  0.0000E+00  0.0000E+00  0.0000E+00  0.0000E+00  0.0000E+00  0.0000E+00  0.0000E+00  0.0000E+00  0.0000E+00  0.0000E+00  0.0000E+00  0.0000E+00  0.0000E+00  0.0000E+00  0.0000E+00  0.0000E+00  0.0000E+00  0.0000E+00  0.0000E+00  0.0000E+00  0.0000E+00  0.0000E+00  0.0000E+00  0.0000E+00  0.0000E+00  0.0000E+00  0.0000E+00  0.0000E+00  0.0000E+00  0.0000E+00  0.0000E+00  0.0000E+00  0.0000E+00  0.0000E+00  0.0000E+00  0.0000E+00  0.0000E+00  0.0000E+00  0.0000E+00  0.0000E+00  0.0000E+00  0.0000E+00  0.0000E+00  0.0000E+00  0.0000E+00  0.0000E+00  0.0000E+00  0.0000E+00  0.0000E+00  0.0000E+00  0.0000E+00  0.0000E+00  0.0000E+00  0.0000E+00  0.0000E+00  0.0000E+00  0.0000E+00  0.0000E+00
  0.0000E+00  0.0000E+00  0.0000E+00  0.0000E+00  0.0000E+00  0.0000E+00  0.0000E+00  0.0000E+00  0.0000E+00  0.0000E+00  0.0000E+00  0.0000E+00  0.0000E+00  0.0000E+00  0.0000E+00  0.0000E+00  0.0000E+00  0.0000E+00  0.0000E+00  0.0000E+00  0.0000E+00  0.0000E+00  0.0000E+00  0.0000E+00  0.0000E+00  0.0000E+00  0.0000E+00  0.0000E+00  0.0000E+00  0.0000E+00  0.0000E+00  0.0000E+00  0.0000E+00  0.0000E+00  0.0000E+00  0.0000E+00  0.0000E+00  0.0000E+00  0.0000E+00  0.0000E+00  0.0000E+00  0.0000E+00  0.0000E+00  0.0000E+00  0.0000E+00  0.0000E+00  0.0000E+00  0.0000E+00  0.0000E+00  0.0000E+00  0.0000E+00  0.0000E+00  0.0000E+00  0.0000E+00  0.0000E+00  0.0000E+00  0.0000E+00  0.0000E+00  0.0000E+00  0.0000E+00  0.0000E+00  0.0000E+00  0.0000E+00  0.0000E+00  0.0000E+00  0.0000E+00  0.0000E+00  0.0000E+00  0.0000E+00  0.0000E+00  0.0000E+00  0.0000E+00  0.0000E+00  0.0000E+00  0.0000E+00  0.0000E+00  0.0000E+00  0.0000E+00  0.0000E+00
  0.0000E+00  0.0000E+00  0.0000E+00  0.0000E+00  0.0000E+00  0.0000E+00  0.0000E+00  0.0000E+00  0.0000E+00  0.0000E+00  0.0000E+00  0.0000E+00  0.0000E+00  0.0000E+00  0.0000E+00  0.0000E+00  0.0000E+00  0.0000E+00  0.0000E+00  0.0000E+00  0.0000E+00  0.0000E+00  0.0000E+00  0.0000E+00  0.0000E+00  0.0000E+00  0.0000E+00  0.0000E+00  0.0000E+00  0.0000E+00  0.0000E+00  0.0000E+00  0.0000E+00  0.0000E+00  0.0000E+00  0.0000E+00  0.0000E+00  0.0000E+00  0.0000E+00  0.0000E+00  0.0000E+00  0.0000E+00  0.0000E+00  0.0000E+00  0.0000E+00  0.0000E+00  0.0000E+00  0.0000E+00  0.0000E+00  0.0000E+00  0.0000E+00  0.0000E+00  0.0000E+00  0.0000E+00  0.0000E+00  0.0000E+00  0.0000E+00  0.0000E+00  0.0000E+00  0.0000E+00  0.0000E+00  0.0000E+00  0.0000E+00  0.0000E+00  0.0000E+00  0.0000E+00  0.0000E+00  0.0000E+00  0.0000E+00  0.0000E+00  0.0000E+00  0.0000E+00  0.0000E+00  0.0000E+00  0.0000E+00  0.0000E+00  0.0000E+00  0.0000E+00  0.0000E+00
  0.0000E+00  0.0000E+00  0.0000E+00  0.0000E+00  0.0000E+00  0.0000E+00  0.0000E+00  0.0000E+00  0.0000E+00  0.0000E+00  0.0000E+00  0.0000E+00  0.0000E+00  0.0000E+00  0.0000E+00  0.0000E+00  0.0000E+00  0.0000E+00  0.0000E+00  0.0000E+00  0.0000E+00  0.0000E+00  0.0000E+00  0.0000E+00  0.0000E+00  0.0000E+00  0.0000E+00  0.0000E+00  0.0000E+00  0.0000E+00  0.0000E+00  0.0000E+00  0.0000E+00  0.0000E+00  0.0000E+00  0.0000E+00  0.0000E+00  0.0000E+00  0.0000E+00  0.0000E+00  0.0000E+00  0.0000E+00  0.0000E+00  0.0000E+00  0.0000E+00  0.0000E+00  0.0000E+00  0.0000E+00  0.0000E+00  0.0000E+00  0.0000E+00  0.0000E+00  0.0000E+00  0.0000E+00  0.0000E+00  0.0000E+00  0.0000E+00  0.0000E+00  0.0000E+00  0.0000E+00  0.0000E+00  0.0000E+00  0.0000E+00  0.0000E+00  0.0000E+00  0.0000E+00  0.0000E+00  0.0000E+00  0.0000E+00  0.0000E+00  0.0000E+00  0.0000E+00  0.0000E+00  0.0000E+00  0.0000E+00  0.0000E+00  0.0000E+00  0.0000E+00  0.0000E+00
  0.0000E+00  0.0000E+00  0.0000E+00  0.0000E+00  0.0000E+00  0.0000E+00  0.0000E+00  0.0000E+00  0.0000E+00  0.0000E+00  0.0000E+00  0.0000E+00  0.0000E+00  0.0000E+00  0.0000E+00  0.0000E+00  0.0000E+00  0.0000E+00  0.0000E+00  0.0000E+00  0.0000E+00  0.0000E+00  0.0000E+00  0.0000E+00  0.0000E+00  0.0000E+00  0.0000E+00  0.0000E+00  0.0000E+00  0.0000E+00  0.0000E+00  0.0000E+00  0.0000E+00  0.0000E+00  0.0000E+00  0.0000E+00  0.0000E+00  0.0000E+00  0.0000E+00  0.0000E+00  0.0000E+00  0.0000E+00  0.0000E+00  0.0000E+00  0.0000E+00  0.0000E+00  0.0000E+00  0.0000E+00  0.0000E+00  0.0000E+00  0.0000E+00  0.0000E+00  0.0000E+00  0.0000E+00  0.0000E+00  0.0000E+00  0.0000E+00  0.0000E+00  0.0000E+00  0.0000E+00  0.0000E+00  0.0000E+00  0.0000E+00  0.0000E+00  0.0000E+00  0.0000E+00  0.0000E+00  0.0000E+00  0.0000E+00  0.0000E+00  0.0000E+00  0.0000E+00  0.0000E+00  0.0000E+00  0.0000E+00  0.0000E+00  0.0000E+00  0.0000E+00  0.0000E+00
  0.0000E+00  0.0000E+00  0.0000E+00  0.0000E+00  0.0000E+00  0.0000E+00  0.0000E+00  0.0000E+00  0.0000E+00  0.0000E+00  0.0000E+00  0.0000E+00  0.0000E+00  0.0000E+00  0.0000E+00  0.0000E+00  0.0000E+00  0.0000E+00  0.0000E+00  0.0000E+00  0.0000E+00  0.0000E+00  0.0000E+00  0.0000E+00  0.0000E+00  0.0000E+00  0.0000E+00  0.0000E+00  0.0000E+00  0.0000E+00  0.0000E+00  0.0000E+00  0.0000E+00  0.0000E+00  0.0000E+00  0.0000E+00  0.0000E+00  0.0000E+00  0.0000E+00  0.0000E+00  0.0000E+00  0.0000E+00  0.0000E+00  0.0000E+00  0.0000E+00  0.0000E+00  0.0000E+00  0.0000E+00  0.0000E+00  0.0000E+00  0.0000E+00  0.0000E+00  0.0000E+00  0.0000E+00  0.0000E+00  0.0000E+00  0.0000E+00  0.0000E+00  0.0000E+00  0.0000E+00  0.0000E+00  0.0000E+00  0.0000E+00  0.0000E+00  0.0000E+00  0.0000E+00  0.0000E+00  0.0000E+00  0.0000E+00  0.0000E+00  0.0000E+00  0.0000E+00  0.0000E+00  0.0000E+00  0.0000E+00  0.0000E+00  0.0000E+00  0.0000E+00  0.0000E+00
  0.0000E+00  0.0000E+00  0.0000E+00  0.0000E+00  0.0000E+00  0.0000E+00  0.0000E+00  0.0000E+00  0.0000E+00  0.0000E+00  0.0000E+00  0.0000E+00  0.0000E+00  0.0000E+00  0.0000E+00  0.0000E+00  0.0000E+00  0.0000E+00  0.0000E+00  0.0000E+00  0.0000E+00  0.0000E+00  0.0000E+00  0.0000E+00  0.0000E+00  0.0000E+00  0.0000E+00  0.0000E+00  0.0000E+00  0.0000E+00  0.0000E+00  0.0000E+00  0.0000E+00  0.0000E+00  0.0000E+00  0.0000E+00  0.0000E+00  0.0000E+00  0.0000E+00  0.0000E+00  0.0000E+00  0.0000E+00  0.0000E+00  0.0000E+00  0.0000E+00  0.0000E+00  0.0000E+00  0.0000E+00  0.0000E+00  0.0000E+00  0.0000E+00  0.0000E+00  0.0000E+00  0.0000E+00  0.0000E+00  0.0000E+00  0.0000E+00  0.0000E+00  0.0000E+00  0.0000E+00  0.0000E+00  0.0000E+00  0.0000E+00  0.0000E+00  0.0000E+00  0.0000E+00  0.0000E+00  0.0000E+00  0.0000E+00  0.0000E+00  0.0000E+00  0.0000E+00  0.0000E+00  0.0000E+00  0.0000E+00  0.0000E+00  0.0000E+00  0.0000E+00  0.0000E+00
  0.0000E+00  0.0000E+00  0.0000E+00  0.0000E+00  0.0000E+00  0.0000E+00  0.0000E+00  0.0000E+00  0.0000E+00  0.0000E+00  0.0000E+00  0.0000E+00  0.0000E+00  0.0000E+00  0.0000E+00  0.0000E+00  0.0000E+00  0.0000E+00  0.0000E+00  0.0000E+00  0.0000E+00  0.0000E+00  0.0000E+00  0.0000E+00  0.0000E+00  0.0000E+00  0.0000E+00  0.0000E+00  0.0000E+00  0.0000E+00  0.0000E+00  0.0000E+00  0.0000E+00  0.0000E+00  0.0000E+00  0.0000E+00  0.0000E+00  0.0000E+00  0.0000E+00  0.0000E+00  0.0000E+00  0.0000E+00  0.0000E+00  0.0000E+00  0.0000E+00  0.0000E+00  0.0000E+00  0.0000E+00  0.0000E+00  0.0000E+00  0.0000E+00  0.0000E+00  0.0000E+00  0.0000E+00  0.0000E+00  0.0000E+00  0.0000E+00  0.0000E+00  0.0000E+00  0.0000E+00  0.0000E+00  0.0000E+00  0.0000E+00  0.0000E+00  0.0000E+00  0.0000E+00  0.0000E+00  0.0000E+00  0.0000E+00  0.0000E+00  0.0000E+00  0.0000E+00  0.0000E+00  0.0000E+00  0.0000E+00  0.0000E+00  0.0000E+00  0.0000E+00  0.0000E+00
  0.0000E+00  0.0000E+00  0.0000E+00  0.0000E+00  0.0000E+00  0.0000E+00  0.0000E+00  0.0000E+00  0.0000E+00  0.0000E+00  0.0000E+00  0.0000E+00  0.0000E+00  0.0000E+00  0.0000E+00  0.0000E+00  0.0000E+00  0.0000E+00  0.0000E+00  0.0000E+00  0.0000E+00  0.0000E+00  0.0000E+00  0.0000E+00  0.0000E+00  0.0000E+00  0.0000E+00  0.0000E+00  0.0000E+00  0.0000E+00  0.0000E+00  0.0000E+00  0.0000E+00  0.0000E+00  0.0000E+00  0.0000E+00  0.0000E+00  0.0000E+00  0.0000E+00  0.0000E+00  0.0000E+00  0.0000E+00  0.0000E+00  0.0000E+00  0.0000E+00  0.0000E+00  0.0000E+00  0.0000E+00  0.0000E+00  0.0000E+00  0.0000E+00  0.0000E+00  0.0000E+00  0.0000E+00  0.0000E+00  0.0000E+00  0.0000E+00  0.0000E+00  0.0000E+00  0.0000E+00  0.0000E+00  0.0000E+00  0.0000E+00  0.0000E+00  0.0000E+00  0.0000E+00  0.0000E+00  0.0000E+00  0.0000E+00  0.0000E+00  0.0000E+00  0.0000E+00  0.0000E+00  0.0000E+00  0.0000E+00  0.0000E+00  0.0000E+00  0.0000E+00  0.0000E+00
  0.0000E+00  0.0000E+00  0.0000E+00  0.0000E+00  0.0000E+00  0.0000E+00  0.0000E+00  0.0000E+00  0.0000E+00  0.0000E+00  0.0000E+00  0.0000E+00  0.0000E+00  0.0000E+00  0.0000E+00  0.0000E+00  0.0000E+00  0.0000E+00  0.0000E+00  0.0000E+00  0.0000E+00  0.0000E+00  0.0000E+00  0.0000E+00  0.0000E+00  0.0000E+00  0.0000E+00  0.0000E+00  0.0000E+00  0.0000E+00  0.0000E+00  0.0000E+00  0.0000E+00  0.0000E+00  0.0000E+00  0.0000E+00  0.0000E+00  0.0000E+00  0.0000E+00  0.0000E+00  0.0000E+00  0.0000E+00  0.0000E+00  0.0000E+00  0.0000E+00  0.0000E+00  0.0000E+00  0.0000E+00  0.0000E+00  0.0000E+00  0.0000E+00  0.0000E+00  0.0000E+00  0.0000E+00  0.0000E+00  0.0000E+00  0.0000E+00  0.0000E+00  0.0000E+00  0.0000E+00  0.0000E+00  0.0000E+00  0.0000E+00  0.0000E+00  0.0000E+00  0.0000E+00  0.0000E+00  0.0000E+00  0.0000E+00  0.0000E+00  0.0000E+00  0.0000E+00  0.0000E+00  0.0000E+00  0.0000E+00  0.0000E+00  0.0000E+00  0.0000E+00  0.0000E+00
  0.0000E+00  0.0000E+00  0.0000E+00  0.0000E+00  0.0000E+00  0.0000E+00  0.0000E+00  0.0000E+00  0.0000E+00  0.0000E+00  0.0000E+00  0.0000E+00  0.0000E+00  0.0000E+00  0.0000E+00  0.0000E+00  0.0000E+00  0.0000E+00  0.0000E+00  0.0000E+00  0.0000E+00  0.0000E+00  0.0000E+00  0.0000E+00  0.0000E+00  0.0000E+00  0.0000E+00  0.0000E+00  0.0000E+00  0.0000E+00  0.0000E+00  0.0000E+00  0.0000E+00  0.0000E+00  0.0000E+00  0.0000E+00  0.0000E+00  0.0000E+00  0.0000E+00  0.0000E+00  0.0000E+00  0.0000E+00  0.0000E+00  0.0000E+00  0.0000E+00  0.0000E+00  0.0000E+00  0.0000E+00  0.0000E+00  0.0000E+00  0.0000E+00  0.0000E+00  0.0000E+00  0.0000E+00  0.0000E+00  0.0000E+00  0.0000E+00  0.0000E+00  0.0000E+00  0.0000E+00  0.0000E+00  0.0000E+00  0.0000E+00  0.0000E+00  0.0000E+00  0.0000E+00  0.0000E+00  0.0000E+00  0.0000E+00  0.0000E+00  0.0000E+00  0.0000E+00  0.0000E+00  0.0000E+00  0.0000E+00  0.0000E+00  0.0000E+00  0.0000E+00  0.0000E+00
  0.0000E+00  0.0000E+00  0.0000E+00  0.0000E+00  0.0000E+00  0.0000E+00  0.0000E+00  0.0000E+00  0.0000E+00  0.0000E+00  0.0000E+00  0.0000E+00  0.0000E+00  0.0000E+00  0.0000E+00  0.0000E+00  0.0000E+00  0.0000E+00  0.0000E+00  0.0000E+00  0.0000E+00  0.0000E+00  0.0000E+00  0.0000E+00  0.0000E+00  0.0000E+00  0.0000E+00  0.0000E+00  0.0000E+00  0.0000E+00  0.0000E+00  0.0000E+00  0.0000E+00  0.0000E+00  0.0000E+00  0.0000E+00  0.0000E+00  0.0000E+00  0.0000E+00  0.0000E+00  0.0000E+00  0.0000E+00  0.0000E+00  0.0000E+00  0.0000E+00  0.0000E+00  0.0000E+00  0.0000E+00  0.0000E+00  0.0000E+00  0.0000E+00  0.0000E+00  0.0000E+00  0.0000E+00  0.0000E+00  0.0000E+00  0.0000E+00  0.0000E+00  0.0000E+00  0.0000E+00  0.0000E+00  0.0000E+00  0.0000E+00  0.0000E+00  0.0000E+00  0.0000E+00  0.0000E+00  0.0000E+00  0.0000E+00  0.0000E+00  0.0000E+00  0.0000E+00  0.0000E+00  0.0000E+00  0.0000E+00  0.0000E+00  0.0000E+00  0.0000E+00  0.0000E+00
  0.0000E+00  0.0000E+00  0.0000E+00  0.0000E+00  0.0000E+00  0.0000E+00  0.0000E+00  0.0000E+00  0.0000E+00  0.0000E+00  0.0000E+00  0.0000E+00  0.0000E+00  0.0000E+00  0.0000E+00  0.0000E+00  0.0000E+00  0.0000E+00  0.0000E+00  0.0000E+00  0.0000E+00  0.0000E+00  0.0000E+00  0.0000E+00  0.0000E+00  0.0000E+00  0.0000E+00  0.0000E+00  0.0000E+00  0.0000E+00  0.0000E+00  0.0000E+00  0.0000E+00  0.0000E+00  0.0000E+00  0.0000E+00  0.0000E+00  0.0000E+00  0.0000E+00  0.0000E+00  0.0000E+00  0.0000E+00  0.0000E+00  0.0000E+00  0.0000E+00  0.0000E+00  0.0000E+00  0.0000E+00  0.0000E+00  0.0000E+00  0.0000E+00  0.0000E+00  0.0000E+00  0.0000E+00  0.0000E+00  0.0000E+00  0.0000E+00  0.0000E+00  0.0000E+00  0.0000E+00  0.0000E+00  0.0000E+00  0.0000E+00  0.0000E+00  0.0000E+00  0.0000E+00  0.0000E+00  0.0000E+00  0.0000E+00  0.0000E+00  0.0000E+00  0.0000E+00  0.0000E+00  0.0000E+00  0.0000E+00  0.0000E+00  0.0000E+00  0.0000E+00  0.0000E+00
  0.0000E+00  0.0000E+00  0.0000E+00  0.0000E+00  0.0000E+00  0.0000E+00  0.0000E+00  0.0000E+00  0.0000E+00  0.0000E+00  0.0000E+00  0.0000E+00  0.0000E+00  0.0000E+00  0.0000E+00  0.0000E+00  0.0000E+00  0.0000E+00  0.0000E+00  0.0000E+00  0.0000E+00  0.0000E+00  0.0000E+00  0.0000E+00  0.0000E+00  0.0000E+00  0.0000E+00  0.0000E+00  0.0000E+00  0.0000E+00  0.0000E+00  0.0000E+00  0.0000E+00  0.0000E+00  0.0000E+00  0.0000E+00  0.0000E+00  0.0000E+00  0.0000E+00  0.0000E+00  0.0000E+00  0.0000E+00  0.0000E+00  0.0000E+00  0.0000E+00  0.0000E+00  0.0000E+00  0.0000E+00  0.0000E+00  0.0000E+00  0.0000E+00  0.0000E+00  0.0000E+00  0.0000E+00  0.0000E+00  0.0000E+00  0.0000E+00  0.0000E+00  0.0000E+00  0.0000E+00  0.0000E+00  0.0000E+00  0.0000E+00  0.0000E+00  0.0000E+00  0.0000E+00  0.0000E+00  0.0000E+00  0.0000E+00  0.0000E+00  0.0000E+00  0.0000E+00  0.0000E+00  0.0000E+00  0.0000E+00  0.0000E+00  0.0000E+00  0.0000E+00  0.0000E+00
  0.0000E+00  0.0000E+00  0.0000E+00  0.0000E+00  0.0000E+00  0.0000E+00  0.0000E+00  0.0000E+00  0.0000E+00  0.0000E+00  0.0000E+00  0.0000E+00  0.0000E+00  0.0000E+00  0.0000E+00  0.0000E+00  0.0000E+00  0.0000E+00  0.0000E+00  0.0000E+00  0.0000E+00  0.0000E+00  0.0000E+00  0.0000E+00  0.0000E+00  0.0000E+00  0.0000E+00  0.0000E+00  0.0000E+00  0.0000E+00  0.0000E+00  0.0000E+00  0.0000E+00  0.0000E+00  0.0000E+00  0.0000E+00  0.0000E+00  0.0000E+00  0.0000E+00  0.0000E+00  0.0000E+00  0.0000E+00  0.0000E+00  0.0000E+00  0.0000E+00  0.0000E+00  0.0000E+00  0.0000E+00  0.0000E+00  0.0000E+00  0.0000E+00  0.0000E+00  0.0000E+00  0.0000E+00  0.0000E+00  0.0000E+00  0.0000E+00  0.0000E+00  0.0000E+00  0.0000E+00  0.0000E+00  0.0000E+00  0.0000E+00  0.0000E+00  0.0000E+00  0.0000E+00  0.0000E+00  0.0000E+00  0.0000E+00  0.0000E+00  0.0000E+00  0.0000E+00  0.0000E+00  0.0000E+00  0.0000E+00  0.0000E+00  0.0000E+00  0.0000E+00  0.0000E+00
  0.0000E+00  0.0000E+00  0.0000E+00  0.0000E+00  0.0000E+00  0.0000E+00  0.0000E+00  0.0000E+00  0.0000E+00  0.0000E+00  0.0000E+00  0.0000E+00  0.0000E+00  0.0000E+00  0.0000E+00  0.0000E+00  0.0000E+00  0.0000E+00  0.0000E+00  0.0000E+00  0.0000E+00  0.0000E+00  0.0000E+00  0.0000E+00  0.0000E+00  0.0000E+00  0.0000E+00  0.0000E+00  0.0000E+00  0.0000E+00  0.0000E+00  0.0000E+00  0.0000E+00  0.0000E+00  0.0000E+00  0.0000E+00  0.0000E+00  0.0000E+00  0.0000E+00  0.0000E+00  0.0000E+00  0.0000E+00  0.0000E+00  0.0000E+00  0.0000E+00  0.0000E+00  0.0000E+00  0.0000E+00  0.0000E+00  0.0000E+00  0.0000E+00  0.0000E+00  0.0000E+00  0.0000E+00  0.0000E+00  0.0000E+00  0.0000E+00  0.0000E+00  0.0000E+00  0.0000E+00  0.0000E+00  0.0000E+00  0.0000E+00  0.0000E+00  0.0000E+00  0.0000E+00  0.0000E+00  0.0000E+00  0.0000E+00  0.0000E+00  0.0000E+00  0.0000E+00  0.0000E+00  0.0000E+00  0.0000E+00  0.0000E+00  0.0000E+00  0.0000E+00  0.0000E+00
  0.0000E+00  0.0000E+00  0.0000E+00  0.0000E+00  0.0000E+00  0.0000E+00  0.0000E+00  0.0000E+00  0.0000E+00  0.0000E+00  0.0000E+00  0.0000E+00  0.0000E+00  0.0000E+00  0.0000E+00  0.0000E+00  0.0000E+00  0.0000E+00  0.0000E+00  0.0000E+00  0.0000E+00  0.0000E+00  0.0000E+00  0.0000E+00  0.0000E+00  0.0000E+00  0.0000E+00  0.0000E+00  0.0000E+00  0.0000E+00  0.0000E+00  0.0000E+00  0.0000E+00  0.0000E+00  0.0000E+00  0.0000E+00  0.0000E+00  0.0000E+00  0.0000E+00  0.0000E+00  0.0000E+00  0.0000E+00  0.0000E+00  0.0000E+00  0.0000E+00  0.0000E+00  0.0000E+00  0.0000E+00  0.0000E+00  0.0000E+00  0.0000E+00  0.0000E+00  0.0000E+00  0.0000E+00  0.0000E+00  0.0000E+00  0.0000E+00  0.0000E+00  0.0000E+00  0.0000E+00  0.0000E+00  0.0000E+00  0.0000E+00  0.0000E+00  0.0000E+00  0.0000E+00  0.0000E+00  0.0000E+00  0.0000E+00  0.0000E+00  0.0000E+00  0.0000E+00  0.0000E+00  0.0000E+00  0.0000E+00  0.0000E+00  0.0000E+00  0.0000E+00  0.0000E+00
  0.0000E+00  0.0000E+00  0.0000E+00  0.0000E+00  0.0000E+00  0.0000E+00  0.0000E+00  0.0000E+00  0.0000E+00  0.0000E+00  0.0000E+00  0.0000E+00  0.0000E+00  0.0000E+00  0.0000E+00  0.0000E+00  0.0000E+00  0.0000E+00  0.0000E+00  0.0000E+00  0.0000E+00  0.0000E+00  0.0000E+00  0.0000E+00  0.0000E+00  0.0000E+00  0.0000E+00  0.0000E+00  0.0000E+00  0.0000E+00  0.0000E+00  0.0000E+00  0.0000E+00  0.0000E+00  0.0000E+00  0.0000E+00  0.0000E+00  0.0000E+00  0.0000E+00  0.0000E+00  0.0000E+00  0.0000E+00  0.0000E+00  0.0000E+00  0.0000E+00  0.0000E+00  0.0000E+00  0.0000E+00  0.0000E+00  0.0000E+00  0.0000E+00  0.0000E+00  0.0000E+00  0.0000E+00  0.0000E+00  0.0000E+00  0.0000E+00  0.0000E+00  0.0000E+00  0.0000E+00  0.0000E+00  0.0000E+00  0.0000E+00  0.0000E+00  0.0000E+00  0.0000E+00  0.0000E+00  0.0000E+00  0.0000E+00  0.0000E+00  0.0000E+00  0.0000E+00  0.0000E+00  0.0000E+00  0.0000E+00  0.0000E+00  0.0000E+00  0.0000E+00  0.0000E+00
  0.0000E+00  0.0000E+00  0.0000E+00  0.0000E+00  0.0000E+00  0.0000E+00  0.0000E+00  0.0000E+00  0.0000E+00  0.0000E+00  0.0000E+00  0.0000E+00  0.0000E+00  0.0000E+00  0.0000E+00  0.0000E+00  0.0000E+00  0.0000E+00  0.0000E+00  0.0000E+00  0.0000E+00  0.0000E+00  0.0000E+00  0.0000E+00  0.0000E+00  0.0000E+00  0.0000E+00  0.0000E+00  0.0000E+00  0.0000E+00  0.0000E+00  0.0000E+00  0.0000E+00  0.0000E+00  0.0000E+00  0.0000E+00  0.0000E+00  0.0000E+00  0.0000E+00  0.0000E+00  0.0000E+00  0.0000E+00  0.0000E+00  0.0000E+00  0.0000E+00  0.0000E+00  0.0000E+00  0.0000E+00  0.0000E+00  0.0000E+00  0.0000E+00  0.0000E+00  0.0000E+00  0.0000E+00  0.0000E+00  0.0000E+00  0.0000E+00  0.0000E+00  0.0000E+00  0.0000E+00  0.0000E+00  0.0000E+00  0.0000E+00  0.0000E+00  0.0000E+00  0.0000E+00  0.0000E+00  0.0000E+00  0.0000E+00  0.0000E+00  0.0000E+00  0.0000E+00  0.0000E+00  0.0000E+00  0.0000E+00  0.0000E+00  0.0000E+00  0.0000E+00  0.0000E+00
  0.0000E+00  0.0000E+00  0.0000E+00  0.0000E+00  0.0000E+00  0.0000E+00  0.0000E+00  0.0000E+00  0.0000E+00  0.0000E+00  0.0000E+00  0.0000E+00  0.0000E+00  0.0000E+00  0.0000E+00  0.0000E+00  0.0000E+00  0.0000E+00  0.0000E+00  0.0000E+00  0.0000E+00  0.0000E+00  0.0000E+00  0.0000E+00  0.0000E+00  0.0000E+00  0.0000E+00  0.0000E+00  0.0000E+00  0.0000E+00  0.0000E+00  0.0000E+00  0.0000E+00  0.0000E+00  0.0000E+00  0.0000E+00  0.0000E+00  0.0000E+00  0.0000E+00  0.0000E+00  0.0000E+00  0.0000E+00  0.0000E+00  0.0000E+00  0.0000E+00  0.0000E+00  0.0000E+00  0.0000E+00  0.0000E+00  0.0000E+00  0.0000E+00  0.0000E+00  0.0000E+00  0.0000E+00  0.0000E+00  0.0000E+00  0.0000E+00  0.0000E+00  0.0000E+00  0.0000E+00  0.0000E+00  0.0000E+00  0.0000E+00  0.0000E+00  0.0000E+00  0.0000E+00  0.0000E+00  0.0000E+00  0.0000E+00  0.0000E+00  0.0000E+00  0.0000E+00  0.0000E+00  0.0000E+00  0.0000E+00  0.0000E+00  0.0000E+00  0.0000E+00  0.0000E+00
  0.0000E+00  0.0000E+00  0.0000E+00  0.0000E+00  0.0000E+00  0.0000E+00  0.0000E+00  0.0000E+00  0.0000E+00  0.0000E+00  0.0000E+00  0.0000E+00  0.0000E+00  0.0000E+00  0.0000E+00  0.0000E+00  0.0000E+00  0.0000E+00  0.0000E+00  0.0000E+00  0.0000E+00  0.0000E+00  0.0000E+00  0.0000E+00  0.0000E+00  0.0000E+00  0.0000E+00  0.0000E+00  0.0000E+00  0.0000E+00  0.0000E+00  0.0000E+00  0.0000E+00  0.0000E+00  0.0000E+00  0.0000E+00  0.0000E+00  0.0000E+00  0.0000E+00  0.0000E+00  0.0000E+00  0.0000E+00  0.0000E+00  0.0000E+00  0.0000E+00  0.0000E+00  0.0000E+00  0.0000E+00  0.0000E+00  0.0000E+00  0.0000E+00  0.0000E+00  0.0000E+00  0.0000E+00  0.0000E+00  0.0000E+00  0.0000E+00  0.0000E+00  0.0000E+00  0.0000E+00  0.0000E+00  0.0000E+00  0.0000E+00  0.0000E+00  0.0000E+00  0.0000E+00  0.0000E+00  0.0000E+00  0.0000E+00  0.0000E+00  0.0000E+00  0.0000E+00  0.0000E+00  0.0000E+00  0.0000E+00  0.0000E+00  0.0000E+00  0.0000E+00  0.0000E+00
  0.0000E+00  0.0000E+00  0.0000E+00  0.0000E+00  0.0000E+00  0.0000E+00  0.0000E+00  0.0000E+00  0.0000E+00  0.0000E+00  0.0000E+00  0.0000E+00  0.0000E+00  0.0000E+00  0.0000E+00  0.0000E+00  0.0000E+00  0.0000E+00  0.0000E+00  0.0000E+00  0.0000E+00  0.0000E+00  0.0000E+00  0.0000E+00  0.0000E+00  0.0000E+00  0.0000E+00  0.0000E+00  0.0000E+00  0.0000E+00  0.0000E+00  0.0000E+00  0.0000E+00  0.0000E+00  0.0000E+00  0.0000E+00  0.0000E+00  0.0000E+00  0.0000E+00  0.0000E+00  0.0000E+00  0.0000E+00  0.0000E+00  0.0000E+00  0.0000E+00  0.0000E+00  0.0000E+00  0.0000E+00  0.0000E+00  0.0000E+00  0.0000E+00  0.0000E+00  0.0000E+00  0.0000E+00  0.0000E+00  0.0000E+00  0.0000E+00  0.0000E+00  0.0000E+00  0.0000E+00  0.0000E+00  0.0000E+00  0.0000E+00  0.0000E+00  0.0000E+00  0.0000E+00  0.0000E+00  0.0000E+00  0.0000E+00  0.0000E+00  0.0000E+00  0.0000E+00  0.0000E+00  0.0000E+00  0.0000E+00  0.0000E+00  0.0000E+00  0.0000E+00  0.0000E+00
  0.0000E+00  0.0000E+00  0.0000E+00  0.0000E+00  0.0000E+00  0.0000E+00  0.0000E+00  0.0000E+00  0.0000E+00  0.0000E+00  0.0000E+00  0.0000E+00  0.0000E+00  0.0000E+00  0.0000E+00  0.0000E+00  0.0000E+00  0.0000E+00  0.0000E+00  0.0000E+00  0.0000E+00  0.0000E+00  0.0000E+00  0.0000E+00  0.0000E+00  0.0000E+00  0.0000E+00  0.0000E+00  0.0000E+00  0.0000E+00  0.0000E+00  0.0000E+00  0.0000E+00  0.0000E+00  0.0000E+00  0.0000E+00  0.0000E+00  0.0000E+00  0.0000E+00  0.0000E+00  0.0000E+00  0.0000E+00  0.0000E+00  0.0000E+00  0.0000E+00  0.0000E+00  0.0000E+00  0.0000E+00  0.0000E+00  0.0000E+00  0.0000E+00  0.0000E+00  0.0000E+00  0.0000E+00  0.0000E+00  0.0000E+00  0.0000E+00  0.0000E+00  0.0000E+00  0.0000E+00  0.0000E+00  0.0000E+00  0.0000E+00  0.0000E+00  0.0000E+00  0.0000E+00  0.0000E+00  0.0000E+00  0.0000E+00  0.0000E+00  0.0000E+00  0.0000E+00  0.0000E+00  0.0000E+00  0.0000E+00  0.0000E+00  0.0000E+00  0.0000E+00  0.0000E+00
  0.0000E+00  0.0000E+00  0.0000E+00  0.0000E+00  0.0000E+00  0.0000E+00  0.0000E+00  0.0000E+00  0.0000E+00  0.0000E+00  0.0000E+00  0.0000E+00  0.0000E+00  0.0000E+00  0.0000E+00  0.0000E+00  0.0000E+00  0.0000E+00  0.0000E+00  0.0000E+00  0.0000E+00  0.0000E+00  0.0000E+00  0.0000E+00  0.0000E+00  0.0000E+00  0.0000E+00  0.0000E+00  0.0000E+00  0.0000E+00  0.0000E+00  0.0000E+00  0.0000E+00  0.0000E+00  0.0000E+00  0.0000E+00  0.0000E+00  0.0000E+00  0.0000E+00  0.0000E+00  0.0000E+00  0.0000E+00  0.0000E+00  0.0000E+00  0.0000E+00  0.0000E+00  0.0000E+00  0.0000E+00  0.0000E+00  0.0000E+00  0.0000E+00  0.0000E+00  0.0000E+00  0.0000E+00  0.0000E+00  0.0000E+00  0.0000E+00  0.0000E+00  0.0000E+00  0.0000E+00  0.0000E+00  0.0000E+00  0.0000E+00  0.0000E+00  0.0000E+00  0.0000E+00  0.0000E+00  0.0000E+00  0.0000E+00  0.0000E+00  0.0000E+00  0.0000E+00  0.0000E+00  0.0000E+00  0.0000E+00  0.0000E+00  0.0000E+00  0.0000E+00  0.0000E+00
  0.0000E+00  0.0000E+00  0.0000E+00  0.0000E+00  0.0000E+00  0.0000E+00  0.0000E+00  0.0000E+00  0.0000E+00  0.0000E+00  0.0000E+00  0.0000E+00  0.0000E+00  0.0000E+00  0.0000E+00  0.0000E+00  0.0000E+00  0.0000E+00  0.0000E+00  0.0000E+00  0.0000E+00  0.0000E+00  0.0000E+00  0.0000E+00  0.0000E+00  0.0000E+00  0.0000E+00  0.0000E+00  0.0000E+00  0.0000E+00  0.0000E+00  0.0000E+00  0.0000E+00  0.0000E+00  0.0000E+00  0.0000E+00  0.0000E+00  0.0000E+00  0.0000E+00  0.0000E+00  0.0000E+00  0.0000E+00  0.0000E+00  0.0000E+00  0.0000E+00  0.0000E+00  0.0000E+00  0.0000E+00  0.0000E+00  0.0000E+00  0.0000E+00  0.0000E+00  0.0000E+00  0.0000E+00  0.0000E+00  0.0000E+00  0.0000E+00  0.0000E+00  0.0000E+00  0.0000E+00  0.0000E+00  0.0000E+00  0.0000E+00  0.0000E+00  0.0000E+00  0.0000E+00  0.0000E+00  0.0000E+00  0.0000E+00  0.0000E+00  0.0000E+00  0.0000E+00  0.0000E+00  0.0000E+00  0.0000E+00  0.0000E+00  0.0000E+00  0.0000E+00  0.0000E+00
  0.0000E+00  0.0000E+00  0.0000E+00  0.0000E+00  0.0000E+00  0.0000E+00  0.0000E+00  0.0000E+00  0.0000E+00  0.0000E+00  0.0000E+00  0.0000E+00  0.0000E+00  0.0000E+00  0.0000E+00  0.0000E+00  0.0000E+00  0.0000E+00  0.0000E+00  0.0000E+00  0.0000E+00  0.0000E+00  0.0000E+00  0.0000E+00  0.0000E+00  0.0000E+00  0.0000E+00  0.0000E+00  0.0000E+00  0.0000E+00  0.0000E+00  0.0000E+00  0.0000E+00  0.0000E+00  0.0000E+00  0.0000E+00  0.0000E+00  0.0000E+00  0.0000E+00  0.0000E+00  0.0000E+00  0.0000E+00  0.0000E+00  0.0000E+00  0.0000E+00  0.0000E+00  0.0000E+00  0.0000E+00  0.0000E+00  0.0000E+00  0.0000E+00  0.0000E+00  0.0000E+00  0.0000E+00  0.0000E+00  0.0000E+00  0.0000E+00  0.0000E+00  0.0000E+00  0.0000E+00  0.0000E+00  0.0000E+00  0.0000E+00  0.0000E+00  0.0000E+00  0.0000E+00  0.0000E+00  0.0000E+00  0.0000E+00  0.0000E+00  0.0000E+00  0.0000E+00  0.0000E+00  0.0000E+00  0.0000E+00  0.0000E+00  0.0000E+00  0.0000E+00  0.0000E+00
  0.0000E+00  0.0000E+00  0.0000E+00  0.0000E+00  0.0000E+00  0.0000E+00  0.0000E+00  0.0000E+00  0.0000E+00  0.0000E+00  0.0000E+00  0.0000E+00  0.0000E+00  0.0000E+00  0.0000E+00  0.0000E+00  0.0000E+00  0.0000E+00  0.0000E+00  0.0000E+00  0.0000E+00  0.0000E+00  0.0000E+00  0.0000E+00  0.0000E+00  0.0000E+00  0.0000E+00  0.0000E+00  0.0000E+00  0.0000E+00  0.0000E+00  0.0000E+00  0.0000E+00  0.0000E+00  0.0000E+00  0.0000E+00  0.0000E+00  0.0000E+00  0.0000E+00  0.0000E+00  0.0000E+00  0.0000E+00  0.0000E+00  0.0000E+00  0.0000E+00  0.0000E+00  0.0000E+00  0.0000E+00  0.0000E+00  0.0000E+00  0.0000E+00  0.0000E+00  0.0000E+00  0.0000E+00  0.0000E+00  0.0000E+00  0.0000E+00  0.0000E+00  0.0000E+00  0.0000E+00  0.0000E+00  0.0000E+00  0.0000E+00  0.0000E+00  0.0000E+00  0.0000E+00  0.0000E+00  0.0000E+00  0.0000E+00  0.0000E+00  0.0000E+00  0.0000E+00  0.0000E+00  0.0000E+00  0.0000E+00  0.0000E+00  0.0000E+00  0.0000E+00  0.0000E+00
  0.0000E+00  0.0000E+00  0.0000E+00  0.0000E+00  0.0000E+00  0.0000E+00  0.0000E+00  0.0000E+00  0.0000E+00  0.0000E+00  0.0000E+00  0.0000E+00  0.0000E+00  0.0000E+00  0.0000E+00  0.0000E+00  0.0000E+00  0.0000E+00  0.0000E+00  0.0000E+00  0.0000E+00  0.0000E+00  0.0000E+00  0.0000E+00  0.0000E+00  0.0000E+00  0.0000E+00  0.0000E+00  0.0000E+00  0.0000E+00  0.0000E+00  0.0000E+00  0.0000E+00  0.0000E+00  0.0000E+00  0.0000E+00  0.0000E+00  0.0000E+00  0.0000E+00  0.0000E+00  0.0000E+00  0.0000E+00  0.0000E+00  0.0000E+00  0.0000E+00  0.0000E+00  0.0000E+00  0.0000E+00  0.0000E+00  0.0000E+00  0.0000E+00  0.0000E+00  0.0000E+00  0.0000E+00  0.0000E+00  0.0000E+00  0.0000E+00  0.0000E+00  0.0000E+00  0.0000E+00  0.0000E+00  0.0000E+00  0.0000E+00  0.0000E+00  0.0000E+00  0.0000E+00  0.0000E+00  0.0000E+00  0.0000E+00  0.0000E+00  0.0000E+00  0.0000E+00  0.0000E+00  0.0000E+00  0.0000E+00  0.0000E+00  0.0000E+00  0.0000E+00  0.0000E+00
  0.0000E+00  0.0000E+00  0.0000E+00  0.0000E+00  0.0000E+00  0.0000E+00  0.0000E+00  0.0000E+00  0.0000E+00  0.0000E+00  0.0000E+00  0.0000E+00  0.0000E+00  0.0000E+00  0.0000E+00  0.0000E+00  0.0000E+00  0.0000E+00  0.0000E+00  0.0000E+00  0.0000E+00  0.0000E+00  0.0000E+00  0.0000E+00  0.0000E+00  0.0000E+00  0.0000E+00  0.0000E+00  0.0000E+00  0.0000E+00  0.0000E+00  0.0000E+00  0.0000E+00  0.0000E+00  0.0000E+00  0.0000E+00  0.0000E+00  0.0000E+00  0.0000E+00  0.0000E+00  0.0000E+00  0.0000E+00  0.0000E+00  0.0000E+00  0.0000E+00  0.0000E+00  0.0000E+00  0.0000E+00  0.0000E+00  0.0000E+00  0.0000E+00  0.0000E+00  0.0000E+00  0.0000E+00  0.0000E+00  0.0000E+00  0.0000E+00  0.0000E+00  0.0000E+00  0.0000E+00  0.0000E+00  0.0000E+00  0.0000E+00  0.0000E+00  0.0000E+00  0.0000E+00  0.0000E+00  0.0000E+00  0.0000E+00  0.0000E+00  0.0000E+00  0.0000E+00  0.0000E+00  0.0000E+00  0.0000E+00  0.0000E+00  0.0000E+00  0.0000E+00  0.0000E+00
  0.0000E+00  0.0000E+00  0.0000E+00  0.0000E+00  0.0000E+00  0.0000E+00  0.0000E+00  0.0000E+00  0.5788E-08  0.3018E-07  0.5672E-07  0.8564E-07  0.1093E-06  0.1432E-06  0.1804E-06  0.1838E-06  0.1851E-06  0.1861E-06  0.1868E-06  0.1871E-06  0.1870E-06  0.1866E-06  0.1858E-06  0.1846E-06  0.1656E-06  0.1390E-06  0.1174E-06  0.8733E-07  0.6303E-07  0.2895E-07  0.1679E-08  0.0000E+00  0.0000E+00  0.0000E+00  0.0000E+00  0.0000E+00  0.0000E+00  0.0000E+00  0.0000E+00  0.0000E+00  0.0000E+00  0.0000E+00  0.0000E+00  0.0000E+00  0.0000E+00  0.0000E+00  0.0000E+00  0.0000E+00  0.0000E+00  0.0000E+00  0.0000E+00  0.0000E+00  0.0000E+00  0.0000E+00  0.0000E+00  0.0000E+00  0.0000E+00  0.0000E+00  0.0000E+00  0.0000E+00  0.0000E+00  0.0000E+00  0.0000E+00  0.0000E+00  0.0000E+00  0.0000E+00  0.0000E+00  0.0000E+00  0.0000E+00  0.0000E+00  0.0000E+00  0.0000E+00  0.0000E+00  0.0000E+00  0.0000E+00  0.0000E+00  0.0000E+00  0.0000E+00  0.0000E+00
  0.0000E+00  0.5788E-08  0.2406E-07  0.4377E-07  0.6505E-07  0.8802E-07  0.1128E-06  0.1397E-06  0.1687E-06  0.1923E-06  0.1960E-06  0.1993E-06  0.2024E-06  0.2050E-06  0.2092E-06  0.2111E-06  0.2127E-06  0.2139E-06  0.2147E-06  0.2150E-06  0.2150E-06  0.2145E-06  0.2136E-06  0.2123E-06  0.2106E-06  0.2085E-06  0.2060E-06  0.2032E-06  0.2000E-06  0.1965E-06  0.1926E-06  0.1650E-06  0.1274E-06  0.9624E-07  0.6342E-07  0.2006E-07  0.0000E+00  0.0000E+00  0.0000E+00  0.0000E+00  0.0000E+00  0.0000E+00  0.0000E+00  0.0000E+00  0.0000E+00  0.0000E+00  0.0000E+00  0.0000E+00  0.0000E+00  0.0000E+00  0.0000E+00  0.0000E+00  0.0000E+00  0.0000E+00  0.0000E+00  0.0000E+00  0.0000E+00  0.0000E+00  0.0000E+00  0.0000E+00  0.0000E+00  0.0000E+00  0.0000E+00  0.0000E+00  0.0000E+00  0.0000E+00  0.0000E+00  0.0000E+00  0.0000E+00  0.0000E+00  0.0000E+00  0.0000E+00  0.0000E+00  0.0000E+00  0.0000E+00  0.0000E+00  0.0000E+00  0.0000E+00  0.0000E+00
  0.7345E-07  0.9753E-07  0.1158E-06  0.1436E-06  0.1738E-06  0.1988E-06  0.2042E-06  0.2092E-06  0.2140E-06  0.2204E-06  0.2246E-06  0.2285E-06  0.2320E-06  0.2369E-06  0.2397E-06  0.2420E-06  0.2438E-06  0.2452E-06  0.2462E-06  0.2466E-06  0.2485E-06  0.2480E-06  0.2470E-06  0.2456E-06  0.2436E-06  0.2412E-06  0.2384E-06  0.2332E-06  0.2295E-06  0.2254E-06  0.2210E-06  0.2163E-06  0.2112E-06  0.2040E-06  0.1984E-06  0.1811E-06  0.1448E-06  0.1045E-06  0.6361E-07  0.1997E-07  0.0000E+00  0.0000E+00  0.0000E+00  0.0000E+00  0.0000E+00  0.0000E+00  0.0000E+00  0.0000E+00  0.0000E+00  0.0000E+00  0.0000E+00  0.0000E+00  0.0000E+00  0.0000E+00  0.0000E+00  0.0000E+00  0.0000E+00  0.0000E+00  0.0000E+00  0.0000E+00  0.0000E+00  0.0000E+00  0.0000E+00  0.0000E+00  0.0000E+00  0.0000E+00  0.0000E+00  0.0000E+00  0.0000E+00  0.0000E+00  0.0000E+00  0.0000E+00  0.0000E+00  0.0000E+00  0.0000E+00  0.0000E+00  0.0000E+00  0.0000E+00  0.0000E+00
  0.1566E-06  0.1795E-06  0.2059E-06  0.2126E-06  0.2192E-06  0.2272E-06  0.2334E-06  0.2392E-06  0.2466E-06  0.2519E-06  0.2568E-06  0.2613E-06  0.2673E-06  0.2709E-06  0.2741E-06  0.2768E-06  0.2789E-06  0.2806E-06  0.2838E-06  0.2843E-06  0.2843E-06  0.2838E-06  0.2827E-06  0.2810E-06  0.2788E-06  0.2761E-06  0.2729E-06  0.2691E-06  0.2649E-06  0.2582E-06  0.2531E-06  0.2477E-06  0.2419E-06  0.2357E-06  0.2273E-06  0.2207E-06  0.2138E-06  0.2068E-06  0.1977E-06  0.1609E-06  0.1222E-06  0.7222E-07  0.2006E-07  0.0000E+00  0.0000E+00  0.0000E+00  0.0000E+00  0.0000E+00  0.0000E+00  0.0000E+00  0.0000E+00  0.0000E+00  0.0000E+00  0.0000E+00  0.0000E+00  0.0000E+00  0.0000E+00  0.0000E+00  0.0000E+00  0.0000E+00  0.0000E+00  0.0000E+00  0.0000E+00  0.0000E+00  0.0000E+00  0.0000E+00  0.0000E+00  0.0000E+00  0.0000E+00  0.0000E+00  0.0000E+00  0.0000E+00  0.0000E+00  0.0000E+00  0.0000E+00  0.0000E+00  0.0000E+00  0.0000E+00  0.3555E-08
  0.2173E-06  0.2252E-06  0.2348E-06  0.2425E-06  0.2500E-06  0.2592E-06  0.2662E-06  0.2730E-06  0.2813E-06  0.2874E-06  0.2930E-06  0.2982E-06  0.3050E-06  0.3092E-06  0.3129E-06  0.3160E-06  0.3185E-06  0.3227E-06  0.3240E-06  0.3247E-06  0.3248E-06  0.3242E-06  0.3229E-06  0.3211E-06  0.3186E-06  0.3155E-06  0.3118E-06  0.3075E-06  0.3027E-06  0.2974E-06  0.2916E-06  0.2831E-06  0.2765E-06  0.2695E-06  0.2621E-06  0.2524E-06  0.2445E-06  0.2364E-06  0.2281E-06  0.2178E-06  0.2094E-06  0.1990E-06  0.1610E-06  0.1129E-06  0.6354E-07  0.1679E-08  0.0000E+00  0.0000E+00  0.0000E+00  0.0000E+00  0.0000E+00  0.0000E+00  0.0000E+00  0.0000E+00  0.0000E+00  0.0000E+00  0.0000E+00  0.0000E+00  0.0000E+00  0.0000E+00  0.0000E+00  0.0000E+00  0.0000E+00  0.0000E+00  0.0000E+00  0.0000E+00  0.0000E+00  0.0000E+00  0.0000E+00  0.0000E+00  0.0000E+00  0.0000E+00  0.0000E+00  0.0000E+00  0.1912E-08  0.5916E-08  0.1208E-07  0.1661E-07  0.1939E-07
  0.2472E-06  0.2563E-06  0.2671E-06  0.2760E-06  0.2846E-06  0.2949E-06  0.3030E-06  0.3107E-06  0.3201E-06  0.3271E-06  0.3336E-06  0.3418E-06  0.3472E-06  0.3521E-06  0.3564E-06  0.3600E-06  0.3653E-06  0.3676E-06  0.3692E-06  0.3700E-06  0.3701E-06  0.3695E-06  0.3682E-06  0.3661E-06  0.3633E-06  0.3598E-06  0.3556E-06  0.3507E-06  0.3453E-06  0.3392E-06  0.3325E-06  0.3254E-06  0.3154E-06  0.3074E-06  0.2990E-06  0.2902E-06  0.2789E-06  0.2697E-06  0.2602E-06  0.2485E-06  0.2389E-06  0.2292E-06  0.2175E-06  0.2078E-06  0.1906E-06  0.1452E-06  0.8838E-07  0.2004E-07  0.0000E+00  0.0000E+00  0.0000E+00  0.0000E+00  0.0000E+00  0.0000E+00  0.0000E+00  0.0000E+00  0.0000E+00  0.0000E+00  0.0000E+00  0.0000E+00  0.0000E+00  0.0000E+00  0.0000E+00  0.0000E+00  0.0000E+00  0.0000E+00  0.0000E+00  0.0000E+00  0.0000E+00  0.0000E+00  0.0000E+00  0.4096E-08  0.8577E-08  0.1342E-07  0.1859E-07  0.2406E-07  0.2979E-07  0.3573E-07  0.4185E-07
  0.2807E-06  0.2911E-06  0.3032E-06  0.3134E-06  0.3232E-06  0.3349E-06  0.3441E-06  0.3530E-06  0.3637E-06  0.3717E-06  0.3791E-06  0.3884E-06  0.3947E-06  0.4003E-06  0.4053E-06  0.4119E-06  0.4154E-06  0.4181E-06  0.4200E-06  0.4210E-06  0.4212E-06  0.4206E-06  0.4217E-06  0.4194E-06  0.4162E-06  0.4123E-06  0.4075E-06  0.3994E-06  0.3932E-06  0.3862E-06  0.3787E-06  0.3705E-06  0.3618E-06  0.3525E-06  0.3405E-06  0.3304E-06  0.3201E-06  0.3071E-06  0.2963E-06  0.2853E-06  0.2721E-06  0.2609E-06  0.2478E-06  0.2367E-06  0.2238E-06  0.2130E-06  0.2005E-06  0.1605E-06  0.9690E-07  0.2899E-07  0.0000E+00  0.0000E+00  0.0000E+00  0.0000E+00  0.0000E+00  0.0000E+00  0.0000E+00  0.0000E+00  0.0000E+00  0.0000E+00  0.0000E+00  0.0000E+00  0.0000E+00  0.0000E+00  0.0000E+00  0.0000E+00  0.0000E+00  0.0000E+00  0.2251E-08  0.9283E-08  0.1466E-07  0.2051E-07  0.2918E-07  0.3589E-07  0.4292E-07  0.5024E-07  0.5778E-07  0.6549E-07  0.7331E-07
  0.3179E-06  0.3297E-06  0.3435E-06  0.3550E-06  0.3663E-06  0.3794E-06  0.3900E-06  0.4002E-06  0.4122E-06  0.4214E-06  0.4300E-06  0.4404E-06  0.4477E-06  0.4542E-06  0.4625E-06  0.4674E-06  0.4715E-06  0.4746E-06  0.4768E-06  0.4781E-06  0.4812E-06  0.4806E-06  0.4790E-06  0.4764E-06  0.4729E-06  0.4684E-06  0.4630E-06  0.4568E-06  0.4497E-06  0.4418E-06  0.4304E-06  0.4211E-06  0.4112E-06  0.4006E-06  0.3896E-06  0.3756E-06  0.3637E-06  0.3516E-06  0.3367E-06  0.3242E-06  0.3092E-06  0.2965E-06  0.2838E-06  0.2690E-06  0.2565E-06  0.2421E-06  0.2299E-06  0.2161E-06  0.2026E-06  0.1739E-06  0.1043E-06  0.2005E-07  0.0000E+00  0.0000E+00  0.0000E+00  0.0000E+00  0.0000E+00  0.0000E+00  0.0000E+00  0.0000E+00  0.0000E+00  0.0000E+00  0.0000E+00  0.0000E+00  0.0000E+00  0.2359E-08  0.7490E-08  0.1568E-07  0.2216E-07  0.3185E-07  0.3956E-07  0.4777E-07  0.5915E-07  0.6824E-07  0.7764E-07  0.8726E-07  0.1112E-06  0.1158E-06  0.1290E-06
  0.3592E-06  0.3727E-06  0.3860E-06  0.4014E-06  0.4142E-06  0.4290E-06  0.4411E-06  0.4528E-06  0.4663E-06  0.4769E-06  0.4867E-06  0.4985E-06  0.5068E-06  0.5143E-06  0.5237E-06  0.5295E-06  0.5342E-06  0.5379E-06  0.5405E-06  0.5451E-06  0.5456E-06  0.5449E-06  0.5432E-06  0.5404E-06  0.5364E-06  0.5314E-06  0.5253E-06  0.5183E-06  0.5102E-06  0.5013E-06  0.4914E-06  0.4779E-06  0.4666E-06  0.4546E-06  0.4420E-06  0.4289E-06  0.4126E-06  0.3988E-06  0.3820E-06  0.3677E-06  0.3532E-06  0.3363E-06  0.3218E-06  0.3051E-06  0.2908E-06  0.2745E-06  0.2607E-06  0.2451E-06  0.2319E-06  0.2171E-06  0.2028E-06  0.1732E-06  0.9602E-07  0.1676E-08  0.0000E+00  0.0000E+00  0.0000E+00  0.0000E+00  0.0000E+00  0.0000E+00  0.0000E+00  0.0000E+00  0.0000E+00  0.5177E-08  0.1382E-07  0.2073E-07  0.3118E-07  0.4266E-07  0.5209E-07  0.6217E-07  0.7592E-07  0.8722E-07  0.9894E-07  0.1272E-06  0.1337E-06  0.1602E-06  0.1666E-06  0.1816E-06  0.1965E-06
  0.4052E-06  0.4206E-06  0.4357E-06  0.4529E-06  0.4675E-06  0.4842E-06  0.4981E-06  0.5113E-06  0.5267E-06  0.5387E-06  0.5527E-06  0.5633E-06  0.5729E-06  0.5816E-06  0.5922E-06  0.5989E-06  0.6044E-06  0.6087E-06  0.6150E-06  0.6170E-06  0.6177E-06  0.6171E-06  0.6152E-06  0.6121E-06  0.6077E-06  0.6021E-06  0.5952E-06  0.5873E-06  0.5782E-06  0.5680E-06  0.5569E-06  0.5448E-06  0.5319E-06  0.5151E-06  0.5008E-06  0.4858E-06  0.4675E-06  0.4517E-06  0.4356E-06  0.4164E-06  0.4000E-06  0.3808E-06  0.3643E-06  0.3479E-06  0.3292E-06  0.3108E-06  0.2976E-06  0.2827E-06  0.2732E-06  0.2569E-06  0.2486E-06  0.2334E-06  0.2245E-06  0.1887E-06  0.9566E-07  0.3024E-07  0.3030E-07  0.3020E-07  0.2995E-07  0.2365E-07  0.2322E-07  0.2000E-07  0.1837E-07  0.2949E-07  0.3879E-07  0.5219E-07  0.6689E-07  0.7932E-07  0.9598E-07  0.1101E-06  0.1429E-06  0.1518E-06  0.1836E-06  0.1928E-06  0.2223E-06  0.2309E-06  0.2479E-06  0.2645E-06  0.2707E-06
  0.4537E-06  0.4734E-06  0.4906E-06  0.5100E-06  0.5266E-06  0.5454E-06  0.5612E-06  0.5763E-06  0.5936E-06  0.6074E-06  0.6232E-06  0.6353E-06  0.6464E-06  0.6595E-06  0.6684E-06  0.6761E-06  0.6825E-06  0.7089E-06  0.7134E-06  0.7164E-06  0.7179E-06  0.7179E-06  0.7163E-06  0.7131E-06  0.7084E-06  0.7022E-06  0.6945E-06  0.6853E-06  0.6748E-06  0.6629E-06  0.6499E-06  0.6356E-06  0.6203E-06  0.6041E-06  0.5664E-06  0.5495E-06  0.5319E-06  0.5107E-06  0.4924E-06  0.4737E-06  0.4521E-06  0.4332E-06  0.4116E-06  0.3983E-06  0.3829E-06  0.3708E-06  0.3542E-06  0.3382E-06  0.3283E-06  0.3170E-06  0.3022E-06  0.2925E-06  0.2767E-06  0.2703E-06  0.2557E-06  0.2000E-06  0.8661E-07  0.6672E-07  0.6641E-07  0.6575E-07  0.6492E-07  0.6553E-07  0.6124E-07  0.6639E-07  0.8024E-07  0.9915E-07  0.1156E-06  0.1563E-06  0.1684E-06  0.2060E-06  0.2190E-06  0.2549E-06  0.2675E-06  0.3003E-06  0.3114E-06  0.3307E-06  0.3491E-06  0.3565E-06  0.3710E-06
  0.5099E-06  0.5320E-06  0.5514E-06  0.5732E-06  0.5921E-06  0.6132E-06  0.6312E-06  0.6484E-06  0.6679E-06  0.6836E-06  0.7016E-06  0.7154E-06  0.7281E-06  0.7610E-06  0.7724E-06  0.7824E-06  0.7908E-06  0.8198E-06  0.8259E-06  0.8301E-06  0.8325E-06  0.8330E-06  0.8316E-06  0.8284E-06  0.8232E-06  0.8162E-06  0.8074E-06  0.7968E-06  0.7846E-06  0.7707E-06  0.7553E-06  0.7385E-06  0.6988E-06  0.6804E-06  0.6611E-06  0.6408E-06  0.6198E-06  0.5982E-06  0.5559E-06  0.5347E-06  0.5155E-06  0.5000E-06  0.4821E-06  0.4679E-06  0.4516E-06  0.4360E-06  0.4216E-06  0.4073E-06  0.3949E-06  0.3835E-06  0.3719E-06  0.3586E-06  0.3500E-06  0.3404E-06  0.3291E-06  0.3287E-06  0.3307E-06  0.2274E-06  0.1405E-06  0.1401E-06  0.1408E-06  0.1435E-06  0.1484E-06  0.1557E-06  0.1662E-06  0.1815E-06  0.2248E-06  0.2427E-06  0.2860E-06  0.3040E-06  0.3448E-06  0.3613E-06  0.3979E-06  0.4118E-06  0.4335E-06  0.4538E-06  0.4623E-06  0.4777E-06  0.4916E-06
  0.5717E-06  0.5964E-06  0.6185E-06  0.6429E-06  0.6643E-06  0.6851E-06  0.7085E-06  0.7281E-06  0.7501E-06  0.7680E-06  0.8062E-06  0.8235E-06  0.8394E-06  0.8765E-06  0.8908E-06  0.9034E-06  0.9143E-06  0.9461E-06  0.9539E-06  0.9595E-06  0.9629E-06  0.9640E-06  0.9629E-06  0.9595E-06  0.9538E-06  0.9458E-06  0.9356E-06  0.9233E-06  0.9089E-06  0.8926E-06  0.8519E-06  0.8328E-06  0.8123E-06  0.7905E-06  0.7674E-06  0.7433E-06  0.6966E-06  0.6774E-06  0.6556E-06  0.6365E-06  0.6178E-06  0.5798E-06  0.5639E-06  0.5425E-06  0.5284E-06  0.5125E-06  0.4978E-06  0.4872E-06  0.4751E-06  0.4669E-06  0.4634E-06  0.4617E-06  0.4464E-06  0.4333E-06  0.4476E-06  0.4334E-06  0.4208E-06  0.4060E-06  0.3612E-06  0.2099E-06  0.2135E-06  0.2192E-06  0.2275E-06  0.2391E-06  0.2600E-06  0.2975E-06  0.3360E-06  0.3863E-06  0.4103E-06  0.4568E-06  0.4779E-06  0.5188E-06  0.5358E-06  0.5600E-06  0.5822E-06  0.5917E-06  0.6077E-06  0.6216E-06  0.6241E-06
  0.6396E-06  0.6674E-06  0.6923E-06  0.7167E-06  0.7439E-06  0.7675E-06  0.7937E-06  0.8160E-06  0.8594E-06  0.8815E-06  0.9250E-06  0.9463E-06  0.9661E-06  0.1008E-05  0.1026E-05  0.1041E-05  0.1055E-05  0.1090E-05  0.1100E-05  0.1107E-05  0.1111E-05  0.1113E-05  0.1112E-05  0.1109E-05  0.1102E-05  0.1093E-05  0.1081E-05  0.1067E-05  0.1050E-05  0.1008E-05  0.9872E-06  0.9646E-06  0.9403E-06  0.9143E-06  0.8869E-06  0.8417E-06  0.8193E-06  0.7967E-06  0.7743E-06  0.7308E-06  0.7110E-06  0.6919E-06  0.6737E-06  0.6363E-06  0.6186E-06  0.6026E-06  0.5912E-06  0.5887E-06  0.5847E-06  0.5701E-06  0.5839E-06  0.5694E-06  0.5572E-06  0.5727E-06  0.5591E-06  0.5448E-06  0.5318E-06  0.5162E-06  0.5020E-06  0.4904E-06  0.3554E-06  0.3193E-06  0.3324E-06  0.3583E-06  0.4052E-06  0.4526E-06  0.5111E-06  0.5422E-06  0.5955E-06  0.6219E-06  0.6675E-06  0.6879E-06  0.7148E-06  0.7388E-06  0.7491E-06  0.7653E-06  0.7788E-06  0.7801E-06  0.7868E-06
  0.7144E-06  0.7425E-06  0.7735E-06  0.8011E-06  0.8316E-06  0.8583E-06  0.9065E-06  0.9337E-06  0.9835E-06  0.1010E-05  0.1060E-05  0.1086E-05  0.1134E-05  0.1158E-05  0.1179E-05  0.1199E-05  0.1216E-05  0.1254E-05  0.1266E-05  0.1275E-05  0.1281E-05  0.1283E-05  0.1283E-05  0.1279E-05  0.1271E-05  0.1260E-05  0.1246E-05  0.1206E-05  0.1187E-05  0.1165E-05  0.1140E-05  0.1114E-05  0.1085E-05  0.1033E-05  0.1008E-05  0.9845E-06  0.9584E-06  0.9322E-06  0.8847E-06  0.8610E-06  0.8382E-06  0.8164E-06  0.7755E-06  0.7583E-06  0.7427E-06  0.7292E-06  0.7122E-06  0.7238E-06  0.7078E-06  0.7263E-06  0.7134E-06  0.7006E-06  0.7209E-06  0.7087E-06  0.6957E-06  0.6816E-06  0.6685E-06  0.6543E-06  0.6427E-06  0.6339E-06  0.6301E-06  0.5732E-06  0.4809E-06  0.5387E-06  0.5968E-06  0.6653E-06  0.7049E-06  0.7659E-06  0.7984E-06  0.8493E-06  0.8735E-06  0.9031E-06  0.9288E-06  0.9395E-06  0.9555E-06  0.9680E-06  0.9672E-06  0.9716E-06  0.9733E-06
  0.7961E-06  0.8278E-06  0.8624E-06  0.8936E-06  0.9461E-06  0.9784E-06  0.1034E-05  0.1090E-05  0.1124E-05  0.1180E-05  0.1213E-05  0.1245E-05  0.1299E-05  0.1328E-05  0.1354E-05  0.1378E-05  0.1398E-05  0.1416E-05  0.1455E-05  0.1466E-05  0.1473E-05  0.1477E-05  0.1476E-05  0.1471E-05  0.1463E-05  0.1426E-05  0.1410E-05  0.1391E-05  0.1368E-05  0.1342E-05  0.1313E-05  0.1281E-05  0.1229E-05  0.1200E-05  0.1173E-05  0.1143E-05  0.1113E-05  0.1061E-05  0.1032E-05  0.1005E-05  0.9566E-06  0.9377E-06  0.9168E-06  0.9184E-06  0.8897E-06  0.8867E-06  0.9012E-06  0.8689E-06  0.8871E-06  0.8800E-06  0.8852E-06  0.8912E-06  0.8846E-06  0.8742E-06  0.8623E-06  0.8631E-06  0.8674E-06  0.8567E-06  0.8338E-06  0.8143E-06  0.8130E-06  0.8316E-06  0.8843E-06  0.7730E-06  0.8533E-06  0.9030E-06  0.9729E-06  0.1012E-05  0.1069E-05  0.1097E-05  0.1130E-05  0.1157E-05  0.1168E-05  0.1183E-05  0.1194E-05  0.1190E-05  0.1191E-05  0.1189E-05  0.1174E-05
  0.8825E-06  0.9212E-06  0.9565E-06  0.1015E-05  0.1075E-05  0.1138E-05  0.1178E-05  0.1243E-05  0.1283E-05  0.1348E-05  0.1388E-05  0.1426E-05  0.1487E-05  0.1522E-05  0.1553E-05  0.1582E-05  0.1607E-05  0.1628E-05  0.1645E-05  0.1684E-05  0.1693E-05  0.1671E-05  0.1670E-05  0.1665E-05  0.1656E-05  0.1641E-05  0.1623E-05  0.1600E-05  0.1573E-05  0.1542E-05  0.1488E-05  0.1458E-05  0.1426E-05  0.1392E-05  0.1358E-05  0.1299E-05  0.1265E-05  0.1232E-05  0.1200E-05  0.1146E-05  0.1118E-05  0.1107E-05  0.1084E-05  0.1076E-05  0.1087E-05  0.1102E-05  0.1086E-05  0.1094E-05  0.1068E-05  0.1096E-05  0.1091E-05  0.1087E-05  0.1083E-05  0.1105E-05  0.1095E-05  0.1086E-05  0.1080E-05  0.1074E-05  0.1070E-05  0.1055E-05  0.1059E-05  0.1123E-05  0.1190E-05  0.1266E-05  0.1143E-05  0.1223E-05  0.1271E-05  0.1334E-05  0.1366E-05  0.1402E-05  0.1430E-05  0.1440E-05  0.1454E-05  0.1462E-05  0.1454E-05  0.1450E-05  0.1443E-05  0.1422E-05  0.1399E-05
  0.9798E-06  0.1042E-05  0.1107E-05  0.1174E-05  0.1221E-05  0.1293E-05  0.1365E-05  0.1415E-05  0.1464E-05  0.1538E-05  0.1585E-05  0.1631E-05  0.1700E-05  0.1742E-05  0.1780E-05  0.1814E-05  0.1843E-05  0.1869E-05  0.1889E-05  0.1907E-05  0.1919E-05  0.1924E-05  0.1925E-05  0.1921E-05  0.1909E-05  0.1892E-05  0.1870E-05  0.1843E-05  0.1811E-05  0.1753E-05  0.1718E-05  0.1683E-05  0.1645E-05  0.1606E-05  0.1541E-05  0.1503E-05  0.1467E-05  0.1429E-05  0.1369E-05  0.1336E-05  0.1326E-05  0.1300E-05  0.1306E-05  0.1316E-05  0.1295E-05  0.1316E-05  0.1327E-05  0.1304E-05  0.1336E-05  0.1339E-05  0.1322E-05  0.1322E-05  0.1353E-05  0.1349E-05  0.1345E-05  0.1342E-05  0.1343E-05  0.1342E-05  0.1344E-05  0.1350E-05  0.1407E-05  0.1489E-05  0.1566E-05  0.1636E-05  0.1709E-05  0.1578E-05  0.1649E-05  0.1686E-05  0.1724E-05  0.1753E-05  0.1762E-05  0.1773E-05  0.1777E-05  0.1764E-05  0.1755E-05  0.1740E-05  0.1712E-05  0.1680E-05  0.1662E-05
  0.1105E-05  0.1177E-05  0.1251E-05  0.1329E-05  0.1409E-05  0.1467E-05  0.1551E-05  0.1610E-05  0.1695E-05  0.1753E-05  0.1809E-05  0.1890E-05  0.1943E-05  0.1992E-05  0.2040E-05  0.2082E-05  0.2120E-05  0.2152E-05  0.2178E-05  0.2199E-05  0.2213E-05  0.2221E-05  0.2223E-05  0.2216E-05  0.2204E-05  0.2184E-05  0.2160E-05  0.2103E-05  0.2072E-05  0.2035E-05  0.1994E-05  0.1955E-05  0.1881E-05  0.1836E-05  0.1788E-05  0.1738E-05  0.1665E-05  0.1620E-05  0.1580E-05  0.1579E-05  0.1564E-05  0.1567E-05  0.1562E-05  0.1570E-05  0.1564E-05  0.1592E-05  0.1573E-05  0.1610E-05  0.1619E-05  0.1607E-05  0.1632E-05  0.1635E-05  0.1644E-05  0.1649E-05  0.1655E-05  0.1660E-05  0.1667E-05  0.1678E-05  0.1703E-05  0.1769E-05  0.1851E-05  0.1944E-05  0.2026E-05  0.2112E-05  0.2160E-05  0.2207E-05  0.2072E-05  0.2112E-05  0.2142E-05  0.2148E-05  0.2156E-05  0.2154E-05  0.2135E-05  0.2117E-05  0.2094E-05  0.2055E-05  0.2013E-05  0.1984E-05  0.1936E-05
  0.1269E-05  0.1352E-05  0.1438E-05  0.1504E-05  0.1596E-05  0.1665E-05  0.1761E-05  0.1831E-05  0.1928E-05  0.1997E-05  0.2066E-05  0.2160E-05  0.2225E-05  0.2287E-05  0.2343E-05  0.2393E-05  0.2439E-05  0.2478E-05  0.2509E-05  0.2534E-05  0.2551E-05  0.2560E-05  0.2562E-05  0.2558E-05  0.2546E-05  0.2522E-05  0.2467E-05  0.2440E-05  0.2404E-05  0.2362E-05  0.2314E-05  0.2238E-05  0.2187E-05  0.2126E-05  0.2070E-05  0.1989E-05  0.1934E-05  0.1896E-05  0.1883E-05  0.1843E-05  0.1854E-05  0.1873E-05  0.1866E-05  0.1862E-05  0.1893E-05  0.1879E-05  0.1925E-05  0.1921E-05  0.1940E-05  0.1993E-05  0.1991E-05  0.2010E-05  0.2027E-05  0.2026E-05  0.2042E-05  0.2059E-05  0.2074E-05  0.2110E-05  0.2184E-05  0.2283E-05  0.2394E-05  0.2491E-05  0.2575E-05  0.2643E-05  0.2698E-05  0.2736E-05  0.2759E-05  0.2628E-05  0.2602E-05  0.2604E-05  0.2596E-05  0.2567E-05  0.2539E-05  0.2504E-05  0.2454E-05  0.2400E-05  0.2358E-05  0.2297E-05  0.2234E-05
  0.1428E-05  0.1524E-05  0.1623E-05  0.1726E-05  0.1807E-05  0.1915E-05  0.1998E-05  0.2109E-05  0.2195E-05  0.2281E-05  0.2364E-05  0.2471E-05  0.2549E-05  0.2620E-05  0.2687E-05  0.2747E-05  0.2802E-05  0.2847E-05  0.2889E-05  0.2920E-05  0.2940E-05  0.2952E-05  0.2954E-05  0.2955E-05  0.2918E-05  0.2897E-05  0.2868E-05  0.2831E-05  0.2788E-05  0.2739E-05  0.2658E-05  0.2601E-05  0.2541E-05  0.2478E-05  0.2394E-05  0.2311E-05  0.2256E-05  0.2225E-05  0.2228E-05  0.2217E-05  0.2190E-05  0.2201E-05  0.2210E-05  0.2222E-05  0.2237E-05  0.2290E-05  0.2295E-05  0.2325E-05  0.2388E-05  0.2401E-05  0.2430E-05  0.2440E-05  0.2473E-05  0.2504E-05  0.2513E-05  0.2541E-05  0.2583E-05  0.2671E-05  0.2789E-05  0.2921E-05  0.3036E-05  0.3132E-05  0.3211E-05  0.3269E-05  0.3310E-05  0.3321E-05  0.3340E-05  0.3319E-05  0.3181E-05  0.3107E-05  0.3067E-05  0.3026E-05  0.2979E-05  0.2915E-05  0.2846E-05  0.2789E-05  0.2710E-05  0.2631E-05  0.2550E-05
  0.1632E-05  0.1716E-05  0.1831E-05  0.1949E-05  0.2044E-05  0.2170E-05  0.2272E-05  0.2401E-05  0.2503E-05  0.2603E-05  0.2701E-05  0.2826E-05  0.2916E-05  0.3002E-05  0.3081E-05  0.3156E-05  0.3220E-05  0.3274E-05  0.3318E-05  0.3372E-05  0.3394E-05  0.3405E-05  0.3386E-05  0.3387E-05  0.3372E-05  0.3347E-05  0.3313E-05  0.3269E-05  0.3190E-05  0.3133E-05  0.3071E-05  0.3004E-05  0.2905E-05  0.2838E-05  0.2765E-05  0.2682E-05  0.2643E-05  0.2645E-05  0.2645E-05  0.2605E-05  0.2601E-05  0.2616E-05  0.2624E-05  0.2647E-05  0.2710E-05  0.2721E-05  0.2764E-05  0.2826E-05  0.2873E-05  0.2926E-05  0.2949E-05  0.2995E-05  0.3019E-05  0.3065E-05  0.3107E-05  0.3143E-05  0.3244E-05  0.3377E-05  0.3515E-05  0.3670E-05  0.3782E-05  0.3871E-05  0.3936E-05  0.3979E-05  0.3987E-05  0.4000E-05  0.3970E-05  0.3938E-05  0.3890E-05  0.3704E-05  0.3593E-05  0.3530E-05  0.3449E-05  0.3361E-05  0.3287E-05  0.3191E-05  0.3093E-05  0.2993E-05  0.2904E-05
  0.1833E-05  0.1959E-05  0.2063E-05  0.2202E-05  0.2345E-05  0.2464E-05  0.2583E-05  0.2731E-05  0.2851E-05  0.2970E-05  0.3085E-05  0.3228E-05  0.3337E-05  0.3438E-05  0.3532E-05  0.3614E-05  0.3707E-05  0.3769E-05  0.3841E-05  0.3880E-05  0.3906E-05  0.3900E-05  0.3913E-05  0.3907E-05  0.3889E-05  0.3859E-05  0.3818E-05  0.3738E-05  0.3679E-05  0.3612E-05  0.3538E-05  0.3431E-05  0.3349E-05  0.3269E-05  0.3172E-05  0.3134E-05  0.3140E-05  0.3129E-05  0.3092E-05  0.3075E-05  0.3095E-05  0.3091E-05  0.3129E-05  0.3152E-05  0.3213E-05  0.3264E-05  0.3339E-05  0.3402E-05  0.3473E-05  0.3514E-05  0.3580E-05  0.3623E-05  0.3688E-05  0.3726E-05  0.3799E-05  0.3917E-05  0.4052E-05  0.4216E-05  0.4392E-05  0.4524E-05  0.4627E-05  0.4702E-05  0.4747E-05  0.4752E-05  0.4759E-05  0.4719E-05  0.4671E-05  0.4607E-05  0.4517E-05  0.4437E-05  0.4206E-05  0.4055E-05  0.3946E-05  0.3850E-05  0.3733E-05  0.3613E-05  0.3491E-05  0.3380E-05  0.3250E-05
  0.2057E-05  0.2205E-05  0.2360E-05  0.2489E-05  0.2655E-05  0.2793E-05  0.2933E-05  0.3106E-05  0.3247E-05  0.3386E-05  0.3523E-05  0.3654E-05  0.3812E-05  0.3938E-05  0.4055E-05  0.4161E-05  0.4258E-05  0.4341E-05  0.4413E-05  0.4427E-05  0.4459E-05  0.4498E-05  0.4505E-05  0.4498E-05  0.4476E-05  0.4409E-05  0.4362E-05  0.4304E-05  0.4234E-05  0.4154E-05  0.4039E-05  0.3947E-05  0.3850E-05  0.3722E-05  0.3689E-05  0.3695E-05  0.3630E-05  0.3624E-05  0.3609E-05  0.3586E-05  0.3606E-05  0.3661E-05  0.3691E-05  0.3761E-05  0.3824E-05  0.3915E-05  0.4004E-05  0.4062E-05  0.4149E-05  0.4237E-05  0.4304E-05  0.4392E-05  0.4454E-05  0.4546E-05  0.4661E-05  0.4838E-05  0.5030E-05  0.5224E-05  0.5362E-05  0.5496E-05  0.5578E-05  0.5627E-05  0.5629E-05  0.5625E-05  0.5573E-05  0.5509E-05  0.5426E-05  0.5314E-05  0.5209E-05  0.5072E-05  0.4918E-05  0.4652E-05  0.4488E-05  0.4346E-05  0.4200E-05  0.4054E-05  0.3919E-05  0.3764E-05  0.3615E-05
  0.2342E-05  0.2484E-05  0.2663E-05  0.2816E-05  0.3007E-05  0.3169E-05  0.3365E-05  0.3531E-05  0.3698E-05  0.3861E-05  0.4019E-05  0.4181E-05  0.4368E-05  0.4524E-05  0.4660E-05  0.4785E-05  0.4852E-05  0.4962E-05  0.5033E-05  0.5088E-05  0.5137E-05  0.5170E-05  0.5178E-05  0.5170E-05  0.5112E-05  0.5072E-05  0.5015E-05  0.4945E-05  0.4831E-05  0.4740E-05  0.4639E-05  0.4530E-05  0.4387E-05  0.4320E-05  0.4324E-05  0.4272E-05  0.4239E-05  0.4223E-05  0.4180E-05  0.4211E-05  0.4266E-05  0.4285E-05  0.4379E-05  0.4428E-05  0.4560E-05  0.4668E-05  0.4747E-05  0.4857E-05  0.4948E-05  0.5101E-05  0.5217E-05  0.5307E-05  0.5424E-05  0.5545E-05  0.5729E-05  0.5932E-05  0.6171E-05  0.6336E-05  0.6472E-05  0.6557E-05  0.6625E-05  0.6624E-05  0.6610E-05  0.6544E-05  0.6457E-05  0.6352E-05  0.6217E-05  0.6085E-05  0.5920E-05  0.5744E-05  0.5560E-05  0.5357E-05  0.5067E-05  0.4863E-05  0.4687E-05  0.4524E-05  0.4341E-05  0.4166E-05  0.3993E-05
  0.2632E-05  0.2829E-05  0.3003E-05  0.3215E-05  0.3401E-05  0.3591E-05  0.3817E-05  0.4012E-05  0.4205E-05  0.4394E-05  0.4597E-05  0.4794E-05  0.4974E-05  0.5144E-05  0.5314E-05  0.5449E-05  0.5590E-05  0.5692E-05  0.5776E-05  0.5851E-05  0.5905E-05  0.5933E-05  0.5909E-05  0.5898E-05  0.5867E-05  0.5817E-05  0.5753E-05  0.5638E-05  0.5542E-05  0.5433E-05  0.5312E-05  0.5156E-05  0.5091E-05  0.5051E-05  0.4982E-05  0.4947E-05  0.4932E-05  0.4888E-05  0.4901E-05  0.4937E-05  0.4974E-05  0.5074E-05  0.5133E-05  0.5279E-05  0.5405E-05  0.5509E-05  0.5654E-05  0.5814E-05  0.5971E-05  0.6122E-05  0.6248E-05  0.6397E-05  0.6567E-05  0.6801E-05  0.6991E-05  0.7259E-05  0.7439E-05  0.7614E-05  0.7683E-05  0.7758E-05  0.7752E-05  0.7729E-05  0.7642E-05  0.7530E-05  0.7401E-05  0.7230E-05  0.7068E-05  0.6869E-05  0.6659E-05  0.6442E-05  0.6237E-05  0.6011E-05  0.5725E-05  0.5413E-05  0.5200E-05  0.4986E-05  0.4780E-05  0.4577E-05  0.4380E-05
  0.2958E-05  0.3184E-05  0.3387E-05  0.3631E-05  0.3848E-05  0.4072E-05  0.4332E-05  0.4558E-05  0.4798E-05  0.5038E-05  0.5263E-05  0.5482E-05  0.5703E-05  0.5902E-05  0.6086E-05  0.6255E-05  0.6405E-05  0.6524E-05  0.6632E-05  0.6716E-05  0.6770E-05  0.6767E-05  0.6775E-05  0.6760E-05  0.6721E-05  0.6660E-05  0.6551E-05  0.6454E-05  0.6339E-05  0.6177E-05  0.6042E-05  0.5929E-05  0.5905E-05  0.5803E-05  0.5763E-05  0.5702E-05  0.5684E-05  0.5674E-05  0.5676E-05  0.5756E-05  0.5859E-05  0.5927E-05  0.6105E-05  0.6227E-05  0.6390E-05  0.6566E-05  0.6762E-05  0.6957E-05  0.7125E-05  0.7316E-05  0.7481E-05  0.7714E-05  0.7976E-05  0.8228E-05  0.8507E-05  0.8713E-05  0.8909E-05  0.8995E-05  0.9074E-05  0.9043E-05  0.9011E-05  0.8903E-05  0.8772E-05  0.8607E-05  0.8395E-05  0.8187E-05  0.7940E-05  0.7686E-05  0.7437E-05  0.7183E-05  0.6915E-05  0.6646E-05  0.6380E-05  0.6058E-05  0.5710E-05  0.5463E-05  0.5227E-05  0.4998E-05  0.4788E-05
  0.3356E-05  0.3583E-05  0.3818E-05  0.4099E-05  0.4353E-05  0.4609E-05  0.4907E-05  0.5186E-05  0.5466E-05  0.5745E-05  0.6019E-05  0.6285E-05  0.6518E-05  0.6760E-05  0.6962E-05  0.7168E-05  0.7329E-05  0.7465E-05  0.7599E-05  0.7651E-05  0.7714E-05  0.7749E-05  0.7756E-05  0.7735E-05  0.7652E-05  0.7581E-05  0.7486E-05  0.7369E-05  0.7200E-05  0.7050E-05  0.6885E-05  0.6827E-05  0.6764E-05  0.6703E-05  0.6620E-05  0.6584E-05  0.6571E-05  0.6567E-05  0.6643E-05  0.6750E-05  0.6858E-05  0.7033E-05  0.7199E-05  0.7382E-05  0.7589E-05  0.7791E-05  0.8013E-05  0.8217E-05  0.8446E-05  0.8652E-05  0.8925E-05  0.9196E-05  0.9520E-05  0.9828E-05  0.1007E-04  0.1030E-04  0.1041E-04  0.1050E-04  0.1048E-04  0.1045E-04  0.1031E-04  0.1016E-04  0.9973E-05  0.9732E-05  0.9479E-05  0.9182E-05  0.8874E-05  0.8565E-05  0.8255E-05  0.7928E-05  0.7608E-05  0.7296E-05  0.7001E-05  0.6677E-05  0.6300E-05  0.5946E-05  0.5680E-05  0.5437E-05  0.5172E-05
  0.3768E-05  0.4031E-05  0.4341E-05  0.4626E-05  0.4920E-05  0.5264E-05  0.5586E-05  0.5922E-05  0.6248E-05  0.6571E-05  0.6877E-05  0.7173E-05  0.7467E-05  0.7721E-05  0.7978E-05  0.8190E-05  0.8375E-05  0.8543E-05  0.8646E-05  0.8748E-05  0.8817E-05  0.8856E-05  0.8860E-05  0.8797E-05  0.8740E-05  0.8654E-05  0.8539E-05  0.8367E-05  0.8208E-05  0.8029E-05  0.7899E-05  0.7861E-05  0.7766E-05  0.7675E-05  0.7634E-05  0.7614E-05  0.7607E-05  0.7700E-05  0.7784E-05  0.7911E-05  0.8069E-05  0.8232E-05  0.8421E-05  0.8625E-05  0.8883E-05  0.9141E-05  0.9386E-05  0.9661E-05  0.9923E-05  0.1023E-04  0.1056E-04  0.1091E-04  0.1124E-04  0.1155E-04  0.1179E-04  0.1195E-04  0.1203E-04  0.1203E-04  0.1199E-04  0.1184E-04  0.1167E-04  0.1143E-04  0.1116E-04  0.1089E-04  0.1055E-04  0.1020E-04  0.9855E-05  0.9491E-05  0.9106E-05  0.8718E-05  0.8347E-05  0.7980E-05  0.7613E-05  0.7266E-05  0.6882E-05  0.6498E-05  0.6151E-05  0.5849E-05  0.5566E-05
  0.4229E-05  0.4535E-05  0.4891E-05  0.5221E-05  0.5567E-05  0.5982E-05  0.6367E-05  0.6744E-05  0.7122E-05  0.7484E-05  0.7850E-05  0.8192E-05  0.8518E-05  0.8823E-05  0.9105E-05  0.9347E-05  0.9530E-05  0.9722E-05  0.9872E-05  0.9985E-05  0.1006E-04  0.1006E-04  0.1006E-04  0.1003E-04  0.9956E-05  0.9814E-05  0.9680E-05  0.9516E-05  0.9326E-05  0.9083E-05  0.9098E-05  0.8989E-05  0.8871E-05  0.8805E-05  0.8774E-05  0.8817E-05  0.8873E-05  0.8916E-05  0.9045E-05  0.9154E-05  0.9368E-05  0.9569E-05  0.9791E-05  0.1008E-04  0.1034E-04  0.1065E-04  0.1097E-04  0.1129E-04  0.1166E-04  0.1202E-04  0.1242E-04  0.1279E-04  0.1315E-04  0.1342E-04  0.1362E-04  0.1373E-04  0.1373E-04  0.1366E-04  0.1352E-04  0.1330E-04  0.1305E-04  0.1272E-04  0.1240E-04  0.1203E-04  0.1162E-04  0.1122E-04  0.1081E-04  0.1039E-04  0.9961E-05  0.9547E-05  0.9123E-05  0.8690E-05  0.8262E-05  0.7851E-05  0.7477E-05  0.7051E-05  0.6636E-05  0.6270E-05  0.5957E-05
  0.4747E-05  0.5138E-05  0.5507E-05  0.5896E-05  0.6328E-05  0.6805E-05  0.7238E-05  0.7674E-05  0.8110E-05  0.8529E-05  0.8937E-05  0.9342E-05  0.9704E-05  0.1007E-04  0.1037E-04  0.1061E-04  0.1088E-04  0.1109E-04  0.1125E-04  0.1138E-04  0.1142E-04  0.1146E-04  0.1146E-04  0.1141E-04  0.1128E-04  0.1116E-04  0.1100E-04  0.1077E-04  0.1055E-04  0.1048E-04  0.1038E-04  0.1025E-04  0.1021E-04  0.1018E-04  0.1016E-04  0.1016E-04  0.1020E-04  0.1032E-04  0.1042E-04  0.1063E-04  0.1083E-04  0.1107E-04  0.1137E-04  0.1167E-04  0.1202E-04  0.1237E-04  0.1275E-04  0.1315E-04  0.1359E-04  0.1404E-04  0.1446E-04  0.1487E-04  0.1519E-04  0.1543E-04  0.1556E-04  0.1558E-04  0.1551E-04  0.1535E-04  0.1510E-04  0.1482E-04  0.1445E-04  0.1409E-04  0.1364E-04  0.1319E-04  0.1272E-04  0.1225E-04  0.1176E-04  0.1128E-04  0.1081E-04  0.1033E-04  0.9856E-05  0.9393E-05  0.8934E-05  0.8498E-05  0.8052E-05  0.7587E-05  0.7129E-05  0.6709E-05  0.6346E-05
  0.5328E-05  0.5776E-05  0.6209E-05  0.6690E-05  0.7178E-05  0.7724E-05  0.8224E-05  0.8727E-05  0.9217E-05  0.9711E-05  0.1018E-04  0.1063E-04  0.1106E-04  0.1145E-04  0.1177E-04  0.1211E-04  0.1238E-04  0.1261E-04  0.1280E-04  0.1289E-04  0.1298E-04  0.1302E-04  0.1301E-04  0.1291E-04  0.1280E-04  0.1265E-04  0.1242E-04  0.1219E-04  0.1195E-04  0.1194E-04  0.1186E-04  0.1181E-04  0.1170E-04  0.1167E-04  0.1161E-04  0.1166E-04  0.1173E-04  0.1183E-04  0.1203E-04  0.1220E-04  0.1247E-04  0.1279E-04  0.1310E-04  0.1349E-04  0.1388E-04  0.1432E-04  0.1477E-04  0.1527E-04  0.1575E-04  0.1625E-04  0.1669E-04  0.1709E-04  0.1736E-04  0.1752E-04  0.1754E-04  0.1750E-04  0.1731E-04  0.1706E-04  0.1672E-04  0.1633E-04  0.1590E-04  0.1542E-04  0.1489E-04  0.1437E-04  0.1383E-04  0.1327E-04  0.1272E-04  0.1219E-04  0.1164E-04  0.1110E-04  0.1057E-04  0.1006E-04  0.9580E-05  0.9103E-05  0.8646E-05  0.8177E-05  0.7654E-05  0.7180E-05  0.6739E-05
  0.6022E-05  0.6500E-05  0.7031E-05  0.7587E-05  0.8150E-05  0.8761E-05  0.9337E-05  0.9915E-05  0.1049E-04  0.1103E-04  0.1158E-04  0.1209E-04  0.1253E-04  0.1297E-04  0.1339E-04  0.1375E-04  0.1407E-04  0.1432E-04  0.1449E-04  0.1464E-04  0.1473E-04  0.1476E-04  0.1470E-04  0.1462E-04  0.1449E-04  0.1427E-04  0.1405E-04  0.1378E-04  0.1371E-04  0.1369E-04  0.1352E-04  0.1343E-04  0.1337E-04  0.1329E-04  0.1328E-04  0.1333E-04  0.1341E-04  0.1359E-04  0.1374E-04  0.1400E-04  0.1429E-04  0.1465E-04  0.1507E-04  0.1549E-04  0.1602E-04  0.1652E-04  0.1708E-04  0.1761E-04  0.1815E-04  0.1865E-04  0.1911E-04  0.1943E-04  0.1963E-04  0.1968E-04  0.1963E-04  0.1944E-04  0.1918E-04  0.1880E-04  0.1837E-04  0.1788E-04  0.1735E-04  0.1675E-04  0.1617E-04  0.1555E-04  0.1491E-04  0.1429E-04  0.1369E-04  0.1307E-04  0.1246E-04  0.1186E-04  0.1128E-04  0.1074E-04  0.1020E-04  0.9684E-05  0.9179E-05  0.8687E-05  0.8207E-05  0.7682E-05  0.7174E-05
  0.6764E-05  0.7347E-05  0.7959E-05  0.8587E-05  0.9235E-05  0.9933E-05  0.1059E-04  0.1125E-04  0.1190E-04  0.1254E-04  0.1309E-04  0.1369E-04  0.1423E-04  0.1474E-04  0.1520E-04  0.1560E-04  0.1590E-04  0.1619E-04  0.1641E-04  0.1657E-04  0.1664E-04  0.1665E-04  0.1662E-04  0.1651E-04  0.1631E-04  0.1610E-04  0.1580E-04  0.1562E-04  0.1567E-04  0.1549E-04  0.1537E-04  0.1528E-04  0.1516E-04  0.1511E-04  0.1510E-04  0.1518E-04  0.1530E-04  0.1544E-04  0.1569E-04  0.1597E-04  0.1633E-04  0.1673E-04  0.1723E-04  0.1775E-04  0.1833E-04  0.1896E-04  0.1957E-04  0.2019E-04  0.2073E-04  0.2122E-04  0.2162E-04  0.2187E-04  0.2195E-04  0.2191E-04  0.2172E-04  0.2144E-04  0.2104E-04  0.2057E-04  0.2003E-04  0.1943E-04  0.1877E-04  0.1813E-04  0.1742E-04  0.1669E-04  0.1599E-04  0.1531E-04  0.1462E-04  0.1394E-04  0.1327E-04  0.1261E-04  0.1200E-04  0.1140E-04  0.1081E-04  0.1025E-04  0.9694E-05  0.9174E-05  0.8667E-05  0.8140E-05  0.7650E-05
  0.7632E-05  0.8303E-05  0.9008E-05  0.9729E-05  0.1046E-04  0.1121E-04  0.1196E-04  0.1272E-04  0.1345E-04  0.1417E-04  0.1486E-04  0.1553E-04  0.1614E-04  0.1672E-04  0.1722E-04  0.1762E-04  0.1800E-04  0.1832E-04  0.1857E-04  0.1870E-04  0.1879E-04  0.1881E-04  0.1870E-04  0.1858E-04  0.1840E-04  0.1815E-04  0.1790E-04  0.1788E-04  0.1772E-04  0.1757E-04  0.1738E-04  0.1729E-04  0.1720E-04  0.1713E-04  0.1716E-04  0.1718E-04  0.1733E-04  0.1752E-04  0.1780E-04  0.1815E-04  0.1855E-04  0.1909E-04  0.1962E-04  0.2025E-04  0.2090E-04  0.2161E-04  0.2227E-04  0.2293E-04  0.2345E-04  0.2393E-04  0.2421E-04  0.2436E-04  0.2432E-04  0.2416E-04  0.2384E-04  0.2344E-04  0.2290E-04  0.2233E-04  0.2165E-04  0.2094E-04  0.2021E-04  0.1944E-04  0.1864E-04  0.1785E-04  0.1708E-04  0.1630E-04  0.1554E-04  0.1479E-04  0.1406E-04  0.1337E-04  0.1269E-04  0.1204E-04  0.1141E-04  0.1079E-04  0.1021E-04  0.9653E-05  0.9112E-05  0.8576E-05  0.8053E-05
  0.8610E-05  0.9381E-05  0.1019E-04  0.1100E-04  0.1185E-04  0.1272E-04  0.1360E-04  0.1448E-04  0.1537E-04  0.1621E-04  0.1701E-04  0.1775E-04  0.1844E-04  0.1903E-04  0.1959E-04  0.2009E-04  0.2048E-04  0.2079E-04  0.2099E-04  0.2115E-04  0.2121E-04  0.2115E-04  0.2107E-04  0.2094E-04  0.2072E-04  0.2044E-04  0.2012E-04  0.2016E-04  0.2000E-04  0.1978E-04  0.1962E-04  0.1950E-04  0.1936E-04  0.1934E-04  0.1932E-04  0.1942E-04  0.1952E-04  0.1980E-04  0.2012E-04  0.2051E-04  0.2105E-04  0.2159E-04  0.2226E-04  0.2297E-04  0.2374E-04  0.2447E-04  0.2519E-04  0.2581E-04  0.2635E-04  0.2671E-04  0.2691E-04  0.2689E-04  0.2675E-04  0.2641E-04  0.2600E-04  0.2542E-04  0.2481E-04  0.2407E-04  0.2329E-04  0.2248E-04  0.2163E-04  0.2075E-04  0.1985E-04  0.1900E-04  0.1811E-04  0.1726E-04  0.1643E-04  0.1563E-04  0.1485E-04  0.1410E-04  0.1337E-04  0.1266E-04  0.1198E-04  0.1133E-04  0.1071E-04  0.1011E-04  0.9530E-05  0.8995E-05  0.8434E-05
  0.9715E-05  0.1060E-04  0.1152E-04  0.1252E-04  0.1355E-04  0.1461E-04  0.1562E-04  0.1664E-04  0.1762E-04  0.1861E-04  0.1949E-04  0.2032E-04  0.2106E-04  0.2176E-04  0.2236E-04  0.2289E-04  0.2328E-04  0.2367E-04  0.2388E-04  0.2404E-04  0.2402E-04  0.2396E-04  0.2381E-04  0.2351E-04  0.2324E-04  0.2288E-04  0.2273E-04  0.2271E-04  0.2245E-04  0.2225E-04  0.2203E-04  0.2187E-04  0.2177E-04  0.2169E-04  0.2173E-04  0.2177E-04  0.2199E-04  0.2224E-04  0.2262E-04  0.2312E-04  0.2369E-04  0.2438E-04  0.2513E-04  0.2596E-04  0.2676E-04  0.2757E-04  0.2827E-04  0.2888E-04  0.2929E-04  0.2957E-04  0.2961E-04  0.2948E-04  0.2915E-04  0.2872E-04  0.2811E-04  0.2742E-04  0.2665E-04  0.2578E-04  0.2491E-04  0.2396E-04  0.2301E-04  0.2202E-04  0.2108E-04  0.2010E-04  0.1916E-04  0.1822E-04  0.1732E-04  0.1646E-04  0.1561E-04  0.1480E-04  0.1402E-04  0.1326E-04  0.1254E-04  0.1185E-04  0.1118E-04  0.1056E-04  0.9967E-05  0.9374E-05  0.8823E-05
  0.1099E-04  0.1218E-04  0.1330E-04  0.1445E-04  0.1569E-04  0.1685E-04  0.1801E-04  0.1919E-04  0.2029E-04  0.2132E-04  0.2224E-04  0.2319E-04  0.2406E-04  0.2484E-04  0.2553E-04  0.2608E-04  0.2656E-04  0.2690E-04  0.2712E-04  0.2720E-04  0.2721E-04  0.2704E-04  0.2683E-04  0.2652E-04  0.2611E-04  0.2566E-04  0.2564E-04  0.2541E-04  0.2516E-04  0.2487E-04  0.2466E-04  0.2444E-04  0.2432E-04  0.2425E-04  0.2423E-04  0.2438E-04  0.2457E-04  0.2490E-04  0.2536E-04  0.2592E-04  0.2657E-04  0.2739E-04  0.2824E-04  0.2915E-04  0.2999E-04  0.3081E-04  0.3147E-04  0.3200E-04  0.3232E-04  0.3242E-04  0.3232E-04  0.3202E-04  0.3156E-04  0.3095E-04  0.3022E-04  0.2939E-04  0.2845E-04  0.2751E-04  0.2648E-04  0.2543E-04  0.2435E-04  0.2329E-04  0.2223E-04  0.2117E-04  0.2015E-04  0.1916E-04  0.1819E-04  0.1726E-04  0.1635E-04  0.1549E-04  0.1464E-04  0.1384E-04  0.1308E-04  0.1234E-04  0.1165E-04  0.1100E-04  0.1034E-04  0.9752E-05  0.9191E-05
  0.1275E-04  0.1404E-04  0.1535E-04  0.1673E-04  0.1810E-04  0.1948E-04  0.2083E-04  0.2217E-04  0.2343E-04  0.2463E-04  0.2576E-04  0.2683E-04  0.2773E-04  0.2843E-04  0.2906E-04  0.2966E-04  0.3016E-04  0.3046E-04  0.3068E-04  0.3076E-04  0.3067E-04  0.3050E-04  0.3021E-04  0.2979E-04  0.2933E-04  0.2896E-04  0.2883E-04  0.2845E-04  0.2802E-04  0.2771E-04  0.2742E-04  0.2721E-04  0.2700E-04  0.2695E-04  0.2700E-04  0.2710E-04  0.2737E-04  0.2777E-04  0.2828E-04  0.2893E-04  0.2975E-04  0.3066E-04  0.3161E-04  0.3254E-04  0.3342E-04  0.3418E-04  0.3480E-04  0.3520E-04  0.3536E-04  0.3530E-04  0.3503E-04  0.3458E-04  0.3394E-04  0.3318E-04  0.3227E-04  0.3129E-04  0.3025E-04  0.2915E-04  0.2799E-04  0.2684E-04  0.2568E-04  0.2452E-04  0.2337E-04  0.2226E-04  0.2114E-04  0.2007E-04  0.1905E-04  0.1806E-04  0.1710E-04  0.1620E-04  0.1528E-04  0.1441E-04  0.1359E-04  0.1283E-04  0.1211E-04  0.1139E-04  0.1076E-04  0.1012E-04  0.9519E-05
  0.1472E-04  0.1624E-04  0.1774E-04  0.1934E-04  0.2095E-04  0.2248E-04  0.2407E-04  0.2562E-04  0.2710E-04  0.2849E-04  0.2981E-04  0.3105E-04  0.3207E-04  0.3295E-04  0.3368E-04  0.3422E-04  0.3418E-04  0.3455E-04  0.3473E-04  0.3470E-04  0.3456E-04  0.3428E-04  0.3391E-04  0.3342E-04  0.3279E-04  0.3257E-04  0.3223E-04  0.3172E-04  0.3127E-04  0.3072E-04  0.3039E-04  0.3010E-04  0.2994E-04  0.2982E-04  0.2988E-04  0.3002E-04  0.3037E-04  0.3078E-04  0.3142E-04  0.3225E-04  0.3316E-04  0.3418E-04  0.3516E-04  0.3614E-04  0.3697E-04  0.3765E-04  0.3819E-04  0.3839E-04  0.3841E-04  0.3814E-04  0.3773E-04  0.3706E-04  0.3628E-04  0.3534E-04  0.3430E-04  0.3318E-04  0.3200E-04  0.3076E-04  0.2952E-04  0.2824E-04  0.2697E-04  0.2573E-04  0.2448E-04  0.2330E-04  0.2212E-04  0.2098E-04  0.1990E-04  0.1884E-04  0.1783E-04  0.1689E-04  0.1597E-04  0.1501E-04  0.1410E-04  0.1330E-04  0.1253E-04  0.1181E-04  0.1111E-04  0.1045E-04  0.9846E-05
  0.1701E-04  0.1869E-04  0.2048E-04  0.2232E-04  0.2411E-04  0.2601E-04  0.2788E-04  0.2968E-04  0.3136E-04  0.3296E-04  0.3449E-04  0.3576E-04  0.3693E-04  0.3791E-04  0.3873E-04  0.3931E-04  0.3972E-04  0.3985E-04  0.3965E-04  0.3906E-04  0.3884E-04  0.3852E-04  0.3805E-04  0.3731E-04  0.3664E-04  0.3638E-04  0.3587E-04  0.3527E-04  0.3466E-04  0.3411E-04  0.3359E-04  0.3322E-04  0.3295E-04  0.3292E-04  0.3294E-04  0.3318E-04  0.3351E-04  0.3407E-04  0.3482E-04  0.3578E-04  0.3683E-04  0.3789E-04  0.3887E-04  0.3984E-04  0.4061E-04  0.4124E-04  0.4154E-04  0.4163E-04  0.4140E-04  0.4100E-04  0.4033E-04  0.3953E-04  0.3855E-04  0.3747E-04  0.3627E-04  0.3500E-04  0.3370E-04  0.3233E-04  0.3099E-04  0.2960E-04  0.2826E-04  0.2692E-04  0.2560E-04  0.2433E-04  0.2307E-04  0.2188E-04  0.2073E-04  0.1962E-04  0.1856E-04  0.1757E-04  0.1660E-04  0.1568E-04  0.1471E-04  0.1375E-04  0.1295E-04  0.1218E-04  0.1146E-04  0.1079E-04  0.1016E-04
  0.1958E-04  0.2158E-04  0.2361E-04  0.2581E-04  0.2798E-04  0.3019E-04  0.3228E-04  0.3436E-04  0.3632E-04  0.3819E-04  0.3987E-04  0.4137E-04  0.4263E-04  0.4373E-04  0.4453E-04  0.4517E-04  0.4552E-04  0.4564E-04  0.4558E-04  0.4514E-04  0.4444E-04  0.4353E-04  0.4236E-04  0.4160E-04  0.4108E-04  0.4045E-04  0.3975E-04  0.3902E-04  0.3834E-04  0.3760E-04  0.3705E-04  0.3659E-04  0.3633E-04  0.3615E-04  0.3627E-04  0.3648E-04  0.3694E-04  0.3761E-04  0.3858E-04  0.3961E-04  0.4071E-04  0.4179E-04  0.4281E-04  0.4365E-04  0.4436E-04  0.4478E-04  0.4496E-04  0.4478E-04  0.4438E-04  0.4375E-04  0.4293E-04  0.4193E-04  0.4079E-04  0.3954E-04  0.3821E-04  0.3681E-04  0.3538E-04  0.3391E-04  0.3243E-04  0.3096E-04  0.2951E-04  0.2809E-04  0.2670E-04  0.2535E-04  0.2405E-04  0.2277E-04  0.2156E-04  0.2040E-04  0.1929E-04  0.1825E-04  0.1724E-04  0.1628E-04  0.1538E-04  0.1434E-04  0.1334E-04  0.1254E-04  0.1181E-04  0.1112E-04  0.1045E-04
  0.2256E-04  0.2490E-04  0.2731E-04  0.2974E-04  0.3238E-04  0.3486E-04  0.3742E-04  0.3973E-04  0.4211E-04  0.4421E-04  0.4613E-04  0.4777E-04  0.4926E-04  0.5046E-04  0.5132E-04  0.5198E-04  0.5227E-04  0.5236E-04  0.5198E-04  0.5159E-04  0.5078E-04  0.4964E-04  0.4844E-04  0.4694E-04  0.4573E-04  0.4479E-04  0.4401E-04  0.4299E-04  0.4218E-04  0.4138E-04  0.4077E-04  0.4027E-04  0.3995E-04  0.3985E-04  0.3989E-04  0.4016E-04  0.4072E-04  0.4153E-04  0.4254E-04  0.4361E-04  0.4475E-04  0.4581E-04  0.4679E-04  0.4754E-04  0.4809E-04  0.4832E-04  0.4826E-04  0.4791E-04  0.4732E-04  0.4648E-04  0.4547E-04  0.4429E-04  0.4298E-04  0.4159E-04  0.4010E-04  0.3859E-04  0.3702E-04  0.3546E-04  0.3385E-04  0.3232E-04  0.3076E-04  0.2926E-04  0.2779E-04  0.2636E-04  0.2501E-04  0.2366E-04  0.2242E-04  0.2119E-04  0.2002E-04  0.1894E-04  0.1788E-04  0.1688E-04  0.1594E-04  0.1506E-04  0.1396E-04  0.1291E-04  0.1214E-04  0.1141E-04  0.1069E-04
  0.2584E-04  0.2855E-04  0.3143E-04  0.3441E-04  0.3736E-04  0.4040E-04  0.4327E-04  0.4618E-04  0.4874E-04  0.5119E-04  0.5341E-04  0.5536E-04  0.5694E-04  0.5828E-04  0.5927E-04  0.5985E-04  0.6016E-04  0.6002E-04  0.5959E-04  0.5893E-04  0.5794E-04  0.5652E-04  0.5505E-04  0.5368E-04  0.5223E-04  0.5087E-04  0.4928E-04  0.4766E-04  0.4660E-04  0.4560E-04  0.4483E-04  0.4428E-04  0.4391E-04  0.4376E-04  0.4382E-04  0.4428E-04  0.4491E-04  0.4583E-04  0.4686E-04  0.4799E-04  0.4906E-04  0.5009E-04  0.5089E-04  0.5150E-04  0.5181E-04  0.5182E-04  0.5155E-04  0.5097E-04  0.5017E-04  0.4913E-04  0.4795E-04  0.4661E-04  0.4515E-04  0.4361E-04  0.4200E-04  0.4035E-04  0.3865E-04  0.3701E-04  0.3529E-04  0.3367E-04  0.3202E-04  0.3045E-04  0.2890E-04  0.2739E-04  0.2598E-04  0.2457E-04  0.2326E-04  0.2199E-04  0.2077E-04  0.1964E-04  0.1853E-04  0.1749E-04  0.1651E-04  0.1558E-04  0.1463E-04  0.1349E-04  0.1246E-04  0.1166E-04  0.1096E-04
  0.2956E-04  0.3290E-04  0.3629E-04  0.3979E-04  0.4331E-04  0.4674E-04  0.5027E-04  0.5353E-04  0.5655E-04  0.5941E-04  0.6200E-04  0.6424E-04  0.6604E-04  0.6754E-04  0.6862E-04  0.6929E-04  0.6939E-04  0.6917E-04  0.6862E-04  0.6767E-04  0.6624E-04  0.6474E-04  0.6297E-04  0.6130E-04  0.5967E-04  0.5773E-04  0.5601E-04  0.5412E-04  0.5252E-04  0.5106E-04  0.4982E-04  0.4923E-04  0.4891E-04  0.4879E-04  0.4908E-04  0.4952E-04  0.5022E-04  0.5097E-04  0.5197E-04  0.5283E-04  0.5374E-04  0.5465E-04  0.5529E-04  0.5564E-04  0.5563E-04  0.5537E-04  0.5479E-04  0.5402E-04  0.5298E-04  0.5179E-04  0.5042E-04  0.4888E-04  0.4731E-04  0.4559E-04  0.4389E-04  0.4211E-04  0.4034E-04  0.3854E-04  0.3676E-04  0.3501E-04  0.3332E-04  0.3166E-04  0.3005E-04  0.2848E-04  0.2700E-04  0.2551E-04  0.2413E-04  0.2283E-04  0.2155E-04  0.2033E-04  0.1921E-04  0.1814E-04  0.1709E-04  0.1615E-04  0.1524E-04  0.1418E-04  0.1298E-04  0.1195E-04  0.1122E-04
  0.3394E-04  0.3788E-04  0.4189E-04  0.4590E-04  0.5004E-04  0.5418E-04  0.5825E-04  0.6211E-04  0.6567E-04  0.6907E-04  0.7209E-04  0.7473E-04  0.7685E-04  0.7859E-04  0.7983E-04  0.8055E-04  0.8063E-04  0.8026E-04  0.7950E-04  0.7817E-04  0.7662E-04  0.7466E-04  0.7253E-04  0.7077E-04  0.6850E-04  0.6615E-04  0.6387E-04  0.6148E-04  0.5943E-04  0.5760E-04  0.5607E-04  0.5481E-04  0.5420E-04  0.5408E-04  0.5453E-04  0.5511E-04  0.5601E-04  0.5693E-04  0.5798E-04  0.5889E-04  0.5967E-04  0.6017E-04  0.6035E-04  0.6010E-04  0.5965E-04  0.5901E-04  0.5816E-04  0.5711E-04  0.5583E-04  0.5445E-04  0.5284E-04  0.5121E-04  0.4945E-04  0.4763E-04  0.4579E-04  0.4390E-04  0.4204E-04  0.4013E-04  0.3830E-04  0.3645E-04  0.3467E-04  0.3292E-04  0.3122E-04  0.2961E-04  0.2801E-04  0.2650E-04  0.2507E-04  0.2368E-04  0.2235E-04  0.2110E-04  0.1994E-04  0.1879E-04  0.1772E-04  0.1674E-04  0.1577E-04  0.1485E-04  0.1376E-04  0.1248E-04  0.1144E-04
  0.3897E-04  0.4346E-04  0.4818E-04  0.5300E-04  0.5789E-04  0.6281E-04  0.6757E-04  0.7210E-04  0.7647E-04  0.8051E-04  0.8413E-04  0.8727E-04  0.8981E-04  0.9186E-04  0.9329E-04  0.9397E-04  0.9407E-04  0.9367E-04  0.9262E-04  0.9109E-04  0.8920E-04  0.8670E-04  0.8456E-04  0.8208E-04  0.7931E-04  0.7646E-04  0.7344E-04  0.7051E-04  0.6775E-04  0.6526E-04  0.6325E-04  0.6190E-04  0.6095E-04  0.6053E-04  0.6060E-04  0.6128E-04  0.6214E-04  0.6323E-04  0.6419E-04  0.6512E-04  0.6579E-04  0.6610E-04  0.6603E-04  0.6551E-04  0.6465E-04  0.6349E-04  0.6218E-04  0.6088E-04  0.5943E-04  0.5775E-04  0.5590E-04  0.5387E-04  0.5174E-04  0.4974E-04  0.4775E-04  0.4577E-04  0.4378E-04  0.4181E-04  0.3987E-04  0.3796E-04  0.3609E-04  0.3427E-04  0.3248E-04  0.3080E-04  0.2913E-04  0.2759E-04  0.2604E-04  0.2458E-04  0.2322E-04  0.2191E-04  0.2069E-04  0.1950E-04  0.1840E-04  0.1735E-04  0.1634E-04  0.1540E-04  0.1445E-04  0.1325E-04  0.1194E-04
  0.4460E-04  0.4992E-04  0.5551E-04  0.6123E-04  0.6706E-04  0.7277E-04  0.7846E-04  0.8438E-04  0.8982E-04  0.9508E-04  0.9824E-04  0.1020E-03  0.1051E-03  0.1074E-03  0.1090E-03  0.1097E-03  0.1099E-03  0.1094E-03  0.1081E-03  0.1064E-03  0.1039E-03  0.1012E-03  0.9884E-04  0.9577E-04  0.9254E-04  0.8901E-04  0.8528E-04  0.8156E-04  0.7806E-04  0.7503E-04  0.7257E-04  0.7043E-04  0.6876E-04  0.6795E-04  0.6777E-04  0.6825E-04  0.6903E-04  0.7012E-04  0.7108E-04  0.7187E-04  0.7226E-04  0.7231E-04  0.7196E-04  0.7117E-04  0.7021E-04  0.6889E-04  0.6741E-04  0.6575E-04  0.6402E-04  0.6206E-04  0.6000E-04  0.5785E-04  0.5564E-04  0.5335E-04  0.5088E-04  0.4818E-04  0.4568E-04  0.4360E-04  0.4159E-04  0.3957E-04  0.3762E-04  0.3572E-04  0.3385E-04  0.3207E-04  0.3036E-04  0.2871E-04  0.2712E-04  0.2557E-04  0.2417E-04  0.2278E-04  0.2150E-04  0.2029E-04  0.1909E-04  0.1801E-04  0.1697E-04  0.1599E-04  0.1508E-04  0.1397E-04  0.1265E-04
  0.5124E-04  0.5751E-04  0.6390E-04  0.7076E-04  0.7761E-04  0.8491E-04  0.9242E-04  0.1011E-03  0.1105E-03  0.1176E-03  0.1255E-03  0.1293E-03  0.1326E-03  0.1358E-03  0.1374E-03  0.1385E-03  0.1387E-03  0.1374E-03  0.1359E-03  0.1337E-03  0.1315E-03  0.1285E-03  0.1240E-03  0.1198E-03  0.1143E-03  0.1092E-03  0.1014E-03  0.9539E-04  0.9151E-04  0.8761E-04  0.8399E-04  0.8051E-04  0.7811E-04  0.7664E-04  0.7612E-04  0.7617E-04  0.7686E-04  0.7783E-04  0.7868E-04  0.7923E-04  0.7937E-04  0.7926E-04  0.7867E-04  0.7771E-04  0.7635E-04  0.7470E-04  0.7277E-04  0.7071E-04  0.6866E-04  0.6643E-04  0.6416E-04  0.6172E-04  0.5920E-04  0.5666E-04  0.5412E-04  0.5164E-04  0.4915E-04  0.4657E-04  0.4348E-04  0.4133E-04  0.3932E-04  0.3728E-04  0.3537E-04  0.3349E-04  0.3169E-04  0.2995E-04  0.2832E-04  0.2668E-04  0.2518E-04  0.2375E-04  0.2239E-04  0.2111E-04  0.1987E-04  0.1872E-04  0.1767E-04  0.1661E-04  0.1565E-04  0.1466E-04  0.1346E-04
  0.5882E-04  0.6606E-04  0.7381E-04  0.8171E-04  0.9014E-04  0.9894E-04  0.1103E-03  0.1239E-03  0.1395E-03  0.1560E-03  0.1695E-03  0.1790E-03  0.1882E-03  0.1931E-03  0.1965E-03  0.2000E-03  0.2056E-03  0.2079E-03  0.2114E-03  0.2131E-03  0.2139E-03  0.2150E-03  0.2166E-03  0.2165E-03  0.2153E-03  0.2128E-03  0.2090E-03  0.2012E-03  0.1915E-03  0.1780E-03  0.1560E-03  0.1284E-03  0.1006E-03  0.8762E-04  0.8773E-04  0.8549E-04  0.8575E-04  0.8649E-04  0.8723E-04  0.8767E-04  0.8774E-04  0.8733E-04  0.8636E-04  0.8514E-04  0.8344E-04  0.8145E-04  0.7913E-04  0.7664E-04  0.7417E-04  0.7157E-04  0.6896E-04  0.6630E-04  0.6350E-04  0.6067E-04  0.5778E-04  0.5499E-04  0.5222E-04  0.4959E-04  0.4696E-04  0.4432E-04  0.4127E-04  0.3909E-04  0.3706E-04  0.3508E-04  0.3317E-04  0.3137E-04  0.2960E-04  0.2793E-04  0.2631E-04  0.2484E-04  0.2337E-04  0.2204E-04  0.2074E-04  0.1953E-04  0.1839E-04  0.1730E-04  0.1628E-04  0.1534E-04  0.1421E-04
  0.6730E-04  0.7587E-04  0.8466E-04  0.9381E-04  0.1041E-03  0.1161E-03  0.1325E-03  0.1527E-03  0.1803E-03  0.2132E-03  0.2479E-03  0.2796E-03  0.3049E-03  0.3222E-03  0.3348E-03  0.3440E-03  0.3572E-03  0.3722E-03  0.3886E-03  0.4070E-03  0.4279E-03  0.4503E-03  0.4739E-03  0.5008E-03  0.5290E-03  0.5577E-03  0.5862E-03  0.6088E-03  0.6158E-03  0.5965E-03  0.5202E-03  0.3599E-03  0.1679E-03  0.1103E-03  0.1024E-03  0.9796E-04  0.9663E-04  0.9680E-04  0.9720E-04  0.9736E-04  0.9718E-04  0.9644E-04  0.9526E-04  0.9377E-04  0.9183E-04  0.8942E-04  0.8678E-04  0.8389E-04  0.8084E-04  0.7780E-04  0.7482E-04  0.7175E-04  0.6862E-04  0.6539E-04  0.6218E-04  0.5904E-04  0.5593E-04  0.5291E-04  0.5006E-04  0.4722E-04  0.4460E-04  0.4171E-04  0.3904E-04  0.3692E-04  0.3486E-04  0.3296E-04  0.3106E-04  0.2934E-04  0.2762E-04  0.2605E-04  0.2449E-04  0.2308E-04  0.2173E-04  0.2042E-04  0.1922E-04  0.1807E-04  0.1699E-04  0.1598E-04  0.1485E-04
  0.7677E-04  0.8648E-04  0.9665E-04  0.1075E-03  0.1195E-03  0.1357E-03  0.1582E-03  0.1906E-03  0.2334E-03  0.2923E-03  0.3620E-03  0.4373E-03  0.4997E-03  0.5367E-03  0.5577E-03  0.5772E-03  0.5996E-03  0.6260E-03  0.6599E-03  0.6951E-03  0.7327E-03  0.7695E-03  0.8042E-03  0.8328E-03  0.8504E-03  0.8448E-03  0.8086E-03  0.7272E-03  0.5911E-03  0.4133E-03  0.2557E-03  0.1768E-03  0.1889E-03  0.2650E-03  0.1560E-03  0.1127E-03  0.1133E-03  0.1109E-03  0.1096E-03  0.1089E-03  0.1082E-03  0.1072E-03  0.1058E-03  0.1040E-03  0.1017E-03  0.9902E-04  0.9600E-04  0.9267E-04  0.8907E-04  0.8548E-04  0.8191E-04  0.7839E-04  0.7483E-04  0.7119E-04  0.6755E-04  0.6398E-04  0.6045E-04  0.5703E-04  0.5372E-04  0.5060E-04  0.4770E-04  0.4488E-04  0.4203E-04  0.3922E-04  0.3685E-04  0.3473E-04  0.3278E-04  0.3088E-04  0.2911E-04  0.2736E-04  0.2580E-04  0.2425E-04  0.2283E-04  0.2142E-04  0.2017E-04  0.1896E-04  0.1777E-04  0.1669E-04  0.1564E-04
  0.8686E-04  0.9791E-04  0.1095E-03  0.1221E-03  0.1372E-03  0.1558E-03  0.1856E-03  0.2299E-03  0.2921E-03  0.3786E-03  0.4917E-03  0.6274E-03  0.7429E-03  0.8042E-03  0.8256E-03  0.8325E-03  0.8424E-03  0.8600E-03  0.8790E-03  0.8944E-03  0.9053E-03  0.9015E-03  0.8781E-03  0.8301E-03  0.7546E-03  0.6494E-03  0.5228E-03  0.3965E-03  0.3018E-03  0.2530E-03  0.2233E-03  0.2541E-03  0.5971E-03  0.3464E-03  0.2409E-03  0.1289E-03  0.1308E-03  0.1308E-03  0.1274E-03  0.1244E-03  0.1221E-03  0.1202E-03  0.1183E-03  0.1160E-03  0.1134E-03  0.1104E-03  0.1070E-03  0.1032E-03  0.9915E-04  0.9488E-04  0.9059E-04  0.8637E-04  0.8232E-04  0.7805E-04  0.7397E-04  0.6980E-04  0.6575E-04  0.6197E-04  0.5824E-04  0.5468E-04  0.5132E-04  0.4814E-04  0.4525E-04  0.4228E-04  0.3946E-04  0.3697E-04  0.3478E-04  0.3276E-04  0.3080E-04  0.2898E-04  0.2725E-04  0.2561E-04  0.2405E-04  0.2260E-04  0.2122E-04  0.1993E-04  0.1867E-04  0.1752E-04  0.1642E-04
  0.9771E-04  0.1101E-03  0.1230E-03  0.1370E-03  0.1546E-03  0.1778E-03  0.2138E-03  0.2685E-03  0.3461E-03  0.4571E-03  0.6065E-03  0.7919E-03  0.9570E-03  0.1033E-02  0.1037E-02  0.1003E-02  0.9642E-03  0.9296E-03  0.8972E-03  0.8580E-03  0.8031E-03  0.7362E-03  0.6523E-03  0.5584E-03  0.4635E-03  0.3835E-03  0.3315E-03  0.3087E-03  0.2973E-03  0.2668E-03  0.2954E-03  0.6902E-03  0.5531E-03  0.4441E-03  0.3259E-03  0.1583E-03  0.1458E-03  0.1510E-03  0.1498E-03  0.1453E-03  0.1407E-03  0.1370E-03  0.1337E-03  0.1307E-03  0.1275E-03  0.1240E-03  0.1201E-03  0.1158E-03  0.1113E-03  0.1065E-03  0.1014E-03  0.9643E-04  0.9153E-04  0.8673E-04  0.8191E-04  0.7712E-04  0.7249E-04  0.6825E-04  0.6398E-04  0.5995E-04  0.5625E-04  0.5266E-04  0.4927E-04  0.4609E-04  0.4307E-04  0.4024E-04  0.3760E-04  0.3533E-04  0.3319E-04  0.3124E-04  0.2930E-04  0.2752E-04  0.2583E-04  0.2429E-04  0.2275E-04  0.2136E-04  0.2000E-04  0.1876E-04  0.1768E-04
  0.1091E-03  0.1229E-03  0.1369E-03  0.1522E-03  0.1715E-03  0.1979E-03  0.2387E-03  0.2995E-03  0.3866E-03  0.5094E-03  0.6756E-03  0.8791E-03  0.1068E-02  0.1145E-02  0.1118E-02  0.1031E-02  0.9276E-03  0.8288E-03  0.7403E-03  0.6576E-03  0.5766E-03  0.4982E-03  0.4295E-03  0.3814E-03  0.3532E-03  0.3511E-03  0.3545E-03  0.3440E-03  0.3017E-03  0.3247E-03  0.6650E-03  0.7833E-03  0.5720E-03  0.5151E-03  0.4021E-03  0.2048E-03  0.1618E-03  0.1689E-03  0.1726E-03  0.1700E-03  0.1643E-03  0.1584E-03  0.1535E-03  0.1492E-03  0.1452E-03  0.1413E-03  0.1369E-03  0.1322E-03  0.1271E-03  0.1217E-03  0.1160E-03  0.1100E-03  0.1042E-03  0.9843E-04  0.9277E-04  0.8717E-04  0.8181E-04  0.7667E-04  0.7170E-04  0.6705E-04  0.6275E-04  0.5882E-04  0.5500E-04  0.5140E-04  0.4797E-04  0.4474E-04  0.4180E-04  0.3902E-04  0.3660E-04  0.3438E-04  0.3225E-04  0.3028E-04  0.2845E-04  0.2666E-04  0.2501E-04  0.2339E-04  0.2187E-04  0.2042E-04  0.1901E-04
  0.1209E-03  0.1357E-03  0.1507E-03  0.1672E-03  0.1868E-03  0.2159E-03  0.2588E-03  0.3205E-03  0.4089E-03  0.5296E-03  0.6880E-03  0.8761E-03  0.1053E-02  0.1120E-02  0.1077E-02  0.9587E-03  0.8178E-03  0.6852E-03  0.5773E-03  0.4948E-03  0.4342E-03  0.3966E-03  0.3830E-03  0.3852E-03  0.3945E-03  0.4006E-03  0.3805E-03  0.3317E-03  0.3466E-03  0.6230E-03  0.9049E-03  0.6787E-03  0.6320E-03  0.5729E-03  0.4668E-03  0.2589E-03  0.1844E-03  0.1861E-03  0.1929E-03  0.1946E-03  0.1906E-03  0.1842E-03  0.1781E-03  0.1729E-03  0.1686E-03  0.1644E-03  0.1599E-03  0.1550E-03  0.1497E-03  0.1435E-03  0.1368E-03  0.1297E-03  0.1226E-03  0.1155E-03  0.1084E-03  0.1016E-03  0.9488E-04  0.8862E-04  0.8252E-04  0.7689E-04  0.7180E-04  0.6695E-04  0.6252E-04  0.5847E-04  0.5454E-04  0.5081E-04  0.4734E-04  0.4423E-04  0.4142E-04  0.3874E-04  0.3641E-04  0.3414E-04  0.3194E-04  0.2975E-04  0.2765E-04  0.2573E-04  0.2392E-04  0.2219E-04  0.2058E-04
  0.1327E-03  0.1485E-03  0.1644E-03  0.1805E-03  0.2017E-03  0.2308E-03  0.2714E-03  0.3314E-03  0.4131E-03  0.5223E-03  0.6589E-03  0.8118E-03  0.9483E-03  0.1010E-02  0.9759E-03  0.8716E-03  0.7388E-03  0.6164E-03  0.5218E-03  0.4655E-03  0.4429E-03  0.4406E-03  0.4477E-03  0.4557E-03  0.4479E-03  0.4144E-03  0.3641E-03  0.3717E-03  0.5848E-03  0.9249E-03  0.8221E-03  0.6988E-03  0.6743E-03  0.6260E-03  0.5246E-03  0.3169E-03  0.2144E-03  0.2045E-03  0.2113E-03  0.2167E-03  0.2164E-03  0.2118E-03  0.2062E-03  0.2012E-03  0.1974E-03  0.1939E-03  0.1899E-03  0.1850E-03  0.1791E-03  0.1722E-03  0.1644E-03  0.1557E-03  0.1469E-03  0.1379E-03  0.1291E-03  0.1206E-03  0.1125E-03  0.1048E-03  0.9746E-04  0.9074E-04  0.8483E-04  0.7906E-04  0.7367E-04  0.6872E-04  0.6403E-04  0.5963E-04  0.5547E-04  0.5151E-04  0.4783E-04  0.4450E-04  0.4144E-04  0.3855E-04  0.3577E-04  0.3309E-04  0.3078E-04  0.2848E-04  0.2630E-04  0.2428E-04  0.2241E-04
  0.1442E-03  0.1608E-03  0.1772E-03  0.1933E-03  0.2148E-03  0.2418E-03  0.2797E-03  0.3338E-03  0.4053E-03  0.4983E-03  0.6087E-03  0.7270E-03  0.8285E-03  0.8851E-03  0.8768E-03  0.8160E-03  0.7247E-03  0.6366E-03  0.5736E-03  0.5424E-03  0.5338E-03  0.5373E-03  0.5310E-03  0.5054E-03  0.4592E-03  0.4060E-03  0.4024E-03  0.5673E-03  0.8915E-03  0.9509E-03  0.7579E-03  0.7656E-03  0.7102E-03  0.6821E-03  0.5803E-03  0.3756E-03  0.2505E-03  0.2249E-03  0.2293E-03  0.2359E-03  0.2394E-03  0.2380E-03  0.2338E-03  0.2301E-03  0.2280E-03  0.2261E-03  0.2233E-03  0.2188E-03  0.2127E-03  0.2054E-03  0.1966E-03  0.1868E-03  0.1763E-03  0.1655E-03  0.1547E-03  0.1441E-03  0.1345E-03  0.1251E-03  0.1162E-03  0.1081E-03  0.1006E-03  0.9362E-04  0.8704E-04  0.8091E-04  0.7512E-04  0.6979E-04  0.6464E-04  0.6017E-04  0.5579E-04  0.5165E-04  0.4770E-04  0.4395E-04  0.4048E-04  0.3722E-04  0.3417E-04  0.3132E-04  0.2874E-04  0.2637E-04  0.2417E-04
  0.1553E-03  0.1723E-03  0.1889E-03  0.2049E-03  0.2252E-03  0.2500E-03  0.2829E-03  0.3311E-03  0.3921E-03  0.4680E-03  0.5550E-03  0.6467E-03  0.7269E-03  0.7805E-03  0.8035E-03  0.7900E-03  0.7478E-03  0.6950E-03  0.6533E-03  0.6409E-03  0.6345E-03  0.6187E-03  0.5815E-03  0.5239E-03  0.4621E-03  0.4474E-03  0.5731E-03  0.8651E-03  0.1031E-02  0.8763E-03  0.8189E-03  0.8328E-03  0.7620E-03  0.7455E-03  0.6391E-03  0.4370E-03  0.2917E-03  0.2498E-03  0.2483E-03  0.2542E-03  0.2598E-03  0.2610E-03  0.2582E-03  0.2546E-03  0.2538E-03  0.2537E-03  0.2528E-03  0.2501E-03  0.2449E-03  0.2380E-03  0.2295E-03  0.2193E-03  0.2080E-03  0.1959E-03  0.1834E-03  0.1713E-03  0.1595E-03  0.1484E-03  0.1379E-03  0.1282E-03  0.1192E-03  0.1106E-03  0.1027E-03  0.9546E-04  0.8867E-04  0.8207E-04  0.7591E-04  0.7014E-04  0.6466E-04  0.5941E-04  0.5438E-04  0.4967E-04  0.4534E-04  0.4138E-04  0.3771E-04  0.3460E-04  0.3152E-04  0.2875E-04  0.2621E-04
  0.1655E-03  0.1827E-03  0.1991E-03  0.2147E-03  0.2330E-03  0.2553E-03  0.2845E-03  0.3247E-03  0.3762E-03  0.4395E-03  0.5088E-03  0.5817E-03  0.6502E-03  0.7076E-03  0.7506E-03  0.7689E-03  0.7636E-03  0.7446E-03  0.7223E-03  0.7093E-03  0.6966E-03  0.6602E-03  0.6008E-03  0.5360E-03  0.5132E-03  0.6052E-03  0.8579E-03  0.1086E-02  0.1026E-02  0.8967E-03  0.9302E-03  0.8910E-03  0.8190E-03  0.7964E-03  0.6854E-03  0.4892E-03  0.3331E-03  0.2758E-03  0.2691E-03  0.2747E-03  0.2804E-03  0.2796E-03  0.2742E-03  0.2714E-03  0.2716E-03  0.2732E-03  0.2744E-03  0.2741E-03  0.2706E-03  0.2651E-03  0.2582E-03  0.2490E-03  0.2380E-03  0.2256E-03  0.2124E-03  0.1993E-03  0.1859E-03  0.1734E-03  0.1614E-03  0.1501E-03  0.1396E-03  0.1296E-03  0.1206E-03  0.1118E-03  0.1035E-03  0.9561E-04  0.8819E-04  0.8103E-04  0.7412E-04  0.6750E-04  0.6131E-04  0.5585E-04  0.5059E-04  0.4586E-04  0.4154E-04  0.3760E-04  0.3404E-04  0.3086E-04  0.2799E-04
  0.1745E-03  0.1913E-03  0.2073E-03  0.2222E-03  0.2382E-03  0.2583E-03  0.2831E-03  0.3190E-03  0.3621E-03  0.4151E-03  0.4731E-03  0.5343E-03  0.5965E-03  0.6542E-03  0.7052E-03  0.7448E-03  0.7662E-03  0.7705E-03  0.7615E-03  0.7469E-03  0.7262E-03  0.6855E-03  0.6345E-03  0.6147E-03  0.6840E-03  0.8909E-03  0.1127E-02  0.1148E-02  0.9865E-03  0.9527E-03  0.9747E-03  0.8832E-03  0.8309E-03  0.8111E-03  0.7056E-03  0.5245E-03  0.3678E-03  0.3028E-03  0.2916E-03  0.2953E-03  0.2948E-03  0.2893E-03  0.2840E-03  0.2817E-03  0.2823E-03  0.2847E-03  0.2872E-03  0.2889E-03  0.2881E-03  0.2846E-03  0.2796E-03  0.2724E-03  0.2629E-03  0.2515E-03  0.2387E-03  0.2253E-03  0.2115E-03  0.1978E-03  0.1848E-03  0.1723E-03  0.1605E-03  0.1497E-03  0.1390E-03  0.1288E-03  0.1190E-03  0.1097E-03  0.1007E-03  0.9181E-04  0.8350E-04  0.7569E-04  0.6827E-04  0.6151E-04  0.5541E-04  0.4986E-04  0.4489E-04  0.4043E-04  0.3644E-04  0.3283E-04  0.2987E-04
  0.1823E-03  0.1992E-03  0.2150E-03  0.2295E-03  0.2446E-03  0.2622E-03  0.2840E-03  0.3137E-03  0.3507E-03  0.3962E-03  0.4469E-03  0.5004E-03  0.5563E-03  0.6136E-03  0.6695E-03  0.7190E-03  0.7590E-03  0.7859E-03  0.7988E-03  0.7986E-03  0.7822E-03  0.7491E-03  0.7260E-03  0.7641E-03  0.9147E-03  0.1127E-02  0.1202E-02  0.1064E-02  0.9503E-03  0.9760E-03  0.9513E-03  0.8498E-03  0.8237E-03  0.8056E-03  0.7111E-03  0.5485E-03  0.3971E-03  0.3280E-03  0.3093E-03  0.3074E-03  0.3017E-03  0.2946E-03  0.2893E-03  0.2869E-03  0.2873E-03  0.2899E-03  0.2930E-03  0.2960E-03  0.2973E-03  0.2960E-03  0.2929E-03  0.2881E-03  0.2810E-03  0.2714E-03  0.2599E-03  0.2471E-03  0.2337E-03  0.2199E-03  0.2063E-03  0.1932E-03  0.1806E-03  0.1687E-03  0.1568E-03  0.1453E-03  0.1341E-03  0.1230E-03  0.1122E-03  0.1018E-03  0.9195E-04  0.8270E-04  0.7423E-04  0.6657E-04  0.5966E-04  0.5344E-04  0.4788E-04  0.4310E-04  0.3881E-04  0.3488E-04  0.3141E-04
  0.1886E-03  0.2049E-03  0.2204E-03  0.2346E-03  0.2489E-03  0.2658E-03  0.2852E-03  0.3119E-03  0.3442E-03  0.3846E-03  0.4308E-03  0.4804E-03  0.5353E-03  0.5947E-03  0.6575E-03  0.7189E-03  0.7732E-03  0.8146E-03  0.8384E-03  0.8415E-03  0.8260E-03  0.8102E-03  0.8272E-03  0.9326E-03  0.1110E-02  0.1215E-02  0.1125E-02  0.9693E-03  0.9437E-03  0.9721E-03  0.9036E-03  0.8160E-03  0.8128E-03  0.7980E-03  0.7131E-03  0.5685E-03  0.4258E-03  0.3491E-03  0.3219E-03  0.3128E-03  0.3042E-03  0.2969E-03  0.2917E-03  0.2890E-03  0.2891E-03  0.2911E-03  0.2943E-03  0.2976E-03  0.3000E-03  0.3002E-03  0.2990E-03  0.2966E-03  0.2917E-03  0.2845E-03  0.2749E-03  0.2637E-03  0.2513E-03  0.2378E-03  0.2243E-03  0.2111E-03  0.1980E-03  0.1854E-03  0.1726E-03  0.1598E-03  0.1470E-03  0.1342E-03  0.1217E-03  0.1100E-03  0.9875E-04  0.8845E-04  0.7916E-04  0.7073E-04  0.6318E-04  0.5648E-04  0.5072E-04  0.4538E-04  0.4065E-04  0.3642E-04  0.3272E-04
  0.1926E-03  0.2089E-03  0.2244E-03  0.2390E-03  0.2539E-03  0.2696E-03  0.2898E-03  0.3159E-03  0.3489E-03  0.3894E-03  0.4386E-03  0.4907E-03  0.5458E-03  0.6035E-03  0.6615E-03  0.7186E-03  0.7704E-03  0.8114E-03  0.8355E-03  0.8400E-03  0.8461E-03  0.8678E-03  0.9510E-03  0.1100E-02  0.1217E-02  0.1176E-02  0.1018E-02  0.9317E-03  0.9607E-03  0.9587E-03  0.8585E-03  0.7945E-03  0.8053E-03  0.7912E-03  0.7172E-03  0.5891E-03  0.4480E-03  0.3623E-03  0.3257E-03  0.3116E-03  0.3023E-03  0.2955E-03  0.2910E-03  0.2884E-03  0.2879E-03  0.2894E-03  0.2923E-03  0.2955E-03  0.2983E-03  0.2995E-03  0.2996E-03  0.2989E-03  0.2960E-03  0.2910E-03  0.2838E-03  0.2744E-03  0.2632E-03  0.2509E-03  0.2380E-03  0.2250E-03  0.2118E-03  0.1984E-03  0.1851E-03  0.1710E-03  0.1567E-03  0.1425E-03  0.1287E-03  0.1159E-03  0.1038E-03  0.9277E-04  0.8282E-04  0.7390E-04  0.6594E-04  0.5909E-04  0.5276E-04  0.4709E-04  0.4214E-04  0.3773E-04  0.3384E-04
  0.1955E-03  0.2126E-03  0.2293E-03  0.2465E-03  0.2652E-03  0.2855E-03  0.3107E-03  0.3398E-03  0.3735E-03  0.4124E-03  0.4563E-03  0.5031E-03  0.5506E-03  0.5993E-03  0.6472E-03  0.6942E-03  0.7377E-03  0.7734E-03  0.7968E-03  0.8236E-03  0.8616E-03  0.9458E-03  0.1085E-02  0.1214E-02  0.1216E-02  0.1079E-02  0.9524E-03  0.9495E-03  0.9891E-03  0.9457E-03  0.8348E-03  0.7937E-03  0.8090E-03  0.7944E-03  0.7260E-03  0.6053E-03  0.4656E-03  0.3714E-03  0.3251E-03  0.3063E-03  0.2985E-03  0.2924E-03  0.2883E-03  0.2859E-03  0.2851E-03  0.2861E-03  0.2883E-03  0.2911E-03  0.2941E-03  0.2961E-03  0.2967E-03  0.2965E-03  0.2954E-03  0.2922E-03  0.2868E-03  0.2794E-03  0.2697E-03  0.2587E-03  0.2468E-03  0.2342E-03  0.2211E-03  0.2074E-03  0.1931E-03  0.1782E-03  0.1628E-03  0.1476E-03  0.1330E-03  0.1196E-03  0.1070E-03  0.9557E-04  0.8529E-04  0.7607E-04  0.6783E-04  0.6079E-04  0.5423E-04  0.4841E-04  0.4328E-04  0.3875E-04  0.3470E-04
  0.2018E-03  0.2231E-03  0.2445E-03  0.2659E-03  0.2872E-03  0.3089E-03  0.3335E-03  0.3601E-03  0.3896E-03  0.4226E-03  0.4589E-03  0.4975E-03  0.5363E-03  0.5751E-03  0.6138E-03  0.6507E-03  0.6860E-03  0.7174E-03  0.7564E-03  0.8079E-03  0.8982E-03  0.1041E-02  0.1186E-02  0.1229E-02  0.1127E-02  0.9723E-03  0.9230E-03  0.9811E-03  0.1018E-02  0.9429E-03  0.8395E-03  0.8136E-03  0.8278E-03  0.8066E-03  0.7357E-03  0.6184E-03  0.4800E-03  0.3786E-03  0.3248E-03  0.3026E-03  0.2948E-03  0.2899E-03  0.2860E-03  0.2835E-03  0.2821E-03  0.2824E-03  0.2837E-03  0.2857E-03  0.2881E-03  0.2903E-03  0.2906E-03  0.2911E-03  0.2911E-03  0.2892E-03  0.2854E-03  0.2792E-03  0.2715E-03  0.2618E-03  0.2506E-03  0.2385E-03  0.2258E-03  0.2117E-03  0.1966E-03  0.1812E-03  0.1652E-03  0.1496E-03  0.1348E-03  0.1209E-03  0.1085E-03  0.9697E-04  0.8657E-04  0.7726E-04  0.6896E-04  0.6182E-04  0.5524E-04  0.4932E-04  0.4406E-04  0.3946E-04  0.3532E-04
  0.2123E-03  0.2352E-03  0.2576E-03  0.2793E-03  0.2997E-03  0.3204E-03  0.3418E-03  0.3640E-03  0.3886E-03  0.4151E-03  0.4436E-03  0.4752E-03  0.5061E-03  0.5375E-03  0.5682E-03  0.5983E-03  0.6275E-03  0.6677E-03  0.7245E-03  0.8179E-03  0.9600E-03  0.1120E-02  0.1210E-02  0.1157E-02  0.1004E-02  0.8955E-03  0.9124E-03  0.9921E-03  0.1019E-02  0.9369E-03  0.8597E-03  0.8524E-03  0.8602E-03  0.8271E-03  0.7517E-03  0.6350E-03  0.4972E-03  0.3898E-03  0.3305E-03  0.3037E-03  0.2947E-03  0.2887E-03  0.2844E-03  0.2814E-03  0.2794E-03  0.2788E-03  0.2791E-03  0.2801E-03  0.2818E-03  0.2833E-03  0.2839E-03  0.2840E-03  0.2840E-03  0.2831E-03  0.2801E-03  0.2756E-03  0.2688E-03  0.2604E-03  0.2504E-03  0.2386E-03  0.2255E-03  0.2116E-03  0.1962E-03  0.1803E-03  0.1646E-03  0.1491E-03  0.1344E-03  0.1207E-03  0.1082E-03  0.9709E-04  0.8682E-04  0.7761E-04  0.6940E-04  0.6231E-04  0.5573E-04  0.4982E-04  0.4453E-04  0.3990E-04  0.3573E-04
  0.2175E-03  0.2395E-03  0.2610E-03  0.2810E-03  0.2991E-03  0.3171E-03  0.3347E-03  0.3531E-03  0.3728E-03  0.3944E-03  0.4169E-03  0.4417E-03  0.4677E-03  0.4935E-03  0.5193E-03  0.5444E-03  0.5808E-03  0.6337E-03  0.7219E-03  0.8565E-03  0.1022E-02  0.1148E-02  0.1150E-02  0.1033E-02  0.8966E-03  0.8596E-03  0.9272E-03  0.1011E-02  0.1010E-02  0.9358E-03  0.8897E-03  0.8952E-03  0.8946E-03  0.8526E-03  0.7737E-03  0.6580E-03  0.5190E-03  0.4074E-03  0.3411E-03  0.3102E-03  0.2981E-03  0.2909E-03  0.2852E-03  0.2808E-03  0.2779E-03  0.2761E-03  0.2753E-03  0.2754E-03  0.2757E-03  0.2764E-03  0.2768E-03  0.2759E-03  0.2756E-03  0.2749E-03  0.2728E-03  0.2687E-03  0.2632E-03  0.2556E-03  0.2461E-03  0.2350E-03  0.2218E-03  0.2074E-03  0.1925E-03  0.1768E-03  0.1613E-03  0.1465E-03  0.1323E-03  0.1192E-03  0.1070E-03  0.9619E-04  0.8622E-04  0.7726E-04  0.6923E-04  0.6201E-04  0.5580E-04  0.4997E-04  0.4473E-04  0.4010E-04  0.3596E-04
  0.2154E-03  0.2357E-03  0.2548E-03  0.2723E-03  0.2878E-03  0.3030E-03  0.3173E-03  0.3323E-03  0.3483E-03  0.3653E-03  0.3840E-03  0.4043E-03  0.4265E-03  0.4485E-03  0.4707E-03  0.5038E-03  0.5503E-03  0.6279E-03  0.7521E-03  0.9141E-03  0.1061E-02  0.1113E-02  0.1043E-02  0.9129E-03  0.8359E-03  0.8685E-03  0.9640E-03  0.1039E-02  0.1020E-02  0.9555E-03  0.9293E-03  0.9368E-03  0.9241E-03  0.8757E-03  0.7982E-03  0.6878E-03  0.5531E-03  0.4367E-03  0.3643E-03  0.3260E-03  0.3071E-03  0.2974E-03  0.2898E-03  0.2839E-03  0.2790E-03  0.2757E-03  0.2731E-03  0.2716E-03  0.2708E-03  0.2701E-03  0.2693E-03  0.2679E-03  0.2664E-03  0.2658E-03  0.2636E-03  0.2602E-03  0.2548E-03  0.2481E-03  0.2393E-03  0.2281E-03  0.2153E-03  0.2009E-03  0.1860E-03  0.1714E-03  0.1565E-03  0.1422E-03  0.1290E-03  0.1164E-03  0.1048E-03  0.9423E-04  0.8494E-04  0.7631E-04  0.6854E-04  0.6156E-04  0.5524E-04  0.4981E-04  0.4470E-04  0.4008E-04  0.3601E-04
  0.2079E-03  0.2255E-03  0.2420E-03  0.2570E-03  0.2700E-03  0.2827E-03  0.2944E-03  0.3065E-03  0.3200E-03  0.3337E-03  0.3497E-03  0.3669E-03  0.3860E-03  0.4055E-03  0.4344E-03  0.4766E-03  0.5463E-03  0.6599E-03  0.8153E-03  0.9719E-03  0.1064E-02  0.1041E-02  0.9332E-03  0.8345E-03  0.8241E-03  0.9105E-03  0.1027E-02  0.1094E-02  0.1071E-02  0.1018E-02  0.9929E-03  0.9853E-03  0.9537E-03  0.8990E-03  0.8264E-03  0.7254E-03  0.5977E-03  0.4826E-03  0.4005E-03  0.3527E-03  0.3242E-03  0.3104E-03  0.2997E-03  0.2910E-03  0.2835E-03  0.2779E-03  0.2732E-03  0.2697E-03  0.2671E-03  0.2649E-03  0.2628E-03  0.2601E-03  0.2575E-03  0.2559E-03  0.2535E-03  0.2501E-03  0.2451E-03  0.2386E-03  0.2299E-03  0.2193E-03  0.2065E-03  0.1928E-03  0.1784E-03  0.1641E-03  0.1505E-03  0.1371E-03  0.1244E-03  0.1128E-03  0.1019E-03  0.9193E-04  0.8283E-04  0.7489E-04  0.6747E-04  0.6077E-04  0.5468E-04  0.4940E-04  0.4444E-04  0.3993E-04  0.3592E-04
  0.1965E-03  0.2117E-03  0.2257E-03  0.2383E-03  0.2492E-03  0.2598E-03  0.2697E-03  0.2795E-03  0.2907E-03  0.3026E-03  0.3168E-03  0.3314E-03  0.3496E-03  0.3748E-03  0.4113E-03  0.4709E-03  0.5728E-03  0.7215E-03  0.8908E-03  0.1018E-02  0.1043E-02  0.9715E-03  0.8665E-03  0.8137E-03  0.8562E-03  0.9752E-03  0.1108E-02  0.1176E-02  0.1161E-02  0.1117E-02  0.1083E-02  0.1048E-02  0.9877E-03  0.9163E-03  0.8414E-03  0.7551E-03  0.6510E-03  0.5427E-03  0.4540E-03  0.3937E-03  0.3559E-03  0.3307E-03  0.3156E-03  0.3029E-03  0.2925E-03  0.2837E-03  0.2764E-03  0.2704E-03  0.2653E-03  0.2608E-03  0.2569E-03  0.2530E-03  0.2492E-03  0.2461E-03  0.2434E-03  0.2394E-03  0.2346E-03  0.2278E-03  0.2194E-03  0.2087E-03  0.1966E-03  0.1834E-03  0.1697E-03  0.1565E-03  0.1434E-03  0.1312E-03  0.1195E-03  0.1085E-03  0.9822E-04  0.8917E-04  0.8062E-04  0.7285E-04  0.6608E-04  0.5969E-04  0.5384E-04  0.4853E-04  0.4398E-04  0.3965E-04  0.3571E-04
  0.1833E-03  0.1962E-03  0.2080E-03  0.2185E-03  0.2278E-03  0.2368E-03  0.2450E-03  0.2526E-03  0.2632E-03  0.2739E-03  0.2861E-03  0.3007E-03  0.3205E-03  0.3521E-03  0.4017E-03  0.4837E-03  0.6147E-03  0.7902E-03  0.9569E-03  0.1046E-02  0.1028E-02  0.9408E-03  0.8620E-03  0.8504E-03  0.9166E-03  0.1034E-02  0.1159E-02  0.1231E-02  0.1226E-02  0.1179E-02  0.1128E-02  0.1072E-02  0.1002E-02  0.9291E-03  0.8602E-03  0.7890E-03  0.7037E-03  0.6066E-03  0.5167E-03  0.4451E-03  0.3950E-03  0.3626E-03  0.3372E-03  0.3201E-03  0.3057E-03  0.2932E-03  0.2824E-03  0.2732E-03  0.2653E-03  0.2585E-03  0.2524E-03  0.2469E-03  0.2415E-03  0.2368E-03  0.2330E-03  0.2288E-03  0.2233E-03  0.2166E-03  0.2080E-03  0.1979E-03  0.1862E-03  0.1738E-03  0.1609E-03  0.1481E-03  0.1363E-03  0.1249E-03  0.1140E-03  0.1040E-03  0.9455E-04  0.8581E-04  0.7812E-04  0.7085E-04  0.6419E-04  0.5838E-04  0.5285E-04  0.4779E-04  0.4318E-04  0.3921E-04  0.3537E-04
  0.1695E-03  0.1804E-03  0.1903E-03  0.1994E-03  0.2073E-03  0.2148E-03  0.2217E-03  0.2289E-03  0.2379E-03  0.2472E-03  0.2581E-03  0.2739E-03  0.2975E-03  0.3354E-03  0.3963E-03  0.4934E-03  0.6374E-03  0.8173E-03  0.9776E-03  0.1043E-02  0.1016E-02  0.9469E-03  0.9043E-03  0.9168E-03  0.9803E-03  0.1076E-02  0.1165E-02  0.1215E-02  0.1214E-02  0.1174E-02  0.1117E-02  0.1054E-02  0.9897E-03  0.9313E-03  0.8774E-03  0.8215E-03  0.7498E-03  0.6636E-03  0.5760E-03  0.4987E-03  0.4390E-03  0.3960E-03  0.3650E-03  0.3396E-03  0.3215E-03  0.3055E-03  0.2911E-03  0.2785E-03  0.2673E-03  0.2575E-03  0.2491E-03  0.2416E-03  0.2342E-03  0.2281E-03  0.2232E-03  0.2180E-03  0.2121E-03  0.2050E-03  0.1965E-03  0.1866E-03  0.1756E-03  0.1639E-03  0.1517E-03  0.1402E-03  0.1289E-03  0.1185E-03  0.1085E-03  0.9912E-04  0.9064E-04  0.8259E-04  0.7515E-04  0.6862E-04  0.6241E-04  0.5671E-04  0.5170E-04  0.4689E-04  0.4248E-04  0.3842E-04  0.3491E-04
  0.1560E-03  0.1652E-03  0.1738E-03  0.1816E-03  0.1882E-03  0.1945E-03  0.2006E-03  0.2072E-03  0.2150E-03  0.2241E-03  0.2345E-03  0.2514E-03  0.2789E-03  0.3203E-03  0.3871E-03  0.4880E-03  0.6247E-03  0.7836E-03  0.9227E-03  0.9942E-03  0.9855E-03  0.9550E-03  0.9434E-03  0.9674E-03  0.1018E-02  0.1083E-02  0.1135E-02  0.1160E-02  0.1153E-02  0.1118E-02  0.1066E-02  0.1008E-02  0.9586E-03  0.9158E-03  0.8767E-03  0.8336E-03  0.7760E-03  0.7024E-03  0.6219E-03  0.5450E-03  0.4791E-03  0.4278E-03  0.3896E-03  0.3604E-03  0.3359E-03  0.3172E-03  0.3000E-03  0.2842E-03  0.2702E-03  0.2575E-03  0.2466E-03  0.2369E-03  0.2280E-03  0.2201E-03  0.2136E-03  0.2075E-03  0.2010E-03  0.1934E-03  0.1851E-03  0.1755E-03  0.1653E-03  0.1542E-03  0.1432E-03  0.1321E-03  0.1218E-03  0.1120E-03  0.1030E-03  0.9446E-04  0.8643E-04  0.7926E-04  0.7239E-04  0.6605E-04  0.6053E-04  0.5518E-04  0.5020E-04  0.4585E-04  0.4167E-04  0.3775E-04  0.3408E-04
  0.1431E-03  0.1512E-03  0.1583E-03  0.1647E-03  0.1707E-03  0.1763E-03  0.1815E-03  0.1879E-03  0.1954E-03  0.2035E-03  0.2160E-03  0.2339E-03  0.2619E-03  0.3062E-03  0.3733E-03  0.4677E-03  0.5867E-03  0.7182E-03  0.8322E-03  0.9026E-03  0.9253E-03  0.9296E-03  0.9420E-03  0.9685E-03  0.1008E-02  0.1046E-02  0.1072E-02  0.1078E-02  0.1065E-02  0.1033E-02  0.9907E-03  0.9464E-03  0.9104E-03  0.8823E-03  0.8550E-03  0.8228E-03  0.7772E-03  0.7170E-03  0.6471E-03  0.5740E-03  0.5073E-03  0.4523E-03  0.4088E-03  0.3752E-03  0.3482E-03  0.3250E-03  0.3061E-03  0.2885E-03  0.2722E-03  0.2573E-03  0.2443E-03  0.2325E-03  0.2219E-03  0.2124E-03  0.2044E-03  0.1974E-03  0.1901E-03  0.1824E-03  0.1741E-03  0.1650E-03  0.1551E-03  0.1450E-03  0.1345E-03  0.1245E-03  0.1147E-03  0.1059E-03  0.9744E-04  0.8959E-04  0.8245E-04  0.7562E-04  0.6957E-04  0.6370E-04  0.5830E-04  0.5352E-04  0.4887E-04  0.4452E-04  0.4057E-04  0.3690E-04  0.3329E-04
  0.1314E-03  0.1382E-03  0.1442E-03  0.1501E-03  0.1550E-03  0.1597E-03  0.1652E-03  0.1711E-03  0.1780E-03  0.1881E-03  0.2004E-03  0.2195E-03  0.2481E-03  0.2914E-03  0.3541E-03  0.4364E-03  0.5360E-03  0.6414E-03  0.7344E-03  0.8021E-03  0.8425E-03  0.8679E-03  0.8926E-03  0.9196E-03  0.9485E-03  0.9702E-03  0.9821E-03  0.9800E-03  0.9643E-03  0.9372E-03  0.9081E-03  0.8768E-03  0.8528E-03  0.8331E-03  0.8140E-03  0.7895E-03  0.7555E-03  0.7060E-03  0.6471E-03  0.5821E-03  0.5193E-03  0.4644E-03  0.4188E-03  0.3824E-03  0.3534E-03  0.3291E-03  0.3076E-03  0.2891E-03  0.2719E-03  0.2558E-03  0.2411E-03  0.2278E-03  0.2157E-03  0.2050E-03  0.1959E-03  0.1877E-03  0.1800E-03  0.1720E-03  0.1634E-03  0.1547E-03  0.1455E-03  0.1360E-03  0.1264E-03  0.1171E-03  0.1081E-03  0.9975E-04  0.9195E-04  0.8503E-04  0.7830E-04  0.7229E-04  0.6642E-04  0.6102E-04  0.5623E-04  0.5157E-04  0.4726E-04  0.4327E-04  0.3934E-04  0.3565E-04  0.3244E-04
  0.1205E-03  0.1263E-03  0.1318E-03  0.1367E-03  0.1411E-03  0.1455E-03  0.1506E-03  0.1571E-03  0.1647E-03  0.1743E-03  0.1879E-03  0.2061E-03  0.2341E-03  0.2727E-03  0.3278E-03  0.3975E-03  0.4783E-03  0.5625E-03  0.6389E-03  0.7008E-03  0.7464E-03  0.7800E-03  0.8070E-03  0.8343E-03  0.8551E-03  0.8700E-03  0.8743E-03  0.8709E-03  0.8581E-03  0.8415E-03  0.8204E-03  0.8007E-03  0.7854E-03  0.7722E-03  0.7582E-03  0.7403E-03  0.7125E-03  0.6741E-03  0.6244E-03  0.5692E-03  0.5130E-03  0.4620E-03  0.4177E-03  0.3814E-03  0.3512E-03  0.3263E-03  0.3047E-03  0.2850E-03  0.2677E-03  0.2514E-03  0.2361E-03  0.2221E-03  0.2094E-03  0.1977E-03  0.1874E-03  0.1787E-03  0.1703E-03  0.1620E-03  0.1534E-03  0.1450E-03  0.1364E-03  0.1275E-03  0.1188E-03  0.1099E-03  0.1018E-03  0.9389E-04  0.8693E-04  0.8039E-04  0.7447E-04  0.6871E-04  0.6360E-04  0.5858E-04  0.5395E-04  0.4978E-04  0.4560E-04  0.4162E-04  0.3810E-04  0.3456E-04  0.3123E-04
  0.1106E-03  0.1155E-03  0.1202E-03  0.1249E-03  0.1291E-03  0.1332E-03  0.1389E-03  0.1448E-03  0.1526E-03  0.1626E-03  0.1756E-03  0.1940E-03  0.2190E-03  0.2543E-03  0.2983E-03  0.3560E-03  0.4197E-03  0.4868E-03  0.5494E-03  0.6030E-03  0.6445E-03  0.6803E-03  0.7067E-03  0.7292E-03  0.7474E-03  0.7571E-03  0.7620E-03  0.7590E-03  0.7538E-03  0.7435E-03  0.7320E-03  0.7215E-03  0.7109E-03  0.7020E-03  0.6913E-03  0.6766E-03  0.6549E-03  0.6245E-03  0.5843E-03  0.5379E-03  0.4905E-03  0.4452E-03  0.4051E-03  0.3710E-03  0.3418E-03  0.3173E-03  0.2960E-03  0.2768E-03  0.2594E-03  0.2438E-03  0.2289E-03  0.2149E-03  0.2018E-03  0.1898E-03  0.1792E-03  0.1700E-03  0.1612E-03  0.1528E-03  0.1444E-03  0.1360E-03  0.1278E-03  0.1196E-03  0.1114E-03  0.1035E-03  0.9573E-04  0.8869E-04  0.8195E-04  0.7614E-04  0.7051E-04  0.6548E-04  0.6051E-04  0.5591E-04  0.5182E-04  0.4767E-04  0.4388E-04  0.4012E-04  0.3655E-04  0.3337E-04  0.3018E-04
