DSAA
          79         109
    318.3670    342.0670
   7336.5760   7369.2760
  0.0000E+00  0.2618E-02
  0.0000E+00  0.0000E+00  0.0000E+00  0.0000E+00  0.0000E+00  0.0000E+00  0.0000E+00  0.0000E+00  0.0000E+00  0.0000E+00  0.0000E+00  0.0000E+00  0.0000E+00  0.0000E+00  0.0000E+00  0.0000E+00  0.0000E+00  0.0000E+00  0.0000E+00  0.0000E+00  0.0000E+00  0.0000E+00  0.0000E+00  0.0000E+00  0.0000E+00  0.0000E+00  0.0000E+00  0.0000E+00  0.0000E+00  0.0000E+00  0.0000E+00  0.0000E+00  0.0000E+00  0.0000E+00  0.0000E+00  0.0000E+00  0.0000E+00  0.0000E+00  0.0000E+00  0.0000E+00  0.0000E+00  0.0000E+00  0.0000E+00  0.0000E+00  0.0000E+00  0.0000E+00  0.0000E+00  0.0000E+00  0.0000E+00  0.0000E+00  0.0000E+00  0.0000E+00  0.0000E+00  0.0000E+00  0.0000E+00  0.0000E+00  0.0000E+00  0.0000E+00  0.0000E+00  0.0000E+00  0.0000E+00  0.0000E+00  0.0000E+00  0.0000E+00  0.0000E+00  0.0000E+00  0.0000E+00  0.0000E+00  0.0000E+00  0.0000E+00  0.0000E+00  0.0000E+00  0.0000E+00  0.0000E+00  0.0000E+00  0.0000E+00  0.0000E+00  0.0000E+00  0.0000E+00
  0.0000E+00  0.0000E+00  0.0000E+00  0.0000E+00  0.0000E+00  0.0000E+00  0.0000E+00  0.0000E+00  0.0000E+00  0.0000E+00  0.0000E+00  0.0000E+00  0.0000E+00  0.0000E+00  0.0000E+00  0.0000E+00  0.0000E+00  0.0000E+00  0.0000E+00  0.0000E+00  0.0000E+00  0.0000E+00  0.0000E+00  0.0000E+00  0.0000E+00  0.0000E+00  0.0000E+00  0.0000E+00  0.0000E+00  0.0000E+00  0.0000E+00  0.0000E+00  0.0000E+00  0.0000E+00  0.0000E+00  0.0000E+00  0.0000E+00  0.0000E+00  0.0000E+00  0.0000E+00  0.0000E+00  0.0000E+00  0.0000E+00  0.0000E+00  0.0000E+00  0.0000E+00  0.0000E+00  0.0000E+00  0.0000E+00  0.0000E+00  0.0000E+00  0.0000E+00  0.0000E+00  0.0000E+00  0.0000E+00  0.0000E+00  0.0000E+00  0.0000E+00  0.0000E+00  0.0000E+00  0.0000E+00  0.0000E+00  0.0000E+00  0.0000E+00  0.0000E+00  0.0000E+00  0.0000E+00  0.0000E+00  0.0000E+00  0.0000E+00  0.0000E+00  0.0000E+00  0.0000E+00  0.0000E+00  0.0000E+00  0.0000E+00  0.0000E+00  0.0000E+00  0.0000E+00
  0.0000E+00  0.0000E+00  0.0000E+00  0.0000E+00  0.0000E+00  0.0000E+00  0.0000E+00  0.0000E+00  0.0000E+00  0.0000E+00  0.0000E+00  0.0000E+00  0.0000E+00  0.0000E+00  0.0000E+00  0.0000E+00  0.0000E+00  0.0000E+00  0.0000E+00  0.0000E+00  0.0000E+00  0.0000E+00  0.0000E+00  0.0000E+00  0.0000E+00  0.0000E+00  0.0000E+00  0.0000E+00  0.0000E+00  0.0000E+00  0.0000E+00  0.0000E+00  0.0000E+00  0.0000E+00  0.0000E+00  0.0000E+00  0.0000E+00  0.0000E+00  0.0000E+00  0.0000E+00  0.0000E+00  0.0000E+00  0.0000E+00  0.0000E+00  0.0000E+00  0.0000E+00  0.0000E+00  0.0000E+00  0.0000E+00  0.0000E+00  0.0000E+00  0.0000E+00  0.0000E+00  0.0000E+00  0.0000E+00  0.0000E+00  0.0000E+00  0.0000E+00  0.0000E+00  0.0000E+00  0.0000E+00  0.0000E+00  0.0000E+00  0.0000E+00  0.0000E+00  0.0000E+00  0.0000E+00  0.0000E+00  0.0000E+00  0.0000E+00  0.0000E+00  0.0000E+00  0.0000E+00  0.0000E+00  0.0000E+00  0.0000E+00  0.0000E+00  0.0000E+00  0.0000E+00
  0.0000E+00  0.0000E+00  0.0000E+00  0.0000E+00  0.0000E+00  0.0000E+00  0.0000E+00  0.0000E+00  0.0000E+00  0.0000E+00  0.0000E+00  0.0000E+00  0.0000E+00  0.0000E+00  0.0000E+00  0.0000E+00  0.0000E+00  0.0000E+00  0.0000E+00  0.0000E+00  0.0000E+00  0.0000E+00  0.0000E+00  0.0000E+00  0.0000E+00  0.0000E+00  0.0000E+00  0.0000E+00  0.0000E+00  0.0000E+00  0.0000E+00  0.0000E+00  0.0000E+00  0.0000E+00  0.0000E+00  0.0000E+00  0.0000E+00  0.0000E+00  0.0000E+00  0.0000E+00  0.0000E+00  0.0000E+00  0.0000E+00  0.0000E+00  0.0000E+00  0.0000E+00  0.0000E+00  0.0000E+00  0.0000E+00  0.0000E+00  0.0000E+00  0.0000E+00  0.0000E+00  0.0000E+00  0.0000E+00  0.0000E+00  0.0000E+00  0.0000E+00  0.0000E+00  0.0000E+00  0.0000E+00  0.0000E+00  0.0000E+00  0.0000E+00  0.0000E+00  0.0000E+00  0.0000E+00  0.0000E+00  0.0000E+00  0.0000E+00  0.0000E+00  0.0000E+00  0.0000E+00  0.0000E+00  0.0000E+00  0.0000E+00  0.0000E+00  0.0000E+00  0.0000E+00
  0.0000E+00  0.0000E+00  0.0000E+00  0.0000E+00  0.0000E+00  0.0000E+00  0.0000E+00  0.0000E+00  0.0000E+00  0.0000E+00  0.0000E+00  0.0000E+00  0.0000E+00  0.0000E+00  0.0000E+00  0.0000E+00  0.0000E+00  0.0000E+00  0.0000E+00  0.0000E+00  0.0000E+00  0.0000E+00  0.0000E+00  0.0000E+00  0.0000E+00  0.0000E+00  0.0000E+00  0.0000E+00  0.0000E+00  0.0000E+00  0.0000E+00  0.0000E+00  0.0000E+00  0.0000E+00  0.0000E+00  0.0000E+00  0.0000E+00  0.0000E+00  0.0000E+00  0.0000E+00  0.0000E+00  0.0000E+00  0.0000E+00  0.0000E+00  0.0000E+00  0.0000E+00  0.0000E+00  0.0000E+00  0.0000E+00  0.0000E+00  0.0000E+00  0.0000E+00  0.0000E+00  0.0000E+00  0.0000E+00  0.0000E+00  0.0000E+00  0.0000E+00  0.0000E+00  0.0000E+00  0.0000E+00  0.0000E+00  0.0000E+00  0.0000E+00  0.0000E+00  0.0000E+00  0.0000E+00  0.0000E+00  0.0000E+00  0.0000E+00  0.0000E+00  0.0000E+00  0.0000E+00  0.0000E+00  0.0000E+00  0.0000E+00  0.0000E+00  0.0000E+00  0.0000E+00
  0.0000E+00  0.0000E+00  0.0000E+00  0.0000E+00  0.0000E+00  0.0000E+00  0.0000E+00  0.0000E+00  0.0000E+00  0.0000E+00  0.0000E+00  0.0000E+00  0.0000E+00  0.0000E+00  0.0000E+00  0.0000E+00  0.0000E+00  0.0000E+00  0.0000E+00  0.0000E+00  0.0000E+00  0.0000E+00  0.0000E+00  0.0000E+00  0.0000E+00  0.0000E+00  0.0000E+00  0.0000E+00  0.0000E+00  0.0000E+00  0.0000E+00  0.0000E+00  0.0000E+00  0.0000E+00  0.0000E+00  0.0000E+00  0.0000E+00  0.0000E+00  0.0000E+00  0.0000E+00  0.0000E+00  0.0000E+00  0.0000E+00  0.0000E+00  0.0000E+00  0.0000E+00  0.0000E+00  0.0000E+00  0.0000E+00  0.0000E+00  0.0000E+00  0.0000E+00  0.0000E+00  0.0000E+00  0.0000E+00  0.0000E+00  0.0000E+00  0.0000E+00  0.0000E+00  0.0000E+00  0.0000E+00  0.0000E+00  0.0000E+00  0.0000E+00  0.0000E+00  0.0000E+00  0.0000E+00  0.0000E+00  0.0000E+00  0.0000E+00  0.0000E+00  0.0000E+00  0.0000E+00  0.0000E+00  0.0000E+00  0.0000E+00  0.0000E+00  0.0000E+00  0.0000E+00
  0.0000E+00  0.0000E+00  0.0000E+00  0.0000E+00  0.0000E+00  0.0000E+00  0.0000E+00  0.0000E+00  0.0000E+00  0.0000E+00  0.0000E+00  0.0000E+00  0.0000E+00  0.0000E+00  0.0000E+00  0.0000E+00  0.0000E+00  0.0000E+00  0.0000E+00  0.0000E+00  0.0000E+00  0.0000E+00  0.0000E+00  0.0000E+00  0.0000E+00  0.0000E+00  0.0000E+00  0.0000E+00  0.0000E+00  0.0000E+00  0.0000E+00  0.0000E+00  0.0000E+00  0.0000E+00  0.0000E+00  0.0000E+00  0.0000E+00  0.0000E+00  0.0000E+00  0.0000E+00  0.0000E+00  0.0000E+00  0.0000E+00  0.0000E+00  0.0000E+00  0.0000E+00  0.0000E+00  0.0000E+00  0.0000E+00  0.0000E+00  0.0000E+00  0.0000E+00  0.0000E+00  0.0000E+00  0.0000E+00  0.0000E+00  0.0000E+00  0.0000E+00  0.0000E+00  0.0000E+00  0.0000E+00  0.0000E+00  0.0000E+00  0.0000E+00  0.0000E+00  0.0000E+00  0.0000E+00  0.0000E+00  0.0000E+00  0.0000E+00  0.0000E+00  0.0000E+00  0.0000E+00  0.0000E+00  0.0000E+00  0.0000E+00  0.0000E+00  0.0000E+00  0.0000E+00
  0.0000E+00  0.0000E+00  0.0000E+00  0.0000E+00  0.0000E+00  0.0000E+00  0.0000E+00  0.0000E+00  0.0000E+00  0.0000E+00  0.0000E+00  0.0000E+00  0.0000E+00  0.0000E+00  0.0000E+00  0.0000E+00  0.0000E+00  0.0000E+00  0.0000E+00  0.0000E+00  0.0000E+00  0.0000E+00  0.0000E+00  0.0000E+00  0.0000E+00  0.0000E+00  0.0000E+00  0.0000E+00  0.0000E+00  0.0000E+00  0.0000E+00  0.0000E+00  0.0000E+00  0.0000E+00  0.0000E+00  0.0000E+00  0.0000E+00  0.0000E+00  0.0000E+00  0.0000E+00  0.0000E+00  0.0000E+00  0.0000E+00  0.0000E+00  0.0000E+00  0.0000E+00  0.0000E+00  0.0000E+00  0.0000E+00  0.0000E+00  0.0000E+00  0.0000E+00  0.0000E+00  0.0000E+00  0.0000E+00  0.0000E+00  0.0000E+00  0.0000E+00  0.0000E+00  0.0000E+00  0.0000E+00  0.0000E+00  0.0000E+00  0.0000E+00  0.0000E+00  0.0000E+00  0.0000E+00  0.0000E+00  0.0000E+00  0.0000E+00  0.0000E+00  0.0000E+00  0.0000E+00  0.0000E+00  0.0000E+00  0.0000E+00  0.0000E+00  0.0000E+00  0.0000E+00
  0.0000E+00  0.0000E+00  0.0000E+00  0.0000E+00  0.0000E+00  0.0000E+00  0.0000E+00  0.0000E+00  0.0000E+00  0.0000E+00  0.0000E+00  0.0000E+00  0.0000E+00  0.0000E+00  0.0000E+00  0.0000E+00  0.0000E+00  0.0000E+00  0.0000E+00  0.0000E+00  0.0000E+00  0.0000E+00  0.0000E+00  0.0000E+00  0.0000E+00  0.0000E+00  0.0000E+00  0.0000E+00  0.0000E+00  0.0000E+00  0.0000E+00  0.0000E+00  0.0000E+00  0.0000E+00  0.0000E+00  0.0000E+00  0.0000E+00  0.0000E+00  0.0000E+00  0.0000E+00  0.0000E+00  0.0000E+00  0.0000E+00  0.0000E+00  0.0000E+00  0.0000E+00  0.0000E+00  0.0000E+00  0.0000E+00  0.0000E+00  0.0000E+00  0.0000E+00  0.0000E+00  0.0000E+00  0.0000E+00  0.0000E+00  0.0000E+00  0.0000E+00  0.0000E+00  0.0000E+00  0.0000E+00  0.0000E+00  0.0000E+00  0.0000E+00  0.0000E+00  0.0000E+00  0.0000E+00  0.0000E+00  0.0000E+00  0.0000E+00  0.0000E+00  0.0000E+00  0.0000E+00  0.0000E+00  0.0000E+00  0.0000E+00  0.0000E+00  0.0000E+00  0.0000E+00
  0.0000E+00  0.0000E+00  0.0000E+00  0.0000E+00  0.0000E+00  0.0000E+00  0.0000E+00  0.0000E+00  0.0000E+00  0.0000E+00  0.0000E+00  0.0000E+00  0.0000E+00  0.0000E+00  0.0000E+00  0.0000E+00  0.0000E+00  0.0000E+00  0.0000E+00  0.0000E+00  0.0000E+00  0.0000E+00  0.0000E+00  0.0000E+00  0.0000E+00  0.0000E+00  0.0000E+00  0.0000E+00  0.0000E+00  0.0000E+00  0.0000E+00  0.0000E+00  0.0000E+00  0.0000E+00  0.0000E+00  0.0000E+00  0.0000E+00  0.0000E+00  0.0000E+00  0.0000E+00  0.0000E+00  0.0000E+00  0.0000E+00  0.0000E+00  0.0000E+00  0.0000E+00  0.0000E+00  0.0000E+00  0.0000E+00  0.0000E+00  0.0000E+00  0.0000E+00  0.0000E+00  0.0000E+00  0.0000E+00  0.0000E+00  0.0000E+00  0.0000E+00  0.0000E+00  0.0000E+00  0.0000E+00  0.0000E+00  0.0000E+00  0.0000E+00  0.0000E+00  0.0000E+00  0.0000E+00  0.0000E+00  0.0000E+00  0.0000E+00  0.0000E+00  0.0000E+00  0.0000E+00  0.0000E+00  0.0000E+00  0.0000E+00  0.0000E+00  0.0000E+00  0.0000E+00
  0.0000E+00  0.0000E+00  0.0000E+00  0.0000E+00  0.0000E+00  0.0000E+00  0.0000E+00  0.0000E+00  0.0000E+00  0.0000E+00  0.0000E+00  0.0000E+00  0.0000E+00  0.0000E+00  0.0000E+00  0.0000E+00  0.0000E+00  0.0000E+00  0.0000E+00  0.0000E+00  0.0000E+00  0.0000E+00  0.0000E+00  0.0000E+00  0.0000E+00  0.0000E+00  0.0000E+00  0.0000E+00  0.0000E+00  0.0000E+00  0.0000E+00  0.0000E+00  0.0000E+00  0.0000E+00  0.0000E+00  0.0000E+00  0.0000E+00  0.0000E+00  0.0000E+00  0.0000E+00  0.0000E+00  0.0000E+00  0.0000E+00  0.0000E+00  0.0000E+00  0.0000E+00  0.0000E+00  0.0000E+00  0.0000E+00  0.0000E+00  0.0000E+00  0.0000E+00  0.0000E+00  0.0000E+00  0.0000E+00  0.0000E+00  0.0000E+00  0.0000E+00  0.0000E+00  0.0000E+00  0.0000E+00  0.0000E+00  0.0000E+00  0.0000E+00  0.0000E+00  0.0000E+00  0.0000E+00  0.0000E+00  0.0000E+00  0.0000E+00  0.0000E+00  0.0000E+00  0.0000E+00  0.0000E+00  0.0000E+00  0.0000E+00  0.0000E+00  0.0000E+00  0.0000E+00
  0.0000E+00  0.0000E+00  0.0000E+00  0.0000E+00  0.0000E+00  0.0000E+00  0.0000E+00  0.0000E+00  0.0000E+00  0.0000E+00  0.0000E+00  0.0000E+00  0.0000E+00  0.0000E+00  0.0000E+00  0.0000E+00  0.0000E+00  0.0000E+00  0.0000E+00  0.0000E+00  0.0000E+00  0.0000E+00  0.0000E+00  0.0000E+00  0.0000E+00  0.0000E+00  0.0000E+00  0.0000E+00  0.0000E+00  0.0000E+00  0.0000E+00  0.0000E+00  0.0000E+00  0.0000E+00  0.0000E+00  0.0000E+00  0.0000E+00  0.0000E+00  0.0000E+00  0.0000E+00  0.0000E+00  0.0000E+00  0.0000E+00  0.0000E+00  0.0000E+00  0.0000E+00  0.0000E+00  0.0000E+00  0.0000E+00  0.0000E+00  0.0000E+00  0.0000E+00  0.0000E+00  0.0000E+00  0.0000E+00  0.0000E+00  0.0000E+00  0.0000E+00  0.0000E+00  0.0000E+00  0.0000E+00  0.0000E+00  0.0000E+00  0.0000E+00  0.0000E+00  0.0000E+00  0.0000E+00  0.0000E+00  0.0000E+00  0.0000E+00  0.0000E+00  0.0000E+00  0.0000E+00  0.0000E+00  0.0000E+00  0.0000E+00  0.0000E+00  0.0000E+00  0.0000E+00
  0.0000E+00  0.0000E+00  0.0000E+00  0.0000E+00  0.0000E+00  0.0000E+00  0.0000E+00  0.0000E+00  0.0000E+00  0.0000E+00  0.0000E+00  0.0000E+00  0.0000E+00  0.0000E+00  0.0000E+00  0.0000E+00  0.0000E+00  0.0000E+00  0.0000E+00  0.0000E+00  0.0000E+00  0.0000E+00  0.0000E+00  0.0000E+00  0.0000E+00  0.0000E+00  0.0000E+00  0.0000E+00  0.0000E+00  0.0000E+00  0.0000E+00  0.0000E+00  0.0000E+00  0.0000E+00  0.0000E+00  0.0000E+00  0.0000E+00  0.0000E+00  0.0000E+00  0.0000E+00  0.0000E+00  0.0000E+00  0.0000E+00  0.0000E+00  0.0000E+00  0.0000E+00  0.0000E+00  0.0000E+00  0.0000E+00  0.0000E+00  0.0000E+00  0.0000E+00  0.0000E+00  0.0000E+00  0.0000E+00  0.0000E+00  0.0000E+00  0.0000E+00  0.0000E+00  0.0000E+00  0.0000E+00  0.0000E+00  0.0000E+00  0.0000E+00  0.0000E+00  0.0000E+00  0.0000E+00  0.0000E+00  0.0000E+00  0.0000E+00  0.0000E+00  0.0000E+00  0.0000E+00  0.0000E+00  0.0000E+00  0.0000E+00  0.0000E+00  0.0000E+00  0.0000E+00
  0.0000E+00  0.0000E+00  0.0000E+00  0.0000E+00  0.0000E+00  0.0000E+00  0.0000E+00  0.0000E+00  0.0000E+00  0.0000E+00  0.0000E+00  0.0000E+00  0.0000E+00  0.0000E+00  0.0000E+00  0.0000E+00  0.0000E+00  0.0000E+00  0.0000E+00  0.0000E+00  0.0000E+00  0.0000E+00  0.0000E+00  0.0000E+00  0.0000E+00  0.0000E+00  0.0000E+00  0.0000E+00  0.0000E+00  0.0000E+00  0.0000E+00  0.0000E+00  0.0000E+00  0.0000E+00  0.0000E+00  0.0000E+00  0.0000E+00  0.0000E+00  0.0000E+00  0.0000E+00  0.0000E+00  0.0000E+00  0.0000E+00  0.0000E+00  0.0000E+00  0.0000E+00  0.0000E+00  0.0000E+00  0.0000E+00  0.0000E+00  0.0000E+00  0.0000E+00  0.0000E+00  0.0000E+00  0.0000E+00  0.0000E+00  0.0000E+00  0.0000E+00  0.0000E+00  0.0000E+00  0.0000E+00  0.0000E+00  0.0000E+00  0.0000E+00  0.0000E+00  0.0000E+00  0.0000E+00  0.0000E+00  0.0000E+00  0.0000E+00  0.0000E+00  0.0000E+00  0.0000E+00  0.0000E+00  0.0000E+00  0.0000E+00  0.0000E+00  0.0000E+00  0.0000E+00
  0.0000E+00  0.0000E+00  0.0000E+00  0.0000E+00  0.0000E+00  0.0000E+00  0.0000E+00  0.0000E+00  0.0000E+00  0.0000E+00  0.0000E+00  0.0000E+00  0.0000E+00  0.0000E+00  0.0000E+00  0.0000E+00  0.0000E+00  0.0000E+00  0.0000E+00  0.0000E+00  0.0000E+00  0.0000E+00  0.0000E+00  0.0000E+00  0.0000E+00  0.0000E+00  0.0000E+00  0.0000E+00  0.0000E+00  0.0000E+00  0.0000E+00  0.0000E+00  0.0000E+00  0.0000E+00  0.0000E+00  0.0000E+00  0.0000E+00  0.0000E+00  0.0000E+00  0.0000E+00  0.0000E+00  0.0000E+00  0.0000E+00  0.0000E+00  0.0000E+00  0.0000E+00  0.0000E+00  0.0000E+00  0.0000E+00  0.0000E+00  0.0000E+00  0.0000E+00  0.0000E+00  0.0000E+00  0.0000E+00  0.0000E+00  0.0000E+00  0.0000E+00  0.0000E+00  0.0000E+00  0.0000E+00  0.0000E+00  0.0000E+00  0.0000E+00  0.0000E+00  0.0000E+00  0.0000E+00  0.0000E+00  0.0000E+00  0.0000E+00  0.0000E+00  0.0000E+00  0.0000E+00  0.0000E+00  0.0000E+00  0.0000E+00  0.0000E+00  0.0000E+00  0.0000E+00
  0.0000E+00  0.0000E+00  0.0000E+00  0.0000E+00  0.0000E+00  0.0000E+00  0.0000E+00  0.0000E+00  0.0000E+00  0.0000E+00  0.0000E+00  0.0000E+00  0.0000E+00  0.0000E+00  0.0000E+00  0.0000E+00  0.0000E+00  0.0000E+00  0.0000E+00  0.0000E+00  0.0000E+00  0.0000E+00  0.0000E+00  0.0000E+00  0.0000E+00  0.0000E+00  0.0000E+00  0.0000E+00  0.0000E+00  0.0000E+00  0.0000E+00  0.0000E+00  0.0000E+00  0.0000E+00  0.0000E+00  0.0000E+00  0.0000E+00  0.0000E+00  0.0000E+00  0.0000E+00  0.0000E+00  0.0000E+00  0.0000E+00  0.0000E+00  0.0000E+00  0.0000E+00  0.0000E+00  0.0000E+00  0.0000E+00  0.0000E+00  0.0000E+00  0.0000E+00  0.0000E+00  0.0000E+00  0.0000E+00  0.0000E+00  0.0000E+00  0.0000E+00  0.0000E+00  0.0000E+00  0.0000E+00  0.0000E+00  0.0000E+00  0.0000E+00  0.0000E+00  0.0000E+00  0.0000E+00  0.0000E+00  0.0000E+00  0.0000E+00  0.0000E+00  0.0000E+00  0.0000E+00  0.0000E+00  0.0000E+00  0.0000E+00  0.0000E+00  0.0000E+00  0.0000E+00
  0.0000E+00  0.0000E+00  0.0000E+00  0.0000E+00  0.0000E+00  0.0000E+00  0.0000E+00  0.0000E+00  0.0000E+00  0.0000E+00  0.0000E+00  0.0000E+00  0.0000E+00  0.0000E+00  0.0000E+00  0.0000E+00  0.0000E+00  0.0000E+00  0.0000E+00  0.0000E+00  0.0000E+00  0.0000E+00  0.0000E+00  0.0000E+00  0.0000E+00  0.0000E+00  0.0000E+00  0.0000E+00  0.0000E+00  0.0000E+00  0.0000E+00  0.0000E+00  0.0000E+00  0.0000E+00  0.0000E+00  0.0000E+00  0.0000E+00  0.0000E+00  0.0000E+00  0.0000E+00  0.0000E+00  0.0000E+00  0.0000E+00  0.0000E+00  0.0000E+00  0.0000E+00  0.0000E+00  0.0000E+00  0.0000E+00  0.0000E+00  0.0000E+00  0.0000E+00  0.0000E+00  0.0000E+00  0.0000E+00  0.0000E+00  0.0000E+00  0.0000E+00  0.0000E+00  0.0000E+00  0.0000E+00  0.0000E+00  0.0000E+00  0.0000E+00  0.0000E+00  0.0000E+00  0.0000E+00  0.0000E+00  0.0000E+00  0.0000E+00  0.0000E+00  0.0000E+00  0.0000E+00  0.0000E+00  0.0000E+00  0.0000E+00  0.0000E+00  0.0000E+00  0.0000E+00
  0.0000E+00  0.0000E+00  0.0000E+00  0.0000E+00  0.0000E+00  0.0000E+00  0.0000E+00  0.0000E+00  0.0000E+00  0.0000E+00  0.0000E+00  0.0000E+00  0.0000E+00  0.0000E+00  0.0000E+00  0.0000E+00  0.0000E+00  0.0000E+00  0.0000E+00  0.0000E+00  0.0000E+00  0.0000E+00  0.0000E+00  0.0000E+00  0.0000E+00  0.0000E+00  0.0000E+00  0.0000E+00  0.0000E+00  0.0000E+00  0.0000E+00  0.0000E+00  0.0000E+00  0.0000E+00  0.0000E+00  0.0000E+00  0.0000E+00  0.0000E+00  0.0000E+00  0.0000E+00  0.0000E+00  0.0000E+00  0.0000E+00  0.0000E+00  0.0000E+00  0.0000E+00  0.0000E+00  0.0000E+00  0.0000E+00  0.0000E+00  0.0000E+00  0.0000E+00  0.0000E+00  0.0000E+00  0.0000E+00  0.0000E+00  0.0000E+00  0.0000E+00  0.0000E+00  0.0000E+00  0.0000E+00  0.0000E+00  0.0000E+00  0.0000E+00  0.0000E+00  0.0000E+00  0.0000E+00  0.0000E+00  0.0000E+00  0.0000E+00  0.0000E+00  0.0000E+00  0.0000E+00  0.0000E+00  0.0000E+00  0.0000E+00  0.0000E+00  0.0000E+00  0.0000E+00
  0.0000E+00  0.0000E+00  0.0000E+00  0.0000E+00  0.0000E+00  0.0000E+00  0.0000E+00  0.0000E+00  0.0000E+00  0.0000E+00  0.0000E+00  0.0000E+00  0.0000E+00  0.0000E+00  0.0000E+00  0.0000E+00  0.0000E+00  0.0000E+00  0.0000E+00  0.0000E+00  0.0000E+00  0.0000E+00  0.0000E+00  0.0000E+00  0.0000E+00  0.0000E+00  0.0000E+00  0.0000E+00  0.0000E+00  0.0000E+00  0.0000E+00  0.0000E+00  0.0000E+00  0.0000E+00  0.0000E+00  0.0000E+00  0.0000E+00  0.0000E+00  0.0000E+00  0.0000E+00  0.0000E+00  0.0000E+00  0.0000E+00  0.0000E+00  0.0000E+00  0.0000E+00  0.0000E+00  0.0000E+00  0.0000E+00  0.0000E+00  0.0000E+00  0.0000E+00  0.0000E+00  0.0000E+00  0.0000E+00  0.0000E+00  0.0000E+00  0.0000E+00  0.0000E+00  0.0000E+00  0.0000E+00  0.0000E+00  0.0000E+00  0.0000E+00  0.0000E+00  0.0000E+00  0.0000E+00  0.0000E+00  0.0000E+00  0.0000E+00  0.0000E+00  0.0000E+00  0.0000E+00  0.0000E+00  0.0000E+00  0.0000E+00  0.0000E+00  0.0000E+00  0.0000E+00
  0.0000E+00  0.0000E+00  0.0000E+00  0.0000E+00  0.0000E+00  0.0000E+00  0.0000E+00  0.0000E+00  0.0000E+00  0.0000E+00  0.0000E+00  0.0000E+00  0.0000E+00  0.0000E+00  0.0000E+00  0.0000E+00  0.0000E+00  0.0000E+00  0.0000E+00  0.0000E+00  0.0000E+00  0.0000E+00  0.0000E+00  0.0000E+00  0.0000E+00  0.0000E+00  0.0000E+00  0.0000E+00  0.0000E+00  0.0000E+00  0.0000E+00  0.0000E+00  0.0000E+00  0.0000E+00  0.0000E+00  0.0000E+00  0.0000E+00  0.0000E+00  0.0000E+00  0.0000E+00  0.0000E+00  0.0000E+00  0.0000E+00  0.0000E+00  0.0000E+00  0.0000E+00  0.0000E+00  0.0000E+00  0.0000E+00  0.0000E+00  0.0000E+00  0.0000E+00  0.0000E+00  0.0000E+00  0.0000E+00  0.0000E+00  0.0000E+00  0.0000E+00  0.0000E+00  0.0000E+00  0.0000E+00  0.0000E+00  0.0000E+00  0.0000E+00  0.0000E+00  0.0000E+00  0.0000E+00  0.0000E+00  0.0000E+00  0.0000E+00  0.0000E+00  0.0000E+00  0.0000E+00  0.0000E+00  0.0000E+00  0.0000E+00  0.0000E+00  0.0000E+00  0.0000E+00
  0.0000E+00  0.0000E+00  0.0000E+00  0.0000E+00  0.0000E+00  0.0000E+00  0.0000E+00  0.0000E+00  0.0000E+00  0.0000E+00  0.0000E+00  0.0000E+00  0.0000E+00  0.0000E+00  0.0000E+00  0.0000E+00  0.0000E+00  0.0000E+00  0.0000E+00  0.0000E+00  0.0000E+00  0.0000E+00  0.0000E+00  0.0000E+00  0.0000E+00  0.0000E+00  0.0000E+00  0.0000E+00  0.0000E+00  0.0000E+00  0.0000E+00  0.0000E+00  0.0000E+00  0.0000E+00  0.0000E+00  0.0000E+00  0.0000E+00  0.0000E+00  0.0000E+00  0.0000E+00  0.0000E+00  0.0000E+00  0.0000E+00  0.0000E+00  0.0000E+00  0.0000E+00  0.0000E+00  0.0000E+00  0.0000E+00  0.0000E+00  0.0000E+00  0.0000E+00  0.0000E+00  0.0000E+00  0.0000E+00  0.0000E+00  0.0000E+00  0.0000E+00  0.0000E+00  0.0000E+00  0.0000E+00  0.0000E+00  0.0000E+00  0.0000E+00  0.0000E+00  0.0000E+00  0.0000E+00  0.0000E+00  0.0000E+00  0.0000E+00  0.0000E+00  0.0000E+00  0.0000E+00  0.0000E+00  0.0000E+00  0.0000E+00  0.0000E+00  0.0000E+00  0.0000E+00
  0.0000E+00  0.0000E+00  0.0000E+00  0.0000E+00  0.0000E+00  0.0000E+00  0.0000E+00  0.0000E+00  0.0000E+00  0.0000E+00  0.0000E+00  0.0000E+00  0.0000E+00  0.0000E+00  0.0000E+00  0.0000E+00  0.0000E+00  0.0000E+00  0.0000E+00  0.0000E+00  0.0000E+00  0.0000E+00  0.0000E+00  0.0000E+00  0.0000E+00  0.0000E+00  0.0000E+00  0.0000E+00  0.0000E+00  0.0000E+00  0.0000E+00  0.0000E+00  0.0000E+00  0.0000E+00  0.0000E+00  0.0000E+00  0.0000E+00  0.0000E+00  0.0000E+00  0.0000E+00  0.0000E+00  0.0000E+00  0.0000E+00  0.0000E+00  0.0000E+00  0.0000E+00  0.0000E+00  0.0000E+00  0.0000E+00  0.0000E+00  0.0000E+00  0.0000E+00  0.0000E+00  0.0000E+00  0.0000E+00  0.0000E+00  0.1028E-08  0.3106E-08  0.2088E-08  0.2102E-08  0.1057E-08  0.0000E+00  0.0000E+00  0.0000E+00  0.0000E+00  0.0000E+00  0.0000E+00  0.0000E+00  0.0000E+00  0.0000E+00  0.0000E+00  0.0000E+00  0.0000E+00  0.0000E+00  0.0000E+00  0.0000E+00  0.0000E+00  0.0000E+00  0.0000E+00
  0.0000E+00  0.0000E+00  0.0000E+00  0.0000E+00  0.0000E+00  0.0000E+00  0.0000E+00  0.0000E+00  0.0000E+00  0.0000E+00  0.0000E+00  0.0000E+00  0.0000E+00  0.0000E+00  0.0000E+00  0.0000E+00  0.0000E+00  0.0000E+00  0.0000E+00  0.0000E+00  0.0000E+00  0.0000E+00  0.0000E+00  0.0000E+00  0.0000E+00  0.0000E+00  0.0000E+00  0.0000E+00  0.0000E+00  0.0000E+00  0.0000E+00  0.0000E+00  0.0000E+00  0.0000E+00  0.0000E+00  0.0000E+00  0.0000E+00  0.0000E+00  0.0000E+00  0.0000E+00  0.0000E+00  0.0000E+00  0.0000E+00  0.0000E+00  0.0000E+00  0.0000E+00  0.0000E+00  0.0000E+00  0.0000E+00  0.0000E+00  0.2236E-08  0.3418E-08  0.3503E-08  0.3576E-08  0.7009E-08  0.7114E-08  0.7196E-08  0.7257E-08  0.7297E-08  0.6142E-08  0.3712E-08  0.1265E-08  0.0000E+00  0.0000E+00  0.0000E+00  0.0000E+00  0.0000E+00  0.0000E+00  0.0000E+00  0.0000E+00  0.0000E+00  0.0000E+00  0.0000E+00  0.0000E+00  0.0000E+00  0.0000E+00  0.0000E+00  0.0000E+00  0.0000E+00
  0.0000E+00  0.0000E+00  0.0000E+00  0.0000E+00  0.0000E+00  0.0000E+00  0.0000E+00  0.0000E+00  0.0000E+00  0.0000E+00  0.0000E+00  0.0000E+00  0.0000E+00  0.0000E+00  0.0000E+00  0.0000E+00  0.0000E+00  0.0000E+00  0.0000E+00  0.0000E+00  0.0000E+00  0.0000E+00  0.0000E+00  0.0000E+00  0.0000E+00  0.0000E+00  0.0000E+00  0.0000E+00  0.0000E+00  0.0000E+00  0.0000E+00  0.0000E+00  0.0000E+00  0.0000E+00  0.0000E+00  0.0000E+00  0.0000E+00  0.0000E+00  0.0000E+00  0.0000E+00  0.0000E+00  0.0000E+00  0.0000E+00  0.0000E+00  0.0000E+00  0.1174E-08  0.3573E-08  0.3726E-08  0.6267E-08  0.7680E-08  0.7910E-08  0.9331E-08  0.1198E-07  0.1220E-07  0.1239E-07  0.1253E-07  0.1627E-07  0.1515E-07  0.1397E-07  0.1265E-07  0.1006E-07  0.7286E-08  0.4375E-08  0.1478E-08  0.0000E+00  0.0000E+00  0.0000E+00  0.0000E+00  0.0000E+00  0.0000E+00  0.0000E+00  0.0000E+00  0.0000E+00  0.0000E+00  0.0000E+00  0.0000E+00  0.0000E+00  0.0000E+00  0.0000E+00
  0.0000E+00  0.0000E+00  0.0000E+00  0.0000E+00  0.0000E+00  0.0000E+00  0.0000E+00  0.0000E+00  0.0000E+00  0.0000E+00  0.0000E+00  0.0000E+00  0.0000E+00  0.0000E+00  0.0000E+00  0.0000E+00  0.0000E+00  0.0000E+00  0.0000E+00  0.0000E+00  0.0000E+00  0.0000E+00  0.0000E+00  0.0000E+00  0.0000E+00  0.0000E+00  0.0000E+00  0.0000E+00  0.0000E+00  0.0000E+00  0.0000E+00  0.0000E+00  0.0000E+00  0.0000E+00  0.0000E+00  0.0000E+00  0.0000E+00  0.0000E+00  0.0000E+00  0.0000E+00  0.0000E+00  0.1196E-08  0.2491E-08  0.3879E-08  0.6630E-08  0.8225E-08  0.9890E-08  0.1287E-07  0.1334E-07  0.1508E-07  0.1814E-07  0.1857E-07  0.1893E-07  0.2056E-07  0.2349E-07  0.2371E-07  0.2386E-07  0.2393E-07  0.2254E-07  0.1960E-07  0.1661E-07  0.1342E-07  0.1009E-07  0.6779E-08  0.3395E-08  0.1683E-08  0.0000E+00  0.0000E+00  0.0000E+00  0.0000E+00  0.0000E+00  0.0000E+00  0.0000E+00  0.0000E+00  0.0000E+00  0.0000E+00  0.0000E+00  0.0000E+00  0.0000E+00
  0.0000E+00  0.0000E+00  0.0000E+00  0.0000E+00  0.0000E+00  0.0000E+00  0.0000E+00  0.0000E+00  0.0000E+00  0.0000E+00  0.0000E+00  0.0000E+00  0.0000E+00  0.0000E+00  0.0000E+00  0.0000E+00  0.0000E+00  0.0000E+00  0.0000E+00  0.0000E+00  0.0000E+00  0.0000E+00  0.0000E+00  0.0000E+00  0.0000E+00  0.0000E+00  0.0000E+00  0.0000E+00  0.0000E+00  0.0000E+00  0.0000E+00  0.0000E+00  0.0000E+00  0.0000E+00  0.0000E+00  0.0000E+00  0.0000E+00  0.0000E+00  0.1240E-08  0.2607E-08  0.5396E-08  0.8357E-08  0.1023E-07  0.1219E-07  0.1422E-07  0.1772E-07  0.1989E-07  0.2064E-07  0.2566E-07  0.2641E-07  0.2706E-07  0.3055E-07  0.3253E-07  0.3296E-07  0.3327E-07  0.3347E-07  0.3646E-07  0.3502E-07  0.3187E-07  0.2843E-07  0.2492E-07  0.2290E-07  0.1736E-07  0.1354E-07  0.9649E-08  0.5743E-08  0.1915E-08  0.0000E+00  0.0000E+00  0.0000E+00  0.0000E+00  0.0000E+00  0.0000E+00  0.0000E+00  0.0000E+00  0.0000E+00  0.0000E+00  0.0000E+00  0.0000E+00
  0.0000E+00  0.0000E+00  0.0000E+00  0.0000E+00  0.0000E+00  0.0000E+00  0.0000E+00  0.0000E+00  0.0000E+00  0.0000E+00  0.0000E+00  0.0000E+00  0.0000E+00  0.0000E+00  0.0000E+00  0.0000E+00  0.0000E+00  0.0000E+00  0.0000E+00  0.0000E+00  0.0000E+00  0.0000E+00  0.0000E+00  0.0000E+00  0.0000E+00  0.0000E+00  0.0000E+00  0.0000E+00  0.0000E+00  0.0000E+00  0.0000E+00  0.0000E+00  0.0000E+00  0.0000E+00  0.0000E+00  0.0000E+00  0.2630E-08  0.5507E-08  0.7342E-08  0.1073E-07  0.1431E-07  0.1675E-07  0.2071E-07  0.2338E-07  0.2610E-07  0.2883E-07  0.3313E-07  0.3587E-07  0.3697E-07  0.4115E-07  0.4366E-07  0.4445E-07  0.4505E-07  0.4873E-07  0.5068E-07  0.5085E-07  0.4919E-07  0.4904E-07  0.4529E-07  0.4142E-07  0.3727E-07  0.3290E-07  0.2650E-07  0.2203E-07  0.1955E-07  0.1302E-07  0.6487E-08  0.2152E-08  0.0000E+00  0.0000E+00  0.0000E+00  0.0000E+00  0.0000E+00  0.0000E+00  0.0000E+00  0.0000E+00  0.0000E+00  0.0000E+00  0.0000E+00
  0.0000E+00  0.0000E+00  0.0000E+00  0.0000E+00  0.0000E+00  0.0000E+00  0.0000E+00  0.0000E+00  0.0000E+00  0.0000E+00  0.0000E+00  0.0000E+00  0.0000E+00  0.0000E+00  0.0000E+00  0.0000E+00  0.0000E+00  0.0000E+00  0.0000E+00  0.0000E+00  0.0000E+00  0.0000E+00  0.0000E+00  0.0000E+00  0.0000E+00  0.0000E+00  0.1257E-08  0.3807E-08  0.3924E-08  0.4024E-08  0.4106E-08  0.4169E-08  0.4212E-08  0.6903E-08  0.6965E-08  0.8650E-08  0.9404E-08  0.1327E-07  0.1741E-07  0.2179E-07  0.2496E-07  0.2978E-07  0.3323E-07  0.3832E-07  0.4187E-07  0.4539E-07  0.4884E-07  0.5220E-07  0.5720E-07  0.5854E-07  0.5964E-07  0.6590E-07  0.6664E-07  0.6712E-07  0.6734E-07  0.6734E-07  0.6887E-07  0.6477E-07  0.6021E-07  0.5552E-07  0.5053E-07  0.4533E-07  0.3786E-07  0.3488E-07  0.2959E-07  0.2208E-07  0.1461E-07  0.9610E-08  0.4741E-08  0.2331E-08  0.0000E+00  0.0000E+00  0.0000E+00  0.0000E+00  0.0000E+00  0.0000E+00  0.0000E+00  0.0000E+00  0.0000E+00
  0.0000E+00  0.0000E+00  0.0000E+00  0.0000E+00  0.0000E+00  0.0000E+00  0.0000E+00  0.0000E+00  0.0000E+00  0.0000E+00  0.0000E+00  0.0000E+00  0.0000E+00  0.0000E+00  0.0000E+00  0.0000E+00  0.0000E+00  0.0000E+00  0.0000E+00  0.0000E+00  0.0000E+00  0.0000E+00  0.2539E-08  0.3950E-08  0.4154E-08  0.8396E-08  0.8759E-08  0.9091E-08  0.1226E-07  0.1404E-07  0.1437E-07  0.1463E-07  0.1482E-07  0.1493E-07  0.1518E-07  0.1598E-07  0.2059E-07  0.2567E-07  0.2947E-07  0.3517E-07  0.4109E-07  0.4553E-07  0.5177E-07  0.5633E-07  0.6266E-07  0.6519E-07  0.7140E-07  0.7551E-07  0.7739E-07  0.8493E-07  0.8632E-07  0.8733E-07  0.8799E-07  0.9429E-07  0.9435E-07  0.9203E-07  0.8941E-07  0.8430E-07  0.7868E-07  0.7294E-07  0.6923E-07  0.6064E-07  0.5443E-07  0.4816E-07  0.4192E-07  0.3323E-07  0.2464E-07  0.1883E-07  0.1320E-07  0.7784E-08  0.2561E-08  0.0000E+00  0.0000E+00  0.0000E+00  0.0000E+00  0.0000E+00  0.0000E+00  0.0000E+00  0.0000E+00
  0.0000E+00  0.0000E+00  0.0000E+00  0.0000E+00  0.0000E+00  0.0000E+00  0.0000E+00  0.0000E+00  0.0000E+00  0.0000E+00  0.0000E+00  0.0000E+00  0.0000E+00  0.0000E+00  0.0000E+00  0.0000E+00  0.0000E+00  0.0000E+00  0.0000E+00  0.2568E-08  0.4038E-08  0.7017E-08  0.8819E-08  0.1079E-07  0.1426E-07  0.1499E-07  0.1874E-07  0.2105E-07  0.2182E-07  0.2413E-07  0.2801E-07  0.2861E-07  0.2905E-07  0.2941E-07  0.3010E-07  0.3163E-07  0.3583E-07  0.4071E-07  0.4775E-07  0.5505E-07  0.6080E-07  0.6851E-07  0.7438E-07  0.8219E-07  0.8791E-07  0.9549E-07  0.9859E-07  0.1057E-06  0.1103E-06  0.1122E-06  0.1158E-06  0.1213E-06  0.1219E-06  0.1220E-06  0.1216E-06  0.1208E-06  0.1172E-06  0.1108E-06  0.1041E-06  0.9703E-07  0.8961E-07  0.7935E-07  0.7185E-07  0.6435E-07  0.5693E-07  0.4682E-07  0.3689E-07  0.3009E-07  0.2354E-07  0.1727E-07  0.8502E-08  0.2788E-08  0.0000E+00  0.0000E+00  0.0000E+00  0.0000E+00  0.0000E+00  0.0000E+00  0.0000E+00
  0.0000E+00  0.0000E+00  0.0000E+00  0.0000E+00  0.0000E+00  0.0000E+00  0.0000E+00  0.0000E+00  0.0000E+00  0.0000E+00  0.0000E+00  0.0000E+00  0.0000E+00  0.0000E+00  0.0000E+00  0.0000E+00  0.1269E-08  0.3927E-08  0.5620E-08  0.8802E-08  0.1093E-07  0.1462E-07  0.1716E-07  0.2132E-07  0.2420E-07  0.2874E-07  0.3019E-07  0.3329E-07  0.3812E-07  0.3944E-07  0.4058E-07  0.4531E-07  0.4801E-07  0.4893E-07  0.5044E-07  0.5299E-07  0.5659E-07  0.6311E-07  0.7020E-07  0.7962E-07  0.8920E-07  0.9903E-07  0.1065E-06  0.1139E-06  0.1233E-06  0.1301E-06  0.1389E-06  0.1423E-06  0.1548E-06  0.1765E-06  0.1786E-06  0.1798E-06  0.1801E-06  0.1796E-06  0.1784E-06  0.1765E-06  0.1640E-06  0.1483E-06  0.1325E-06  0.1236E-06  0.1145E-06  0.1021E-06  0.9300E-07  0.8396E-07  0.7509E-07  0.6326E-07  0.5172E-07  0.4372E-07  0.3606E-07  0.2877E-07  0.1877E-07  0.9208E-08  0.3011E-08  0.0000E+00  0.0000E+00  0.0000E+00  0.0000E+00  0.0000E+00  0.0000E+00
  0.0000E+00  0.0000E+00  0.0000E+00  0.0000E+00  0.0000E+00  0.0000E+00  0.0000E+00  0.0000E+00  0.0000E+00  0.0000E+00  0.0000E+00  0.0000E+00  0.0000E+00  0.0000E+00  0.1284E-08  0.3994E-08  0.7096E-08  0.9113E-08  0.1287E-07  0.1693E-07  0.2131E-07  0.2456E-07  0.2956E-07  0.3330E-07  0.3716E-07  0.4112E-07  0.4710E-07  0.5127E-07  0.5549E-07  0.6157E-07  0.6360E-07  0.6530E-07  0.6894E-07  0.7506E-07  0.7789E-07  0.8182E-07  0.8687E-07  0.9311E-07  0.1025E-06  0.1145E-06  0.1268E-06  0.1366E-06  0.1488E-06  0.1580E-06  0.1753E-06  0.2034E-06  0.2095E-06  0.2144E-06  0.2382E-06  0.2511E-06  0.2531E-06  0.2537E-06  0.2531E-06  0.2514E-06  0.2486E-06  0.2347E-06  0.2202E-06  0.1929E-06  0.1761E-06  0.1681E-06  0.1445E-06  0.1296E-06  0.1185E-06  0.1111E-06  0.9686E-07  0.8296E-07  0.6950E-07  0.5654E-07  0.5106E-07  0.4254E-07  0.3109E-07  0.2021E-07  0.9891E-08  0.3226E-08  0.0000E+00  0.0000E+00  0.0000E+00  0.0000E+00  0.0000E+00
  0.0000E+00  0.0000E+00  0.0000E+00  0.0000E+00  0.0000E+00  0.0000E+00  0.0000E+00  0.0000E+00  0.0000E+00  0.0000E+00  0.0000E+00  0.0000E+00  0.1268E-08  0.3964E-08  0.7100E-08  0.9199E-08  0.1310E-07  0.1739E-07  0.2208E-07  0.2571E-07  0.3124E-07  0.3728E-07  0.4190E-07  0.4871E-07  0.5388E-07  0.6131E-07  0.6687E-07  0.7256E-07  0.8034E-07  0.8371E-07  0.9142E-07  0.9655E-07  0.9934E-07  0.1027E-06  0.1147E-06  0.1205E-06  0.1275E-06  0.1358E-06  0.1454E-06  0.1581E-06  0.1735E-06  0.2074E-06  0.2303E-06  0.2522E-06  0.2843E-06  0.2942E-06  0.3021E-06  0.3184E-06  0.3430E-06  0.3460E-06  0.3471E-06  0.3464E-06  0.3439E-06  0.3400E-06  0.3242E-06  0.3076E-06  0.2775E-06  0.2704E-06  0.2506E-06  0.2164E-06  0.1912E-06  0.1626E-06  0.1490E-06  0.1398E-06  0.1228E-06  0.1064E-06  0.9068E-07  0.7560E-07  0.6505E-07  0.5510E-07  0.4577E-07  0.3334E-07  0.2160E-07  0.1055E-07  0.3432E-08  0.0000E+00  0.0000E+00  0.0000E+00  0.0000E+00
  0.0000E+00  0.0000E+00  0.0000E+00  0.0000E+00  0.0000E+00  0.0000E+00  0.0000E+00  0.0000E+00  0.0000E+00  0.0000E+00  0.0000E+00  0.2643E-08  0.5649E-08  0.9045E-08  0.1299E-07  0.1738E-07  0.2225E-07  0.2775E-07  0.3209E-07  0.3867E-07  0.4576E-07  0.5336E-07  0.5971E-07  0.6830E-07  0.7539E-07  0.8480E-07  0.9241E-07  0.1023E-06  0.1101E-06  0.1202E-06  0.1250E-06  0.1322E-06  0.1423E-06  0.1482E-06  0.1552E-06  0.1633E-06  0.2096E-06  0.2211E-06  0.2340E-06  0.2493E-06  0.2785E-06  0.3196E-06  0.3367E-06  0.3748E-06  0.4002E-06  0.4123E-06  0.4215E-06  0.4487E-06  0.4632E-06  0.4649E-06  0.4640E-06  0.4606E-06  0.4551E-06  0.4370E-06  0.4176E-06  0.3971E-06  0.3736E-06  0.3499E-06  0.3113E-06  0.2860E-06  0.2445E-06  0.2143E-06  0.1853E-06  0.1738E-06  0.1536E-06  0.1342E-06  0.1157E-06  0.9812E-07  0.8145E-07  0.6982E-07  0.5895E-07  0.4875E-07  0.3516E-07  0.2244E-07  0.1079E-07  0.3437E-08  0.0000E+00  0.0000E+00  0.0000E+00
  0.0000E+00  0.0000E+00  0.0000E+00  0.0000E+00  0.0000E+00  0.0000E+00  0.0000E+00  0.0000E+00  0.0000E+00  0.1295E-08  0.4082E-08  0.7405E-08  0.1118E-07  0.1546E-07  0.2040E-07  0.2593E-07  0.3205E-07  0.3897E-07  0.4655E-07  0.5480E-07  0.6198E-07  0.7162E-07  0.8211E-07  0.9092E-07  0.1026E-06  0.1148E-06  0.1250E-06  0.1380E-06  0.1484E-06  0.1587E-06  0.1908E-06  0.2119E-06  0.2219E-06  0.2327E-06  0.2444E-06  0.2822E-06  0.3086E-06  0.3236E-06  0.3430E-06  0.3674E-06  0.4179E-06  0.4551E-06  0.4895E-06  0.5326E-06  0.5502E-06  0.5637E-06  0.5838E-06  0.6106E-06  0.6132E-06  0.6120E-06  0.6075E-06  0.6000E-06  0.5790E-06  0.5560E-06  0.5314E-06  0.5032E-06  0.4745E-06  0.4303E-06  0.3996E-06  0.3521E-06  0.3211E-06  0.2721E-06  0.2422E-06  0.2087E-06  0.1899E-06  0.1669E-06  0.1451E-06  0.1246E-06  0.1052E-06  0.8698E-07  0.6983E-07  0.6173E-07  0.5019E-07  0.3557E-07  0.2237E-07  0.1068E-07  0.3399E-08  0.0000E+00  0.0000E+00
  0.0000E+00  0.0000E+00  0.0000E+00  0.0000E+00  0.0000E+00  0.0000E+00  0.0000E+00  0.0000E+00  0.2623E-08  0.5667E-08  0.9175E-08  0.1334E-07  0.1808E-07  0.2343E-07  0.2963E-07  0.3655E-07  0.4424E-07  0.5294E-07  0.6248E-07  0.7288E-07  0.8439E-07  0.9451E-07  0.1078E-06  0.1220E-06  0.1369E-06  0.1528E-06  0.1664E-06  0.2024E-06  0.2282E-06  0.2551E-06  0.2947E-06  0.3111E-06  0.3279E-06  0.3451E-06  0.3627E-06  0.4194E-06  0.4384E-06  0.4602E-06  0.4906E-06  0.5404E-06  0.6009E-06  0.6336E-06  0.6859E-06  0.7221E-06  0.7415E-06  0.7552E-06  0.7851E-06  0.7993E-06  0.7980E-06  0.7921E-06  0.7820E-06  0.7572E-06  0.7296E-06  0.6998E-06  0.6656E-06  0.6306E-06  0.5793E-06  0.5417E-06  0.4867E-06  0.4486E-06  0.4291E-06  0.3746E-06  0.3178E-06  0.2854E-06  0.2469E-06  0.2052E-06  0.1795E-06  0.1554E-06  0.1326E-06  0.1112E-06  0.9104E-07  0.7201E-07  0.5438E-07  0.3835E-07  0.3517E-07  0.2207E-07  0.1053E-07  0.3348E-08  0.0000E+00
  0.0000E+00  0.0000E+00  0.0000E+00  0.0000E+00  0.0000E+00  0.0000E+00  0.1237E-08  0.3938E-08  0.7224E-08  0.1103E-07  0.1543E-07  0.2062E-07  0.2653E-07  0.3322E-07  0.4095E-07  0.4959E-07  0.5922E-07  0.7011E-07  0.8209E-07  0.9647E-07  0.1123E-06  0.1293E-06  0.1462E-06  0.1658E-06  0.1823E-06  0.2224E-06  0.2656E-06  0.3115E-06  0.3350E-06  0.3817E-06  0.4190E-06  0.4431E-06  0.4672E-06  0.4925E-06  0.5568E-06  0.5821E-06  0.6068E-06  0.6427E-06  0.7037E-06  0.7663E-06  0.8247E-06  0.8768E-06  0.9347E-06  0.9620E-06  0.9815E-06  0.1004E-05  0.1031E-05  0.1030E-05  0.1022E-05  0.1009E-05  0.9797E-06  0.9464E-06  0.9209E-06  0.8681E-06  0.8250E-06  0.7649E-06  0.7185E-06  0.6725E-06  0.6252E-06  0.5793E-06  0.5156E-06  0.4717E-06  0.4090E-06  0.3684E-06  0.3082E-06  0.2653E-06  0.2190E-06  0.1902E-06  0.1632E-06  0.1378E-06  0.1141E-06  0.9209E-07  0.7194E-07  0.5382E-07  0.3780E-07  0.2369E-07  0.1129E-07  0.3587E-08  0.0000E+00
  0.0000E+00  0.0000E+00  0.0000E+00  0.0000E+00  0.0000E+00  0.1268E-08  0.4048E-08  0.7457E-08  0.1144E-07  0.1753E-07  0.2155E-07  0.2943E-07  0.3677E-07  0.4509E-07  0.5469E-07  0.6933E-07  0.8154E-07  0.9936E-07  0.1147E-06  0.1329E-06  0.1543E-06  0.1745E-06  0.1977E-06  0.2403E-06  0.2893E-06  0.3414E-06  0.3982E-06  0.4450E-06  0.4919E-06  0.5537E-06  0.5906E-06  0.6244E-06  0.6591E-06  0.6915E-06  0.7646E-06  0.7950E-06  0.8319E-06  0.8872E-06  0.9817E-06  0.1058E-05  0.1113E-05  0.1184E-05  0.1234E-05  0.1262E-05  0.1279E-05  0.1309E-05  0.1319E-05  0.1309E-05  0.1292E-05  0.1268E-05  0.1228E-05  0.1183E-05  0.1120E-05  0.1067E-05  0.9956E-06  0.9546E-06  0.8972E-06  0.8224E-06  0.7653E-06  0.6900E-06  0.6355E-06  0.5618E-06  0.5113E-06  0.4409E-06  0.3700E-06  0.3270E-06  0.2791E-06  0.2284E-06  0.1965E-06  0.1668E-06  0.1392E-06  0.1140E-06  0.9114E-07  0.7082E-07  0.5289E-07  0.3710E-07  0.2322E-07  0.1106E-07  0.3512E-08
  0.0000E+00  0.0000E+00  0.0000E+00  0.0000E+00  0.1286E-08  0.4118E-08  0.7616E-08  0.1311E-07  0.1804E-07  0.2376E-07  0.3055E-07  0.3834E-07  0.5122E-07  0.6582E-07  0.7806E-07  0.9809E-07  0.1138E-06  0.1345E-06  0.1555E-06  0.1786E-06  0.2055E-06  0.2406E-06  0.3031E-06  0.3611E-06  0.4250E-06  0.4955E-06  0.5684E-06  0.6189E-06  0.6950E-06  0.7604E-06  0.8107E-06  0.8617E-06  0.9079E-06  0.9946E-06  0.1036E-05  0.1077E-05  0.1137E-05  0.1233E-05  0.1341E-05  0.1415E-05  0.1491E-05  0.1567E-05  0.1606E-05  0.1630E-05  0.1653E-05  0.1675E-05  0.1664E-05  0.1642E-05  0.1611E-05  0.1562E-05  0.1506E-05  0.1432E-05  0.1366E-05  0.1298E-05  0.1226E-05  0.1155E-05  0.1066E-05  0.9945E-06  0.9049E-06  0.8370E-06  0.7497E-06  0.6869E-06  0.6038E-06  0.5454E-06  0.4655E-06  0.3873E-06  0.3081E-06  0.2507E-06  0.2326E-06  0.1981E-06  0.1665E-06  0.1378E-06  0.1121E-06  0.8939E-07  0.6937E-07  0.5174E-07  0.3625E-07  0.2267E-07  0.1079E-07
  0.0000E+00  0.0000E+00  0.0000E+00  0.1291E-08  0.4148E-08  0.8971E-08  0.1329E-07  0.1836E-07  0.2428E-07  0.3522E-07  0.4374E-07  0.5955E-07  0.7546E-07  0.8921E-07  0.1093E-06  0.1269E-06  0.1516E-06  0.1739E-06  0.2036E-06  0.2310E-06  0.2862E-06  0.3569E-06  0.4379E-06  0.5156E-06  0.6005E-06  0.6907E-06  0.7721E-06  0.8583E-06  0.9570E-06  0.1027E-05  0.1097E-05  0.1166E-05  0.1230E-05  0.1330E-05  0.1385E-05  0.1448E-05  0.1542E-05  0.1679E-05  0.1790E-05  0.1872E-05  0.1964E-05  0.2025E-05  0.2059E-05  0.2077E-05  0.2101E-05  0.2099E-05  0.2073E-05  0.2034E-05  0.1974E-05  0.1905E-05  0.1816E-05  0.1734E-05  0.1650E-05  0.1561E-05  0.1472E-05  0.1364E-05  0.1276E-05  0.1169E-05  0.1084E-05  0.9801E-06  0.9018E-06  0.8033E-06  0.7310E-06  0.6359E-06  0.5422E-06  0.4538E-06  0.3947E-06  0.3126E-06  0.2528E-06  0.2143E-06  0.1794E-06  0.1481E-06  0.1203E-06  0.9578E-07  0.7423E-07  0.5961E-07  0.4667E-07  0.3526E-07  0.2203E-07
  0.0000E+00  0.0000E+00  0.1283E-08  0.4137E-08  0.7704E-08  0.1334E-07  0.1849E-07  0.2849E-07  0.3750E-07  0.4945E-07  0.6637E-07  0.8063E-07  0.9880E-07  0.1208E-06  0.1404E-06  0.1679E-06  0.1990E-06  0.2291E-06  0.2641E-06  0.3205E-06  0.4140E-06  0.5180E-06  0.5951E-06  0.7125E-06  0.8236E-06  0.9396E-06  0.1036E-05  0.1161E-05  0.1273E-05  0.1371E-05  0.1467E-05  0.1556E-05  0.1683E-05  0.1760E-05  0.1831E-05  0.1937E-05  0.2085E-05  0.2244E-05  0.2353E-05  0.2468E-05  0.2548E-05  0.2592E-05  0.2614E-05  0.2613E-05  0.2632E-05  0.2600E-05  0.2552E-05  0.2479E-05  0.2395E-05  0.2288E-05  0.2202E-05  0.2096E-05  0.1971E-05  0.1861E-05  0.1731E-05  0.1621E-05  0.1491E-05  0.1386E-05  0.1262E-05  0.1164E-05  0.1047E-05  0.9571E-06  0.8443E-06  0.7581E-06  0.6509E-06  0.5497E-06  0.4572E-06  0.3720E-06  0.3114E-06  0.2502E-06  0.2107E-06  0.1756E-06  0.1446E-06  0.1173E-06  0.9327E-07  0.7221E-07  0.5374E-07  0.3757E-07  0.2345E-07
  0.2368E-08  0.3741E-08  0.7867E-08  0.1286E-07  0.1866E-07  0.2536E-07  0.3312E-07  0.4121E-07  0.5530E-07  0.7175E-07  0.8724E-07  0.1085E-06  0.1324E-06  0.1541E-06  0.1844E-06  0.2186E-06  0.2523E-06  0.2938E-06  0.3658E-06  0.4694E-06  0.5710E-06  0.6951E-06  0.8262E-06  0.9615E-06  0.1106E-05  0.1242E-05  0.1397E-05  0.1569E-05  0.1701E-05  0.1831E-05  0.1956E-05  0.2077E-05  0.2216E-05  0.2299E-05  0.2412E-05  0.2568E-05  0.2769E-05  0.2929E-05  0.3063E-05  0.3180E-05  0.3241E-05  0.3271E-05  0.3276E-05  0.3277E-05  0.3245E-05  0.3183E-05  0.3094E-05  0.2992E-05  0.2878E-05  0.2753E-05  0.2623E-05  0.2472E-05  0.2334E-05  0.2177E-05  0.2040E-05  0.1884E-05  0.1754E-05  0.1604E-05  0.1483E-05  0.1342E-05  0.1231E-05  0.1098E-05  0.9912E-06  0.8626E-06  0.7400E-06  0.6275E-06  0.5237E-06  0.4530E-06  0.3667E-06  0.3052E-06  0.2444E-06  0.2052E-06  0.1707E-06  0.1404E-06  0.1138E-06  0.9039E-07  0.6991E-07  0.5198E-07  0.3631E-07
  0.1407E-07  0.1886E-07  0.2446E-07  0.2949E-07  0.3822E-07  0.4675E-07  0.5660E-07  0.6629E-07  0.7787E-07  0.9550E-07  0.1181E-06  0.1386E-06  0.1677E-06  0.2008E-06  0.2317E-06  0.2756E-06  0.3218E-06  0.3988E-06  0.5225E-06  0.6354E-06  0.7754E-06  0.9531E-06  0.1137E-05  0.1308E-05  0.1492E-05  0.1671E-05  0.1871E-05  0.2072E-05  0.2245E-05  0.2415E-05  0.2563E-05  0.2760E-05  0.2884E-05  0.3014E-05  0.3192E-05  0.3423E-05  0.3626E-05  0.3775E-05  0.3924E-05  0.4021E-05  0.4068E-05  0.4078E-05  0.4055E-05  0.4038E-05  0.3960E-05  0.3849E-05  0.3719E-05  0.3577E-05  0.3424E-05  0.3263E-05  0.3079E-05  0.2910E-05  0.2719E-05  0.2550E-05  0.2361E-05  0.2199E-05  0.2018E-05  0.1869E-05  0.1699E-05  0.1563E-05  0.1404E-05  0.1274E-05  0.1120E-05  0.9727E-06  0.8616E-06  0.7351E-06  0.6199E-06  0.5147E-06  0.4194E-06  0.3278E-06  0.2616E-06  0.2194E-06  0.1823E-06  0.1497E-06  0.1212E-06  0.9617E-07  0.7430E-07  0.5519E-07  0.3852E-07
  0.3019E-07  0.3788E-07  0.4527E-07  0.5370E-07  0.6342E-07  0.7439E-07  0.8859E-07  0.1011E-06  0.1173E-06  0.1340E-06  0.1598E-06  0.1839E-06  0.2128E-06  0.2506E-06  0.2956E-06  0.3418E-06  0.4305E-06  0.5610E-06  0.6975E-06  0.9014E-06  0.1076E-05  0.1314E-05  0.1520E-05  0.1743E-05  0.1965E-05  0.2211E-05  0.2479E-05  0.2705E-05  0.2929E-05  0.3132E-05  0.3369E-05  0.3560E-05  0.3729E-05  0.3924E-05  0.4190E-05  0.4451E-05  0.4668E-05  0.4838E-05  0.4986E-05  0.5033E-05  0.5041E-05  0.5019E-05  0.4957E-05  0.4900E-05  0.4766E-05  0.4608E-05  0.4430E-05  0.4237E-05  0.4035E-05  0.3812E-05  0.3603E-05  0.3372E-05  0.3164E-05  0.2981E-05  0.2760E-05  0.2541E-05  0.2359E-05  0.2155E-05  0.1961E-05  0.1771E-05  0.1613E-05  0.1431E-05  0.1282E-05  0.1116E-05  0.9634E-06  0.8238E-06  0.6961E-06  0.5801E-06  0.4757E-06  0.3825E-06  0.3169E-06  0.2529E-06  0.2118E-06  0.1758E-06  0.1443E-06  0.1167E-06  0.9253E-07  0.7143E-07  0.5302E-07
  0.5131E-07  0.6140E-07  0.6963E-07  0.8387E-07  0.9660E-07  0.1091E-06  0.1273E-06  0.1475E-06  0.1662E-06  0.1896E-06  0.2160E-06  0.2462E-06  0.2840E-06  0.3230E-06  0.3715E-06  0.4371E-06  0.6007E-06  0.7787E-06  0.1013E-05  0.1212E-05  0.1453E-05  0.1737E-05  0.2002E-05  0.2287E-05  0.2559E-05  0.2887E-05  0.3206E-05  0.3497E-05  0.3768E-05  0.4042E-05  0.4333E-05  0.4566E-05  0.4789E-05  0.5073E-05  0.5414E-05  0.5698E-05  0.5908E-05  0.6098E-05  0.6187E-05  0.6216E-05  0.6203E-05  0.6116E-05  0.6017E-05  0.5869E-05  0.5678E-05  0.5461E-05  0.5225E-05  0.4976E-05  0.4701E-05  0.4438E-05  0.4180E-05  0.3924E-05  0.3673E-05  0.3405E-05  0.3169E-05  0.2917E-05  0.2671E-05  0.2468E-05  0.2240E-05  0.2020E-05  0.1803E-05  0.1622E-05  0.1424E-05  0.1240E-05  0.1071E-05  0.9169E-06  0.7763E-06  0.6739E-06  0.5595E-06  0.4340E-06  0.3613E-06  0.2985E-06  0.2375E-06  0.1982E-06  0.1638E-06  0.1337E-06  0.1074E-06  0.8448E-07  0.6446E-07
  0.7664E-07  0.9142E-07  0.1027E-06  0.1191E-06  0.1357E-06  0.1541E-06  0.1794E-06  0.2011E-06  0.2368E-06  0.2938E-06  0.3398E-06  0.3980E-06  0.4736E-06  0.5629E-06  0.6862E-06  0.8637E-06  0.1131E-05  0.1370E-05  0.1652E-05  0.1896E-05  0.2204E-05  0.2482E-05  0.2792E-05  0.3102E-05  0.3445E-05  0.3794E-05  0.4130E-05  0.4475E-05  0.4826E-05  0.5200E-05  0.5518E-05  0.5804E-05  0.6123E-05  0.6509E-05  0.6895E-05  0.7178E-05  0.7410E-05  0.7566E-05  0.7605E-05  0.7600E-05  0.7518E-05  0.7368E-05  0.7222E-05  0.6972E-05  0.6711E-05  0.6411E-05  0.6106E-05  0.5773E-05  0.5471E-05  0.5149E-05  0.4809E-05  0.4499E-05  0.4176E-05  0.3887E-05  0.3583E-05  0.3319E-05  0.3039E-05  0.2766E-05  0.2504E-05  0.2248E-05  0.2030E-05  0.1794E-05  0.1573E-05  0.1370E-05  0.1210E-05  0.1040E-05  0.8862E-06  0.7473E-06  0.6229E-06  0.5126E-06  0.4155E-06  0.3239E-06  0.2580E-06  0.2157E-06  0.1787E-06  0.1464E-06  0.1182E-06  0.9359E-07  0.7214E-07
  0.1088E-06  0.1235E-06  0.1423E-06  0.1641E-06  0.2232E-06  0.2759E-06  0.3331E-06  0.4043E-06  0.5257E-06  0.6253E-06  0.7378E-06  0.8621E-06  0.9798E-06  0.1117E-05  0.1305E-05  0.1528E-05  0.1793E-05  0.2067E-05  0.2344E-05  0.2661E-05  0.3035E-05  0.3395E-05  0.3769E-05  0.4166E-05  0.4619E-05  0.5048E-05  0.5464E-05  0.5873E-05  0.6261E-05  0.6668E-05  0.7005E-05  0.7343E-05  0.7776E-05  0.8262E-05  0.8641E-05  0.8935E-05  0.9148E-05  0.9250E-05  0.9247E-05  0.9162E-05  0.8992E-05  0.8788E-05  0.8533E-05  0.8214E-05  0.7847E-05  0.7454E-05  0.7070E-05  0.6677E-05  0.6286E-05  0.5874E-05  0.5492E-05  0.5096E-05  0.4739E-05  0.4374E-05  0.4051E-05  0.3715E-05  0.3390E-05  0.3108E-05  0.2805E-05  0.2513E-05  0.2234E-05  0.1999E-05  0.1756E-05  0.1532E-05  0.1328E-05  0.1143E-05  0.9748E-06  0.8238E-06  0.6892E-06  0.5703E-06  0.4415E-06  0.3666E-06  0.3025E-06  0.2404E-06  0.2003E-06  0.1653E-06  0.1347E-06  0.1081E-06  0.8487E-07
  0.1678E-06  0.1928E-06  0.2346E-06  0.3035E-06  0.3864E-06  0.4787E-06  0.5748E-06  0.6912E-06  0.8390E-06  0.9735E-06  0.1117E-05  0.1290E-05  0.1445E-05  0.1625E-05  0.1882E-05  0.2183E-05  0.2451E-05  0.2804E-05  0.3160E-05  0.3591E-05  0.3994E-05  0.4456E-05  0.4956E-05  0.5473E-05  0.6025E-05  0.6538E-05  0.7069E-05  0.7568E-05  0.8079E-05  0.8538E-05  0.8936E-05  0.9387E-05  0.9899E-05  0.1037E-04  0.1073E-04  0.1100E-04  0.1116E-04  0.1118E-04  0.1111E-04  0.1093E-04  0.1067E-04  0.1038E-04  0.9988E-05  0.9548E-05  0.9082E-05  0.8612E-05  0.8114E-05  0.7636E-05  0.7139E-05  0.6673E-05  0.6195E-05  0.5759E-05  0.5313E-05  0.4917E-05  0.4515E-05  0.4159E-05  0.3788E-05  0.3428E-05  0.3084E-05  0.2755E-05  0.2473E-05  0.2184E-05  0.1917E-05  0.1673E-05  0.1451E-05  0.1249E-05  0.1066E-05  0.9033E-06  0.7585E-06  0.6300E-06  0.5171E-06  0.4186E-06  0.3260E-06  0.2596E-06  0.2167E-06  0.1793E-06  0.1467E-06  0.1183E-06  0.9354E-07
  0.2631E-06  0.3192E-06  0.3989E-06  0.5227E-06  0.6322E-06  0.7454E-06  0.8849E-06  0.1049E-05  0.1228E-05  0.1407E-05  0.1596E-05  0.1779E-05  0.1954E-05  0.2208E-05  0.2517E-05  0.2867E-05  0.3246E-05  0.3636E-05  0.4072E-05  0.4599E-05  0.5137E-05  0.5731E-05  0.6345E-05  0.7028E-05  0.7684E-05  0.8343E-05  0.8983E-05  0.9585E-05  0.1023E-04  0.1077E-04  0.1129E-04  0.1188E-04  0.1250E-04  0.1299E-04  0.1334E-04  0.1356E-04  0.1360E-04  0.1352E-04  0.1328E-04  0.1295E-04  0.1256E-04  0.1209E-04  0.1157E-04  0.1100E-04  0.1046E-04  0.9835E-05  0.9264E-05  0.8634E-05  0.8067E-05  0.7494E-05  0.6963E-05  0.6428E-05  0.5948E-05  0.5459E-05  0.5026E-05  0.4585E-05  0.4160E-05  0.3755E-05  0.3397E-05  0.3032E-05  0.2690E-05  0.2373E-05  0.2083E-05  0.1820E-05  0.1582E-05  0.1376E-05  0.1186E-05  0.1022E-05  0.8749E-06  0.7449E-06  0.6318E-06  0.5114E-06  0.4200E-06  0.3566E-06  0.3155E-06  0.2715E-06  0.2217E-06  0.1712E-06  0.1328E-06
  0.4186E-06  0.5149E-06  0.6442E-06  0.7888E-06  0.9335E-06  0.1087E-05  0.1270E-05  0.1486E-05  0.1704E-05  0.1922E-05  0.2133E-05  0.2331E-05  0.2545E-05  0.2889E-05  0.3272E-05  0.3665E-05  0.4157E-05  0.4657E-05  0.5250E-05  0.5853E-05  0.6523E-05  0.7254E-05  0.8029E-05  0.8871E-05  0.9708E-05  0.1054E-04  0.1133E-04  0.1212E-04  0.1282E-04  0.1345E-04  0.1415E-04  0.1488E-04  0.1554E-04  0.1601E-04  0.1630E-04  0.1643E-04  0.1637E-04  0.1615E-04  0.1578E-04  0.1533E-04  0.1475E-04  0.1411E-04  0.1339E-04  0.1265E-04  0.1189E-04  0.1117E-04  0.1043E-04  0.9743E-05  0.9020E-05  0.8379E-05  0.7739E-05  0.7157E-05  0.6574E-05  0.6051E-05  0.5521E-05  0.5047E-05  0.4569E-05  0.4114E-05  0.3686E-05  0.3289E-05  0.2926E-05  0.2592E-05  0.2290E-05  0.2017E-05  0.1770E-05  0.1572E-05  0.1349E-05  0.1173E-05  0.1018E-05  0.8822E-06  0.7409E-06  0.6367E-06  0.5711E-06  0.4872E-06  0.4254E-06  0.3843E-06  0.3402E-06  0.2873E-06  0.2281E-06
  0.6493E-06  0.7775E-06  0.9514E-06  0.1107E-05  0.1288E-05  0.1491E-05  0.1741E-05  0.1997E-05  0.2244E-05  0.2488E-05  0.2723E-05  0.2932E-05  0.3278E-05  0.3705E-05  0.4195E-05  0.4768E-05  0.5335E-05  0.5989E-05  0.6750E-05  0.7523E-05  0.8380E-05  0.9279E-05  0.1027E-04  0.1128E-04  0.1229E-04  0.1325E-04  0.1423E-04  0.1517E-04  0.1598E-04  0.1680E-04  0.1766E-04  0.1845E-04  0.1904E-04  0.1943E-04  0.1963E-04  0.1963E-04  0.1943E-04  0.1905E-04  0.1853E-04  0.1787E-04  0.1713E-04  0.1630E-04  0.1541E-04  0.1449E-04  0.1355E-04  0.1260E-04  0.1173E-04  0.1086E-04  0.1009E-04  0.9290E-05  0.8592E-05  0.7895E-05  0.7269E-05  0.6638E-05  0.6068E-05  0.5497E-05  0.4960E-05  0.4466E-05  0.4008E-05  0.3584E-05  0.3225E-05  0.2869E-05  0.2518E-05  0.2254E-05  0.1992E-05  0.1729E-05  0.1518E-05  0.1331E-05  0.1165E-05  0.9919E-06  0.8619E-06  0.7722E-06  0.6495E-06  0.5558E-06  0.4887E-06  0.4444E-06  0.4054E-06  0.3605E-06  0.3028E-06
  0.9061E-06  0.1071E-05  0.1278E-05  0.1489E-05  0.1723E-05  0.1997E-05  0.2275E-05  0.2594E-05  0.2938E-05  0.3283E-05  0.3563E-05  0.3904E-05  0.4408E-05  0.4982E-05  0.5573E-05  0.6281E-05  0.6997E-05  0.7843E-05  0.8750E-05  0.9724E-05  0.1077E-04  0.1186E-04  0.1302E-04  0.1417E-04  0.1530E-04  0.1645E-04  0.1764E-04  0.1870E-04  0.1970E-04  0.2070E-04  0.2172E-04  0.2252E-04  0.2305E-04  0.2332E-04  0.2336E-04  0.2316E-04  0.2277E-04  0.2221E-04  0.2148E-04  0.2063E-04  0.1966E-04  0.1862E-04  0.1753E-04  0.1644E-04  0.1534E-04  0.1426E-04  0.1319E-04  0.1219E-04  0.1118E-04  0.1029E-04  0.9473E-05  0.8689E-05  0.7944E-05  0.7268E-05  0.6597E-05  0.5961E-05  0.5372E-05  0.4866E-05  0.4374E-05  0.3922E-05  0.3508E-05  0.3131E-05  0.2786E-05  0.2474E-05  0.2164E-05  0.1910E-05  0.1711E-05  0.1485E-05  0.1281E-05  0.1149E-05  0.1010E-05  0.8646E-06  0.7339E-06  0.6346E-06  0.5847E-06  0.5209E-06  0.4773E-06  0.4438E-06  0.3958E-06
  0.1225E-05  0.1444E-05  0.1680E-05  0.1954E-05  0.2281E-05  0.2747E-05  0.3168E-05  0.3581E-05  0.3940E-05  0.4277E-05  0.4630E-05  0.5133E-05  0.5772E-05  0.6499E-05  0.7255E-05  0.8081E-05  0.9015E-05  0.1007E-04  0.1117E-04  0.1237E-04  0.1361E-04  0.1493E-04  0.1630E-04  0.1765E-04  0.1905E-04  0.2046E-04  0.2180E-04  0.2304E-04  0.2426E-04  0.2549E-04  0.2655E-04  0.2727E-04  0.2767E-04  0.2776E-04  0.2758E-04  0.2712E-04  0.2646E-04  0.2562E-04  0.2463E-04  0.2355E-04  0.2237E-04  0.2112E-04  0.1981E-04  0.1854E-04  0.1725E-04  0.1601E-04  0.1476E-04  0.1359E-04  0.1245E-04  0.1136E-04  0.1035E-04  0.9485E-05  0.8650E-05  0.7864E-05  0.7119E-05  0.6463E-05  0.5827E-05  0.5250E-05  0.4724E-05  0.4242E-05  0.3801E-05  0.3398E-05  0.3032E-05  0.2672E-05  0.2401E-05  0.2133E-05  0.1868E-05  0.1628E-05  0.1465E-05  0.1298E-05  0.1126E-05  0.9709E-06  0.8565E-06  0.7797E-06  0.6844E-06  0.6138E-06  0.5659E-06  0.5217E-06  0.4824E-06
  0.1634E-05  0.1965E-05  0.2355E-05  0.2777E-05  0.3251E-05  0.3726E-05  0.4166E-05  0.4573E-05  0.4972E-05  0.5390E-05  0.5863E-05  0.6586E-05  0.7414E-05  0.8259E-05  0.9195E-05  0.1021E-04  0.1136E-04  0.1265E-04  0.1400E-04  0.1541E-04  0.1690E-04  0.1846E-04  0.2008E-04  0.2174E-04  0.2341E-04  0.2512E-04  0.2668E-04  0.2817E-04  0.2964E-04  0.3101E-04  0.3204E-04  0.3266E-04  0.3292E-04  0.3280E-04  0.3232E-04  0.3156E-04  0.3059E-04  0.2941E-04  0.2811E-04  0.2668E-04  0.2519E-04  0.2371E-04  0.2221E-04  0.2068E-04  0.1921E-04  0.1773E-04  0.1636E-04  0.1500E-04  0.1374E-04  0.1252E-04  0.1136E-04  0.1027E-04  0.9313E-05  0.8477E-05  0.7671E-05  0.6932E-05  0.6262E-05  0.5646E-05  0.5084E-05  0.4574E-05  0.4108E-05  0.3683E-05  0.3267E-05  0.2947E-05  0.2633E-05  0.2322E-05  0.2069E-05  0.1843E-05  0.1643E-05  0.1439E-05  0.1257E-05  0.1117E-05  0.1018E-05  0.8869E-06  0.7846E-06  0.7079E-06  0.6540E-06  0.6059E-06  0.5609E-06
  0.2256E-05  0.2667E-05  0.3128E-05  0.3614E-05  0.4125E-05  0.4631E-05  0.5113E-05  0.5587E-05  0.6099E-05  0.6655E-05  0.7287E-05  0.8219E-05  0.9198E-05  0.1021E-04  0.1142E-04  0.1268E-04  0.1411E-04  0.1559E-04  0.1719E-04  0.1886E-04  0.2065E-04  0.2255E-04  0.2450E-04  0.2649E-04  0.2851E-04  0.3046E-04  0.3229E-04  0.3409E-04  0.3584E-04  0.3728E-04  0.3823E-04  0.3869E-04  0.3873E-04  0.3833E-04  0.3753E-04  0.3644E-04  0.3513E-04  0.3362E-04  0.3194E-04  0.3014E-04  0.2829E-04  0.2643E-04  0.2460E-04  0.2287E-04  0.2113E-04  0.1953E-04  0.1794E-04  0.1646E-04  0.1504E-04  0.1366E-04  0.1238E-04  0.1115E-04  0.1006E-04  0.9066E-05  0.8196E-05  0.7418E-05  0.6709E-05  0.6061E-05  0.5467E-05  0.4928E-05  0.4438E-05  0.3991E-05  0.3585E-05  0.3218E-05  0.2858E-05  0.2559E-05  0.2292E-05  0.2054E-05  0.1814E-05  0.1598E-05  0.1454E-05  0.1305E-05  0.1148E-05  0.1008E-05  0.8982E-06  0.8136E-06  0.7548E-06  0.6999E-06  0.6506E-06
  0.2920E-05  0.3390E-05  0.3928E-05  0.4485E-05  0.5052E-05  0.5596E-05  0.6148E-05  0.6732E-05  0.7370E-05  0.8053E-05  0.8942E-05  0.1008E-04  0.1123E-04  0.1254E-04  0.1394E-04  0.1547E-04  0.1713E-04  0.1889E-04  0.2079E-04  0.2282E-04  0.2500E-04  0.2724E-04  0.2957E-04  0.3192E-04  0.3432E-04  0.3656E-04  0.3874E-04  0.4090E-04  0.4285E-04  0.4427E-04  0.4509E-04  0.4537E-04  0.4512E-04  0.4435E-04  0.4321E-04  0.4175E-04  0.3999E-04  0.3807E-04  0.3601E-04  0.3386E-04  0.3164E-04  0.2941E-04  0.2724E-04  0.2513E-04  0.2317E-04  0.2129E-04  0.1957E-04  0.1790E-04  0.1630E-04  0.1485E-04  0.1344E-04  0.1210E-04  0.1084E-04  0.9723E-05  0.8754E-05  0.7921E-05  0.7178E-05  0.6500E-05  0.5909E-05  0.5310E-05  0.4794E-05  0.4327E-05  0.3901E-05  0.3485E-05  0.3136E-05  0.2849E-05  0.2540E-05  0.2259E-05  0.2006E-05  0.1828E-05  0.1647E-05  0.1461E-05  0.1295E-05  0.1144E-05  0.1026E-05  0.9574E-06  0.8730E-06  0.8180E-06  0.7605E-06
  0.3659E-05  0.4249E-05  0.4804E-05  0.5429E-05  0.6046E-05  0.6685E-05  0.7352E-05  0.8065E-05  0.8837E-05  0.9647E-05  0.1080E-04  0.1215E-04  0.1353E-04  0.1509E-04  0.1673E-04  0.1858E-04  0.2050E-04  0.2261E-04  0.2486E-04  0.2732E-04  0.2990E-04  0.3255E-04  0.3532E-04  0.3812E-04  0.4086E-04  0.4350E-04  0.4609E-04  0.4858E-04  0.5060E-04  0.5193E-04  0.5260E-04  0.5263E-04  0.5204E-04  0.5091E-04  0.4935E-04  0.4736E-04  0.4517E-04  0.4281E-04  0.4032E-04  0.3775E-04  0.3513E-04  0.3257E-04  0.3005E-04  0.2764E-04  0.2532E-04  0.2322E-04  0.2122E-04  0.1937E-04  0.1761E-04  0.1597E-04  0.1443E-04  0.1300E-04  0.1169E-04  0.1051E-04  0.9433E-05  0.8469E-05  0.7707E-05  0.6998E-05  0.6314E-05  0.5720E-05  0.5180E-05  0.4691E-05  0.4214E-05  0.3808E-05  0.3469E-05  0.3110E-05  0.2783E-05  0.2486E-05  0.2271E-05  0.2053E-05  0.1835E-05  0.1635E-05  0.1456E-05  0.1296E-05  0.1213E-05  0.1104E-05  0.1010E-05  0.9402E-06  0.8768E-06
  0.4475E-05  0.5109E-05  0.5772E-05  0.6463E-05  0.7155E-05  0.7887E-05  0.8683E-05  0.9531E-05  0.1046E-04  0.1142E-04  0.1301E-04  0.1448E-04  0.1618E-04  0.1793E-04  0.1988E-04  0.2203E-04  0.2431E-04  0.2682E-04  0.2951E-04  0.3243E-04  0.3547E-04  0.3862E-04  0.4184E-04  0.4514E-04  0.4827E-04  0.5140E-04  0.5449E-04  0.5722E-04  0.5926E-04  0.6045E-04  0.6093E-04  0.6062E-04  0.5956E-04  0.5798E-04  0.5585E-04  0.5340E-04  0.5067E-04  0.4777E-04  0.4482E-04  0.4181E-04  0.3881E-04  0.3585E-04  0.3302E-04  0.3026E-04  0.2770E-04  0.2523E-04  0.2299E-04  0.2088E-04  0.1892E-04  0.1711E-04  0.1543E-04  0.1394E-04  0.1256E-04  0.1130E-04  0.1018E-04  0.9149E-05  0.8253E-05  0.7459E-05  0.6782E-05  0.6196E-05  0.5599E-05  0.5054E-05  0.4586E-05  0.4190E-05  0.3774E-05  0.3396E-05  0.3050E-05  0.2790E-05  0.2532E-05  0.2274E-05  0.2040E-05  0.1829E-05  0.1635E-05  0.1533E-05  0.1378E-05  0.1250E-05  0.1147E-05  0.1070E-05  0.9972E-06
  0.5354E-05  0.6074E-05  0.6810E-05  0.7591E-05  0.8380E-05  0.9242E-05  0.1016E-04  0.1119E-04  0.1224E-04  0.1353E-04  0.1533E-04  0.1706E-04  0.1901E-04  0.2107E-04  0.2337E-04  0.2585E-04  0.2859E-04  0.3154E-04  0.3476E-04  0.3816E-04  0.4173E-04  0.4542E-04  0.4924E-04  0.5299E-04  0.5667E-04  0.6037E-04  0.6392E-04  0.6672E-04  0.6869E-04  0.6970E-04  0.6989E-04  0.6915E-04  0.6772E-04  0.6562E-04  0.6300E-04  0.5999E-04  0.5659E-04  0.5314E-04  0.4951E-04  0.4605E-04  0.4261E-04  0.3927E-04  0.3604E-04  0.3300E-04  0.3008E-04  0.2740E-04  0.2483E-04  0.2243E-04  0.2029E-04  0.1833E-04  0.1651E-04  0.1489E-04  0.1345E-04  0.1215E-04  0.1097E-04  0.9890E-05  0.8869E-05  0.8043E-05  0.7319E-05  0.6643E-05  0.6019E-05  0.5510E-05  0.5020E-05  0.4543E-05  0.4107E-05  0.3707E-05  0.3398E-05  0.3091E-05  0.2789E-05  0.2513E-05  0.2264E-05  0.2037E-05  0.1903E-05  0.1717E-05  0.1548E-05  0.1411E-05  0.1298E-05  0.1209E-05  0.1127E-05
  0.6317E-05  0.7073E-05  0.7937E-05  0.8798E-05  0.9731E-05  0.1072E-04  0.1180E-04  0.1298E-04  0.1424E-04  0.1584E-04  0.1792E-04  0.1996E-04  0.2213E-04  0.2454E-04  0.2723E-04  0.3017E-04  0.3337E-04  0.3685E-04  0.4062E-04  0.4457E-04  0.4873E-04  0.5303E-04  0.5749E-04  0.6183E-04  0.6619E-04  0.7048E-04  0.7423E-04  0.7698E-04  0.7877E-04  0.7967E-04  0.7954E-04  0.7845E-04  0.7658E-04  0.7395E-04  0.7068E-04  0.6697E-04  0.6303E-04  0.5883E-04  0.5478E-04  0.5074E-04  0.4681E-04  0.4285E-04  0.3917E-04  0.3573E-04  0.3257E-04  0.2956E-04  0.2678E-04  0.2414E-04  0.2171E-04  0.1952E-04  0.1759E-04  0.1593E-04  0.1443E-04  0.1307E-04  0.1181E-04  0.1067E-04  0.9650E-05  0.8706E-05  0.7878E-05  0.7163E-05  0.6581E-05  0.6017E-05  0.5473E-05  0.4971E-05  0.4510E-05  0.4158E-05  0.3758E-05  0.3390E-05  0.3065E-05  0.2772E-05  0.2504E-05  0.2313E-05  0.2116E-05  0.1913E-05  0.1733E-05  0.1583E-05  0.1457E-05  0.1361E-05  0.1269E-05
  0.7313E-05  0.8196E-05  0.9136E-05  0.1013E-04  0.1119E-04  0.1233E-04  0.1361E-04  0.1496E-04  0.1637E-04  0.1844E-04  0.2072E-04  0.2307E-04  0.2558E-04  0.2841E-04  0.3149E-04  0.3493E-04  0.3867E-04  0.4275E-04  0.4713E-04  0.5172E-04  0.5656E-04  0.6162E-04  0.6673E-04  0.7182E-04  0.7692E-04  0.8166E-04  0.8553E-04  0.8825E-04  0.8990E-04  0.9051E-04  0.9006E-04  0.8868E-04  0.8609E-04  0.8298E-04  0.7907E-04  0.7471E-04  0.6999E-04  0.6525E-04  0.6048E-04  0.5574E-04  0.5115E-04  0.4677E-04  0.4262E-04  0.3864E-04  0.3501E-04  0.3176E-04  0.2872E-04  0.2588E-04  0.2322E-04  0.2088E-04  0.1887E-04  0.1709E-04  0.1552E-04  0.1410E-04  0.1282E-04  0.1165E-04  0.1057E-04  0.9524E-05  0.8637E-05  0.7850E-05  0.7203E-05  0.6576E-05  0.5990E-05  0.5459E-05  0.5042E-05  0.4577E-05  0.4127E-05  0.3730E-05  0.3366E-05  0.3048E-05  0.2764E-05  0.2579E-05  0.2341E-05  0.2125E-05  0.1929E-05  0.1765E-05  0.1630E-05  0.1519E-05  0.1416E-05
  0.8357E-05  0.9395E-05  0.1044E-04  0.1153E-04  0.1277E-04  0.1413E-04  0.1554E-04  0.1709E-04  0.1880E-04  0.2125E-04  0.2384E-04  0.2647E-04  0.2936E-04  0.3263E-04  0.3623E-04  0.4019E-04  0.4453E-04  0.4926E-04  0.5429E-04  0.5964E-04  0.6529E-04  0.7115E-04  0.7699E-04  0.8298E-04  0.8878E-04  0.9385E-04  0.9775E-04  0.1004E-03  0.1019E-03  0.1022E-03  0.1014E-03  0.9954E-04  0.9669E-04  0.9272E-04  0.8830E-04  0.8314E-04  0.7774E-04  0.7216E-04  0.6660E-04  0.6117E-04  0.5594E-04  0.5095E-04  0.4616E-04  0.4176E-04  0.3773E-04  0.3404E-04  0.3063E-04  0.2766E-04  0.2492E-04  0.2248E-04  0.2030E-04  0.1844E-04  0.1673E-04  0.1527E-04  0.1393E-04  0.1274E-04  0.1162E-04  0.1058E-04  0.9583E-05  0.8691E-05  0.7923E-05  0.7243E-05  0.6616E-05  0.6108E-05  0.5541E-05  0.5027E-05  0.4560E-05  0.4103E-05  0.3708E-05  0.3343E-05  0.3113E-05  0.2837E-05  0.2579E-05  0.2347E-05  0.2135E-05  0.1957E-05  0.1808E-05  0.1685E-05  0.1571E-05
  0.9534E-05  0.1064E-04  0.1180E-04  0.1310E-04  0.1450E-04  0.1599E-04  0.1767E-04  0.1939E-04  0.2147E-04  0.2427E-04  0.2714E-04  0.3012E-04  0.3354E-04  0.3726E-04  0.4142E-04  0.4596E-04  0.5098E-04  0.5641E-04  0.6223E-04  0.6841E-04  0.7499E-04  0.8166E-04  0.8849E-04  0.9547E-04  0.1018E-03  0.1070E-03  0.1110E-03  0.1135E-03  0.1149E-03  0.1149E-03  0.1139E-03  0.1114E-03  0.1081E-03  0.1036E-03  0.9835E-04  0.9246E-04  0.8623E-04  0.7982E-04  0.7346E-04  0.6721E-04  0.6133E-04  0.5553E-04  0.5013E-04  0.4519E-04  0.4059E-04  0.3641E-04  0.3284E-04  0.2968E-04  0.2677E-04  0.2428E-04  0.2203E-04  0.1996E-04  0.1818E-04  0.1661E-04  0.1525E-04  0.1399E-04  0.1288E-04  0.1182E-04  0.1079E-04  0.9747E-05  0.8825E-05  0.8054E-05  0.7422E-05  0.6770E-05  0.6150E-05  0.5580E-05  0.5030E-05  0.4553E-05  0.4083E-05  0.3702E-05  0.3404E-05  0.3104E-05  0.2827E-05  0.2580E-05  0.2349E-05  0.2156E-05  0.1994E-05  0.1858E-05  0.1730E-05
  0.1074E-04  0.1197E-04  0.1331E-04  0.1473E-04  0.1635E-04  0.1803E-04  0.1990E-04  0.2189E-04  0.2440E-04  0.2752E-04  0.3069E-04  0.3413E-04  0.3803E-04  0.4233E-04  0.4709E-04  0.5230E-04  0.5805E-04  0.6421E-04  0.7091E-04  0.7816E-04  0.8569E-04  0.9343E-04  0.1014E-03  0.1092E-03  0.1159E-03  0.1213E-03  0.1252E-03  0.1277E-03  0.1289E-03  0.1288E-03  0.1275E-03  0.1248E-03  0.1208E-03  0.1156E-03  0.1095E-03  0.1029E-03  0.9579E-04  0.8849E-04  0.8120E-04  0.7416E-04  0.6730E-04  0.6074E-04  0.5463E-04  0.4896E-04  0.4379E-04  0.3926E-04  0.3533E-04  0.3185E-04  0.2883E-04  0.2629E-04  0.2399E-04  0.2183E-04  0.1995E-04  0.1826E-04  0.1681E-04  0.1556E-04  0.1443E-04  0.1328E-04  0.1216E-04  0.1104E-04  0.9941E-05  0.9069E-05  0.8290E-05  0.7546E-05  0.6846E-05  0.6205E-05  0.5576E-05  0.5035E-05  0.4510E-05  0.4100E-05  0.3700E-05  0.3379E-05  0.3085E-05  0.2817E-05  0.2570E-05  0.2364E-05  0.2184E-05  0.2035E-05  0.1893E-05
  0.1204E-04  0.1338E-04  0.1489E-04  0.1649E-04  0.1829E-04  0.2023E-04  0.2232E-04  0.2453E-04  0.2750E-04  0.3098E-04  0.3456E-04  0.3853E-04  0.4291E-04  0.4781E-04  0.5320E-04  0.5922E-04  0.6573E-04  0.7279E-04  0.8059E-04  0.8888E-04  0.9756E-04  0.1066E-03  0.1157E-03  0.1241E-03  0.1311E-03  0.1366E-03  0.1407E-03  0.1434E-03  0.1446E-03  0.1444E-03  0.1426E-03  0.1394E-03  0.1348E-03  0.1290E-03  0.1223E-03  0.1148E-03  0.1068E-03  0.9844E-04  0.9017E-04  0.8200E-04  0.7413E-04  0.6681E-04  0.5982E-04  0.5335E-04  0.4758E-04  0.4252E-04  0.3813E-04  0.3443E-04  0.3128E-04  0.2854E-04  0.2616E-04  0.2406E-04  0.2202E-04  0.2029E-04  0.1884E-04  0.1754E-04  0.1626E-04  0.1500E-04  0.1377E-04  0.1257E-04  0.1138E-04  0.1022E-04  0.9267E-05  0.8425E-05  0.7646E-05  0.6903E-05  0.6193E-05  0.5569E-05  0.5029E-05  0.4510E-05  0.4056E-05  0.3665E-05  0.3345E-05  0.3059E-05  0.2798E-05  0.2574E-05  0.2379E-05  0.2214E-05  0.2056E-05
  0.1337E-04  0.1490E-04  0.1656E-04  0.1840E-04  0.2039E-04  0.2252E-04  0.2485E-04  0.2743E-04  0.3092E-04  0.3468E-04  0.3871E-04  0.4321E-04  0.4823E-04  0.5374E-04  0.5991E-04  0.6670E-04  0.7416E-04  0.8236E-04  0.9129E-04  0.1008E-03  0.1107E-03  0.1211E-03  0.1313E-03  0.1402E-03  0.1476E-03  0.1535E-03  0.1578E-03  0.1606E-03  0.1619E-03  0.1615E-03  0.1594E-03  0.1557E-03  0.1507E-03  0.1445E-03  0.1370E-03  0.1285E-03  0.1195E-03  0.1101E-03  0.1006E-03  0.9121E-04  0.8225E-04  0.7381E-04  0.6583E-04  0.5855E-04  0.5205E-04  0.4630E-04  0.4148E-04  0.3755E-04  0.3409E-04  0.3126E-04  0.2878E-04  0.2653E-04  0.2460E-04  0.2296E-04  0.2142E-04  0.1987E-04  0.1845E-04  0.1704E-04  0.1565E-04  0.1439E-04  0.1303E-04  0.1162E-04  0.1040E-04  0.9421E-05  0.8510E-05  0.7664E-05  0.6869E-05  0.6237E-05  0.5551E-05  0.4974E-05  0.4409E-05  0.3972E-05  0.3622E-05  0.3303E-05  0.3025E-05  0.2782E-05  0.2575E-05  0.2393E-05  0.2220E-05
  0.1477E-04  0.1647E-04  0.1833E-04  0.2038E-04  0.2259E-04  0.2500E-04  0.2756E-04  0.3049E-04  0.3446E-04  0.3863E-04  0.4321E-04  0.4826E-04  0.5386E-04  0.6015E-04  0.6713E-04  0.7487E-04  0.8341E-04  0.9273E-04  0.1030E-03  0.1138E-03  0.1254E-03  0.1372E-03  0.1481E-03  0.1577E-03  0.1655E-03  0.1718E-03  0.1765E-03  0.1797E-03  0.1810E-03  0.1804E-03  0.1783E-03  0.1744E-03  0.1690E-03  0.1620E-03  0.1538E-03  0.1444E-03  0.1343E-03  0.1237E-03  0.1127E-03  0.1020E-03  0.9176E-04  0.8204E-04  0.7300E-04  0.6480E-04  0.5737E-04  0.5093E-04  0.4564E-04  0.4123E-04  0.3761E-04  0.3455E-04  0.3190E-04  0.2968E-04  0.2790E-04  0.2629E-04  0.2449E-04  0.2272E-04  0.2099E-04  0.1936E-04  0.1786E-04  0.1629E-04  0.1477E-04  0.1324E-04  0.1172E-04  0.1044E-04  0.9441E-05  0.8474E-05  0.7644E-05  0.6830E-05  0.6075E-05  0.5401E-05  0.4816E-05  0.4321E-05  0.3894E-05  0.3547E-05  0.3257E-05  0.2993E-05  0.2769E-05  0.2571E-05  0.2382E-05
  0.1625E-04  0.1813E-04  0.2020E-04  0.2246E-04  0.2492E-04  0.2755E-04  0.3039E-04  0.3389E-04  0.3821E-04  0.4279E-04  0.4799E-04  0.5361E-04  0.5998E-04  0.6707E-04  0.7497E-04  0.8374E-04  0.9353E-04  0.1043E-03  0.1159E-03  0.1284E-03  0.1414E-03  0.1545E-03  0.1663E-03  0.1765E-03  0.1851E-03  0.1919E-03  0.1971E-03  0.2007E-03  0.2023E-03  0.2020E-03  0.1999E-03  0.1958E-03  0.1900E-03  0.1824E-03  0.1732E-03  0.1630E-03  0.1515E-03  0.1394E-03  0.1270E-03  0.1148E-03  0.1028E-03  0.9168E-04  0.8141E-04  0.7210E-04  0.6377E-04  0.5660E-04  0.5055E-04  0.4578E-04  0.4184E-04  0.3855E-04  0.3588E-04  0.3382E-04  0.3201E-04  0.3017E-04  0.2818E-04  0.2605E-04  0.2396E-04  0.2205E-04  0.2013E-04  0.1830E-04  0.1658E-04  0.1490E-04  0.1319E-04  0.1168E-04  0.1042E-04  0.9357E-05  0.8363E-05  0.7421E-05  0.6618E-05  0.5885E-05  0.5244E-05  0.4682E-05  0.4217E-05  0.3829E-05  0.3515E-05  0.3217E-05  0.2960E-05  0.2745E-05  0.2538E-05
  0.1778E-04  0.1985E-04  0.2217E-04  0.2465E-04  0.2735E-04  0.3024E-04  0.3336E-04  0.3755E-04  0.4217E-04  0.4731E-04  0.5304E-04  0.5941E-04  0.6650E-04  0.7449E-04  0.8342E-04  0.9351E-04  0.1047E-03  0.1169E-03  0.1300E-03  0.1444E-03  0.1590E-03  0.1731E-03  0.1859E-03  0.1969E-03  0.2061E-03  0.2139E-03  0.2201E-03  0.2244E-03  0.2268E-03  0.2269E-03  0.2246E-03  0.2205E-03  0.2140E-03  0.2057E-03  0.1958E-03  0.1842E-03  0.1712E-03  0.1575E-03  0.1434E-03  0.1294E-03  0.1158E-03  0.1030E-03  0.9136E-04  0.8067E-04  0.7136E-04  0.6321E-04  0.5652E-04  0.5120E-04  0.4693E-04  0.4355E-04  0.4097E-04  0.3889E-04  0.3687E-04  0.3471E-04  0.3238E-04  0.2984E-04  0.2738E-04  0.2490E-04  0.2257E-04  0.2040E-04  0.1841E-04  0.1651E-04  0.1473E-04  0.1297E-04  0.1146E-04  0.1021E-04  0.9000E-05  0.8041E-05  0.7130E-05  0.6342E-05  0.5663E-05  0.5053E-05  0.4517E-05  0.4118E-05  0.3751E-05  0.3453E-05  0.3166E-05  0.2920E-05  0.2692E-05
  0.1938E-04  0.2167E-04  0.2418E-04  0.2690E-04  0.2987E-04  0.3306E-04  0.3659E-04  0.4128E-04  0.4633E-04  0.5205E-04  0.5841E-04  0.6554E-04  0.7354E-04  0.8256E-04  0.9256E-04  0.1040E-03  0.1168E-03  0.1304E-03  0.1457E-03  0.1618E-03  0.1780E-03  0.1932E-03  0.2070E-03  0.2192E-03  0.2297E-03  0.2388E-03  0.2464E-03  0.2518E-03  0.2547E-03  0.2553E-03  0.2532E-03  0.2486E-03  0.2418E-03  0.2327E-03  0.2215E-03  0.2082E-03  0.1937E-03  0.1782E-03  0.1621E-03  0.1460E-03  0.1305E-03  0.1160E-03  0.1025E-03  0.9058E-04  0.8000E-04  0.7102E-04  0.6345E-04  0.5755E-04  0.5305E-04  0.4975E-04  0.4723E-04  0.4496E-04  0.4253E-04  0.3984E-04  0.3694E-04  0.3402E-04  0.3093E-04  0.2794E-04  0.2512E-04  0.2258E-04  0.2026E-04  0.1819E-04  0.1618E-04  0.1430E-04  0.1247E-04  0.1090E-04  0.9748E-05  0.8651E-05  0.7622E-05  0.6793E-05  0.6060E-05  0.5412E-05  0.4897E-05  0.4413E-05  0.4030E-05  0.3658E-05  0.3381E-05  0.3100E-05  0.2846E-05
  0.2104E-04  0.2357E-04  0.2631E-04  0.2929E-04  0.3251E-04  0.3596E-04  0.4002E-04  0.4521E-04  0.5084E-04  0.5707E-04  0.6413E-04  0.7208E-04  0.8109E-04  0.9123E-04  0.1025E-03  0.1156E-03  0.1298E-03  0.1456E-03  0.1629E-03  0.1808E-03  0.1984E-03  0.2150E-03  0.2301E-03  0.2439E-03  0.2562E-03  0.2667E-03  0.2761E-03  0.2829E-03  0.2872E-03  0.2884E-03  0.2866E-03  0.2817E-03  0.2739E-03  0.2634E-03  0.2504E-03  0.2355E-03  0.2190E-03  0.2012E-03  0.1828E-03  0.1646E-03  0.1469E-03  0.1302E-03  0.1151E-03  0.1015E-03  0.8979E-04  0.7967E-04  0.7142E-04  0.6504E-04  0.6051E-04  0.5718E-04  0.5453E-04  0.5188E-04  0.4886E-04  0.4544E-04  0.4190E-04  0.3825E-04  0.3455E-04  0.3103E-04  0.2776E-04  0.2476E-04  0.2215E-04  0.1974E-04  0.1758E-04  0.1540E-04  0.1340E-04  0.1173E-04  0.1031E-04  0.9156E-05  0.8152E-05  0.7244E-05  0.6468E-05  0.5794E-05  0.5196E-05  0.4698E-05  0.4281E-05  0.3926E-05  0.3605E-05  0.3297E-05  0.3014E-05
  0.2278E-04  0.2551E-04  0.2849E-04  0.3172E-04  0.3525E-04  0.3901E-04  0.4371E-04  0.4929E-04  0.5547E-04  0.6236E-04  0.7020E-04  0.7910E-04  0.8916E-04  0.1005E-03  0.1133E-03  0.1280E-03  0.1443E-03  0.1621E-03  0.1816E-03  0.2014E-03  0.2206E-03  0.2388E-03  0.2553E-03  0.2712E-03  0.2858E-03  0.2990E-03  0.3102E-03  0.3188E-03  0.3247E-03  0.3269E-03  0.3254E-03  0.3198E-03  0.3106E-03  0.2979E-03  0.2828E-03  0.2654E-03  0.2464E-03  0.2260E-03  0.2052E-03  0.1845E-03  0.1643E-03  0.1456E-03  0.1286E-03  0.1134E-03  0.1002E-03  0.8904E-04  0.8017E-04  0.7360E-04  0.6893E-04  0.6572E-04  0.6281E-04  0.5946E-04  0.5562E-04  0.5140E-04  0.4694E-04  0.4247E-04  0.3814E-04  0.3408E-04  0.3029E-04  0.2695E-04  0.2390E-04  0.2116E-04  0.1869E-04  0.1642E-04  0.1431E-04  0.1243E-04  0.1090E-04  0.9709E-05  0.8648E-05  0.7681E-05  0.6853E-05  0.6134E-05  0.5495E-05  0.4993E-05  0.4551E-05  0.4172E-05  0.3810E-05  0.3499E-05  0.3183E-05
  0.2457E-04  0.2751E-04  0.3078E-04  0.3426E-04  0.3804E-04  0.4221E-04  0.4757E-04  0.5363E-04  0.6040E-04  0.6799E-04  0.7660E-04  0.8649E-04  0.9784E-04  0.1105E-03  0.1250E-03  0.1416E-03  0.1599E-03  0.1802E-03  0.2021E-03  0.2235E-03  0.2448E-03  0.2650E-03  0.2840E-03  0.3020E-03  0.3196E-03  0.3359E-03  0.3501E-03  0.3612E-03  0.3683E-03  0.3715E-03  0.3701E-03  0.3637E-03  0.3521E-03  0.3365E-03  0.3181E-03  0.2978E-03  0.2754E-03  0.2523E-03  0.2286E-03  0.2050E-03  0.1823E-03  0.1613E-03  0.1423E-03  0.1252E-03  0.1107E-03  0.9874E-04  0.8960E-04  0.8304E-04  0.7855E-04  0.7526E-04  0.7177E-04  0.6747E-04  0.6257E-04  0.5730E-04  0.5190E-04  0.4654E-04  0.4159E-04  0.3692E-04  0.3276E-04  0.2891E-04  0.2548E-04  0.2242E-04  0.1972E-04  0.1731E-04  0.1515E-04  0.1321E-04  0.1151E-04  0.1014E-04  0.9043E-05  0.8098E-05  0.7258E-05  0.6484E-05  0.5820E-05  0.5257E-05  0.4818E-05  0.4416E-05  0.4035E-05  0.3692E-05  0.3368E-05
  0.2642E-04  0.2960E-04  0.3309E-04  0.3686E-04  0.4095E-04  0.4566E-04  0.5159E-04  0.5817E-04  0.6548E-04  0.7379E-04  0.8335E-04  0.9434E-04  0.1069E-03  0.1212E-03  0.1375E-03  0.1561E-03  0.1769E-03  0.1998E-03  0.2238E-03  0.2478E-03  0.2712E-03  0.2936E-03  0.3160E-03  0.3376E-03  0.3590E-03  0.3795E-03  0.3971E-03  0.4105E-03  0.4195E-03  0.4229E-03  0.4207E-03  0.4124E-03  0.3983E-03  0.3791E-03  0.3565E-03  0.3312E-03  0.3055E-03  0.2788E-03  0.2517E-03  0.2252E-03  0.1998E-03  0.1764E-03  0.1551E-03  0.1365E-03  0.1208E-03  0.1084E-03  0.9938E-04  0.9332E-04  0.8912E-04  0.8545E-04  0.8101E-04  0.7559E-04  0.6941E-04  0.6295E-04  0.5647E-04  0.5034E-04  0.4463E-04  0.3953E-04  0.3486E-04  0.3052E-04  0.2683E-04  0.2351E-04  0.2062E-04  0.1810E-04  0.1584E-04  0.1380E-04  0.1204E-04  0.1056E-04  0.9407E-05  0.8426E-05  0.7584E-05  0.6782E-05  0.6114E-05  0.5541E-05  0.5065E-05  0.4639E-05  0.4255E-05  0.3877E-05  0.3548E-05
  0.2828E-04  0.3171E-04  0.3546E-04  0.3955E-04  0.4404E-04  0.4924E-04  0.5571E-04  0.6279E-04  0.7076E-04  0.7989E-04  0.9042E-04  0.1026E-03  0.1166E-03  0.1326E-03  0.1508E-03  0.1718E-03  0.1953E-03  0.2205E-03  0.2473E-03  0.2739E-03  0.3006E-03  0.3265E-03  0.3534E-03  0.3803E-03  0.4066E-03  0.4318E-03  0.4524E-03  0.4689E-03  0.4788E-03  0.4819E-03  0.4773E-03  0.4658E-03  0.4482E-03  0.4246E-03  0.3962E-03  0.3661E-03  0.3349E-03  0.3039E-03  0.2733E-03  0.2436E-03  0.2155E-03  0.1896E-03  0.1663E-03  0.1464E-03  0.1300E-03  0.1176E-03  0.1093E-03  0.1042E-03  0.1004E-03  0.9602E-04  0.9026E-04  0.8332E-04  0.7569E-04  0.6792E-04  0.6052E-04  0.5356E-04  0.4732E-04  0.4163E-04  0.3644E-04  0.3195E-04  0.2792E-04  0.2440E-04  0.2129E-04  0.1867E-04  0.1637E-04  0.1438E-04  0.1255E-04  0.1095E-04  0.9754E-05  0.8790E-05  0.7896E-05  0.7050E-05  0.6377E-05  0.5807E-05  0.5306E-05  0.4878E-05  0.4453E-05  0.4074E-05  0.3702E-05
  0.3020E-04  0.3391E-04  0.3794E-04  0.4231E-04  0.4714E-04  0.5294E-04  0.5997E-04  0.6759E-04  0.7627E-04  0.8620E-04  0.9775E-04  0.1113E-03  0.1268E-03  0.1444E-03  0.1650E-03  0.1887E-03  0.2146E-03  0.2426E-03  0.2728E-03  0.3030E-03  0.3339E-03  0.3645E-03  0.3974E-03  0.4310E-03  0.4636E-03  0.4941E-03  0.5194E-03  0.5377E-03  0.5479E-03  0.5486E-03  0.5404E-03  0.5239E-03  0.5001E-03  0.4707E-03  0.4368E-03  0.4000E-03  0.3625E-03  0.3262E-03  0.2916E-03  0.2586E-03  0.2278E-03  0.1998E-03  0.1750E-03  0.1541E-03  0.1376E-03  0.1263E-03  0.1198E-03  0.1159E-03  0.1120E-03  0.1064E-03  0.9896E-04  0.9025E-04  0.8108E-04  0.7211E-04  0.6376E-04  0.5622E-04  0.4922E-04  0.4307E-04  0.3776E-04  0.3297E-04  0.2871E-04  0.2509E-04  0.2190E-04  0.1920E-04  0.1686E-04  0.1477E-04  0.1297E-04  0.1135E-04  0.9997E-05  0.9021E-05  0.8128E-05  0.7308E-05  0.6633E-05  0.6064E-05  0.5550E-05  0.5086E-05  0.4667E-05  0.4249E-05  0.3868E-05
  0.3218E-04  0.3613E-04  0.4046E-04  0.4518E-04  0.5031E-04  0.5697E-04  0.6427E-04  0.7245E-04  0.8188E-04  0.9266E-04  0.1053E-03  0.1201E-03  0.1372E-03  0.1567E-03  0.1798E-03  0.2060E-03  0.2348E-03  0.2661E-03  0.3006E-03  0.3354E-03  0.3720E-03  0.4101E-03  0.4504E-03  0.4922E-03  0.5340E-03  0.5704E-03  0.5998E-03  0.6188E-03  0.6269E-03  0.6233E-03  0.6091E-03  0.5849E-03  0.5531E-03  0.5155E-03  0.4741E-03  0.4303E-03  0.3861E-03  0.3437E-03  0.3042E-03  0.2685E-03  0.2352E-03  0.2058E-03  0.1802E-03  0.1590E-03  0.1436E-03  0.1346E-03  0.1307E-03  0.1283E-03  0.1236E-03  0.1161E-03  0.1065E-03  0.9590E-04  0.8532E-04  0.7536E-04  0.6618E-04  0.5793E-04  0.5058E-04  0.4421E-04  0.3847E-04  0.3361E-04  0.2936E-04  0.2567E-04  0.2237E-04  0.1961E-04  0.1719E-04  0.1505E-04  0.1325E-04  0.1168E-04  0.1024E-04  0.9249E-05  0.8353E-05  0.7557E-05  0.6864E-05  0.6280E-05  0.5796E-05  0.5297E-05  0.4837E-05  0.4430E-05  0.4031E-05
  0.3418E-04  0.3843E-04  0.4302E-04  0.4811E-04  0.5381E-04  0.6092E-04  0.6866E-04  0.7745E-04  0.8753E-04  0.9917E-04  0.1129E-03  0.1289E-03  0.1477E-03  0.1692E-03  0.1946E-03  0.2236E-03  0.2557E-03  0.2912E-03  0.3304E-03  0.3721E-03  0.4169E-03  0.4653E-03  0.5168E-03  0.5697E-03  0.6225E-03  0.6660E-03  0.6975E-03  0.7154E-03  0.7182E-03  0.7068E-03  0.6821E-03  0.6475E-03  0.6043E-03  0.5563E-03  0.5052E-03  0.4536E-03  0.4028E-03  0.3547E-03  0.3107E-03  0.2717E-03  0.2373E-03  0.2072E-03  0.1814E-03  0.1614E-03  0.1485E-03  0.1433E-03  0.1429E-03  0.1412E-03  0.1347E-03  0.1244E-03  0.1124E-03  0.1001E-03  0.8827E-04  0.7719E-04  0.6754E-04  0.5889E-04  0.5132E-04  0.4475E-04  0.3910E-04  0.3415E-04  0.2971E-04  0.2598E-04  0.2274E-04  0.1998E-04  0.1751E-04  0.1537E-04  0.1352E-04  0.1196E-04  0.1050E-04  0.9289E-05  0.8535E-05  0.7740E-05  0.7089E-05  0.6496E-05  0.6006E-05  0.5514E-05  0.5023E-05  0.4588E-05  0.4177E-05
  0.3624E-04  0.4075E-04  0.4570E-04  0.5112E-04  0.5739E-04  0.6484E-04  0.7305E-04  0.8241E-04  0.9318E-04  0.1056E-03  0.1203E-03  0.1376E-03  0.1578E-03  0.1812E-03  0.2089E-03  0.2406E-03  0.2768E-03  0.3169E-03  0.3633E-03  0.4143E-03  0.4721E-03  0.5351E-03  0.6031E-03  0.6715E-03  0.7356E-03  0.7848E-03  0.8162E-03  0.8286E-03  0.8214E-03  0.7969E-03  0.7575E-03  0.7070E-03  0.6491E-03  0.5879E-03  0.5262E-03  0.4666E-03  0.4101E-03  0.3578E-03  0.3104E-03  0.2690E-03  0.2336E-03  0.2038E-03  0.1793E-03  0.1617E-03  0.1534E-03  0.1539E-03  0.1567E-03  0.1541E-03  0.1445E-03  0.1310E-03  0.1165E-03  0.1025E-03  0.8957E-04  0.7823E-04  0.6808E-04  0.5919E-04  0.5154E-04  0.4497E-04  0.3932E-04  0.3425E-04  0.2987E-04  0.2617E-04  0.2298E-04  0.2022E-04  0.1779E-04  0.1563E-04  0.1379E-04  0.1219E-04  0.1082E-04  0.9549E-05  0.8594E-05  0.7858E-05  0.7273E-05  0.6710E-05  0.6185E-05  0.5701E-05  0.5203E-05  0.4739E-05  0.4323E-05
  0.3834E-04  0.4315E-04  0.4847E-04  0.5419E-04  0.6099E-04  0.6885E-04  0.7756E-04  0.8749E-04  0.9885E-04  0.1120E-03  0.1275E-03  0.1458E-03  0.1672E-03  0.1922E-03  0.2218E-03  0.2569E-03  0.2972E-03  0.3444E-03  0.4027E-03  0.4688E-03  0.5429E-03  0.6298E-03  0.7211E-03  0.8091E-03  0.8824E-03  0.9337E-03  0.9591E-03  0.9577E-03  0.9326E-03  0.8866E-03  0.8260E-03  0.7553E-03  0.6805E-03  0.6058E-03  0.5342E-03  0.4680E-03  0.4077E-03  0.3532E-03  0.3044E-03  0.2619E-03  0.2258E-03  0.2013E-03  0.1815E-03  0.1712E-03  0.1716E-03  0.1816E-03  0.1876E-03  0.1812E-03  0.1642E-03  0.1422E-03  0.1213E-03  0.1039E-03  0.8999E-04  0.7802E-04  0.6774E-04  0.5868E-04  0.5112E-04  0.4470E-04  0.3914E-04  0.3419E-04  0.2989E-04  0.2618E-04  0.2302E-04  0.2041E-04  0.1798E-04  0.1590E-04  0.1410E-04  0.1251E-04  0.1109E-04  0.9804E-05  0.8762E-05  0.8034E-05  0.7407E-05  0.6888E-05  0.6362E-05  0.5852E-05  0.5377E-05  0.4894E-05  0.4449E-05
  0.4054E-04  0.4569E-04  0.5128E-04  0.5738E-04  0.6471E-04  0.7289E-04  0.8214E-04  0.9253E-04  0.1044E-03  0.1181E-03  0.1342E-03  0.1533E-03  0.1757E-03  0.2019E-03  0.2334E-03  0.2710E-03  0.3174E-03  0.3765E-03  0.4519E-03  0.5412E-03  0.6485E-03  0.7678E-03  0.8871E-03  0.9928E-03  0.1070E-02  0.1113E-02  0.1117E-02  0.1088E-02  0.1035E-02  0.9598E-03  0.8730E-03  0.7822E-03  0.6927E-03  0.6087E-03  0.5322E-03  0.4638E-03  0.4163E-03  0.3862E-03  0.3615E-03  0.3358E-03  0.3106E-03  0.2893E-03  0.2743E-03  0.2692E-03  0.2773E-03  0.2913E-03  0.2919E-03  0.2677E-03  0.2239E-03  0.1754E-03  0.1352E-03  0.1077E-03  0.8991E-04  0.7719E-04  0.6695E-04  0.5815E-04  0.5064E-04  0.4427E-04  0.3874E-04  0.3393E-04  0.2978E-04  0.2617E-04  0.2308E-04  0.2037E-04  0.1801E-04  0.1608E-04  0.1430E-04  0.1276E-04  0.1137E-04  0.1013E-04  0.9038E-05  0.8220E-05  0.7599E-05  0.7030E-05  0.6518E-05  0.6012E-05  0.5510E-05  0.5035E-05  0.4571E-05
  0.4290E-04  0.4842E-04  0.5439E-04  0.6091E-04  0.6853E-04  0.7711E-04  0.8672E-04  0.9751E-04  0.1099E-03  0.1239E-03  0.1404E-03  0.1598E-03  0.1828E-03  0.2097E-03  0.2428E-03  0.2841E-03  0.3416E-03  0.4182E-03  0.5233E-03  0.6544E-03  0.8135E-03  0.9802E-03  0.1135E-02  0.1253E-02  0.1322E-02  0.1339E-02  0.1315E-02  0.1260E-02  0.1209E-02  0.1169E-02  0.1174E-02  0.1283E-02  0.1286E-02  0.6140E-03  0.5298E-03  0.4916E-03  0.7589E-03  0.8844E-03  0.8096E-03  0.7159E-03  0.6393E-03  0.5795E-03  0.5368E-03  0.5176E-03  0.5187E-03  0.5217E-03  0.5090E-03  0.4503E-03  0.3502E-03  0.2446E-03  0.1650E-03  0.1170E-03  0.9149E-04  0.7703E-04  0.6641E-04  0.5736E-04  0.5003E-04  0.4367E-04  0.3824E-04  0.3364E-04  0.2963E-04  0.2617E-04  0.2319E-04  0.2059E-04  0.1828E-04  0.1623E-04  0.1449E-04  0.1299E-04  0.1162E-04  0.1040E-04  0.9381E-05  0.8424E-05  0.7788E-05  0.7191E-05  0.6651E-05  0.6145E-05  0.5640E-05  0.5153E-05  0.4687E-05
  0.4538E-04  0.5127E-04  0.5774E-04  0.6479E-04  0.7284E-04  0.8179E-04  0.9170E-04  0.1028E-03  0.1153E-03  0.1295E-03  0.1460E-03  0.1654E-03  0.1886E-03  0.2155E-03  0.2514E-03  0.3018E-03  0.3776E-03  0.4876E-03  0.6414E-03  0.8404E-03  0.1071E-02  0.1303E-02  0.1503E-02  0.1636E-02  0.1696E-02  0.1718E-02  0.1746E-02  0.1829E-02  0.2001E-02  0.2210E-02  0.2210E-02  0.1436E-02  0.6890E-03  0.6097E-03  0.5423E-03  0.8121E-03  0.5930E-03  0.6970E-03  0.1122E-02  0.1324E-02  0.1255E-02  0.1086E-02  0.9346E-03  0.8375E-03  0.7953E-03  0.7815E-03  0.7627E-03  0.6773E-03  0.5173E-03  0.3414E-03  0.2096E-03  0.1329E-03  0.9598E-04  0.7739E-04  0.6627E-04  0.5696E-04  0.4939E-04  0.4303E-04  0.3789E-04  0.3335E-04  0.2949E-04  0.2617E-04  0.2326E-04  0.2075E-04  0.1853E-04  0.1653E-04  0.1478E-04  0.1327E-04  0.1196E-04  0.1078E-04  0.9743E-05  0.8852E-05  0.8007E-05  0.7369E-05  0.6782E-05  0.6254E-05  0.5756E-05  0.5254E-05  0.4800E-05
  0.4790E-04  0.5430E-04  0.6127E-04  0.6888E-04  0.7761E-04  0.8707E-04  0.9740E-04  0.1089E-03  0.1215E-03  0.1356E-03  0.1517E-03  0.1709E-03  0.1934E-03  0.2209E-03  0.2632E-03  0.3319E-03  0.4428E-03  0.6091E-03  0.8425E-03  0.1124E-02  0.1438E-02  0.1750E-02  0.2004E-02  0.2166E-02  0.2261E-02  0.2351E-02  0.2443E-02  0.2497E-02  0.2403E-02  0.1916E-02  0.1061E-02  0.7193E-03  0.6875E-03  0.6005E-03  0.5612E-03  0.7089E-03  0.1550E-02  0.7232E-03  0.6233E-03  0.8889E-03  0.1211E-02  0.1415E-02  0.1450E-02  0.1379E-02  0.1279E-02  0.1190E-02  0.1113E-02  0.9760E-03  0.7496E-03  0.4928E-03  0.2893E-03  0.1674E-03  0.1070E-03  0.8084E-04  0.6683E-04  0.5726E-04  0.4948E-04  0.4312E-04  0.3773E-04  0.3323E-04  0.2943E-04  0.2620E-04  0.2340E-04  0.2092E-04  0.1880E-04  0.1688E-04  0.1510E-04  0.1356E-04  0.1226E-04  0.1108E-04  0.1008E-04  0.9210E-05  0.8408E-05  0.7657E-05  0.6939E-05  0.6365E-05  0.5852E-05  0.5357E-05  0.4883E-05
  0.5034E-04  0.5722E-04  0.6479E-04  0.7307E-04  0.8239E-04  0.9268E-04  0.1039E-03  0.1158E-03  0.1288E-03  0.1430E-03  0.1586E-03  0.1772E-03  0.1986E-03  0.2310E-03  0.2910E-03  0.4035E-03  0.5907E-03  0.8599E-03  0.1191E-02  0.1548E-02  0.1906E-02  0.2248E-02  0.2501E-02  0.2618E-02  0.2613E-02  0.2531E-02  0.2371E-02  0.2023E-02  0.1395E-02  0.8534E-03  0.7097E-03  0.7079E-03  0.6512E-03  0.5829E-03  0.5701E-03  0.7980E-03  0.1001E-02  0.1794E-02  0.8195E-03  0.6380E-03  0.7953E-03  0.1027E-02  0.1299E-02  0.1530E-02  0.1658E-02  0.1690E-02  0.1643E-02  0.1467E-02  0.1145E-02  0.7582E-03  0.4349E-03  0.2313E-03  0.1300E-03  0.8735E-04  0.6859E-04  0.5798E-04  0.5006E-04  0.4358E-04  0.3810E-04  0.3356E-04  0.2972E-04  0.2652E-04  0.2371E-04  0.2128E-04  0.1913E-04  0.1722E-04  0.1543E-04  0.1394E-04  0.1263E-04  0.1148E-04  0.1046E-04  0.9540E-05  0.8710E-05  0.7969E-05  0.7260E-05  0.6492E-05  0.5940E-05  0.5443E-05  0.4954E-05
  0.5262E-04  0.5996E-04  0.6810E-04  0.7701E-04  0.8700E-04  0.9807E-04  0.1101E-03  0.1230E-03  0.1368E-03  0.1514E-03  0.1674E-03  0.1854E-03  0.2108E-03  0.2559E-03  0.3551E-03  0.5504E-03  0.8687E-03  0.1281E-02  0.1709E-02  0.2078E-02  0.2351E-02  0.2530E-02  0.2574E-02  0.2482E-02  0.2295E-02  0.1999E-02  0.1537E-02  0.1013E-02  0.7222E-03  0.6592E-03  0.6732E-03  0.6554E-03  0.5800E-03  0.5436E-03  0.5460E-03  0.7739E-03  0.8418E-03  0.1487E-02  0.1767E-02  0.8865E-03  0.7086E-03  0.8302E-03  0.1034E-02  0.1286E-02  0.1538E-02  0.1753E-02  0.1873E-02  0.1801E-02  0.1489E-02  0.1031E-02  0.6006E-03  0.3100E-03  0.1597E-03  0.9605E-04  0.7166E-04  0.5950E-04  0.5112E-04  0.4424E-04  0.3879E-04  0.3416E-04  0.3024E-04  0.2683E-04  0.2411E-04  0.2163E-04  0.1949E-04  0.1760E-04  0.1588E-04  0.1441E-04  0.1308E-04  0.1189E-04  0.1083E-04  0.9880E-05  0.9006E-05  0.8228E-05  0.7498E-05  0.6817E-05  0.6057E-05  0.5526E-05  0.5031E-05
  0.5458E-04  0.6232E-04  0.7091E-04  0.8029E-04  0.9087E-04  0.1027E-03  0.1155E-03  0.1292E-03  0.1438E-03  0.1595E-03  0.1765E-03  0.1961E-03  0.2267E-03  0.2941E-03  0.4505E-03  0.7537E-03  0.1217E-02  0.1740E-02  0.2167E-02  0.2397E-02  0.2444E-02  0.2377E-02  0.2225E-02  0.1969E-02  0.1594E-02  0.1142E-02  0.7850E-03  0.6233E-03  0.5937E-03  0.6142E-03  0.6215E-03  0.5641E-03  0.5011E-03  0.4843E-03  0.4900E-03  0.6728E-03  0.8695E-03  0.9289E-03  0.1782E-02  0.1641E-02  0.9145E-03  0.7905E-03  0.9301E-03  0.1131E-02  0.1340E-02  0.1533E-02  0.1677E-02  0.1684E-02  0.1470E-02  0.1076E-02  0.6578E-03  0.3472E-03  0.1773E-03  0.1038E-03  0.7518E-04  0.6163E-04  0.5284E-04  0.4565E-04  0.3986E-04  0.3506E-04  0.3103E-04  0.2765E-04  0.2476E-04  0.2220E-04  0.1998E-04  0.1806E-04  0.1637E-04  0.1489E-04  0.1357E-04  0.1235E-04  0.1124E-04  0.1023E-04  0.9315E-05  0.8476E-05  0.7751E-05  0.7025E-05  0.6359E-05  0.5676E-05  0.5100E-05
  0.5611E-04  0.6403E-04  0.7296E-04  0.8283E-04  0.9376E-04  0.1060E-03  0.1192E-03  0.1336E-03  0.1491E-03  0.1656E-03  0.1836E-03  0.2046E-03  0.2409E-03  0.3286E-03  0.5299E-03  0.9048E-03  0.1425E-02  0.1947E-02  0.2283E-02  0.2358E-02  0.2238E-02  0.2001E-02  0.1667E-02  0.1266E-02  0.8936E-03  0.6624E-03  0.5630E-03  0.5437E-03  0.5587E-03  0.5768E-03  0.5446E-03  0.4723E-03  0.4305E-03  0.4220E-03  0.4256E-03  0.5606E-03  0.8384E-03  0.7594E-03  0.1161E-02  0.1876E-02  0.1529E-02  0.9675E-03  0.8857E-03  0.1019E-02  0.1181E-02  0.1322E-02  0.1402E-02  0.1373E-02  0.1200E-02  0.9013E-03  0.5752E-03  0.3216E-03  0.1732E-03  0.1060E-03  0.7846E-04  0.6448E-04  0.5497E-04  0.4740E-04  0.4138E-04  0.3632E-04  0.3213E-04  0.2850E-04  0.2552E-04  0.2285E-04  0.2059E-04  0.1865E-04  0.1696E-04  0.1542E-04  0.1407E-04  0.1282E-04  0.1167E-04  0.1059E-04  0.9604E-05  0.8738E-05  0.7953E-05  0.7220E-05  0.6531E-05  0.5896E-05  0.5290E-05
  0.5699E-04  0.6504E-04  0.7427E-04  0.8433E-04  0.9525E-04  0.1076E-03  0.1212E-03  0.1357E-03  0.1514E-03  0.1684E-03  0.1869E-03  0.2080E-03  0.2464E-03  0.3392E-03  0.5497E-03  0.9274E-03  0.1428E-02  0.1894E-02  0.2134E-02  0.2076E-02  0.1801E-02  0.1422E-02  0.1039E-02  0.7618E-03  0.6074E-03  0.5454E-03  0.5300E-03  0.5308E-03  0.5386E-03  0.5212E-03  0.4612E-03  0.4018E-03  0.3783E-03  0.3764E-03  0.3795E-03  0.4822E-03  0.7747E-03  0.7982E-03  0.8166E-03  0.1460E-02  0.1923E-02  0.1502E-02  0.1045E-02  0.9630E-03  0.1051E-02  0.1142E-02  0.1167E-02  0.1095E-02  0.9226E-03  0.6871E-03  0.4497E-03  0.2690E-03  0.1597E-03  0.1053E-03  0.8101E-04  0.6726E-04  0.5723E-04  0.4947E-04  0.4298E-04  0.3762E-04  0.3327E-04  0.2951E-04  0.2633E-04  0.2362E-04  0.2138E-04  0.1939E-04  0.1763E-04  0.1605E-04  0.1463E-04  0.1329E-04  0.1207E-04  0.1096E-04  0.9956E-05  0.9023E-05  0.8170E-05  0.7405E-05  0.6699E-05  0.6037E-05  0.5438E-05
  0.5718E-04  0.6548E-04  0.7447E-04  0.8450E-04  0.9534E-04  0.1076E-03  0.1210E-03  0.1352E-03  0.1508E-03  0.1676E-03  0.1856E-03  0.2060E-03  0.2415E-03  0.3294E-03  0.5246E-03  0.8656E-03  0.1294E-02  0.1635E-02  0.1719E-02  0.1516E-02  0.1176E-02  0.8688E-03  0.6693E-03  0.5662E-03  0.5238E-03  0.5094E-03  0.5018E-03  0.5000E-03  0.4878E-03  0.4480E-03  0.3915E-03  0.3570E-03  0.3500E-03  0.3563E-03  0.3672E-03  0.4511E-03  0.7234E-03  0.8760E-03  0.7819E-03  0.1069E-02  0.1736E-02  0.1946E-02  0.1485E-02  0.1079E-02  0.9765E-03  0.9895E-03  0.9718E-03  0.8716E-03  0.7089E-03  0.5216E-03  0.3517E-03  0.2245E-03  0.1474E-03  0.1055E-03  0.8329E-04  0.7019E-04  0.5969E-04  0.5154E-04  0.4474E-04  0.3926E-04  0.3464E-04  0.3079E-04  0.2741E-04  0.2466E-04  0.2226E-04  0.2018E-04  0.1838E-04  0.1671E-04  0.1520E-04  0.1378E-04  0.1248E-04  0.1132E-04  0.1027E-04  0.9303E-05  0.8434E-05  0.7623E-05  0.6860E-05  0.6147E-05  0.5528E-05
  0.5681E-04  0.6492E-04  0.7371E-04  0.8350E-04  0.9405E-04  0.1058E-03  0.1186E-03  0.1322E-03  0.1472E-03  0.1634E-03  0.1802E-03  0.1993E-03  0.2303E-03  0.3030E-03  0.4586E-03  0.7134E-03  0.9957E-03  0.1155E-02  0.1096E-02  0.8835E-03  0.6763E-03  0.5479E-03  0.4908E-03  0.4694E-03  0.4548E-03  0.4461E-03  0.4392E-03  0.4291E-03  0.4091E-03  0.3777E-03  0.3478E-03  0.3379E-03  0.3446E-03  0.3593E-03  0.3799E-03  0.4545E-03  0.6932E-03  0.9361E-03  0.8783E-03  0.8932E-03  0.1346E-02  0.1889E-02  0.1884E-02  0.1412E-02  0.1037E-02  0.8800E-03  0.7984E-03  0.6917E-03  0.5531E-03  0.4091E-03  0.2877E-03  0.1970E-03  0.1407E-03  0.1065E-03  0.8585E-04  0.7271E-04  0.6217E-04  0.5371E-04  0.4661E-04  0.4097E-04  0.3615E-04  0.3214E-04  0.2867E-04  0.2572E-04  0.2321E-04  0.2102E-04  0.1910E-04  0.1736E-04  0.1576E-04  0.1427E-04  0.1296E-04  0.1171E-04  0.1058E-04  0.9559E-05  0.8654E-05  0.7811E-05  0.7032E-05  0.6328E-05  0.5668E-05
  0.5573E-04  0.6359E-04  0.7212E-04  0.8149E-04  0.9171E-04  0.1027E-03  0.1146E-03  0.1274E-03  0.1413E-03  0.1560E-03  0.1714E-03  0.1884E-03  0.2127E-03  0.2618E-03  0.3601E-03  0.5015E-03  0.6262E-03  0.6589E-03  0.5939E-03  0.4937E-03  0.4221E-03  0.3879E-03  0.3827E-03  0.3809E-03  0.3750E-03  0.3684E-03  0.3633E-03  0.3563E-03  0.3460E-03  0.3343E-03  0.3300E-03  0.3372E-03  0.3540E-03  0.3766E-03  0.4043E-03  0.4709E-03  0.6694E-03  0.9406E-03  0.9643E-03  0.8600E-03  0.1038E-02  0.1533E-02  0.1908E-02  0.1749E-02  0.1269E-02  0.8898E-03  0.6839E-03  0.5528E-03  0.4432E-03  0.3363E-03  0.2478E-03  0.1818E-03  0.1374E-03  0.1085E-03  0.8892E-04  0.7489E-04  0.6430E-04  0.5573E-04  0.4856E-04  0.4278E-04  0.3778E-04  0.3361E-04  0.2998E-04  0.2691E-04  0.2420E-04  0.2191E-04  0.1987E-04  0.1803E-04  0.1631E-04  0.1476E-04  0.1335E-04  0.1208E-04  0.1092E-04  0.9881E-05  0.8905E-05  0.8012E-05  0.7188E-05  0.6454E-05  0.5775E-05
  0.5408E-04  0.6172E-04  0.6979E-04  0.7869E-04  0.8815E-04  0.9854E-04  0.1095E-03  0.1211E-03  0.1338E-03  0.1470E-03  0.1608E-03  0.1751E-03  0.1926E-03  0.2203E-03  0.2658E-03  0.3242E-03  0.3651E-03  0.3681E-03  0.3441E-03  0.3184E-03  0.3030E-03  0.3047E-03  0.3081E-03  0.3100E-03  0.3086E-03  0.3064E-03  0.3073E-03  0.3098E-03  0.3132E-03  0.3197E-03  0.3308E-03  0.3484E-03  0.3707E-03  0.3967E-03  0.4260E-03  0.4822E-03  0.6383E-03  0.8974E-03  0.1001E-02  0.8849E-03  0.8727E-03  0.1189E-02  0.1651E-02  0.1841E-02  0.1550E-02  0.1059E-02  0.6926E-03  0.4891E-03  0.3719E-03  0.2911E-03  0.2244E-03  0.1733E-03  0.1358E-03  0.1099E-03  0.9109E-04  0.7716E-04  0.6663E-04  0.5793E-04  0.5062E-04  0.4463E-04  0.3938E-04  0.3515E-04  0.3131E-04  0.2812E-04  0.2527E-04  0.2277E-04  0.2059E-04  0.1865E-04  0.1689E-04  0.1527E-04  0.1380E-04  0.1245E-04  0.1123E-04  0.1012E-04  0.9128E-05  0.8212E-05  0.7377E-05  0.6600E-05  0.5891E-05
  0.5208E-04  0.5921E-04  0.6694E-04  0.7528E-04  0.8408E-04  0.9353E-04  0.1035E-03  0.1141E-03  0.1254E-03  0.1369E-03  0.1488E-03  0.1608E-03  0.1736E-03  0.1887E-03  0.2084E-03  0.2283E-03  0.2421E-03  0.2465E-03  0.2422E-03  0.2443E-03  0.2507E-03  0.2562E-03  0.2603E-03  0.2641E-03  0.2683E-03  0.2728E-03  0.2805E-03  0.2915E-03  0.3050E-03  0.3209E-03  0.3400E-03  0.3617E-03  0.3856E-03  0.4112E-03  0.4377E-03  0.4830E-03  0.6000E-03  0.8145E-03  0.9544E-03  0.8846E-03  0.8167E-03  0.9828E-03  0.1368E-02  0.1694E-02  0.1672E-02  0.1300E-02  0.8463E-03  0.5233E-03  0.3531E-03  0.2634E-03  0.2082E-03  0.1670E-03  0.1346E-03  0.1114E-03  0.9318E-04  0.7925E-04  0.6865E-04  0.5984E-04  0.5245E-04  0.4634E-04  0.4102E-04  0.3660E-04  0.3255E-04  0.2922E-04  0.2620E-04  0.2365E-04  0.2135E-04  0.1933E-04  0.1745E-04  0.1573E-04  0.1417E-04  0.1279E-04  0.1154E-04  0.1041E-04  0.9374E-05  0.8416E-05  0.7528E-05  0.6723E-05  0.6001E-05
  0.4972E-04  0.5632E-04  0.6359E-04  0.7134E-04  0.7954E-04  0.8817E-04  0.9703E-04  0.1065E-03  0.1164E-03  0.1265E-03  0.1366E-03  0.1468E-03  0.1568E-03  0.1671E-03  0.1772E-03  0.1873E-03  0.1937E-03  0.1988E-03  0.2055E-03  0.2123E-03  0.2190E-03  0.2250E-03  0.2312E-03  0.2386E-03  0.2482E-03  0.2584E-03  0.2721E-03  0.2890E-03  0.3073E-03  0.3279E-03  0.3488E-03  0.3709E-03  0.3935E-03  0.4167E-03  0.4414E-03  0.4762E-03  0.5579E-03  0.7102E-03  0.8407E-03  0.8364E-03  0.8025E-03  0.9090E-03  0.1194E-02  0.1482E-02  0.1599E-02  0.1451E-02  0.1069E-02  0.6583E-03  0.3920E-03  0.2626E-03  0.1981E-03  0.1613E-03  0.1333E-03  0.1117E-03  0.9417E-04  0.8093E-04  0.7022E-04  0.6161E-04  0.5432E-04  0.4796E-04  0.4252E-04  0.3790E-04  0.3378E-04  0.3028E-04  0.2713E-04  0.2447E-04  0.2203E-04  0.1990E-04  0.1797E-04  0.1620E-04  0.1460E-04  0.1318E-04  0.1185E-04  0.1066E-04  0.9562E-05  0.8600E-05  0.7684E-05  0.6858E-05  0.6117E-05
  0.4704E-04  0.5333E-04  0.6008E-04  0.6712E-04  0.7461E-04  0.8242E-04  0.9052E-04  0.9868E-04  0.1073E-03  0.1161E-03  0.1249E-03  0.1333E-03  0.1419E-03  0.1502E-03  0.1580E-03  0.1651E-03  0.1718E-03  0.1778E-03  0.1842E-03  0.1904E-03  0.1978E-03  0.2056E-03  0.2149E-03  0.2261E-03  0.2390E-03  0.2538E-03  0.2717E-03  0.2920E-03  0.3120E-03  0.3324E-03  0.3529E-03  0.3729E-03  0.3940E-03  0.4159E-03  0.4386E-03  0.4675E-03  0.5224E-03  0.6197E-03  0.7203E-03  0.7678E-03  0.8068E-03  0.9302E-03  0.1138E-02  0.1340E-02  0.1466E-02  0.1455E-02  0.1217E-02  0.8189E-03  0.4752E-03  0.2836E-03  0.1982E-03  0.1569E-03  0.1314E-03  0.1109E-03  0.9497E-04  0.8207E-04  0.7149E-04  0.6307E-04  0.5572E-04  0.4936E-04  0.4385E-04  0.3906E-04  0.3491E-04  0.3127E-04  0.2804E-04  0.2519E-04  0.2273E-04  0.2049E-04  0.1849E-04  0.1666E-04  0.1498E-04  0.1348E-04  0.1212E-04  0.1091E-04  0.9809E-05  0.8807E-05  0.7841E-05  0.6978E-05  0.6183E-05
  0.4432E-04  0.5006E-04  0.5629E-04  0.6281E-04  0.6957E-04  0.7661E-04  0.8388E-04  0.9123E-04  0.9855E-04  0.1062E-03  0.1135E-03  0.1208E-03  0.1283E-03  0.1355E-03  0.1422E-03  0.1487E-03  0.1546E-03  0.1612E-03  0.1676E-03  0.1747E-03  0.1840E-03  0.1939E-03  0.2065E-03  0.2207E-03  0.2365E-03  0.2542E-03  0.2741E-03  0.2939E-03  0.3134E-03  0.3327E-03  0.3510E-03  0.3703E-03  0.3897E-03  0.4113E-03  0.4332E-03  0.4603E-03  0.5019E-03  0.5654E-03  0.6452E-03  0.7269E-03  0.8268E-03  0.9751E-03  0.1150E-02  0.1298E-02  0.1382E-02  0.1390E-02  0.1235E-02  0.9021E-03  0.5447E-03  0.3119E-03  0.2022E-03  0.1549E-03  0.1294E-03  0.1108E-03  0.9523E-04  0.8285E-04  0.7260E-04  0.6409E-04  0.5682E-04  0.5049E-04  0.4499E-04  0.4020E-04  0.3586E-04  0.3215E-04  0.2884E-04  0.2592E-04  0.2338E-04  0.2107E-04  0.1896E-04  0.1704E-04  0.1533E-04  0.1381E-04  0.1240E-04  0.1116E-04  0.1000E-04  0.8952E-05  0.7966E-05  0.7101E-05  0.6296E-05
  0.4149E-04  0.4669E-04  0.5237E-04  0.5836E-04  0.6461E-04  0.7084E-04  0.7734E-04  0.8370E-04  0.9018E-04  0.9671E-04  0.1030E-03  0.1095E-03  0.1161E-03  0.1223E-03  0.1284E-03  0.1342E-03  0.1408E-03  0.1473E-03  0.1547E-03  0.1637E-03  0.1746E-03  0.1868E-03  0.2015E-03  0.2180E-03  0.2353E-03  0.2544E-03  0.2741E-03  0.2927E-03  0.3110E-03  0.3284E-03  0.3459E-03  0.3639E-03  0.3833E-03  0.4044E-03  0.4293E-03  0.4575E-03  0.4950E-03  0.5496E-03  0.6255E-03  0.7246E-03  0.8539E-03  0.1013E-02  0.1174E-02  0.1292E-02  0.1341E-02  0.1312E-02  0.1166E-02  0.8802E-03  0.5532E-03  0.3199E-03  0.2029E-03  0.1532E-03  0.1280E-03  0.1099E-03  0.9531E-04  0.8338E-04  0.7323E-04  0.6496E-04  0.5777E-04  0.5147E-04  0.4595E-04  0.4107E-04  0.3671E-04  0.3289E-04  0.2954E-04  0.2659E-04  0.2394E-04  0.2152E-04  0.1936E-04  0.1744E-04  0.1570E-04  0.1411E-04  0.1265E-04  0.1134E-04  0.1015E-04  0.9093E-05  0.8090E-05  0.7216E-05  0.6376E-05
  0.3859E-04  0.4335E-04  0.4846E-04  0.5395E-04  0.5942E-04  0.6518E-04  0.7105E-04  0.7667E-04  0.8238E-04  0.8789E-04  0.9348E-04  0.9916E-04  0.1050E-03  0.1108E-03  0.1162E-03  0.1224E-03  0.1287E-03  0.1359E-03  0.1444E-03  0.1548E-03  0.1673E-03  0.1815E-03  0.1981E-03  0.2155E-03  0.2338E-03  0.2527E-03  0.2712E-03  0.2883E-03  0.3051E-03  0.3212E-03  0.3375E-03  0.3546E-03  0.3749E-03  0.3984E-03  0.4253E-03  0.4579E-03  0.5009E-03  0.5583E-03  0.6373E-03  0.7429E-03  0.8785E-03  0.1035E-02  0.1183E-02  0.1280E-02  0.1298E-02  0.1224E-02  0.1046E-02  0.7807E-03  0.5056E-03  0.3043E-03  0.1963E-03  0.1497E-03  0.1261E-03  0.1088E-03  0.9512E-04  0.8321E-04  0.7366E-04  0.6553E-04  0.5848E-04  0.5223E-04  0.4668E-04  0.4171E-04  0.3745E-04  0.3363E-04  0.3019E-04  0.2713E-04  0.2436E-04  0.2197E-04  0.1978E-04  0.1779E-04  0.1598E-04  0.1434E-04  0.1285E-04  0.1151E-04  0.1033E-04  0.9234E-05  0.8220E-05  0.7286E-05  0.6425E-05
  0.3567E-04  0.3994E-04  0.4468E-04  0.4962E-04  0.5451E-04  0.5974E-04  0.6488E-04  0.7001E-04  0.7497E-04  0.7972E-04  0.8458E-04  0.8983E-04  0.9542E-04  0.1004E-03  0.1056E-03  0.1118E-03  0.1186E-03  0.1263E-03  0.1358E-03  0.1473E-03  0.1609E-03  0.1767E-03  0.1941E-03  0.2119E-03  0.2303E-03  0.2483E-03  0.2655E-03  0.2813E-03  0.2963E-03  0.3112E-03  0.3269E-03  0.3451E-03  0.3664E-03  0.3920E-03  0.4236E-03  0.4630E-03  0.5128E-03  0.5769E-03  0.6597E-03  0.7667E-03  0.8973E-03  0.1040E-02  0.1166E-02  0.1237E-02  0.1220E-02  0.1106E-02  0.9039E-03  0.6578E-03  0.4341E-03  0.2765E-03  0.1877E-03  0.1456E-03  0.1240E-03  0.1083E-03  0.9441E-04  0.8330E-04  0.7369E-04  0.6573E-04  0.5889E-04  0.5278E-04  0.4725E-04  0.4239E-04  0.3803E-04  0.3419E-04  0.3069E-04  0.2757E-04  0.2480E-04  0.2235E-04  0.2012E-04  0.1808E-04  0.1621E-04  0.1453E-04  0.1303E-04  0.1168E-04  0.1046E-04  0.9333E-05  0.8290E-05  0.7330E-05  0.6480E-05
  0.3290E-04  0.3676E-04  0.4104E-04  0.4537E-04  0.4990E-04  0.5453E-04  0.5911E-04  0.6373E-04  0.6809E-04  0.7253E-04  0.7663E-04  0.8186E-04  0.8647E-04  0.9122E-04  0.9680E-04  0.1028E-03  0.1096E-03  0.1181E-03  0.1281E-03  0.1404E-03  0.1547E-03  0.1711E-03  0.1886E-03  0.2060E-03  0.2242E-03  0.2413E-03  0.2571E-03  0.2717E-03  0.2858E-03  0.3002E-03  0.3159E-03  0.3350E-03  0.3584E-03  0.3878E-03  0.4244E-03  0.4700E-03  0.5271E-03  0.5965E-03  0.6818E-03  0.7851E-03  0.9017E-03  0.1019E-02  0.1111E-02  0.1143E-02  0.1094E-02  0.9542E-03  0.7556E-03  0.5444E-03  0.3682E-03  0.2492E-03  0.1810E-03  0.1430E-03  0.1218E-03  0.1066E-03  0.9371E-04  0.8272E-04  0.7344E-04  0.6578E-04  0.5912E-04  0.5302E-04  0.4761E-04  0.4283E-04  0.3851E-04  0.3458E-04  0.3105E-04  0.2795E-04  0.2515E-04  0.2268E-04  0.2039E-04  0.1830E-04  0.1640E-04  0.1471E-04  0.1318E-04  0.1183E-04  0.1057E-04  0.9404E-05  0.8370E-05  0.7409E-05  0.6552E-05
  0.3022E-04  0.3376E-04  0.3748E-04  0.4146E-04  0.4553E-04  0.4966E-04  0.5380E-04  0.5783E-04  0.6200E-04  0.6572E-04  0.6986E-04  0.7449E-04  0.7875E-04  0.8318E-04  0.8873E-04  0.9465E-04  0.1018E-03  0.1104E-03  0.1208E-03  0.1336E-03  0.1481E-03  0.1648E-03  0.1823E-03  0.1996E-03  0.2169E-03  0.2327E-03  0.2474E-03  0.2611E-03  0.2745E-03  0.2884E-03  0.3050E-03  0.3256E-03  0.3517E-03  0.3850E-03  0.4264E-03  0.4773E-03  0.5385E-03  0.6105E-03  0.6943E-03  0.7868E-03  0.8817E-03  0.9647E-03  0.1013E-02  0.1007E-02  0.9313E-03  0.7934E-03  0.6198E-03  0.4523E-03  0.3194E-03  0.2290E-03  0.1741E-03  0.1412E-03  0.1204E-03  0.1050E-03  0.9275E-04  0.8195E-04  0.7323E-04  0.6556E-04  0.5897E-04  0.5316E-04  0.4782E-04  0.4302E-04  0.3876E-04  0.3483E-04  0.3135E-04  0.2821E-04  0.2540E-04  0.2290E-04  0.2059E-04  0.1846E-04  0.1655E-04  0.1485E-04  0.1330E-04  0.1191E-04  0.1061E-04  0.9469E-05  0.8407E-05  0.7442E-05  0.6585E-05
  0.2776E-04  0.3085E-04  0.3435E-04  0.3781E-04  0.4144E-04  0.4520E-04  0.4884E-04  0.5268E-04  0.5620E-04  0.5965E-04  0.6372E-04  0.6797E-04  0.7205E-04  0.7660E-04  0.8174E-04  0.8774E-04  0.9498E-04  0.1037E-03  0.1143E-03  0.1270E-03  0.1418E-03  0.1581E-03  0.1755E-03  0.1921E-03  0.2083E-03  0.2232E-03  0.2369E-03  0.2499E-03  0.2630E-03  0.2773E-03  0.2947E-03  0.3169E-03  0.3460E-03  0.3824E-03  0.4273E-03  0.4811E-03  0.5438E-03  0.6146E-03  0.6906E-03  0.7676E-03  0.8366E-03  0.8837E-03  0.8953E-03  0.8596E-03  0.7746E-03  0.6511E-03  0.5122E-03  0.3849E-03  0.2845E-03  0.2142E-03  0.1699E-03  0.1397E-03  0.1189E-03  0.1032E-03  0.9121E-04  0.8121E-04  0.7246E-04  0.6513E-04  0.5884E-04  0.5302E-04  0.4777E-04  0.4311E-04  0.3886E-04  0.3497E-04  0.3147E-04  0.2841E-04  0.2558E-04  0.2304E-04  0.2071E-04  0.1855E-04  0.1667E-04  0.1492E-04  0.1338E-04  0.1194E-04  0.1065E-04  0.9488E-05  0.8430E-05  0.7458E-05  0.6580E-05
  0.2529E-04  0.2830E-04  0.3133E-04  0.3446E-04  0.3779E-04  0.4111E-04  0.4457E-04  0.4786E-04  0.5109E-04  0.5454E-04  0.5822E-04  0.6217E-04  0.6616E-04  0.7072E-04  0.7579E-04  0.8182E-04  0.8909E-04  0.9768E-04  0.1082E-03  0.1209E-03  0.1354E-03  0.1514E-03  0.1682E-03  0.1843E-03  0.1994E-03  0.2132E-03  0.2260E-03  0.2383E-03  0.2510E-03  0.2657E-03  0.2840E-03  0.3083E-03  0.3391E-03  0.3776E-03  0.4244E-03  0.4788E-03  0.5402E-03  0.6051E-03  0.6705E-03  0.7293E-03  0.7726E-03  0.7924E-03  0.7789E-03  0.7293E-03  0.6473E-03  0.5431E-03  0.4346E-03  0.3366E-03  0.2591E-03  0.2038E-03  0.1637E-03  0.1372E-03  0.1169E-03  0.1016E-03  0.8959E-04  0.7977E-04  0.7148E-04  0.6451E-04  0.5829E-04  0.5267E-04  0.4761E-04  0.4296E-04  0.3879E-04  0.3497E-04  0.3148E-04  0.2842E-04  0.2564E-04  0.2309E-04  0.2072E-04  0.1862E-04  0.1668E-04  0.1495E-04  0.1339E-04  0.1195E-04  0.1067E-04  0.9478E-05  0.8395E-05  0.7438E-05  0.6544E-05
  0.2328E-04  0.2595E-04  0.2848E-04  0.3156E-04  0.3447E-04  0.3747E-04  0.4061E-04  0.4358E-04  0.4654E-04  0.4986E-04  0.5336E-04  0.5705E-04  0.6097E-04  0.6533E-04  0.7035E-04  0.7631E-04  0.8335E-04  0.9192E-04  0.1023E-03  0.1146E-03  0.1286E-03  0.1441E-03  0.1600E-03  0.1751E-03  0.1891E-03  0.2020E-03  0.2140E-03  0.2258E-03  0.2385E-03  0.2534E-03  0.2730E-03  0.2981E-03  0.3303E-03  0.3698E-03  0.4165E-03  0.4693E-03  0.5257E-03  0.5827E-03  0.6345E-03  0.6764E-03  0.7003E-03  0.7018E-03  0.6749E-03  0.6223E-03  0.5489E-03  0.4629E-03  0.3770E-03  0.3011E-03  0.2391E-03  0.1928E-03  0.1587E-03  0.1339E-03  0.1143E-03  0.9936E-04  0.8766E-04  0.7823E-04  0.7042E-04  0.6352E-04  0.5760E-04  0.5220E-04  0.4721E-04  0.4270E-04  0.3855E-04  0.3482E-04  0.3142E-04  0.2837E-04  0.2559E-04  0.2305E-04  0.2069E-04  0.1858E-04  0.1666E-04  0.1495E-04  0.1334E-04  0.1192E-04  0.1061E-04  0.9447E-05  0.8377E-05  0.7389E-05  0.6496E-05
  0.2140E-04  0.2357E-04  0.2629E-04  0.2878E-04  0.3134E-04  0.3430E-04  0.3701E-04  0.3975E-04  0.4280E-04  0.4569E-04  0.4897E-04  0.5254E-04  0.5628E-04  0.6050E-04  0.6528E-04  0.7106E-04  0.7795E-04  0.8615E-04  0.9608E-04  0.1078E-03  0.1214E-03  0.1359E-03  0.1506E-03  0.1649E-03  0.1778E-03  0.1895E-03  0.2010E-03  0.2127E-03  0.2256E-03  0.2409E-03  0.2610E-03  0.2871E-03  0.3196E-03  0.3586E-03  0.4032E-03  0.4518E-03  0.5014E-03  0.5477E-03  0.5881E-03  0.6151E-03  0.6255E-03  0.6156E-03  0.5842E-03  0.5347E-03  0.4708E-03  0.4013E-03  0.3335E-03  0.2721E-03  0.2217E-03  0.1824E-03  0.1519E-03  0.1291E-03  0.1112E-03  0.9697E-04  0.8554E-04  0.7670E-04  0.6901E-04  0.6254E-04  0.5670E-04  0.5141E-04  0.4664E-04  0.4223E-04  0.3822E-04  0.3453E-04  0.3119E-04  0.2818E-04  0.2544E-04  0.2293E-04  0.2059E-04  0.1847E-04  0.1658E-04  0.1486E-04  0.1328E-04  0.1183E-04  0.1055E-04  0.9379E-05  0.8296E-05  0.7330E-05  0.6431E-05
  0.1957E-04  0.2183E-04  0.2402E-04  0.2625E-04  0.2890E-04  0.3133E-04  0.3380E-04  0.3637E-04  0.3915E-04  0.4195E-04  0.4509E-04  0.4841E-04  0.5201E-04  0.5607E-04  0.6070E-04  0.6607E-04  0.7254E-04  0.8034E-04  0.8976E-04  0.1008E-03  0.1134E-03  0.1269E-03  0.1406E-03  0.1538E-03  0.1658E-03  0.1771E-03  0.1883E-03  0.1996E-03  0.2126E-03  0.2280E-03  0.2484E-03  0.2744E-03  0.3064E-03  0.3435E-03  0.3845E-03  0.4273E-03  0.4684E-03  0.5062E-03  0.5347E-03  0.5513E-03  0.5530E-03  0.5378E-03  0.5068E-03  0.4617E-03  0.4085E-03  0.3517E-03  0.2969E-03  0.2467E-03  0.2053E-03  0.1714E-03  0.1450E-03  0.1242E-03  0.1074E-03  0.9406E-04  0.8324E-04  0.7465E-04  0.6744E-04  0.6115E-04  0.5553E-04  0.5056E-04  0.4587E-04  0.4156E-04  0.3769E-04  0.3418E-04  0.3087E-04  0.2791E-04  0.2521E-04  0.2270E-04  0.2041E-04  0.1831E-04  0.1641E-04  0.1473E-04  0.1316E-04  0.1171E-04  0.1046E-04  0.9258E-05  0.8199E-05  0.7212E-05  0.6353E-05
  0.1804E-04  0.2003E-04  0.2199E-04  0.2421E-04  0.2645E-04  0.2865E-04  0.3103E-04  0.3344E-04  0.3595E-04  0.3854E-04  0.4152E-04  0.4463E-04  0.4804E-04  0.5194E-04  0.5621E-04  0.6130E-04  0.6716E-04  0.7428E-04  0.8313E-04  0.9364E-04  0.1055E-03  0.1180E-03  0.1307E-03  0.1430E-03  0.1543E-03  0.1650E-03  0.1757E-03  0.1870E-03  0.1997E-03  0.2154E-03  0.2355E-03  0.2605E-03  0.2904E-03  0.3242E-03  0.3605E-03  0.3963E-03  0.4309E-03  0.4593E-03  0.4797E-03  0.4890E-03  0.4852E-03  0.4684E-03  0.4392E-03  0.4006E-03  0.3565E-03  0.3101E-03  0.2656E-03  0.2239E-03  0.1897E-03  0.1605E-03  0.1372E-03  0.1185E-03  0.1033E-03  0.9079E-04  0.8058E-04  0.7232E-04  0.6568E-04  0.5959E-04  0.5432E-04  0.4942E-04  0.4490E-04  0.4085E-04  0.3706E-04  0.3359E-04  0.3044E-04  0.2751E-04  0.2484E-04  0.2238E-04  0.2014E-04  0.1809E-04  0.1621E-04  0.1452E-04  0.1300E-04  0.1158E-04  0.1028E-04  0.9115E-05  0.8052E-05  0.7089E-05  0.6262E-05
  0.1679E-04  0.1845E-04  0.2024E-04  0.2229E-04  0.2427E-04  0.2635E-04  0.2842E-04  0.3069E-04  0.3292E-04  0.3544E-04  0.3818E-04  0.4111E-04  0.4421E-04  0.4773E-04  0.5187E-04  0.5663E-04  0.6200E-04  0.6880E-04  0.7722E-04  0.8696E-04  0.9777E-04  0.1095E-03  0.1213E-03  0.1326E-03  0.1433E-03  0.1536E-03  0.1638E-03  0.1745E-03  0.1869E-03  0.2022E-03  0.2213E-03  0.2446E-03  0.2716E-03  0.3015E-03  0.3323E-03  0.3628E-03  0.3901E-03  0.4118E-03  0.4257E-03  0.4299E-03  0.4236E-03  0.4070E-03  0.3815E-03  0.3491E-03  0.3122E-03  0.2745E-03  0.2378E-03  0.2041E-03  0.1745E-03  0.1497E-03  0.1292E-03  0.1126E-03  0.9845E-04  0.8728E-04  0.7788E-04  0.6998E-04  0.6357E-04  0.5795E-04  0.5277E-04  0.4802E-04  0.4389E-04  0.3991E-04  0.3626E-04  0.3292E-04  0.2988E-04  0.2701E-04  0.2438E-04  0.2202E-04  0.1981E-04  0.1777E-04  0.1595E-04  0.1429E-04  0.1275E-04  0.1136E-04  0.1006E-04  0.8953E-05  0.7908E-05  0.6981E-05  0.6129E-05
