DSAA
          79         109
    318.3670    342.0670
   7336.5760   7369.2760
  0.0000E+00  0.1058E-02
  0.0000E+00  0.0000E+00  0.0000E+00  0.0000E+00  0.0000E+00  0.0000E+00  0.0000E+00  0.0000E+00  0.0000E+00  0.0000E+00  0.0000E+00  0.0000E+00  0.0000E+00  0.0000E+00  0.0000E+00  0.0000E+00  0.0000E+00  0.0000E+00  0.0000E+00  0.0000E+00  0.0000E+00  0.0000E+00  0.0000E+00  0.0000E+00  0.0000E+00  0.0000E+00  0.0000E+00  0.0000E+00  0.0000E+00  0.0000E+00  0.0000E+00  0.0000E+00  0.0000E+00  0.0000E+00  0.0000E+00  0.0000E+00  0.0000E+00  0.0000E+00  0.0000E+00  0.0000E+00  0.0000E+00  0.0000E+00  0.0000E+00  0.0000E+00  0.0000E+00  0.0000E+00  0.0000E+00  0.0000E+00  0.0000E+00  0.0000E+00  0.0000E+00  0.0000E+00  0.0000E+00  0.0000E+00  0.0000E+00  0.0000E+00  0.0000E+00  0.0000E+00  0.0000E+00  0.0000E+00  0.0000E+00  0.0000E+00  0.0000E+00  0.0000E+00  0.0000E+00  0.0000E+00  0.0000E+00  0.0000E+00  0.0000E+00  0.0000E+00  0.0000E+00  0.0000E+00  0.0000E+00  0.0000E+00  0.0000E+00  0.0000E+00  0.0000E+00  0.0000E+00  0.0000E+00
  0.0000E+00  0.0000E+00  0.0000E+00  0.0000E+00  0.0000E+00  0.0000E+00  0.0000E+00  0.0000E+00  0.0000E+00  0.0000E+00  0.0000E+00  0.0000E+00  0.0000E+00  0.0000E+00  0.0000E+00  0.0000E+00  0.0000E+00  0.0000E+00  0.0000E+00  0.0000E+00  0.0000E+00  0.0000E+00  0.0000E+00  0.0000E+00  0.0000E+00  0.0000E+00  0.0000E+00  0.0000E+00  0.0000E+00  0.0000E+00  0.0000E+00  0.0000E+00  0.0000E+00  0.0000E+00  0.0000E+00  0.0000E+00  0.0000E+00  0.0000E+00  0.0000E+00  0.0000E+00  0.0000E+00  0.0000E+00  0.0000E+00  0.0000E+00  0.0000E+00  0.0000E+00  0.0000E+00  0.0000E+00  0.0000E+00  0.0000E+00  0.0000E+00  0.0000E+00  0.0000E+00  0.0000E+00  0.0000E+00  0.0000E+00  0.0000E+00  0.0000E+00  0.0000E+00  0.0000E+00  0.0000E+00  0.0000E+00  0.0000E+00  0.0000E+00  0.0000E+00  0.0000E+00  0.0000E+00  0.0000E+00  0.0000E+00  0.0000E+00  0.0000E+00  0.0000E+00  0.0000E+00  0.0000E+00  0.0000E+00  0.0000E+00  0.0000E+00  0.0000E+00  0.0000E+00
  0.0000E+00  0.0000E+00  0.0000E+00  0.0000E+00  0.0000E+00  0.0000E+00  0.0000E+00  0.0000E+00  0.0000E+00  0.0000E+00  0.0000E+00  0.0000E+00  0.0000E+00  0.0000E+00  0.0000E+00  0.0000E+00  0.0000E+00  0.0000E+00  0.0000E+00  0.0000E+00  0.0000E+00  0.0000E+00  0.0000E+00  0.0000E+00  0.0000E+00  0.0000E+00  0.0000E+00  0.0000E+00  0.0000E+00  0.0000E+00  0.0000E+00  0.0000E+00  0.0000E+00  0.0000E+00  0.0000E+00  0.0000E+00  0.0000E+00  0.0000E+00  0.0000E+00  0.0000E+00  0.0000E+00  0.0000E+00  0.0000E+00  0.0000E+00  0.0000E+00  0.0000E+00  0.0000E+00  0.0000E+00  0.0000E+00  0.0000E+00  0.0000E+00  0.0000E+00  0.0000E+00  0.0000E+00  0.0000E+00  0.0000E+00  0.0000E+00  0.0000E+00  0.0000E+00  0.0000E+00  0.0000E+00  0.0000E+00  0.0000E+00  0.0000E+00  0.0000E+00  0.0000E+00  0.0000E+00  0.0000E+00  0.0000E+00  0.0000E+00  0.0000E+00  0.0000E+00  0.0000E+00  0.0000E+00  0.0000E+00  0.0000E+00  0.0000E+00  0.0000E+00  0.0000E+00
  0.0000E+00  0.0000E+00  0.0000E+00  0.0000E+00  0.0000E+00  0.0000E+00  0.0000E+00  0.0000E+00  0.0000E+00  0.0000E+00  0.0000E+00  0.0000E+00  0.0000E+00  0.0000E+00  0.0000E+00  0.0000E+00  0.0000E+00  0.0000E+00  0.0000E+00  0.0000E+00  0.0000E+00  0.0000E+00  0.0000E+00  0.0000E+00  0.0000E+00  0.0000E+00  0.0000E+00  0.0000E+00  0.0000E+00  0.0000E+00  0.0000E+00  0.0000E+00  0.0000E+00  0.0000E+00  0.0000E+00  0.0000E+00  0.0000E+00  0.0000E+00  0.0000E+00  0.0000E+00  0.0000E+00  0.0000E+00  0.0000E+00  0.0000E+00  0.0000E+00  0.0000E+00  0.0000E+00  0.0000E+00  0.0000E+00  0.0000E+00  0.0000E+00  0.0000E+00  0.0000E+00  0.0000E+00  0.0000E+00  0.0000E+00  0.0000E+00  0.0000E+00  0.0000E+00  0.0000E+00  0.0000E+00  0.0000E+00  0.0000E+00  0.0000E+00  0.0000E+00  0.0000E+00  0.0000E+00  0.0000E+00  0.0000E+00  0.0000E+00  0.0000E+00  0.0000E+00  0.0000E+00  0.0000E+00  0.0000E+00  0.0000E+00  0.0000E+00  0.0000E+00  0.0000E+00
  0.0000E+00  0.0000E+00  0.0000E+00  0.0000E+00  0.0000E+00  0.0000E+00  0.0000E+00  0.0000E+00  0.0000E+00  0.0000E+00  0.0000E+00  0.0000E+00  0.0000E+00  0.0000E+00  0.0000E+00  0.0000E+00  0.0000E+00  0.0000E+00  0.0000E+00  0.0000E+00  0.0000E+00  0.0000E+00  0.0000E+00  0.0000E+00  0.0000E+00  0.0000E+00  0.0000E+00  0.0000E+00  0.0000E+00  0.0000E+00  0.0000E+00  0.0000E+00  0.0000E+00  0.0000E+00  0.0000E+00  0.0000E+00  0.0000E+00  0.0000E+00  0.0000E+00  0.0000E+00  0.0000E+00  0.0000E+00  0.0000E+00  0.0000E+00  0.0000E+00  0.0000E+00  0.0000E+00  0.0000E+00  0.0000E+00  0.0000E+00  0.0000E+00  0.0000E+00  0.0000E+00  0.0000E+00  0.0000E+00  0.0000E+00  0.0000E+00  0.0000E+00  0.0000E+00  0.0000E+00  0.0000E+00  0.0000E+00  0.0000E+00  0.0000E+00  0.0000E+00  0.0000E+00  0.0000E+00  0.0000E+00  0.0000E+00  0.0000E+00  0.0000E+00  0.0000E+00  0.0000E+00  0.0000E+00  0.0000E+00  0.0000E+00  0.0000E+00  0.0000E+00  0.0000E+00
  0.0000E+00  0.0000E+00  0.0000E+00  0.0000E+00  0.0000E+00  0.0000E+00  0.0000E+00  0.0000E+00  0.0000E+00  0.0000E+00  0.0000E+00  0.0000E+00  0.0000E+00  0.0000E+00  0.0000E+00  0.0000E+00  0.0000E+00  0.0000E+00  0.0000E+00  0.0000E+00  0.0000E+00  0.0000E+00  0.0000E+00  0.0000E+00  0.0000E+00  0.0000E+00  0.0000E+00  0.0000E+00  0.0000E+00  0.0000E+00  0.0000E+00  0.0000E+00  0.0000E+00  0.0000E+00  0.0000E+00  0.0000E+00  0.0000E+00  0.0000E+00  0.0000E+00  0.0000E+00  0.0000E+00  0.0000E+00  0.0000E+00  0.0000E+00  0.0000E+00  0.0000E+00  0.0000E+00  0.0000E+00  0.0000E+00  0.0000E+00  0.0000E+00  0.0000E+00  0.0000E+00  0.0000E+00  0.0000E+00  0.0000E+00  0.0000E+00  0.0000E+00  0.0000E+00  0.0000E+00  0.0000E+00  0.0000E+00  0.0000E+00  0.0000E+00  0.0000E+00  0.0000E+00  0.0000E+00  0.0000E+00  0.0000E+00  0.0000E+00  0.0000E+00  0.0000E+00  0.0000E+00  0.0000E+00  0.0000E+00  0.0000E+00  0.0000E+00  0.0000E+00  0.0000E+00
  0.0000E+00  0.0000E+00  0.0000E+00  0.0000E+00  0.0000E+00  0.0000E+00  0.0000E+00  0.0000E+00  0.0000E+00  0.0000E+00  0.0000E+00  0.0000E+00  0.0000E+00  0.0000E+00  0.0000E+00  0.0000E+00  0.0000E+00  0.0000E+00  0.0000E+00  0.0000E+00  0.0000E+00  0.0000E+00  0.0000E+00  0.0000E+00  0.0000E+00  0.0000E+00  0.0000E+00  0.0000E+00  0.0000E+00  0.0000E+00  0.0000E+00  0.0000E+00  0.0000E+00  0.0000E+00  0.0000E+00  0.0000E+00  0.0000E+00  0.0000E+00  0.0000E+00  0.0000E+00  0.0000E+00  0.0000E+00  0.0000E+00  0.0000E+00  0.0000E+00  0.0000E+00  0.0000E+00  0.0000E+00  0.0000E+00  0.0000E+00  0.0000E+00  0.0000E+00  0.0000E+00  0.0000E+00  0.0000E+00  0.0000E+00  0.0000E+00  0.0000E+00  0.0000E+00  0.0000E+00  0.0000E+00  0.0000E+00  0.0000E+00  0.0000E+00  0.0000E+00  0.0000E+00  0.0000E+00  0.0000E+00  0.0000E+00  0.0000E+00  0.0000E+00  0.0000E+00  0.0000E+00  0.0000E+00  0.0000E+00  0.0000E+00  0.0000E+00  0.0000E+00  0.0000E+00
  0.0000E+00  0.0000E+00  0.0000E+00  0.0000E+00  0.0000E+00  0.0000E+00  0.0000E+00  0.0000E+00  0.0000E+00  0.0000E+00  0.0000E+00  0.0000E+00  0.0000E+00  0.0000E+00  0.0000E+00  0.0000E+00  0.0000E+00  0.0000E+00  0.0000E+00  0.0000E+00  0.0000E+00  0.0000E+00  0.0000E+00  0.0000E+00  0.0000E+00  0.0000E+00  0.0000E+00  0.0000E+00  0.0000E+00  0.0000E+00  0.0000E+00  0.0000E+00  0.0000E+00  0.0000E+00  0.0000E+00  0.0000E+00  0.0000E+00  0.0000E+00  0.0000E+00  0.0000E+00  0.0000E+00  0.0000E+00  0.0000E+00  0.0000E+00  0.0000E+00  0.0000E+00  0.0000E+00  0.0000E+00  0.0000E+00  0.0000E+00  0.0000E+00  0.0000E+00  0.0000E+00  0.0000E+00  0.0000E+00  0.0000E+00  0.0000E+00  0.0000E+00  0.0000E+00  0.0000E+00  0.0000E+00  0.0000E+00  0.0000E+00  0.0000E+00  0.0000E+00  0.0000E+00  0.0000E+00  0.0000E+00  0.0000E+00  0.0000E+00  0.0000E+00  0.0000E+00  0.0000E+00  0.0000E+00  0.0000E+00  0.0000E+00  0.0000E+00  0.0000E+00  0.0000E+00
  0.0000E+00  0.0000E+00  0.0000E+00  0.0000E+00  0.0000E+00  0.0000E+00  0.0000E+00  0.0000E+00  0.0000E+00  0.0000E+00  0.0000E+00  0.0000E+00  0.0000E+00  0.0000E+00  0.0000E+00  0.0000E+00  0.0000E+00  0.0000E+00  0.0000E+00  0.0000E+00  0.0000E+00  0.0000E+00  0.0000E+00  0.0000E+00  0.0000E+00  0.0000E+00  0.0000E+00  0.0000E+00  0.0000E+00  0.0000E+00  0.0000E+00  0.0000E+00  0.0000E+00  0.0000E+00  0.0000E+00  0.0000E+00  0.0000E+00  0.0000E+00  0.0000E+00  0.0000E+00  0.0000E+00  0.0000E+00  0.0000E+00  0.0000E+00  0.0000E+00  0.0000E+00  0.0000E+00  0.0000E+00  0.0000E+00  0.0000E+00  0.0000E+00  0.0000E+00  0.0000E+00  0.0000E+00  0.0000E+00  0.0000E+00  0.0000E+00  0.0000E+00  0.0000E+00  0.0000E+00  0.0000E+00  0.0000E+00  0.0000E+00  0.0000E+00  0.0000E+00  0.0000E+00  0.0000E+00  0.0000E+00  0.0000E+00  0.0000E+00  0.0000E+00  0.0000E+00  0.0000E+00  0.0000E+00  0.0000E+00  0.0000E+00  0.0000E+00  0.0000E+00  0.0000E+00
  0.0000E+00  0.0000E+00  0.0000E+00  0.0000E+00  0.0000E+00  0.0000E+00  0.0000E+00  0.0000E+00  0.0000E+00  0.0000E+00  0.0000E+00  0.0000E+00  0.0000E+00  0.0000E+00  0.0000E+00  0.0000E+00  0.0000E+00  0.0000E+00  0.0000E+00  0.0000E+00  0.0000E+00  0.0000E+00  0.0000E+00  0.0000E+00  0.0000E+00  0.0000E+00  0.0000E+00  0.0000E+00  0.0000E+00  0.0000E+00  0.0000E+00  0.0000E+00  0.0000E+00  0.0000E+00  0.0000E+00  0.0000E+00  0.0000E+00  0.0000E+00  0.0000E+00  0.0000E+00  0.0000E+00  0.0000E+00  0.0000E+00  0.0000E+00  0.0000E+00  0.0000E+00  0.0000E+00  0.0000E+00  0.0000E+00  0.0000E+00  0.0000E+00  0.0000E+00  0.0000E+00  0.0000E+00  0.0000E+00  0.0000E+00  0.0000E+00  0.0000E+00  0.0000E+00  0.0000E+00  0.0000E+00  0.0000E+00  0.0000E+00  0.0000E+00  0.0000E+00  0.0000E+00  0.0000E+00  0.0000E+00  0.0000E+00  0.0000E+00  0.0000E+00  0.0000E+00  0.0000E+00  0.0000E+00  0.0000E+00  0.0000E+00  0.0000E+00  0.0000E+00  0.0000E+00
  0.0000E+00  0.0000E+00  0.0000E+00  0.0000E+00  0.0000E+00  0.0000E+00  0.0000E+00  0.0000E+00  0.0000E+00  0.0000E+00  0.0000E+00  0.0000E+00  0.0000E+00  0.0000E+00  0.0000E+00  0.0000E+00  0.0000E+00  0.0000E+00  0.0000E+00  0.0000E+00  0.0000E+00  0.0000E+00  0.0000E+00  0.0000E+00  0.0000E+00  0.0000E+00  0.0000E+00  0.0000E+00  0.0000E+00  0.0000E+00  0.0000E+00  0.0000E+00  0.0000E+00  0.0000E+00  0.0000E+00  0.0000E+00  0.0000E+00  0.0000E+00  0.0000E+00  0.0000E+00  0.0000E+00  0.0000E+00  0.0000E+00  0.0000E+00  0.0000E+00  0.0000E+00  0.0000E+00  0.0000E+00  0.0000E+00  0.0000E+00  0.0000E+00  0.0000E+00  0.0000E+00  0.0000E+00  0.0000E+00  0.0000E+00  0.0000E+00  0.0000E+00  0.0000E+00  0.0000E+00  0.0000E+00  0.0000E+00  0.0000E+00  0.0000E+00  0.0000E+00  0.0000E+00  0.0000E+00  0.0000E+00  0.0000E+00  0.0000E+00  0.0000E+00  0.0000E+00  0.0000E+00  0.0000E+00  0.0000E+00  0.0000E+00  0.0000E+00  0.0000E+00  0.0000E+00
  0.0000E+00  0.0000E+00  0.0000E+00  0.0000E+00  0.0000E+00  0.0000E+00  0.0000E+00  0.0000E+00  0.0000E+00  0.0000E+00  0.0000E+00  0.0000E+00  0.0000E+00  0.0000E+00  0.0000E+00  0.0000E+00  0.0000E+00  0.0000E+00  0.0000E+00  0.0000E+00  0.0000E+00  0.0000E+00  0.0000E+00  0.0000E+00  0.0000E+00  0.0000E+00  0.0000E+00  0.0000E+00  0.0000E+00  0.0000E+00  0.0000E+00  0.0000E+00  0.0000E+00  0.0000E+00  0.0000E+00  0.0000E+00  0.0000E+00  0.0000E+00  0.0000E+00  0.0000E+00  0.0000E+00  0.0000E+00  0.0000E+00  0.0000E+00  0.0000E+00  0.0000E+00  0.0000E+00  0.0000E+00  0.0000E+00  0.0000E+00  0.0000E+00  0.0000E+00  0.0000E+00  0.0000E+00  0.0000E+00  0.0000E+00  0.0000E+00  0.0000E+00  0.0000E+00  0.0000E+00  0.0000E+00  0.0000E+00  0.0000E+00  0.0000E+00  0.0000E+00  0.0000E+00  0.0000E+00  0.0000E+00  0.0000E+00  0.0000E+00  0.0000E+00  0.0000E+00  0.0000E+00  0.0000E+00  0.0000E+00  0.0000E+00  0.0000E+00  0.0000E+00  0.0000E+00
  0.0000E+00  0.0000E+00  0.0000E+00  0.0000E+00  0.0000E+00  0.0000E+00  0.0000E+00  0.0000E+00  0.0000E+00  0.0000E+00  0.0000E+00  0.0000E+00  0.0000E+00  0.0000E+00  0.0000E+00  0.0000E+00  0.0000E+00  0.0000E+00  0.0000E+00  0.0000E+00  0.0000E+00  0.0000E+00  0.0000E+00  0.0000E+00  0.0000E+00  0.0000E+00  0.0000E+00  0.0000E+00  0.0000E+00  0.0000E+00  0.0000E+00  0.0000E+00  0.0000E+00  0.0000E+00  0.0000E+00  0.0000E+00  0.0000E+00  0.0000E+00  0.0000E+00  0.0000E+00  0.0000E+00  0.0000E+00  0.0000E+00  0.0000E+00  0.0000E+00  0.0000E+00  0.0000E+00  0.0000E+00  0.0000E+00  0.0000E+00  0.0000E+00  0.0000E+00  0.0000E+00  0.0000E+00  0.0000E+00  0.0000E+00  0.0000E+00  0.0000E+00  0.0000E+00  0.0000E+00  0.0000E+00  0.0000E+00  0.0000E+00  0.0000E+00  0.0000E+00  0.0000E+00  0.0000E+00  0.0000E+00  0.0000E+00  0.0000E+00  0.0000E+00  0.0000E+00  0.0000E+00  0.0000E+00  0.0000E+00  0.0000E+00  0.0000E+00  0.0000E+00  0.0000E+00
  0.0000E+00  0.0000E+00  0.0000E+00  0.0000E+00  0.0000E+00  0.0000E+00  0.0000E+00  0.0000E+00  0.0000E+00  0.0000E+00  0.0000E+00  0.0000E+00  0.0000E+00  0.0000E+00  0.0000E+00  0.0000E+00  0.0000E+00  0.0000E+00  0.0000E+00  0.0000E+00  0.0000E+00  0.0000E+00  0.0000E+00  0.0000E+00  0.0000E+00  0.0000E+00  0.0000E+00  0.0000E+00  0.0000E+00  0.0000E+00  0.0000E+00  0.0000E+00  0.0000E+00  0.0000E+00  0.0000E+00  0.0000E+00  0.0000E+00  0.0000E+00  0.0000E+00  0.0000E+00  0.0000E+00  0.0000E+00  0.0000E+00  0.0000E+00  0.0000E+00  0.0000E+00  0.0000E+00  0.0000E+00  0.0000E+00  0.0000E+00  0.0000E+00  0.0000E+00  0.0000E+00  0.0000E+00  0.0000E+00  0.0000E+00  0.0000E+00  0.0000E+00  0.0000E+00  0.0000E+00  0.0000E+00  0.0000E+00  0.0000E+00  0.0000E+00  0.0000E+00  0.0000E+00  0.0000E+00  0.0000E+00  0.0000E+00  0.0000E+00  0.0000E+00  0.0000E+00  0.0000E+00  0.0000E+00  0.0000E+00  0.0000E+00  0.0000E+00  0.0000E+00  0.0000E+00
  0.0000E+00  0.0000E+00  0.0000E+00  0.0000E+00  0.0000E+00  0.0000E+00  0.0000E+00  0.0000E+00  0.0000E+00  0.0000E+00  0.0000E+00  0.0000E+00  0.0000E+00  0.0000E+00  0.0000E+00  0.0000E+00  0.0000E+00  0.0000E+00  0.0000E+00  0.0000E+00  0.0000E+00  0.0000E+00  0.0000E+00  0.0000E+00  0.0000E+00  0.0000E+00  0.0000E+00  0.0000E+00  0.0000E+00  0.0000E+00  0.0000E+00  0.0000E+00  0.0000E+00  0.0000E+00  0.0000E+00  0.0000E+00  0.0000E+00  0.0000E+00  0.0000E+00  0.0000E+00  0.0000E+00  0.0000E+00  0.0000E+00  0.0000E+00  0.0000E+00  0.0000E+00  0.0000E+00  0.0000E+00  0.0000E+00  0.0000E+00  0.0000E+00  0.0000E+00  0.0000E+00  0.0000E+00  0.0000E+00  0.0000E+00  0.0000E+00  0.0000E+00  0.0000E+00  0.0000E+00  0.0000E+00  0.0000E+00  0.0000E+00  0.0000E+00  0.0000E+00  0.0000E+00  0.0000E+00  0.0000E+00  0.0000E+00  0.0000E+00  0.0000E+00  0.0000E+00  0.0000E+00  0.0000E+00  0.0000E+00  0.0000E+00  0.0000E+00  0.0000E+00  0.0000E+00
  0.0000E+00  0.0000E+00  0.0000E+00  0.0000E+00  0.0000E+00  0.0000E+00  0.0000E+00  0.0000E+00  0.0000E+00  0.0000E+00  0.0000E+00  0.0000E+00  0.0000E+00  0.0000E+00  0.0000E+00  0.0000E+00  0.0000E+00  0.0000E+00  0.0000E+00  0.0000E+00  0.0000E+00  0.0000E+00  0.0000E+00  0.0000E+00  0.0000E+00  0.0000E+00  0.0000E+00  0.0000E+00  0.0000E+00  0.0000E+00  0.0000E+00  0.0000E+00  0.0000E+00  0.0000E+00  0.0000E+00  0.0000E+00  0.0000E+00  0.0000E+00  0.0000E+00  0.0000E+00  0.0000E+00  0.0000E+00  0.0000E+00  0.0000E+00  0.0000E+00  0.0000E+00  0.0000E+00  0.0000E+00  0.0000E+00  0.0000E+00  0.0000E+00  0.0000E+00  0.0000E+00  0.0000E+00  0.0000E+00  0.0000E+00  0.0000E+00  0.0000E+00  0.0000E+00  0.0000E+00  0.0000E+00  0.0000E+00  0.0000E+00  0.0000E+00  0.0000E+00  0.0000E+00  0.0000E+00  0.0000E+00  0.0000E+00  0.0000E+00  0.0000E+00  0.0000E+00  0.0000E+00  0.0000E+00  0.0000E+00  0.0000E+00  0.0000E+00  0.0000E+00  0.0000E+00
  0.0000E+00  0.0000E+00  0.0000E+00  0.0000E+00  0.0000E+00  0.0000E+00  0.0000E+00  0.0000E+00  0.0000E+00  0.0000E+00  0.0000E+00  0.0000E+00  0.0000E+00  0.0000E+00  0.0000E+00  0.0000E+00  0.0000E+00  0.0000E+00  0.0000E+00  0.0000E+00  0.0000E+00  0.0000E+00  0.0000E+00  0.0000E+00  0.0000E+00  0.0000E+00  0.0000E+00  0.0000E+00  0.0000E+00  0.0000E+00  0.0000E+00  0.0000E+00  0.0000E+00  0.0000E+00  0.0000E+00  0.0000E+00  0.0000E+00  0.0000E+00  0.0000E+00  0.0000E+00  0.0000E+00  0.0000E+00  0.0000E+00  0.0000E+00  0.0000E+00  0.0000E+00  0.0000E+00  0.0000E+00  0.0000E+00  0.0000E+00  0.0000E+00  0.0000E+00  0.0000E+00  0.0000E+00  0.0000E+00  0.0000E+00  0.0000E+00  0.0000E+00  0.0000E+00  0.0000E+00  0.0000E+00  0.0000E+00  0.0000E+00  0.0000E+00  0.0000E+00  0.0000E+00  0.0000E+00  0.0000E+00  0.0000E+00  0.0000E+00  0.0000E+00  0.0000E+00  0.0000E+00  0.0000E+00  0.0000E+00  0.0000E+00  0.0000E+00  0.0000E+00  0.0000E+00
  0.0000E+00  0.0000E+00  0.0000E+00  0.0000E+00  0.0000E+00  0.0000E+00  0.0000E+00  0.0000E+00  0.0000E+00  0.0000E+00  0.0000E+00  0.0000E+00  0.0000E+00  0.0000E+00  0.0000E+00  0.0000E+00  0.0000E+00  0.0000E+00  0.0000E+00  0.0000E+00  0.0000E+00  0.0000E+00  0.0000E+00  0.0000E+00  0.0000E+00  0.0000E+00  0.0000E+00  0.0000E+00  0.0000E+00  0.0000E+00  0.0000E+00  0.0000E+00  0.0000E+00  0.0000E+00  0.0000E+00  0.0000E+00  0.0000E+00  0.0000E+00  0.0000E+00  0.0000E+00  0.0000E+00  0.0000E+00  0.0000E+00  0.0000E+00  0.0000E+00  0.0000E+00  0.0000E+00  0.0000E+00  0.0000E+00  0.0000E+00  0.0000E+00  0.0000E+00  0.0000E+00  0.0000E+00  0.0000E+00  0.0000E+00  0.0000E+00  0.0000E+00  0.0000E+00  0.0000E+00  0.0000E+00  0.0000E+00  0.0000E+00  0.0000E+00  0.0000E+00  0.0000E+00  0.0000E+00  0.0000E+00  0.0000E+00  0.0000E+00  0.0000E+00  0.0000E+00  0.0000E+00  0.0000E+00  0.0000E+00  0.0000E+00  0.0000E+00  0.0000E+00  0.0000E+00
  0.0000E+00  0.0000E+00  0.0000E+00  0.0000E+00  0.0000E+00  0.0000E+00  0.0000E+00  0.0000E+00  0.0000E+00  0.0000E+00  0.0000E+00  0.0000E+00  0.0000E+00  0.0000E+00  0.0000E+00  0.0000E+00  0.0000E+00  0.0000E+00  0.0000E+00  0.0000E+00  0.0000E+00  0.0000E+00  0.0000E+00  0.0000E+00  0.0000E+00  0.0000E+00  0.0000E+00  0.0000E+00  0.0000E+00  0.0000E+00  0.0000E+00  0.0000E+00  0.0000E+00  0.0000E+00  0.0000E+00  0.0000E+00  0.0000E+00  0.0000E+00  0.0000E+00  0.0000E+00  0.0000E+00  0.0000E+00  0.0000E+00  0.0000E+00  0.0000E+00  0.0000E+00  0.0000E+00  0.0000E+00  0.0000E+00  0.0000E+00  0.0000E+00  0.0000E+00  0.0000E+00  0.0000E+00  0.0000E+00  0.0000E+00  0.0000E+00  0.0000E+00  0.0000E+00  0.0000E+00  0.0000E+00  0.0000E+00  0.0000E+00  0.0000E+00  0.0000E+00  0.0000E+00  0.0000E+00  0.0000E+00  0.0000E+00  0.0000E+00  0.0000E+00  0.0000E+00  0.0000E+00  0.0000E+00  0.0000E+00  0.0000E+00  0.0000E+00  0.0000E+00  0.0000E+00
  0.0000E+00  0.0000E+00  0.0000E+00  0.0000E+00  0.0000E+00  0.0000E+00  0.0000E+00  0.0000E+00  0.0000E+00  0.0000E+00  0.0000E+00  0.0000E+00  0.0000E+00  0.0000E+00  0.0000E+00  0.0000E+00  0.0000E+00  0.0000E+00  0.0000E+00  0.0000E+00  0.0000E+00  0.0000E+00  0.0000E+00  0.0000E+00  0.0000E+00  0.0000E+00  0.0000E+00  0.0000E+00  0.0000E+00  0.0000E+00  0.0000E+00  0.0000E+00  0.0000E+00  0.0000E+00  0.0000E+00  0.0000E+00  0.0000E+00  0.0000E+00  0.0000E+00  0.0000E+00  0.0000E+00  0.0000E+00  0.0000E+00  0.0000E+00  0.0000E+00  0.0000E+00  0.0000E+00  0.0000E+00  0.0000E+00  0.0000E+00  0.0000E+00  0.0000E+00  0.0000E+00  0.0000E+00  0.0000E+00  0.0000E+00  0.0000E+00  0.0000E+00  0.0000E+00  0.0000E+00  0.0000E+00  0.0000E+00  0.0000E+00  0.0000E+00  0.0000E+00  0.0000E+00  0.0000E+00  0.0000E+00  0.0000E+00  0.0000E+00  0.0000E+00  0.0000E+00  0.0000E+00  0.0000E+00  0.0000E+00  0.0000E+00  0.0000E+00  0.0000E+00  0.0000E+00
  0.0000E+00  0.0000E+00  0.0000E+00  0.0000E+00  0.0000E+00  0.0000E+00  0.0000E+00  0.0000E+00  0.0000E+00  0.0000E+00  0.0000E+00  0.0000E+00  0.0000E+00  0.0000E+00  0.0000E+00  0.0000E+00  0.0000E+00  0.0000E+00  0.0000E+00  0.0000E+00  0.0000E+00  0.0000E+00  0.0000E+00  0.0000E+00  0.0000E+00  0.0000E+00  0.0000E+00  0.0000E+00  0.0000E+00  0.0000E+00  0.0000E+00  0.0000E+00  0.0000E+00  0.0000E+00  0.0000E+00  0.0000E+00  0.0000E+00  0.0000E+00  0.0000E+00  0.0000E+00  0.0000E+00  0.0000E+00  0.0000E+00  0.0000E+00  0.0000E+00  0.0000E+00  0.0000E+00  0.0000E+00  0.0000E+00  0.0000E+00  0.0000E+00  0.0000E+00  0.0000E+00  0.0000E+00  0.0000E+00  0.0000E+00  0.0000E+00  0.0000E+00  0.0000E+00  0.0000E+00  0.0000E+00  0.0000E+00  0.0000E+00  0.0000E+00  0.0000E+00  0.0000E+00  0.0000E+00  0.0000E+00  0.0000E+00  0.0000E+00  0.0000E+00  0.0000E+00  0.0000E+00  0.0000E+00  0.0000E+00  0.0000E+00  0.0000E+00  0.0000E+00  0.0000E+00
  0.0000E+00  0.0000E+00  0.0000E+00  0.0000E+00  0.0000E+00  0.0000E+00  0.0000E+00  0.0000E+00  0.0000E+00  0.0000E+00  0.0000E+00  0.0000E+00  0.0000E+00  0.0000E+00  0.0000E+00  0.0000E+00  0.0000E+00  0.0000E+00  0.0000E+00  0.0000E+00  0.0000E+00  0.0000E+00  0.0000E+00  0.0000E+00  0.0000E+00  0.0000E+00  0.0000E+00  0.0000E+00  0.0000E+00  0.0000E+00  0.0000E+00  0.0000E+00  0.0000E+00  0.0000E+00  0.0000E+00  0.0000E+00  0.0000E+00  0.0000E+00  0.0000E+00  0.0000E+00  0.0000E+00  0.0000E+00  0.0000E+00  0.0000E+00  0.0000E+00  0.0000E+00  0.0000E+00  0.0000E+00  0.0000E+00  0.0000E+00  0.0000E+00  0.0000E+00  0.0000E+00  0.0000E+00  0.0000E+00  0.0000E+00  0.0000E+00  0.0000E+00  0.0000E+00  0.0000E+00  0.0000E+00  0.0000E+00  0.0000E+00  0.0000E+00  0.0000E+00  0.0000E+00  0.0000E+00  0.0000E+00  0.0000E+00  0.0000E+00  0.0000E+00  0.0000E+00  0.0000E+00  0.0000E+00  0.0000E+00  0.0000E+00  0.0000E+00  0.0000E+00  0.0000E+00
  0.0000E+00  0.0000E+00  0.0000E+00  0.0000E+00  0.0000E+00  0.0000E+00  0.0000E+00  0.0000E+00  0.0000E+00  0.0000E+00  0.0000E+00  0.0000E+00  0.0000E+00  0.0000E+00  0.0000E+00  0.0000E+00  0.0000E+00  0.0000E+00  0.0000E+00  0.0000E+00  0.0000E+00  0.0000E+00  0.0000E+00  0.0000E+00  0.0000E+00  0.0000E+00  0.0000E+00  0.0000E+00  0.0000E+00  0.0000E+00  0.0000E+00  0.0000E+00  0.0000E+00  0.0000E+00  0.0000E+00  0.0000E+00  0.0000E+00  0.0000E+00  0.0000E+00  0.0000E+00  0.0000E+00  0.0000E+00  0.0000E+00  0.0000E+00  0.0000E+00  0.0000E+00  0.0000E+00  0.0000E+00  0.0000E+00  0.0000E+00  0.0000E+00  0.0000E+00  0.0000E+00  0.0000E+00  0.0000E+00  0.0000E+00  0.0000E+00  0.0000E+00  0.0000E+00  0.0000E+00  0.0000E+00  0.0000E+00  0.0000E+00  0.0000E+00  0.0000E+00  0.0000E+00  0.0000E+00  0.0000E+00  0.0000E+00  0.0000E+00  0.0000E+00  0.0000E+00  0.0000E+00  0.0000E+00  0.0000E+00  0.0000E+00  0.0000E+00  0.0000E+00  0.0000E+00
  0.0000E+00  0.0000E+00  0.0000E+00  0.0000E+00  0.0000E+00  0.0000E+00  0.0000E+00  0.0000E+00  0.0000E+00  0.0000E+00  0.0000E+00  0.0000E+00  0.0000E+00  0.0000E+00  0.0000E+00  0.0000E+00  0.0000E+00  0.0000E+00  0.0000E+00  0.0000E+00  0.0000E+00  0.0000E+00  0.0000E+00  0.0000E+00  0.0000E+00  0.0000E+00  0.0000E+00  0.0000E+00  0.0000E+00  0.0000E+00  0.0000E+00  0.0000E+00  0.0000E+00  0.0000E+00  0.0000E+00  0.0000E+00  0.0000E+00  0.0000E+00  0.0000E+00  0.0000E+00  0.0000E+00  0.0000E+00  0.0000E+00  0.0000E+00  0.0000E+00  0.0000E+00  0.0000E+00  0.0000E+00  0.0000E+00  0.0000E+00  0.0000E+00  0.0000E+00  0.0000E+00  0.0000E+00  0.0000E+00  0.0000E+00  0.0000E+00  0.0000E+00  0.0000E+00  0.0000E+00  0.0000E+00  0.0000E+00  0.0000E+00  0.0000E+00  0.0000E+00  0.0000E+00  0.0000E+00  0.0000E+00  0.0000E+00  0.0000E+00  0.0000E+00  0.0000E+00  0.0000E+00  0.0000E+00  0.0000E+00  0.0000E+00  0.0000E+00  0.0000E+00  0.0000E+00
  0.0000E+00  0.0000E+00  0.0000E+00  0.0000E+00  0.0000E+00  0.0000E+00  0.0000E+00  0.0000E+00  0.0000E+00  0.0000E+00  0.0000E+00  0.0000E+00  0.0000E+00  0.0000E+00  0.0000E+00  0.0000E+00  0.0000E+00  0.0000E+00  0.0000E+00  0.0000E+00  0.0000E+00  0.0000E+00  0.0000E+00  0.0000E+00  0.0000E+00  0.0000E+00  0.0000E+00  0.0000E+00  0.0000E+00  0.0000E+00  0.0000E+00  0.0000E+00  0.0000E+00  0.0000E+00  0.0000E+00  0.0000E+00  0.0000E+00  0.0000E+00  0.0000E+00  0.0000E+00  0.0000E+00  0.0000E+00  0.0000E+00  0.0000E+00  0.0000E+00  0.0000E+00  0.0000E+00  0.0000E+00  0.0000E+00  0.0000E+00  0.0000E+00  0.0000E+00  0.0000E+00  0.0000E+00  0.0000E+00  0.0000E+00  0.0000E+00  0.0000E+00  0.0000E+00  0.0000E+00  0.0000E+00  0.0000E+00  0.0000E+00  0.0000E+00  0.0000E+00  0.0000E+00  0.0000E+00  0.0000E+00  0.0000E+00  0.0000E+00  0.0000E+00  0.0000E+00  0.0000E+00  0.0000E+00  0.0000E+00  0.0000E+00  0.0000E+00  0.0000E+00  0.0000E+00
  0.0000E+00  0.0000E+00  0.0000E+00  0.0000E+00  0.0000E+00  0.0000E+00  0.0000E+00  0.0000E+00  0.0000E+00  0.0000E+00  0.0000E+00  0.0000E+00  0.0000E+00  0.0000E+00  0.0000E+00  0.0000E+00  0.0000E+00  0.0000E+00  0.0000E+00  0.0000E+00  0.0000E+00  0.0000E+00  0.0000E+00  0.0000E+00  0.0000E+00  0.0000E+00  0.0000E+00  0.0000E+00  0.0000E+00  0.0000E+00  0.0000E+00  0.0000E+00  0.0000E+00  0.0000E+00  0.0000E+00  0.0000E+00  0.0000E+00  0.0000E+00  0.0000E+00  0.0000E+00  0.0000E+00  0.0000E+00  0.0000E+00  0.0000E+00  0.0000E+00  0.0000E+00  0.0000E+00  0.0000E+00  0.0000E+00  0.0000E+00  0.0000E+00  0.0000E+00  0.0000E+00  0.0000E+00  0.0000E+00  0.0000E+00  0.0000E+00  0.0000E+00  0.0000E+00  0.0000E+00  0.0000E+00  0.0000E+00  0.0000E+00  0.0000E+00  0.0000E+00  0.0000E+00  0.0000E+00  0.0000E+00  0.0000E+00  0.0000E+00  0.0000E+00  0.0000E+00  0.0000E+00  0.0000E+00  0.0000E+00  0.0000E+00  0.0000E+00  0.0000E+00  0.0000E+00
  0.0000E+00  0.0000E+00  0.0000E+00  0.0000E+00  0.0000E+00  0.0000E+00  0.0000E+00  0.0000E+00  0.0000E+00  0.0000E+00  0.0000E+00  0.0000E+00  0.0000E+00  0.0000E+00  0.0000E+00  0.0000E+00  0.0000E+00  0.0000E+00  0.0000E+00  0.0000E+00  0.0000E+00  0.0000E+00  0.0000E+00  0.0000E+00  0.0000E+00  0.0000E+00  0.0000E+00  0.0000E+00  0.0000E+00  0.0000E+00  0.0000E+00  0.0000E+00  0.0000E+00  0.0000E+00  0.0000E+00  0.0000E+00  0.0000E+00  0.0000E+00  0.0000E+00  0.0000E+00  0.0000E+00  0.0000E+00  0.0000E+00  0.0000E+00  0.0000E+00  0.0000E+00  0.0000E+00  0.0000E+00  0.0000E+00  0.0000E+00  0.0000E+00  0.0000E+00  0.0000E+00  0.0000E+00  0.0000E+00  0.0000E+00  0.0000E+00  0.0000E+00  0.0000E+00  0.0000E+00  0.0000E+00  0.0000E+00  0.0000E+00  0.0000E+00  0.0000E+00  0.0000E+00  0.0000E+00  0.0000E+00  0.0000E+00  0.0000E+00  0.0000E+00  0.0000E+00  0.0000E+00  0.0000E+00  0.0000E+00  0.0000E+00  0.0000E+00  0.0000E+00  0.0000E+00
  0.0000E+00  0.0000E+00  0.0000E+00  0.0000E+00  0.0000E+00  0.0000E+00  0.0000E+00  0.0000E+00  0.0000E+00  0.0000E+00  0.0000E+00  0.0000E+00  0.0000E+00  0.0000E+00  0.0000E+00  0.0000E+00  0.0000E+00  0.0000E+00  0.0000E+00  0.0000E+00  0.0000E+00  0.0000E+00  0.0000E+00  0.0000E+00  0.0000E+00  0.0000E+00  0.0000E+00  0.0000E+00  0.0000E+00  0.0000E+00  0.0000E+00  0.0000E+00  0.0000E+00  0.0000E+00  0.0000E+00  0.0000E+00  0.0000E+00  0.0000E+00  0.0000E+00  0.0000E+00  0.0000E+00  0.0000E+00  0.0000E+00  0.0000E+00  0.0000E+00  0.0000E+00  0.0000E+00  0.0000E+00  0.0000E+00  0.0000E+00  0.0000E+00  0.0000E+00  0.0000E+00  0.0000E+00  0.0000E+00  0.0000E+00  0.0000E+00  0.0000E+00  0.0000E+00  0.0000E+00  0.0000E+00  0.0000E+00  0.0000E+00  0.0000E+00  0.0000E+00  0.0000E+00  0.0000E+00  0.0000E+00  0.0000E+00  0.0000E+00  0.0000E+00  0.0000E+00  0.0000E+00  0.0000E+00  0.0000E+00  0.0000E+00  0.0000E+00  0.0000E+00  0.0000E+00
  0.0000E+00  0.0000E+00  0.0000E+00  0.0000E+00  0.0000E+00  0.0000E+00  0.0000E+00  0.0000E+00  0.0000E+00  0.0000E+00  0.0000E+00  0.0000E+00  0.0000E+00  0.0000E+00  0.0000E+00  0.0000E+00  0.0000E+00  0.0000E+00  0.0000E+00  0.0000E+00  0.0000E+00  0.0000E+00  0.0000E+00  0.0000E+00  0.0000E+00  0.0000E+00  0.0000E+00  0.0000E+00  0.0000E+00  0.0000E+00  0.0000E+00  0.0000E+00  0.0000E+00  0.0000E+00  0.0000E+00  0.0000E+00  0.0000E+00  0.0000E+00  0.0000E+00  0.0000E+00  0.0000E+00  0.0000E+00  0.0000E+00  0.0000E+00  0.0000E+00  0.0000E+00  0.0000E+00  0.0000E+00  0.0000E+00  0.0000E+00  0.0000E+00  0.0000E+00  0.0000E+00  0.0000E+00  0.0000E+00  0.0000E+00  0.0000E+00  0.0000E+00  0.0000E+00  0.0000E+00  0.0000E+00  0.0000E+00  0.0000E+00  0.0000E+00  0.0000E+00  0.0000E+00  0.0000E+00  0.0000E+00  0.0000E+00  0.0000E+00  0.0000E+00  0.0000E+00  0.0000E+00  0.0000E+00  0.0000E+00  0.0000E+00  0.0000E+00  0.0000E+00  0.0000E+00
  0.0000E+00  0.0000E+00  0.0000E+00  0.0000E+00  0.0000E+00  0.0000E+00  0.0000E+00  0.5485E-08  0.1334E-07  0.2186E-07  0.2882E-07  0.3873E-07  0.4954E-07  0.6935E-07  0.8269E-07  0.9504E-07  0.1086E-06  0.1123E-06  0.1089E-06  0.1034E-06  0.9931E-07  0.9496E-07  0.8814E-07  0.8082E-07  0.7121E-07  0.5545E-07  0.4354E-07  0.3130E-07  0.2409E-07  0.1405E-07  0.6038E-08  0.0000E+00  0.0000E+00  0.0000E+00  0.0000E+00  0.0000E+00  0.0000E+00  0.0000E+00  0.0000E+00  0.0000E+00  0.0000E+00  0.0000E+00  0.0000E+00  0.0000E+00  0.0000E+00  0.0000E+00  0.0000E+00  0.0000E+00  0.0000E+00  0.0000E+00  0.0000E+00  0.0000E+00  0.0000E+00  0.0000E+00  0.0000E+00  0.0000E+00  0.0000E+00  0.0000E+00  0.0000E+00  0.0000E+00  0.0000E+00  0.0000E+00  0.0000E+00  0.0000E+00  0.0000E+00  0.0000E+00  0.0000E+00  0.0000E+00  0.0000E+00  0.0000E+00  0.0000E+00  0.0000E+00  0.0000E+00  0.0000E+00  0.0000E+00  0.0000E+00  0.0000E+00  0.0000E+00  0.0000E+00
  0.1800E-08  0.9392E-08  0.1740E-07  0.2973E-07  0.4502E-07  0.6122E-07  0.8438E-07  0.1098E-06  0.1315E-06  0.1514E-06  0.1618E-06  0.1749E-06  0.1781E-06  0.1801E-06  0.1817E-06  0.1835E-06  0.1845E-06  0.1852E-06  0.1856E-06  0.1856E-06  0.1853E-06  0.1852E-06  0.1843E-06  0.1830E-06  0.1808E-06  0.1753E-06  0.1654E-06  0.1570E-06  0.1422E-06  0.1222E-06  0.1041E-06  0.7926E-07  0.5986E-07  0.3996E-07  0.2183E-07  0.1143E-07  0.0000E+00  0.0000E+00  0.0000E+00  0.0000E+00  0.0000E+00  0.0000E+00  0.0000E+00  0.0000E+00  0.0000E+00  0.0000E+00  0.0000E+00  0.0000E+00  0.0000E+00  0.0000E+00  0.1023E-08  0.1042E-08  0.2075E-08  0.2103E-08  0.4177E-08  0.4211E-08  0.4232E-08  0.4242E-08  0.4240E-08  0.4226E-08  0.4200E-08  0.4162E-08  0.2088E-08  0.2058E-08  0.1032E-08  0.0000E+00  0.0000E+00  0.0000E+00  0.0000E+00  0.0000E+00  0.0000E+00  0.0000E+00  0.0000E+00  0.0000E+00  0.0000E+00  0.0000E+00  0.0000E+00  0.0000E+00  0.0000E+00
  0.5993E-07  0.8141E-07  0.1046E-06  0.1296E-06  0.1514E-06  0.1689E-06  0.1811E-06  0.1855E-06  0.1897E-06  0.1936E-06  0.1967E-06  0.2001E-06  0.2032E-06  0.2054E-06  0.2079E-06  0.2094E-06  0.2106E-06  0.2114E-06  0.2130E-06  0.2130E-06  0.2127E-06  0.2120E-06  0.2109E-06  0.2095E-06  0.2077E-06  0.2055E-06  0.2024E-06  0.1996E-06  0.1959E-06  0.1924E-06  0.1887E-06  0.1805E-06  0.1687E-06  0.1519E-06  0.1290E-06  0.1005E-06  0.7075E-07  0.4572E-07  0.2193E-07  0.8800E-08  0.0000E+00  0.0000E+00  0.0000E+00  0.0000E+00  0.0000E+00  0.1042E-08  0.3106E-08  0.4271E-08  0.5449E-08  0.6629E-08  0.7901E-08  0.9159E-08  0.1039E-07  0.1170E-07  0.1184E-07  0.1308E-07  0.1317E-07  0.1321E-07  0.1322E-07  0.1319E-07  0.1312E-07  0.1302E-07  0.1287E-07  0.1158E-07  0.1139E-07  0.8990E-08  0.7715E-08  0.5411E-08  0.4225E-08  0.2075E-08  0.1022E-08  0.0000E+00  0.0000E+00  0.0000E+00  0.0000E+00  0.0000E+00  0.0000E+00  0.0000E+00  0.0000E+00
  0.1419E-06  0.1654E-06  0.1818E-06  0.1903E-06  0.1960E-06  0.2015E-06  0.2067E-06  0.2117E-06  0.2160E-06  0.2204E-06  0.2246E-06  0.2285E-06  0.2314E-06  0.2346E-06  0.2368E-06  0.2386E-06  0.2411E-06  0.2421E-06  0.2426E-06  0.2427E-06  0.2424E-06  0.2416E-06  0.2404E-06  0.2388E-06  0.2367E-06  0.2342E-06  0.2314E-06  0.2281E-06  0.2245E-06  0.2200E-06  0.2152E-06  0.2106E-06  0.2052E-06  0.2001E-06  0.1943E-06  0.1883E-06  0.1728E-06  0.1531E-06  0.1268E-06  0.9114E-07  0.5855E-07  0.3124E-07  0.1461E-07  0.4337E-08  0.6632E-08  0.8004E-08  0.1048E-07  0.1198E-07  0.1349E-07  0.1619E-07  0.1778E-07  0.1817E-07  0.2095E-07  0.2253E-07  0.2284E-07  0.2430E-07  0.2579E-07  0.2592E-07  0.2598E-07  0.2595E-07  0.2585E-07  0.2567E-07  0.2541E-07  0.2507E-07  0.2221E-07  0.2178E-07  0.2010E-07  0.1724E-07  0.1560E-07  0.1286E-07  0.1132E-07  0.7701E-08  0.5318E-08  0.2073E-08  0.0000E+00  0.0000E+00  0.0000E+00  0.0000E+00  0.0000E+00
  0.1961E-06  0.2029E-06  0.2096E-06  0.2162E-06  0.2226E-06  0.2288E-06  0.2348E-06  0.2405E-06  0.2459E-06  0.2505E-06  0.2552E-06  0.2596E-06  0.2636E-06  0.2666E-06  0.2691E-06  0.2725E-06  0.2741E-06  0.2752E-06  0.2758E-06  0.2768E-06  0.2764E-06  0.2756E-06  0.2742E-06  0.2726E-06  0.2702E-06  0.2674E-06  0.2642E-06  0.2599E-06  0.2558E-06  0.2513E-06  0.2458E-06  0.2400E-06  0.2343E-06  0.2279E-06  0.2219E-06  0.2151E-06  0.2079E-06  0.2007E-06  0.1945E-06  0.1837E-06  0.1669E-06  0.1401E-06  0.1035E-06  0.6843E-07  0.3925E-07  0.2273E-07  0.1965E-07  0.2159E-07  0.2354E-07  0.2678E-07  0.2880E-07  0.3077E-07  0.3281E-07  0.3477E-07  0.3663E-07  0.3853E-07  0.3891E-07  0.4057E-07  0.4071E-07  0.4073E-07  0.4062E-07  0.4037E-07  0.4000E-07  0.3950E-07  0.3889E-07  0.3680E-07  0.3329E-07  0.3245E-07  0.3024E-07  0.2676E-07  0.2341E-07  0.2010E-07  0.1696E-07  0.1285E-07  0.8989E-08  0.5397E-08  0.2083E-08  0.0000E+00  0.0000E+00
  0.2222E-06  0.2300E-06  0.2376E-06  0.2451E-06  0.2524E-06  0.2594E-06  0.2662E-06  0.2727E-06  0.2788E-06  0.2846E-06  0.2900E-06  0.2944E-06  0.2990E-06  0.3025E-06  0.3068E-06  0.3094E-06  0.3113E-06  0.3137E-06  0.3144E-06  0.3148E-06  0.3147E-06  0.3139E-06  0.3126E-06  0.3106E-06  0.3079E-06  0.3050E-06  0.3013E-06  0.2972E-06  0.2925E-06  0.2867E-06  0.2812E-06  0.2751E-06  0.2682E-06  0.2609E-06  0.2531E-06  0.2460E-06  0.2408E-06  0.2337E-06  0.2276E-06  0.2218E-06  0.2153E-06  0.2099E-06  0.1989E-06  0.1766E-06  0.1459E-06  0.1036E-06  0.7038E-07  0.4761E-07  0.3601E-07  0.3993E-07  0.4251E-07  0.4650E-07  0.4906E-07  0.5152E-07  0.5399E-07  0.5631E-07  0.5698E-07  0.5896E-07  0.6089E-07  0.6103E-07  0.6096E-07  0.6068E-07  0.6019E-07  0.5950E-07  0.5862E-07  0.5608E-07  0.5330E-07  0.5048E-07  0.4763E-07  0.4322E-07  0.3891E-07  0.3608E-07  0.3198E-07  0.2677E-07  0.2184E-07  0.1721E-07  0.1291E-07  0.8947E-08  0.5322E-08
  0.2514E-06  0.2602E-06  0.2688E-06  0.2773E-06  0.2855E-06  0.2935E-06  0.3012E-06  0.3086E-06  0.3156E-06  0.3223E-06  0.3285E-06  0.3343E-06  0.3392E-06  0.3440E-06  0.3483E-06  0.3515E-06  0.3545E-06  0.3565E-06  0.3584E-06  0.3589E-06  0.3595E-06  0.3588E-06  0.3571E-06  0.3551E-06  0.3523E-06  0.3488E-06  0.3447E-06  0.3392E-06  0.3340E-06  0.3281E-06  0.3218E-06  0.3136E-06  0.3065E-06  0.2991E-06  0.2926E-06  0.2857E-06  0.2793E-06  0.2725E-06  0.2659E-06  0.2592E-06  0.2528E-06  0.2466E-06  0.2403E-06  0.2340E-06  0.2286E-06  0.2103E-06  0.1841E-06  0.1443E-06  0.1048E-06  0.7541E-07  0.5949E-07  0.6434E-07  0.6763E-07  0.7078E-07  0.7807E-07  0.8522E-07  0.9211E-07  0.9324E-07  0.9404E-07  0.9450E-07  0.9462E-07  0.9438E-07  0.9381E-07  0.9289E-07  0.9164E-07  0.9008E-07  0.8821E-07  0.8606E-07  0.7821E-07  0.7017E-07  0.6053E-07  0.5667E-07  0.5134E-07  0.4472E-07  0.3841E-07  0.3245E-07  0.2688E-07  0.2171E-07  0.1695E-07
  0.2837E-06  0.2937E-06  0.3035E-06  0.3130E-06  0.3224E-06  0.3314E-06  0.3410E-06  0.3488E-06  0.3571E-06  0.3646E-06  0.3720E-06  0.3789E-06  0.3859E-06  0.3910E-06  0.3957E-06  0.3994E-06  0.4032E-06  0.4060E-06  0.4076E-06  0.4081E-06  0.4091E-06  0.4080E-06  0.4065E-06  0.4042E-06  0.4012E-06  0.3972E-06  0.3928E-06  0.3875E-06  0.3807E-06  0.3741E-06  0.3670E-06  0.3596E-06  0.3526E-06  0.3474E-06  0.3396E-06  0.3316E-06  0.3246E-06  0.3175E-06  0.3102E-06  0.3028E-06  0.2958E-06  0.2889E-06  0.2815E-06  0.2754E-06  0.2686E-06  0.2631E-06  0.2556E-06  0.2451E-06  0.2210E-06  0.1820E-06  0.1444E-06  0.1166E-06  0.1003E-06  0.1089E-06  0.1174E-06  0.1255E-06  0.1277E-06  0.1294E-06  0.1307E-06  0.1314E-06  0.1317E-06  0.1315E-06  0.1307E-06  0.1295E-06  0.1278E-06  0.1257E-06  0.1230E-06  0.1200E-06  0.1112E-06  0.1020E-06  0.9279E-07  0.8919E-07  0.8542E-07  0.7608E-07  0.5975E-07  0.5208E-07  0.4486E-07  0.3813E-07  0.3189E-07
  0.3197E-06  0.3309E-06  0.3420E-06  0.3528E-06  0.3637E-06  0.3748E-06  0.3853E-06  0.3950E-06  0.4042E-06  0.4132E-06  0.4216E-06  0.4294E-06  0.4367E-06  0.4423E-06  0.4479E-06  0.4531E-06  0.4575E-06  0.4598E-06  0.4618E-06  0.4636E-06  0.4636E-06  0.4628E-06  0.4611E-06  0.4584E-06  0.4550E-06  0.4509E-06  0.4459E-06  0.4399E-06  0.4332E-06  0.4257E-06  0.4199E-06  0.4147E-06  0.4062E-06  0.3985E-06  0.3921E-06  0.3842E-06  0.3761E-06  0.3679E-06  0.3604E-06  0.3534E-06  0.3427E-06  0.3365E-06  0.3296E-06  0.3223E-06  0.3157E-06  0.3093E-06  0.3020E-06  0.3045E-06  0.3023E-06  0.2974E-06  0.2847E-06  0.2390E-06  0.1966E-06  0.1684E-06  0.1640E-06  0.1677E-06  0.1707E-06  0.1732E-06  0.1749E-06  0.1761E-06  0.1765E-06  0.1762E-06  0.1752E-06  0.1736E-06  0.1713E-06  0.1683E-06  0.1648E-06  0.1550E-06  0.1506E-06  0.1401E-06  0.1294E-06  0.1243E-06  0.1189E-06  0.1024E-06  0.9166E-07  0.8680E-07  0.7639E-07  0.5924E-07  0.5108E-07
  0.3594E-06  0.3723E-06  0.3849E-06  0.3975E-06  0.4098E-06  0.4226E-06  0.4342E-06  0.4455E-06  0.4562E-06  0.4664E-06  0.4760E-06  0.4849E-06  0.4932E-06  0.5008E-06  0.5062E-06  0.5121E-06  0.5172E-06  0.5200E-06  0.5232E-06  0.5247E-06  0.5246E-06  0.5308E-06  0.5289E-06  0.5265E-06  0.5225E-06  0.5176E-06  0.5120E-06  0.5043E-06  0.5001E-06  0.4881E-06  0.4808E-06  0.4750E-06  0.4676E-06  0.4590E-06  0.4504E-06  0.4422E-06  0.4348E-06  0.4260E-06  0.4169E-06  0.4077E-06  0.4008E-06  0.3905E-06  0.3837E-06  0.3769E-06  0.3780E-06  0.3744E-06  0.3769E-06  0.3752E-06  0.3737E-06  0.3783E-06  0.3720E-06  0.3687E-06  0.3492E-06  0.3048E-06  0.2559E-06  0.2245E-06  0.2225E-06  0.2258E-06  0.2281E-06  0.2296E-06  0.2302E-06  0.2298E-06  0.2285E-06  0.2263E-06  0.2232E-06  0.2193E-06  0.2145E-06  0.2034E-06  0.1916E-06  0.1794E-06  0.1729E-06  0.1659E-06  0.1530E-06  0.1342E-06  0.1274E-06  0.1205E-06  0.1025E-06  0.9073E-07  0.8496E-07
  0.4038E-06  0.4179E-06  0.4332E-06  0.4474E-06  0.4621E-06  0.4758E-06  0.4890E-06  0.5017E-06  0.5139E-06  0.5255E-06  0.5365E-06  0.5467E-06  0.5562E-06  0.5643E-06  0.5720E-06  0.5839E-06  0.5891E-06  0.5989E-06  0.6018E-06  0.6038E-06  0.6105E-06  0.6100E-06  0.6087E-06  0.6119E-06  0.6076E-06  0.6024E-06  0.5929E-06  0.5875E-06  0.5827E-06  0.5769E-06  0.5637E-06  0.5558E-06  0.5474E-06  0.5342E-06  0.5255E-06  0.5097E-06  0.4976E-06  0.4896E-06  0.4801E-06  0.4709E-06  0.4617E-06  0.4545E-06  0.4541E-06  0.4493E-06  0.4571E-06  0.4540E-06  0.4580E-06  0.4507E-06  0.4561E-06  0.4565E-06  0.4507E-06  0.4513E-06  0.4516E-06  0.4483E-06  0.4147E-06  0.3628E-06  0.3113E-06  0.2888E-06  0.2979E-06  0.2998E-06  0.3004E-06  0.2937E-06  0.2920E-06  0.2890E-06  0.2850E-06  0.2798E-06  0.2736E-06  0.2607E-06  0.2471E-06  0.2329E-06  0.2242E-06  0.2150E-06  0.1939E-06  0.1787E-06  0.1695E-06  0.1544E-06  0.1340E-06  0.1257E-06  0.1175E-06
  0.4526E-06  0.4699E-06  0.4864E-06  0.5023E-06  0.5191E-06  0.5345E-06  0.5498E-06  0.5640E-06  0.5781E-06  0.5910E-06  0.6038E-06  0.6211E-06  0.6310E-06  0.6464E-06  0.6609E-06  0.6748E-06  0.6814E-06  0.6930E-06  0.6970E-06  0.6996E-06  0.7091E-06  0.7091E-06  0.7099E-06  0.7066E-06  0.7042E-06  0.7016E-06  0.6988E-06  0.6890E-06  0.6821E-06  0.6755E-06  0.6682E-06  0.6531E-06  0.6436E-06  0.6336E-06  0.6188E-06  0.6020E-06  0.5898E-06  0.5726E-06  0.5635E-06  0.5480E-06  0.5466E-06  0.5437E-06  0.5451E-06  0.5448E-06  0.5430E-06  0.5467E-06  0.5462E-06  0.5518E-06  0.5525E-06  0.5474E-06  0.5485E-06  0.5498E-06  0.5510E-06  0.5460E-06  0.5403E-06  0.5250E-06  0.4831E-06  0.4290E-06  0.3827E-06  0.3762E-06  0.3768E-06  0.3698E-06  0.3674E-06  0.3635E-06  0.3582E-06  0.3515E-06  0.3434E-06  0.3285E-06  0.3065E-06  0.2960E-06  0.2847E-06  0.2669E-06  0.2490E-06  0.2310E-06  0.2188E-06  0.1950E-06  0.1777E-06  0.1664E-06  0.1441E-06
  0.5070E-06  0.5257E-06  0.5451E-06  0.5633E-06  0.5820E-06  0.5994E-06  0.6164E-06  0.6328E-06  0.6485E-06  0.6748E-06  0.6947E-06  0.7143E-06  0.7331E-06  0.7450E-06  0.7622E-06  0.7779E-06  0.7885E-06  0.8037E-06  0.8087E-06  0.8147E-06  0.8209E-06  0.8211E-06  0.8281E-06  0.8248E-06  0.8191E-06  0.8161E-06  0.8117E-06  0.8095E-06  0.8017E-06  0.7866E-06  0.7782E-06  0.7690E-06  0.7517E-06  0.7403E-06  0.7182E-06  0.7079E-06  0.6918E-06  0.6803E-06  0.6595E-06  0.6579E-06  0.6560E-06  0.6631E-06  0.6503E-06  0.6547E-06  0.6576E-06  0.6560E-06  0.6544E-06  0.6622E-06  0.6581E-06  0.6595E-06  0.6623E-06  0.6646E-06  0.6609E-06  0.6562E-06  0.6511E-06  0.6507E-06  0.6437E-06  0.6166E-06  0.5549E-06  0.4980E-06  0.4672E-06  0.4596E-06  0.4564E-06  0.4514E-06  0.4445E-06  0.4359E-06  0.4197E-06  0.4022E-06  0.3836E-06  0.3701E-06  0.3556E-06  0.3346E-06  0.3074E-06  0.2920E-06  0.2704E-06  0.2432E-06  0.2284E-06  0.2137E-06  0.1825E-06
  0.5671E-06  0.5880E-06  0.6097E-06  0.6304E-06  0.6506E-06  0.6712E-06  0.6955E-06  0.7200E-06  0.7502E-06  0.7742E-06  0.7975E-06  0.8208E-06  0.8425E-06  0.8655E-06  0.8808E-06  0.9014E-06  0.9159E-06  0.9330E-06  0.9397E-06  0.9467E-06  0.9540E-06  0.9571E-06  0.9580E-06  0.9559E-06  0.9565E-06  0.9532E-06  0.9483E-06  0.9377E-06  0.9311E-06  0.9198E-06  0.9098E-06  0.8927E-06  0.8730E-06  0.8576E-06  0.8364E-06  0.8242E-06  0.8060E-06  0.7986E-06  0.8016E-06  0.7928E-06  0.7880E-06  0.7809E-06  0.7920E-06  0.7841E-06  0.7844E-06  0.7804E-06  0.7852E-06  0.7873E-06  0.7891E-06  0.7906E-06  0.7947E-06  0.7912E-06  0.7882E-06  0.7844E-06  0.7862E-06  0.7797E-06  0.7726E-06  0.7641E-06  0.7505E-06  0.6924E-06  0.6231E-06  0.5657E-06  0.5613E-06  0.5548E-06  0.5460E-06  0.5351E-06  0.5162E-06  0.4957E-06  0.4738E-06  0.4568E-06  0.4326E-06  0.4078E-06  0.3826E-06  0.3631E-06  0.3314E-06  0.3063E-06  0.2874E-06  0.2570E-06  0.2338E-06
  0.6318E-06  0.6565E-06  0.6799E-06  0.7041E-06  0.7317E-06  0.7661E-06  0.7946E-06  0.8293E-06  0.8582E-06  0.8865E-06  0.9200E-06  0.9426E-06  0.9725E-06  0.1001E-05  0.1019E-05  0.1043E-05  0.1060E-05  0.1073E-05  0.1090E-05  0.1099E-05  0.1105E-05  0.1112E-05  0.1115E-05  0.1113E-05  0.1112E-05  0.1102E-05  0.1096E-05  0.1089E-05  0.1081E-05  0.1062E-05  0.1048E-05  0.1029E-05  0.1016E-05  0.9955E-06  0.9781E-06  0.9559E-06  0.9524E-06  0.9537E-06  0.9432E-06  0.9430E-06  0.9431E-06  0.9393E-06  0.9375E-06  0.9397E-06  0.9356E-06  0.9368E-06  0.9368E-06  0.9341E-06  0.9445E-06  0.9465E-06  0.9442E-06  0.9403E-06  0.9362E-06  0.9397E-06  0.9357E-06  0.9364E-06  0.9288E-06  0.9197E-06  0.9024E-06  0.8894E-06  0.8501E-06  0.7724E-06  0.6961E-06  0.6757E-06  0.6646E-06  0.6509E-06  0.6226E-06  0.5985E-06  0.5790E-06  0.5578E-06  0.5291E-06  0.4936E-06  0.4699E-06  0.4395E-06  0.4030E-06  0.3792E-06  0.3495E-06  0.3146E-06  0.2928E-06
  0.7038E-06  0.7314E-06  0.7627E-06  0.8008E-06  0.8400E-06  0.8792E-06  0.9131E-06  0.9468E-06  0.9868E-06  0.1024E-05  0.1060E-05  0.1089E-05  0.1121E-05  0.1154E-05  0.1176E-05  0.1205E-05  0.1223E-05  0.1239E-05  0.1252E-05  0.1269E-05  0.1280E-05  0.1288E-05  0.1283E-05  0.1282E-05  0.1282E-05  0.1278E-05  0.1272E-05  0.1256E-05  0.1245E-05  0.1223E-05  0.1210E-05  0.1188E-05  0.1173E-05  0.1150E-05  0.1131E-05  0.1134E-05  0.1128E-05  0.1128E-05  0.1126E-05  0.1119E-05  0.1108E-05  0.1111E-05  0.1107E-05  0.1115E-05  0.1112E-05  0.1118E-05  0.1112E-05  0.1112E-05  0.1114E-05  0.1118E-05  0.1118E-05  0.1117E-05  0.1121E-05  0.1116E-05  0.1116E-05  0.1111E-05  0.1102E-05  0.1093E-05  0.1081E-05  0.1059E-05  0.1041E-05  0.1010E-05  0.9320E-06  0.8551E-06  0.8031E-06  0.7795E-06  0.7536E-06  0.7252E-06  0.7011E-06  0.6748E-06  0.6349E-06  0.6002E-06  0.5709E-06  0.5287E-06  0.4929E-06  0.4633E-06  0.4220E-06  0.3879E-06  0.3604E-06
  0.7819E-06  0.8234E-06  0.8721E-06  0.9161E-06  0.9549E-06  0.1001E-05  0.1040E-05  0.1090E-05  0.1134E-05  0.1176E-05  0.1221E-05  0.1259E-05  0.1292E-05  0.1330E-05  0.1356E-05  0.1390E-05  0.1411E-05  0.1428E-05  0.1443E-05  0.1461E-05  0.1471E-05  0.1481E-05  0.1484E-05  0.1482E-05  0.1483E-05  0.1471E-05  0.1463E-05  0.1447E-05  0.1433E-05  0.1416E-05  0.1393E-05  0.1376E-05  0.1351E-05  0.1335E-05  0.1330E-05  0.1328E-05  0.1319E-05  0.1316E-05  0.1313E-05  0.1313E-05  0.1310E-05  0.1305E-05  0.1312E-05  0.1303E-05  0.1309E-05  0.1316E-05  0.1319E-05  0.1322E-05  0.1326E-05  0.1321E-05  0.1318E-05  0.1325E-05  0.1325E-05  0.1328E-05  0.1323E-05  0.1314E-05  0.1304E-05  0.1293E-05  0.1279E-05  0.1256E-05  0.1236E-05  0.1206E-05  0.1179E-05  0.1100E-05  0.1020E-05  0.9367E-06  0.8990E-06  0.8722E-06  0.8425E-06  0.8043E-06  0.7581E-06  0.7234E-06  0.6812E-06  0.6325E-06  0.5963E-06  0.5539E-06  0.5063E-06  0.4718E-06  0.4262E-06
  0.8907E-06  0.9387E-06  0.9884E-06  0.1039E-05  0.1091E-05  0.1148E-05  0.1198E-05  0.1249E-05  0.1301E-05  0.1351E-05  0.1400E-05  0.1447E-05  0.1486E-05  0.1527E-05  0.1558E-05  0.1597E-05  0.1622E-05  0.1644E-05  0.1663E-05  0.1684E-05  0.1696E-05  0.1706E-05  0.1708E-05  0.1702E-05  0.1702E-05  0.1689E-05  0.1680E-05  0.1669E-05  0.1644E-05  0.1626E-05  0.1600E-05  0.1580E-05  0.1562E-05  0.1560E-05  0.1561E-05  0.1551E-05  0.1546E-05  0.1541E-05  0.1540E-05  0.1535E-05  0.1535E-05  0.1536E-05  0.1533E-05  0.1539E-05  0.1541E-05  0.1537E-05  0.1549E-05  0.1555E-05  0.1555E-05  0.1553E-05  0.1560E-05  0.1565E-05  0.1563E-05  0.1563E-05  0.1560E-05  0.1552E-05  0.1541E-05  0.1526E-05  0.1509E-05  0.1482E-05  0.1459E-05  0.1425E-05  0.1394E-05  0.1359E-05  0.1264E-05  0.1168E-05  0.1075E-05  0.1042E-05  0.1005E-05  0.9538E-06  0.9069E-06  0.8647E-06  0.8086E-06  0.7587E-06  0.7147E-06  0.6585E-06  0.6096E-06  0.5614E-06  0.5089E-06
  0.1013E-05  0.1068E-05  0.1126E-05  0.1186E-05  0.1250E-05  0.1311E-05  0.1378E-05  0.1437E-05  0.1491E-05  0.1556E-05  0.1605E-05  0.1658E-05  0.1703E-05  0.1750E-05  0.1790E-05  0.1824E-05  0.1861E-05  0.1890E-05  0.1915E-05  0.1936E-05  0.1945E-05  0.1952E-05  0.1957E-05  0.1959E-05  0.1951E-05  0.1944E-05  0.1934E-05  0.1911E-05  0.1891E-05  0.1864E-05  0.1835E-05  0.1821E-05  0.1822E-05  0.1816E-05  0.1809E-05  0.1807E-05  0.1794E-05  0.1790E-05  0.1786E-05  0.1796E-05  0.1789E-05  0.1792E-05  0.1792E-05  0.1800E-05  0.1798E-05  0.1805E-05  0.1819E-05  0.1821E-05  0.1824E-05  0.1832E-05  0.1840E-05  0.1842E-05  0.1832E-05  0.1840E-05  0.1836E-05  0.1829E-05  0.1811E-05  0.1797E-05  0.1775E-05  0.1742E-05  0.1709E-05  0.1677E-05  0.1641E-05  0.1600E-05  0.1549E-05  0.1469E-05  0.1335E-05  0.1237E-05  0.1186E-05  0.1126E-05  0.1078E-05  0.1020E-05  0.9555E-06  0.9030E-06  0.8437E-06  0.7788E-06  0.7273E-06  0.6582E-06  0.6100E-06
  0.1149E-05  0.1213E-05  0.1284E-05  0.1360E-05  0.1429E-05  0.1503E-05  0.1574E-05  0.1644E-05  0.1710E-05  0.1779E-05  0.1835E-05  0.1898E-05  0.1951E-05  0.1998E-05  0.2051E-05  0.2091E-05  0.2127E-05  0.2160E-05  0.2189E-05  0.2212E-05  0.2229E-05  0.2233E-05  0.2239E-05  0.2241E-05  0.2239E-05  0.2224E-05  0.2208E-05  0.2183E-05  0.2162E-05  0.2129E-05  0.2122E-05  0.2115E-05  0.2110E-05  0.2101E-05  0.2097E-05  0.2088E-05  0.2082E-05  0.2082E-05  0.2070E-05  0.2075E-05  0.2071E-05  0.2076E-05  0.2085E-05  0.2090E-05  0.2098E-05  0.2108E-05  0.2119E-05  0.2125E-05  0.2132E-05  0.2142E-05  0.2147E-05  0.2151E-05  0.2156E-05  0.2154E-05  0.2146E-05  0.2140E-05  0.2127E-05  0.2104E-05  0.2081E-05  0.2048E-05  0.2003E-05  0.1965E-05  0.1922E-05  0.1874E-05  0.1808E-05  0.1745E-05  0.1678E-05  0.1518E-05  0.1394E-05  0.1331E-05  0.1272E-05  0.1198E-05  0.1130E-05  0.1067E-05  0.9846E-06  0.9224E-06  0.8545E-06  0.7822E-06  0.7242E-06
  0.1303E-05  0.1384E-05  0.1467E-05  0.1552E-05  0.1634E-05  0.1715E-05  0.1794E-05  0.1876E-05  0.1952E-05  0.2031E-05  0.2097E-05  0.2169E-05  0.2229E-05  0.2284E-05  0.2337E-05  0.2394E-05  0.2438E-05  0.2475E-05  0.2507E-05  0.2524E-05  0.2546E-05  0.2559E-05  0.2566E-05  0.2559E-05  0.2555E-05  0.2542E-05  0.2519E-05  0.2490E-05  0.2466E-05  0.2443E-05  0.2447E-05  0.2445E-05  0.2427E-05  0.2426E-05  0.2421E-05  0.2412E-05  0.2403E-05  0.2395E-05  0.2398E-05  0.2395E-05  0.2397E-05  0.2401E-05  0.2413E-05  0.2422E-05  0.2432E-05  0.2446E-05  0.2454E-05  0.2471E-05  0.2481E-05  0.2495E-05  0.2510E-05  0.2516E-05  0.2511E-05  0.2511E-05  0.2503E-05  0.2491E-05  0.2480E-05  0.2453E-05  0.2422E-05  0.2389E-05  0.2342E-05  0.2296E-05  0.2242E-05  0.2179E-05  0.2111E-05  0.2038E-05  0.1966E-05  0.1878E-05  0.1715E-05  0.1564E-05  0.1487E-05  0.1401E-05  0.1328E-05  0.1246E-05  0.1159E-05  0.1085E-05  0.9926E-06  0.9219E-06  0.8405E-06
  0.1485E-05  0.1577E-05  0.1668E-05  0.1766E-05  0.1856E-05  0.1959E-05  0.2051E-05  0.2135E-05  0.2225E-05  0.2314E-05  0.2393E-05  0.2476E-05  0.2543E-05  0.2610E-05  0.2672E-05  0.2729E-05  0.2776E-05  0.2819E-05  0.2859E-05  0.2888E-05  0.2912E-05  0.2918E-05  0.2926E-05  0.2923E-05  0.2908E-05  0.2896E-05  0.2870E-05  0.2846E-05  0.2822E-05  0.2816E-05  0.2819E-05  0.2810E-05  0.2800E-05  0.2784E-05  0.2772E-05  0.2774E-05  0.2770E-05  0.2763E-05  0.2757E-05  0.2767E-05  0.2768E-05  0.2780E-05  0.2783E-05  0.2803E-05  0.2819E-05  0.2828E-05  0.2849E-05  0.2863E-05  0.2884E-05  0.2896E-05  0.2908E-05  0.2915E-05  0.2921E-05  0.2919E-05  0.2910E-05  0.2898E-05  0.2878E-05  0.2852E-05  0.2814E-05  0.2770E-05  0.2727E-05  0.2671E-05  0.2612E-05  0.2536E-05  0.2448E-05  0.2370E-05  0.2285E-05  0.2183E-05  0.2076E-05  0.1912E-05  0.1737E-05  0.1639E-05  0.1551E-05  0.1443E-05  0.1355E-05  0.1255E-05  0.1163E-05  0.1079E-05  0.9793E-06
  0.1687E-05  0.1794E-05  0.1898E-05  0.2011E-05  0.2117E-05  0.2223E-05  0.2331E-05  0.2429E-05  0.2533E-05  0.2633E-05  0.2724E-05  0.2820E-05  0.2900E-05  0.2980E-05  0.3048E-05  0.3112E-05  0.3170E-05  0.3221E-05  0.3264E-05  0.3289E-05  0.3315E-05  0.3328E-05  0.3335E-05  0.3327E-05  0.3311E-05  0.3296E-05  0.3265E-05  0.3249E-05  0.3240E-05  0.3234E-05  0.3236E-05  0.3216E-05  0.3210E-05  0.3194E-05  0.3184E-05  0.3184E-05  0.3177E-05  0.3172E-05  0.3173E-05  0.3172E-05  0.3184E-05  0.3193E-05  0.3206E-05  0.3231E-05  0.3246E-05  0.3254E-05  0.3279E-05  0.3306E-05  0.3330E-05  0.3349E-05  0.3364E-05  0.3369E-05  0.3377E-05  0.3378E-05  0.3374E-05  0.3356E-05  0.3336E-05  0.3301E-05  0.3258E-05  0.3210E-05  0.3158E-05  0.3098E-05  0.3018E-05  0.2934E-05  0.2837E-05  0.2744E-05  0.2638E-05  0.2522E-05  0.2413E-05  0.2281E-05  0.2092E-05  0.1916E-05  0.1790E-05  0.1679E-05  0.1575E-05  0.1453E-05  0.1353E-05  0.1236E-05  0.1141E-05
  0.1914E-05  0.2031E-05  0.2157E-05  0.2278E-05  0.2401E-05  0.2523E-05  0.2647E-05  0.2767E-05  0.2880E-05  0.2996E-05  0.3101E-05  0.3199E-05  0.3300E-05  0.3392E-05  0.3475E-05  0.3547E-05  0.3614E-05  0.3663E-05  0.3712E-05  0.3745E-05  0.3775E-05  0.3784E-05  0.3792E-05  0.3782E-05  0.3771E-05  0.3744E-05  0.3712E-05  0.3719E-05  0.3709E-05  0.3702E-05  0.3700E-05  0.3683E-05  0.3664E-05  0.3650E-05  0.3638E-05  0.3633E-05  0.3632E-05  0.3622E-05  0.3626E-05  0.3628E-05  0.3644E-05  0.3658E-05  0.3677E-05  0.3700E-05  0.3720E-05  0.3748E-05  0.3780E-05  0.3813E-05  0.3829E-05  0.3853E-05  0.3871E-05  0.3888E-05  0.3897E-05  0.3895E-05  0.3890E-05  0.3877E-05  0.3849E-05  0.3811E-05  0.3762E-05  0.3704E-05  0.3646E-05  0.3574E-05  0.3485E-05  0.3378E-05  0.3278E-05  0.3168E-05  0.3037E-05  0.2909E-05  0.2783E-05  0.2639E-05  0.2481E-05  0.2282E-05  0.2073E-05  0.1944E-05  0.1809E-05  0.1683E-05  0.1559E-05  0.1432E-05  0.1322E-05
  0.2162E-05  0.2302E-05  0.2438E-05  0.2577E-05  0.2727E-05  0.2859E-05  0.3000E-05  0.3139E-05  0.3271E-05  0.3406E-05  0.3537E-05  0.3649E-05  0.3761E-05  0.3864E-05  0.3958E-05  0.4044E-05  0.4107E-05  0.4169E-05  0.4223E-05  0.4253E-05  0.4285E-05  0.4295E-05  0.4303E-05  0.4286E-05  0.4272E-05  0.4240E-05  0.4230E-05  0.4244E-05  0.4235E-05  0.4228E-05  0.4202E-05  0.4199E-05  0.4187E-05  0.4170E-05  0.4154E-05  0.4141E-05  0.4134E-05  0.4141E-05  0.4133E-05  0.4153E-05  0.4159E-05  0.4186E-05  0.4210E-05  0.4233E-05  0.4267E-05  0.4295E-05  0.4335E-05  0.4367E-05  0.4397E-05  0.4426E-05  0.4443E-05  0.4464E-05  0.4476E-05  0.4482E-05  0.4472E-05  0.4459E-05  0.4425E-05  0.4377E-05  0.4321E-05  0.4259E-05  0.4190E-05  0.4107E-05  0.4000E-05  0.3884E-05  0.3769E-05  0.3633E-05  0.3484E-05  0.3341E-05  0.3188E-05  0.3023E-05  0.2869E-05  0.2676E-05  0.2447E-05  0.2243E-05  0.2077E-05  0.1938E-05  0.1782E-05  0.1650E-05  0.1502E-05
  0.2446E-05  0.2597E-05  0.2765E-05  0.2936E-05  0.3115E-05  0.3302E-05  0.3480E-05  0.3659E-05  0.3817E-05  0.3982E-05  0.4127E-05  0.4262E-05  0.4388E-05  0.4504E-05  0.4603E-05  0.4692E-05  0.4774E-05  0.4824E-05  0.4872E-05  0.4893E-05  0.4911E-05  0.4905E-05  0.4887E-05  0.4870E-05  0.4840E-05  0.4823E-05  0.4843E-05  0.4833E-05  0.4823E-05  0.4807E-05  0.4785E-05  0.4770E-05  0.4747E-05  0.4732E-05  0.4721E-05  0.4715E-05  0.4703E-05  0.4705E-05  0.4715E-05  0.4727E-05  0.4743E-05  0.4768E-05  0.4793E-05  0.4830E-05  0.4872E-05  0.4915E-05  0.4955E-05  0.4996E-05  0.5026E-05  0.5063E-05  0.5092E-05  0.5115E-05  0.5127E-05  0.5133E-05  0.5130E-05  0.5108E-05  0.5071E-05  0.5021E-05  0.4952E-05  0.4885E-05  0.4797E-05  0.4696E-05  0.4570E-05  0.4450E-05  0.4312E-05  0.4154E-05  0.3989E-05  0.3827E-05  0.3638E-05  0.3457E-05  0.3280E-05  0.3079E-05  0.2866E-05  0.2599E-05  0.2385E-05  0.2206E-05  0.2042E-05  0.1883E-05  0.1723E-05
  0.2808E-05  0.3037E-05  0.3248E-05  0.3460E-05  0.3670E-05  0.3885E-05  0.4079E-05  0.4279E-05  0.4452E-05  0.4621E-05  0.4796E-05  0.4948E-05  0.5097E-05  0.5230E-05  0.5343E-05  0.5434E-05  0.5516E-05  0.5573E-05  0.5622E-05  0.5654E-05  0.5659E-05  0.5662E-05  0.5630E-05  0.5583E-05  0.5537E-05  0.5529E-05  0.5518E-05  0.5494E-05  0.5478E-05  0.5446E-05  0.5430E-05  0.5410E-05  0.5388E-05  0.5378E-05  0.5352E-05  0.5341E-05  0.5346E-05  0.5336E-05  0.5350E-05  0.5363E-05  0.5388E-05  0.5422E-05  0.5464E-05  0.5512E-05  0.5556E-05  0.5602E-05  0.5651E-05  0.5705E-05  0.5752E-05  0.5787E-05  0.5825E-05  0.5853E-05  0.5867E-05  0.5868E-05  0.5864E-05  0.5846E-05  0.5801E-05  0.5742E-05  0.5666E-05  0.5583E-05  0.5485E-05  0.5353E-05  0.5221E-05  0.5074E-05  0.4915E-05  0.4728E-05  0.4551E-05  0.4353E-05  0.4144E-05  0.3938E-05  0.3719E-05  0.3506E-05  0.3289E-05  0.3031E-05  0.2763E-05  0.2511E-05  0.2330E-05  0.2134E-05  0.1965E-05
  0.3338E-05  0.3574E-05  0.3810E-05  0.4048E-05  0.4286E-05  0.4518E-05  0.4739E-05  0.4949E-05  0.5166E-05  0.5363E-05  0.5551E-05  0.5723E-05  0.5885E-05  0.6030E-05  0.6161E-05  0.6258E-05  0.6352E-05  0.6421E-05  0.6479E-05  0.6495E-05  0.6511E-05  0.6502E-05  0.6459E-05  0.6413E-05  0.6391E-05  0.6368E-05  0.6344E-05  0.6306E-05  0.6248E-05  0.6185E-05  0.6140E-05  0.6116E-05  0.6091E-05  0.6066E-05  0.6052E-05  0.6043E-05  0.6034E-05  0.6054E-05  0.6062E-05  0.6091E-05  0.6122E-05  0.6160E-05  0.6193E-05  0.6248E-05  0.6307E-05  0.6371E-05  0.6430E-05  0.6479E-05  0.6536E-05  0.6585E-05  0.6623E-05  0.6657E-05  0.6672E-05  0.6684E-05  0.6671E-05  0.6645E-05  0.6593E-05  0.6539E-05  0.6455E-05  0.6357E-05  0.6235E-05  0.6085E-05  0.5938E-05  0.5776E-05  0.5579E-05  0.5378E-05  0.5166E-05  0.4932E-05  0.4702E-05  0.4465E-05  0.4211E-05  0.3975E-05  0.3717E-05  0.3473E-05  0.3173E-05  0.2887E-05  0.2624E-05  0.2424E-05  0.2209E-05
  0.3896E-05  0.4153E-05  0.4408E-05  0.4661E-05  0.4913E-05  0.5171E-05  0.5420E-05  0.5658E-05  0.5899E-05  0.6126E-05  0.6339E-05  0.6540E-05  0.6725E-05  0.6888E-05  0.7038E-05  0.7167E-05  0.7277E-05  0.7359E-05  0.7421E-05  0.7446E-05  0.7450E-05  0.7433E-05  0.7393E-05  0.7354E-05  0.7345E-05  0.7327E-05  0.7273E-05  0.7223E-05  0.7143E-05  0.7092E-05  0.7010E-05  0.6938E-05  0.6883E-05  0.6850E-05  0.6838E-05  0.6832E-05  0.6832E-05  0.6845E-05  0.6853E-05  0.6880E-05  0.6919E-05  0.6966E-05  0.7016E-05  0.7082E-05  0.7143E-05  0.7212E-05  0.7279E-05  0.7356E-05  0.7412E-05  0.7473E-05  0.7515E-05  0.7548E-05  0.7569E-05  0.7580E-05  0.7570E-05  0.7536E-05  0.7494E-05  0.7415E-05  0.7322E-05  0.7207E-05  0.7062E-05  0.6906E-05  0.6728E-05  0.6531E-05  0.6313E-05  0.6090E-05  0.5849E-05  0.5579E-05  0.5322E-05  0.5032E-05  0.4762E-05  0.4474E-05  0.4198E-05  0.3922E-05  0.3628E-05  0.3311E-05  0.2993E-05  0.2740E-05  0.2500E-05
  0.4420E-05  0.4704E-05  0.5005E-05  0.5296E-05  0.5582E-05  0.5880E-05  0.6159E-05  0.6429E-05  0.6697E-05  0.6955E-05  0.7201E-05  0.7430E-05  0.7640E-05  0.7829E-05  0.7998E-05  0.8132E-05  0.8254E-05  0.8355E-05  0.8417E-05  0.8451E-05  0.8473E-05  0.8456E-05  0.8445E-05  0.8425E-05  0.8407E-05  0.8369E-05  0.8311E-05  0.8238E-05  0.8156E-05  0.8070E-05  0.7996E-05  0.7915E-05  0.7851E-05  0.7759E-05  0.7718E-05  0.7696E-05  0.7700E-05  0.7717E-05  0.7731E-05  0.7774E-05  0.7821E-05  0.7869E-05  0.7930E-05  0.7999E-05  0.8080E-05  0.8152E-05  0.8241E-05  0.8318E-05  0.8392E-05  0.8453E-05  0.8502E-05  0.8548E-05  0.8561E-05  0.8574E-05  0.8559E-05  0.8530E-05  0.8469E-05  0.8380E-05  0.8271E-05  0.8133E-05  0.7983E-05  0.7795E-05  0.7594E-05  0.7360E-05  0.7119E-05  0.6867E-05  0.6575E-05  0.6297E-05  0.5993E-05  0.5681E-05  0.5370E-05  0.5036E-05  0.4727E-05  0.4403E-05  0.4105E-05  0.3762E-05  0.3424E-05  0.3090E-05  0.2826E-05
  0.5006E-05  0.5337E-05  0.5670E-05  0.6005E-05  0.6338E-05  0.6674E-05  0.6990E-05  0.7310E-05  0.7617E-05  0.7906E-05  0.8180E-05  0.8444E-05  0.8680E-05  0.8886E-05  0.9076E-05  0.9238E-05  0.9361E-05  0.9467E-05  0.9534E-05  0.9568E-05  0.9594E-05  0.9591E-05  0.9560E-05  0.9576E-05  0.9554E-05  0.9528E-05  0.9477E-05  0.9375E-05  0.9297E-05  0.9210E-05  0.9100E-05  0.9019E-05  0.8926E-05  0.8849E-05  0.8780E-05  0.8709E-05  0.8694E-05  0.8705E-05  0.8725E-05  0.8767E-05  0.8823E-05  0.8882E-05  0.8953E-05  0.9033E-05  0.9125E-05  0.9216E-05  0.9297E-05  0.9385E-05  0.9469E-05  0.9542E-05  0.9591E-05  0.9637E-05  0.9652E-05  0.9661E-05  0.9648E-05  0.9605E-05  0.9532E-05  0.9422E-05  0.9303E-05  0.9153E-05  0.8964E-05  0.8754E-05  0.8521E-05  0.8260E-05  0.7988E-05  0.7697E-05  0.7380E-05  0.7058E-05  0.6713E-05  0.6372E-05  0.6015E-05  0.5664E-05  0.5297E-05  0.4948E-05  0.4597E-05  0.4259E-05  0.3889E-05  0.3521E-05  0.3181E-05
  0.5673E-05  0.6046E-05  0.6422E-05  0.6814E-05  0.7187E-05  0.7557E-05  0.7942E-05  0.8304E-05  0.8648E-05  0.8982E-05  0.9298E-05  0.9581E-05  0.9848E-05  0.1009E-04  0.1028E-04  0.1046E-04  0.1060E-04  0.1072E-04  0.1079E-04  0.1085E-04  0.1086E-04  0.1085E-04  0.1083E-04  0.1085E-04  0.1081E-04  0.1078E-04  0.1070E-04  0.1063E-04  0.1055E-04  0.1045E-04  0.1035E-04  0.1023E-04  0.1015E-04  0.1005E-04  0.9969E-05  0.9899E-05  0.9859E-05  0.9816E-05  0.9826E-05  0.9876E-05  0.9924E-05  0.9993E-05  0.1008E-04  0.1018E-04  0.1027E-04  0.1037E-04  0.1047E-04  0.1056E-04  0.1064E-04  0.1072E-04  0.1077E-04  0.1082E-04  0.1084E-04  0.1084E-04  0.1082E-04  0.1075E-04  0.1067E-04  0.1055E-04  0.1041E-04  0.1022E-04  0.1001E-04  0.9776E-05  0.9516E-05  0.9214E-05  0.8911E-05  0.8583E-05  0.8227E-05  0.7860E-05  0.7482E-05  0.7109E-05  0.6704E-05  0.6319E-05  0.5917E-05  0.5533E-05  0.5139E-05  0.4774E-05  0.4383E-05  0.3992E-05  0.3606E-05
  0.6412E-05  0.6838E-05  0.7269E-05  0.7717E-05  0.8142E-05  0.8575E-05  0.8995E-05  0.9401E-05  0.9797E-05  0.1018E-04  0.1053E-04  0.1086E-04  0.1116E-04  0.1143E-04  0.1165E-04  0.1185E-04  0.1200E-04  0.1212E-04  0.1221E-04  0.1225E-04  0.1228E-04  0.1226E-04  0.1226E-04  0.1225E-04  0.1221E-04  0.1216E-04  0.1207E-04  0.1199E-04  0.1188E-04  0.1179E-04  0.1169E-04  0.1158E-04  0.1147E-04  0.1137E-04  0.1127E-04  0.1120E-04  0.1114E-04  0.1110E-04  0.1108E-04  0.1108E-04  0.1113E-04  0.1122E-04  0.1131E-04  0.1141E-04  0.1151E-04  0.1162E-04  0.1173E-04  0.1182E-04  0.1191E-04  0.1199E-04  0.1204E-04  0.1208E-04  0.1210E-04  0.1209E-04  0.1206E-04  0.1198E-04  0.1187E-04  0.1173E-04  0.1157E-04  0.1135E-04  0.1112E-04  0.1085E-04  0.1055E-04  0.1022E-04  0.9878E-05  0.9493E-05  0.9115E-05  0.8702E-05  0.8293E-05  0.7858E-05  0.7430E-05  0.6984E-05  0.6559E-05  0.6124E-05  0.5709E-05  0.5288E-05  0.4896E-05  0.4473E-05  0.4065E-05
  0.7257E-05  0.7741E-05  0.8231E-05  0.8735E-05  0.9227E-05  0.9718E-05  0.1019E-04  0.1068E-04  0.1114E-04  0.1156E-04  0.1196E-04  0.1232E-04  0.1265E-04  0.1293E-04  0.1320E-04  0.1341E-04  0.1357E-04  0.1371E-04  0.1381E-04  0.1387E-04  0.1388E-04  0.1387E-04  0.1386E-04  0.1382E-04  0.1375E-04  0.1368E-04  0.1357E-04  0.1346E-04  0.1335E-04  0.1323E-04  0.1312E-04  0.1300E-04  0.1290E-04  0.1281E-04  0.1270E-04  0.1261E-04  0.1255E-04  0.1250E-04  0.1248E-04  0.1246E-04  0.1248E-04  0.1254E-04  0.1264E-04  0.1275E-04  0.1286E-04  0.1298E-04  0.1308E-04  0.1319E-04  0.1327E-04  0.1335E-04  0.1341E-04  0.1343E-04  0.1344E-04  0.1342E-04  0.1337E-04  0.1326E-04  0.1314E-04  0.1298E-04  0.1278E-04  0.1253E-04  0.1227E-04  0.1196E-04  0.1163E-04  0.1126E-04  0.1087E-04  0.1045E-04  0.1003E-04  0.9573E-05  0.9113E-05  0.8643E-05  0.8171E-05  0.7689E-05  0.7224E-05  0.6750E-05  0.6291E-05  0.5840E-05  0.5396E-05  0.4980E-05  0.4528E-05
  0.8192E-05  0.8744E-05  0.9310E-05  0.9877E-05  0.1048E-04  0.1103E-04  0.1157E-04  0.1212E-04  0.1264E-04  0.1311E-04  0.1355E-04  0.1395E-04  0.1432E-04  0.1464E-04  0.1492E-04  0.1515E-04  0.1535E-04  0.1549E-04  0.1559E-04  0.1565E-04  0.1566E-04  0.1563E-04  0.1562E-04  0.1556E-04  0.1549E-04  0.1538E-04  0.1526E-04  0.1511E-04  0.1497E-04  0.1483E-04  0.1469E-04  0.1455E-04  0.1443E-04  0.1431E-04  0.1424E-04  0.1416E-04  0.1410E-04  0.1403E-04  0.1400E-04  0.1398E-04  0.1399E-04  0.1400E-04  0.1408E-04  0.1418E-04  0.1430E-04  0.1442E-04  0.1453E-04  0.1464E-04  0.1472E-04  0.1479E-04  0.1484E-04  0.1485E-04  0.1485E-04  0.1481E-04  0.1473E-04  0.1461E-04  0.1446E-04  0.1427E-04  0.1404E-04  0.1376E-04  0.1346E-04  0.1311E-04  0.1273E-04  0.1234E-04  0.1189E-04  0.1144E-04  0.1095E-04  0.1046E-04  0.9960E-05  0.9449E-05  0.8929E-05  0.8417E-05  0.7888E-05  0.7395E-05  0.6884E-05  0.6405E-05  0.5926E-05  0.5463E-05  0.5018E-05
  0.9244E-05  0.9863E-05  0.1055E-04  0.1118E-04  0.1186E-04  0.1249E-04  0.1310E-04  0.1373E-04  0.1431E-04  0.1483E-04  0.1533E-04  0.1579E-04  0.1618E-04  0.1655E-04  0.1686E-04  0.1711E-04  0.1733E-04  0.1747E-04  0.1757E-04  0.1762E-04  0.1761E-04  0.1759E-04  0.1756E-04  0.1748E-04  0.1738E-04  0.1724E-04  0.1708E-04  0.1693E-04  0.1675E-04  0.1656E-04  0.1639E-04  0.1623E-04  0.1609E-04  0.1597E-04  0.1586E-04  0.1578E-04  0.1573E-04  0.1568E-04  0.1564E-04  0.1562E-04  0.1561E-04  0.1564E-04  0.1566E-04  0.1572E-04  0.1584E-04  0.1595E-04  0.1606E-04  0.1617E-04  0.1624E-04  0.1630E-04  0.1633E-04  0.1634E-04  0.1632E-04  0.1627E-04  0.1615E-04  0.1601E-04  0.1583E-04  0.1560E-04  0.1532E-04  0.1502E-04  0.1467E-04  0.1428E-04  0.1387E-04  0.1341E-04  0.1293E-04  0.1243E-04  0.1189E-04  0.1137E-04  0.1081E-04  0.1027E-04  0.9697E-05  0.9137E-05  0.8585E-05  0.8030E-05  0.7495E-05  0.6966E-05  0.6465E-05  0.5970E-05  0.5484E-05
  0.1047E-04  0.1122E-04  0.1195E-04  0.1271E-04  0.1344E-04  0.1415E-04  0.1486E-04  0.1553E-04  0.1619E-04  0.1679E-04  0.1733E-04  0.1783E-04  0.1829E-04  0.1869E-04  0.1903E-04  0.1930E-04  0.1953E-04  0.1968E-04  0.1977E-04  0.1978E-04  0.1975E-04  0.1975E-04  0.1969E-04  0.1959E-04  0.1943E-04  0.1927E-04  0.1909E-04  0.1889E-04  0.1868E-04  0.1847E-04  0.1828E-04  0.1808E-04  0.1789E-04  0.1775E-04  0.1763E-04  0.1753E-04  0.1746E-04  0.1741E-04  0.1740E-04  0.1737E-04  0.1737E-04  0.1737E-04  0.1740E-04  0.1744E-04  0.1748E-04  0.1758E-04  0.1769E-04  0.1778E-04  0.1786E-04  0.1790E-04  0.1792E-04  0.1790E-04  0.1787E-04  0.1777E-04  0.1764E-04  0.1746E-04  0.1725E-04  0.1697E-04  0.1666E-04  0.1631E-04  0.1591E-04  0.1548E-04  0.1501E-04  0.1451E-04  0.1398E-04  0.1342E-04  0.1286E-04  0.1226E-04  0.1168E-04  0.1107E-04  0.1047E-04  0.9864E-05  0.9269E-05  0.8675E-05  0.8103E-05  0.7544E-05  0.6987E-05  0.6480E-05  0.5971E-05
  0.1186E-04  0.1270E-04  0.1354E-04  0.1441E-04  0.1523E-04  0.1605E-04  0.1685E-04  0.1761E-04  0.1833E-04  0.1898E-04  0.1958E-04  0.2012E-04  0.2063E-04  0.2108E-04  0.2144E-04  0.2175E-04  0.2197E-04  0.2211E-04  0.2218E-04  0.2218E-04  0.2215E-04  0.2212E-04  0.2202E-04  0.2188E-04  0.2170E-04  0.2151E-04  0.2127E-04  0.2101E-04  0.2078E-04  0.2055E-04  0.2028E-04  0.2007E-04  0.1988E-04  0.1967E-04  0.1953E-04  0.1941E-04  0.1931E-04  0.1925E-04  0.1923E-04  0.1922E-04  0.1923E-04  0.1923E-04  0.1923E-04  0.1925E-04  0.1928E-04  0.1932E-04  0.1940E-04  0.1948E-04  0.1954E-04  0.1957E-04  0.1956E-04  0.1953E-04  0.1945E-04  0.1932E-04  0.1915E-04  0.1895E-04  0.1868E-04  0.1836E-04  0.1801E-04  0.1762E-04  0.1716E-04  0.1668E-04  0.1615E-04  0.1560E-04  0.1503E-04  0.1442E-04  0.1380E-04  0.1317E-04  0.1253E-04  0.1188E-04  0.1123E-04  0.1059E-04  0.9946E-05  0.9333E-05  0.8706E-05  0.8105E-05  0.7539E-05  0.6968E-05  0.6451E-05
  0.1349E-04  0.1446E-04  0.1538E-04  0.1640E-04  0.1733E-04  0.1827E-04  0.1916E-04  0.2002E-04  0.2084E-04  0.2158E-04  0.2227E-04  0.2285E-04  0.2336E-04  0.2379E-04  0.2412E-04  0.2441E-04  0.2465E-04  0.2478E-04  0.2483E-04  0.2483E-04  0.2480E-04  0.2473E-04  0.2458E-04  0.2440E-04  0.2418E-04  0.2391E-04  0.2362E-04  0.2334E-04  0.2305E-04  0.2275E-04  0.2249E-04  0.2222E-04  0.2197E-04  0.2177E-04  0.2158E-04  0.2142E-04  0.2131E-04  0.2123E-04  0.2118E-04  0.2116E-04  0.2115E-04  0.2119E-04  0.2118E-04  0.2119E-04  0.2120E-04  0.2121E-04  0.2121E-04  0.2125E-04  0.2128E-04  0.2129E-04  0.2126E-04  0.2120E-04  0.2108E-04  0.2092E-04  0.2071E-04  0.2046E-04  0.2014E-04  0.1978E-04  0.1939E-04  0.1891E-04  0.1843E-04  0.1789E-04  0.1731E-04  0.1672E-04  0.1607E-04  0.1543E-04  0.1474E-04  0.1406E-04  0.1337E-04  0.1269E-04  0.1199E-04  0.1132E-04  0.1063E-04  0.9953E-05  0.9322E-05  0.8678E-05  0.8062E-05  0.7476E-05  0.6907E-05
  0.1534E-04  0.1641E-04  0.1753E-04  0.1862E-04  0.1969E-04  0.2074E-04  0.2178E-04  0.2278E-04  0.2369E-04  0.2455E-04  0.2530E-04  0.2597E-04  0.2655E-04  0.2699E-04  0.2729E-04  0.2749E-04  0.2766E-04  0.2769E-04  0.2776E-04  0.2773E-04  0.2767E-04  0.2752E-04  0.2737E-04  0.2713E-04  0.2685E-04  0.2651E-04  0.2619E-04  0.2585E-04  0.2548E-04  0.2516E-04  0.2483E-04  0.2452E-04  0.2424E-04  0.2398E-04  0.2377E-04  0.2359E-04  0.2343E-04  0.2333E-04  0.2325E-04  0.2321E-04  0.2319E-04  0.2320E-04  0.2322E-04  0.2322E-04  0.2320E-04  0.2319E-04  0.2316E-04  0.2311E-04  0.2310E-04  0.2307E-04  0.2301E-04  0.2291E-04  0.2275E-04  0.2254E-04  0.2229E-04  0.2199E-04  0.2161E-04  0.2122E-04  0.2075E-04  0.2023E-04  0.1969E-04  0.1908E-04  0.1846E-04  0.1779E-04  0.1712E-04  0.1640E-04  0.1568E-04  0.1494E-04  0.1421E-04  0.1346E-04  0.1274E-04  0.1201E-04  0.1130E-04  0.1059E-04  0.9894E-05  0.9239E-05  0.8592E-05  0.7968E-05  0.7377E-05
  0.1741E-04  0.1862E-04  0.1990E-04  0.2114E-04  0.2239E-04  0.2359E-04  0.2475E-04  0.2586E-04  0.2689E-04  0.2784E-04  0.2871E-04  0.2942E-04  0.3007E-04  0.3056E-04  0.3096E-04  0.3121E-04  0.3132E-04  0.3128E-04  0.3114E-04  0.3096E-04  0.3076E-04  0.3061E-04  0.3039E-04  0.3006E-04  0.2972E-04  0.2935E-04  0.2895E-04  0.2852E-04  0.2813E-04  0.2772E-04  0.2733E-04  0.2699E-04  0.2665E-04  0.2635E-04  0.2609E-04  0.2587E-04  0.2572E-04  0.2555E-04  0.2545E-04  0.2540E-04  0.2535E-04  0.2533E-04  0.2533E-04  0.2533E-04  0.2533E-04  0.2528E-04  0.2520E-04  0.2508E-04  0.2497E-04  0.2491E-04  0.2481E-04  0.2467E-04  0.2445E-04  0.2419E-04  0.2389E-04  0.2352E-04  0.2310E-04  0.2264E-04  0.2211E-04  0.2155E-04  0.2092E-04  0.2028E-04  0.1959E-04  0.1888E-04  0.1813E-04  0.1737E-04  0.1660E-04  0.1581E-04  0.1502E-04  0.1424E-04  0.1345E-04  0.1269E-04  0.1193E-04  0.1120E-04  0.1047E-04  0.9772E-05  0.9109E-05  0.8448E-05  0.7814E-05
  0.1974E-04  0.2113E-04  0.2263E-04  0.2402E-04  0.2541E-04  0.2678E-04  0.2809E-04  0.2936E-04  0.3051E-04  0.3158E-04  0.3251E-04  0.3332E-04  0.3401E-04  0.3455E-04  0.3497E-04  0.3524E-04  0.3540E-04  0.3542E-04  0.3523E-04  0.3486E-04  0.3458E-04  0.3414E-04  0.3362E-04  0.3325E-04  0.3284E-04  0.3240E-04  0.3190E-04  0.3143E-04  0.3094E-04  0.3047E-04  0.3003E-04  0.2958E-04  0.2923E-04  0.2888E-04  0.2857E-04  0.2834E-04  0.2811E-04  0.2796E-04  0.2780E-04  0.2772E-04  0.2764E-04  0.2761E-04  0.2758E-04  0.2755E-04  0.2752E-04  0.2747E-04  0.2737E-04  0.2721E-04  0.2704E-04  0.2685E-04  0.2667E-04  0.2644E-04  0.2617E-04  0.2587E-04  0.2550E-04  0.2506E-04  0.2460E-04  0.2405E-04  0.2347E-04  0.2285E-04  0.2216E-04  0.2145E-04  0.2070E-04  0.1993E-04  0.1912E-04  0.1832E-04  0.1748E-04  0.1666E-04  0.1581E-04  0.1499E-04  0.1417E-04  0.1335E-04  0.1256E-04  0.1178E-04  0.1104E-04  0.1030E-04  0.9588E-05  0.8923E-05  0.8272E-05
  0.2246E-04  0.2406E-04  0.2567E-04  0.2726E-04  0.2884E-04  0.3038E-04  0.3188E-04  0.3328E-04  0.3459E-04  0.3577E-04  0.3681E-04  0.3773E-04  0.3847E-04  0.3905E-04  0.3949E-04  0.3977E-04  0.3985E-04  0.3983E-04  0.3963E-04  0.3941E-04  0.3903E-04  0.3844E-04  0.3770E-04  0.3703E-04  0.3633E-04  0.3565E-04  0.3511E-04  0.3453E-04  0.3395E-04  0.3344E-04  0.3288E-04  0.3241E-04  0.3195E-04  0.3157E-04  0.3122E-04  0.3091E-04  0.3067E-04  0.3045E-04  0.3030E-04  0.3015E-04  0.3005E-04  0.2999E-04  0.2991E-04  0.2986E-04  0.2979E-04  0.2973E-04  0.2961E-04  0.2944E-04  0.2920E-04  0.2892E-04  0.2863E-04  0.2835E-04  0.2800E-04  0.2758E-04  0.2711E-04  0.2662E-04  0.2608E-04  0.2546E-04  0.2483E-04  0.2412E-04  0.2338E-04  0.2260E-04  0.2178E-04  0.2096E-04  0.2010E-04  0.1922E-04  0.1835E-04  0.1745E-04  0.1658E-04  0.1570E-04  0.1485E-04  0.1400E-04  0.1316E-04  0.1236E-04  0.1156E-04  0.1079E-04  0.1008E-04  0.9367E-05  0.8684E-05
  0.2553E-04  0.2735E-04  0.2916E-04  0.3096E-04  0.3273E-04  0.3448E-04  0.3616E-04  0.3776E-04  0.3923E-04  0.4056E-04  0.4173E-04  0.4273E-04  0.4353E-04  0.4418E-04  0.4462E-04  0.4485E-04  0.4492E-04  0.4481E-04  0.4460E-04  0.4428E-04  0.4380E-04  0.4318E-04  0.4242E-04  0.4154E-04  0.4060E-04  0.3969E-04  0.3872E-04  0.3795E-04  0.3721E-04  0.3654E-04  0.3597E-04  0.3538E-04  0.3488E-04  0.3441E-04  0.3401E-04  0.3367E-04  0.3335E-04  0.3312E-04  0.3290E-04  0.3276E-04  0.3259E-04  0.3248E-04  0.3238E-04  0.3228E-04  0.3218E-04  0.3205E-04  0.3191E-04  0.3172E-04  0.3144E-04  0.3108E-04  0.3069E-04  0.3031E-04  0.2991E-04  0.2943E-04  0.2889E-04  0.2827E-04  0.2756E-04  0.2688E-04  0.2615E-04  0.2539E-04  0.2458E-04  0.2372E-04  0.2287E-04  0.2195E-04  0.2106E-04  0.2011E-04  0.1919E-04  0.1825E-04  0.1731E-04  0.1640E-04  0.1549E-04  0.1463E-04  0.1375E-04  0.1289E-04  0.1209E-04  0.1129E-04  0.1052E-04  0.9812E-05  0.9109E-05
  0.2898E-04  0.3107E-04  0.3312E-04  0.3516E-04  0.3718E-04  0.3914E-04  0.4103E-04  0.4281E-04  0.4446E-04  0.4595E-04  0.4728E-04  0.4839E-04  0.4929E-04  0.4997E-04  0.5040E-04  0.5063E-04  0.5066E-04  0.5048E-04  0.5019E-04  0.4973E-04  0.4911E-04  0.4839E-04  0.4750E-04  0.4649E-04  0.4546E-04  0.4432E-04  0.4320E-04  0.4207E-04  0.4102E-04  0.4005E-04  0.3924E-04  0.3856E-04  0.3797E-04  0.3743E-04  0.3697E-04  0.3655E-04  0.3621E-04  0.3590E-04  0.3566E-04  0.3543E-04  0.3527E-04  0.3509E-04  0.3495E-04  0.3480E-04  0.3465E-04  0.3447E-04  0.3428E-04  0.3403E-04  0.3374E-04  0.3333E-04  0.3285E-04  0.3232E-04  0.3184E-04  0.3129E-04  0.3067E-04  0.2999E-04  0.2924E-04  0.2840E-04  0.2747E-04  0.2663E-04  0.2573E-04  0.2484E-04  0.2388E-04  0.2294E-04  0.2195E-04  0.2098E-04  0.1999E-04  0.1901E-04  0.1803E-04  0.1705E-04  0.1613E-04  0.1520E-04  0.1431E-04  0.1344E-04  0.1257E-04  0.1177E-04  0.1098E-04  0.1022E-04  0.9489E-05
  0.3285E-04  0.3522E-04  0.3757E-04  0.3990E-04  0.4219E-04  0.4441E-04  0.4655E-04  0.4857E-04  0.5038E-04  0.5205E-04  0.5353E-04  0.5479E-04  0.5577E-04  0.5649E-04  0.5695E-04  0.5718E-04  0.5718E-04  0.5692E-04  0.5651E-04  0.5594E-04  0.5517E-04  0.5423E-04  0.5317E-04  0.5203E-04  0.5073E-04  0.4939E-04  0.4804E-04  0.4670E-04  0.4546E-04  0.4422E-04  0.4307E-04  0.4213E-04  0.4127E-04  0.4062E-04  0.4005E-04  0.3961E-04  0.3916E-04  0.3884E-04  0.3850E-04  0.3827E-04  0.3801E-04  0.3782E-04  0.3761E-04  0.3742E-04  0.3721E-04  0.3698E-04  0.3671E-04  0.3642E-04  0.3606E-04  0.3563E-04  0.3509E-04  0.3446E-04  0.3381E-04  0.3318E-04  0.3248E-04  0.3171E-04  0.3089E-04  0.2999E-04  0.2905E-04  0.2799E-04  0.2688E-04  0.2591E-04  0.2489E-04  0.2387E-04  0.2283E-04  0.2179E-04  0.2077E-04  0.1972E-04  0.1873E-04  0.1770E-04  0.1671E-04  0.1577E-04  0.1483E-04  0.1392E-04  0.1305E-04  0.1220E-04  0.1138E-04  0.1062E-04  0.9873E-05
  0.3717E-04  0.3985E-04  0.4254E-04  0.4518E-04  0.4779E-04  0.5033E-04  0.5276E-04  0.5503E-04  0.5710E-04  0.5896E-04  0.6062E-04  0.6199E-04  0.6308E-04  0.6389E-04  0.6442E-04  0.6467E-04  0.6459E-04  0.6427E-04  0.6379E-04  0.6305E-04  0.6207E-04  0.6095E-04  0.5968E-04  0.5822E-04  0.5674E-04  0.5513E-04  0.5345E-04  0.5184E-04  0.5024E-04  0.4876E-04  0.4738E-04  0.4615E-04  0.4504E-04  0.4411E-04  0.4336E-04  0.4275E-04  0.4229E-04  0.4185E-04  0.4151E-04  0.4117E-04  0.4091E-04  0.4064E-04  0.4040E-04  0.4012E-04  0.3987E-04  0.3958E-04  0.3925E-04  0.3888E-04  0.3845E-04  0.3795E-04  0.3738E-04  0.3666E-04  0.3587E-04  0.3511E-04  0.3431E-04  0.3346E-04  0.3255E-04  0.3156E-04  0.3054E-04  0.2945E-04  0.2832E-04  0.2696E-04  0.2587E-04  0.2477E-04  0.2369E-04  0.2259E-04  0.2148E-04  0.2042E-04  0.1935E-04  0.1832E-04  0.1729E-04  0.1629E-04  0.1534E-04  0.1440E-04  0.1349E-04  0.1263E-04  0.1179E-04  0.1099E-04  0.1022E-04
  0.4192E-04  0.4497E-04  0.4799E-04  0.5102E-04  0.5400E-04  0.5689E-04  0.5965E-04  0.6219E-04  0.6456E-04  0.6669E-04  0.6854E-04  0.7009E-04  0.7129E-04  0.7222E-04  0.7284E-04  0.7307E-04  0.7299E-04  0.7268E-04  0.7205E-04  0.7114E-04  0.7003E-04  0.6866E-04  0.6708E-04  0.6539E-04  0.6358E-04  0.6163E-04  0.5962E-04  0.5757E-04  0.5565E-04  0.5379E-04  0.5207E-04  0.5053E-04  0.4911E-04  0.4796E-04  0.4696E-04  0.4614E-04  0.4557E-04  0.4516E-04  0.4490E-04  0.4475E-04  0.4457E-04  0.4431E-04  0.4403E-04  0.4373E-04  0.4340E-04  0.4304E-04  0.4260E-04  0.4211E-04  0.4139E-04  0.4070E-04  0.3990E-04  0.3896E-04  0.3805E-04  0.3708E-04  0.3620E-04  0.3524E-04  0.3423E-04  0.3316E-04  0.3203E-04  0.3087E-04  0.2966E-04  0.2843E-04  0.2709E-04  0.2564E-04  0.2448E-04  0.2334E-04  0.2219E-04  0.2106E-04  0.1997E-04  0.1888E-04  0.1783E-04  0.1680E-04  0.1580E-04  0.1483E-04  0.1392E-04  0.1302E-04  0.1215E-04  0.1134E-04  0.1056E-04
  0.4719E-04  0.5065E-04  0.5410E-04  0.5751E-04  0.6089E-04  0.6418E-04  0.6726E-04  0.7019E-04  0.7287E-04  0.7522E-04  0.7733E-04  0.7913E-04  0.8053E-04  0.8160E-04  0.8227E-04  0.8258E-04  0.8252E-04  0.8218E-04  0.8148E-04  0.8047E-04  0.7912E-04  0.7750E-04  0.7568E-04  0.7364E-04  0.7147E-04  0.6919E-04  0.6672E-04  0.6429E-04  0.6183E-04  0.5950E-04  0.5730E-04  0.5534E-04  0.5356E-04  0.5215E-04  0.5105E-04  0.5020E-04  0.4969E-04  0.4936E-04  0.4896E-04  0.4863E-04  0.4824E-04  0.4794E-04  0.4754E-04  0.4718E-04  0.4674E-04  0.4625E-04  0.4573E-04  0.4512E-04  0.4446E-04  0.4371E-04  0.4286E-04  0.4197E-04  0.4078E-04  0.3950E-04  0.3820E-04  0.3709E-04  0.3596E-04  0.3479E-04  0.3357E-04  0.3230E-04  0.3101E-04  0.2969E-04  0.2836E-04  0.2699E-04  0.2533E-04  0.2404E-04  0.2287E-04  0.2168E-04  0.2053E-04  0.1942E-04  0.1831E-04  0.1725E-04  0.1625E-04  0.1525E-04  0.1429E-04  0.1338E-04  0.1251E-04  0.1166E-04  0.1086E-04
  0.5289E-04  0.5681E-04  0.6095E-04  0.6522E-04  0.6927E-04  0.7309E-04  0.7645E-04  0.7945E-04  0.8200E-04  0.8474E-04  0.8714E-04  0.8920E-04  0.9085E-04  0.9207E-04  0.9290E-04  0.9331E-04  0.9332E-04  0.9295E-04  0.9221E-04  0.9105E-04  0.8950E-04  0.8768E-04  0.8552E-04  0.8316E-04  0.8062E-04  0.7780E-04  0.7494E-04  0.7190E-04  0.6890E-04  0.6594E-04  0.6324E-04  0.6083E-04  0.5875E-04  0.5709E-04  0.5614E-04  0.5502E-04  0.5419E-04  0.5351E-04  0.5301E-04  0.5258E-04  0.5221E-04  0.5176E-04  0.5133E-04  0.5086E-04  0.5032E-04  0.4974E-04  0.4911E-04  0.4838E-04  0.4758E-04  0.4669E-04  0.4572E-04  0.4465E-04  0.4356E-04  0.4224E-04  0.4076E-04  0.3936E-04  0.3787E-04  0.3649E-04  0.3515E-04  0.3378E-04  0.3239E-04  0.3099E-04  0.2957E-04  0.2815E-04  0.2668E-04  0.2512E-04  0.2347E-04  0.2228E-04  0.2107E-04  0.1990E-04  0.1879E-04  0.1770E-04  0.1664E-04  0.1562E-04  0.1466E-04  0.1372E-04  0.1281E-04  0.1197E-04  0.1115E-04
  0.5944E-04  0.6442E-04  0.6982E-04  0.7552E-04  0.8110E-04  0.8615E-04  0.9027E-04  0.9374E-04  0.9617E-04  0.9772E-04  0.9934E-04  0.1014E-03  0.1034E-03  0.1047E-03  0.1057E-03  0.1063E-03  0.1064E-03  0.1061E-03  0.1052E-03  0.1038E-03  0.1021E-03  0.9992E-04  0.9726E-04  0.9446E-04  0.9098E-04  0.8774E-04  0.8432E-04  0.8092E-04  0.7746E-04  0.7402E-04  0.7069E-04  0.6799E-04  0.6548E-04  0.6325E-04  0.6141E-04  0.5997E-04  0.5886E-04  0.5806E-04  0.5741E-04  0.5696E-04  0.5648E-04  0.5599E-04  0.5549E-04  0.5490E-04  0.5428E-04  0.5357E-04  0.5276E-04  0.5190E-04  0.5096E-04  0.4994E-04  0.4879E-04  0.4760E-04  0.4628E-04  0.4492E-04  0.4337E-04  0.4180E-04  0.4027E-04  0.3861E-04  0.3692E-04  0.3537E-04  0.3384E-04  0.3232E-04  0.3082E-04  0.2930E-04  0.2779E-04  0.2629E-04  0.2469E-04  0.2299E-04  0.2155E-04  0.2038E-04  0.1921E-04  0.1809E-04  0.1703E-04  0.1598E-04  0.1498E-04  0.1402E-04  0.1312E-04  0.1224E-04  0.1143E-04
  0.6741E-04  0.7402E-04  0.8194E-04  0.9053E-04  0.9927E-04  0.1069E-03  0.1128E-03  0.1171E-03  0.1198E-03  0.1217E-03  0.1228E-03  0.1238E-03  0.1254E-03  0.1274E-03  0.1291E-03  0.1305E-03  0.1312E-03  0.1311E-03  0.1306E-03  0.1294E-03  0.1277E-03  0.1257E-03  0.1231E-03  0.1199E-03  0.1163E-03  0.1119E-03  0.1070E-03  0.1011E-03  0.9539E-04  0.8907E-04  0.8280E-04  0.7706E-04  0.7272E-04  0.6983E-04  0.6751E-04  0.6546E-04  0.6408E-04  0.6307E-04  0.6230E-04  0.6172E-04  0.6117E-04  0.6066E-04  0.6006E-04  0.5942E-04  0.5864E-04  0.5780E-04  0.5682E-04  0.5583E-04  0.5470E-04  0.5348E-04  0.5219E-04  0.5077E-04  0.4933E-04  0.4776E-04  0.4613E-04  0.4426E-04  0.4261E-04  0.4092E-04  0.3912E-04  0.3725E-04  0.3547E-04  0.3378E-04  0.3215E-04  0.3052E-04  0.2894E-04  0.2736E-04  0.2578E-04  0.2416E-04  0.2255E-04  0.2079E-04  0.1962E-04  0.1847E-04  0.1736E-04  0.1629E-04  0.1529E-04  0.1431E-04  0.1338E-04  0.1251E-04  0.1166E-04
  0.7793E-04  0.8819E-04  0.1011E-03  0.1155E-03  0.1306E-03  0.1445E-03  0.1553E-03  0.1627E-03  0.1666E-03  0.1690E-03  0.1704E-03  0.1725E-03  0.1749E-03  0.1792E-03  0.1846E-03  0.1898E-03  0.1952E-03  0.2000E-03  0.2043E-03  0.2091E-03  0.2132E-03  0.2180E-03  0.2226E-03  0.2276E-03  0.2319E-03  0.2363E-03  0.2404E-03  0.2428E-03  0.2420E-03  0.2376E-03  0.2215E-03  0.1907E-03  0.1441E-03  0.1020E-03  0.8498E-04  0.7194E-04  0.6992E-04  0.6865E-04  0.6773E-04  0.6702E-04  0.6646E-04  0.6582E-04  0.6516E-04  0.6439E-04  0.6349E-04  0.6252E-04  0.6141E-04  0.6018E-04  0.5886E-04  0.5741E-04  0.5593E-04  0.5431E-04  0.5264E-04  0.5087E-04  0.4911E-04  0.4710E-04  0.4514E-04  0.4326E-04  0.4140E-04  0.3944E-04  0.3743E-04  0.3548E-04  0.3362E-04  0.3187E-04  0.3017E-04  0.2848E-04  0.2685E-04  0.2520E-04  0.2354E-04  0.2196E-04  0.2032E-04  0.1879E-04  0.1769E-04  0.1660E-04  0.1555E-04  0.1458E-04  0.1363E-04  0.1274E-04  0.1187E-04
  0.9428E-04  0.1114E-03  0.1324E-03  0.1572E-03  0.1844E-03  0.2099E-03  0.2309E-03  0.2463E-03  0.2564E-03  0.2638E-03  0.2699E-03  0.2758E-03  0.2835E-03  0.2938E-03  0.3077E-03  0.3243E-03  0.3413E-03  0.3592E-03  0.3781E-03  0.3984E-03  0.4208E-03  0.4446E-03  0.4689E-03  0.4940E-03  0.5186E-03  0.5397E-03  0.5550E-03  0.5587E-03  0.5454E-03  0.5056E-03  0.4401E-03  0.3572E-03  0.2817E-03  0.2352E-03  0.1521E-03  0.8733E-04  0.7826E-04  0.7539E-04  0.7401E-04  0.7312E-04  0.7235E-04  0.7162E-04  0.7090E-04  0.6996E-04  0.6895E-04  0.6778E-04  0.6649E-04  0.6506E-04  0.6354E-04  0.6186E-04  0.6012E-04  0.5827E-04  0.5635E-04  0.5437E-04  0.5235E-04  0.5026E-04  0.4794E-04  0.4588E-04  0.4382E-04  0.4175E-04  0.3963E-04  0.3749E-04  0.3541E-04  0.3342E-04  0.3155E-04  0.2974E-04  0.2799E-04  0.2631E-04  0.2460E-04  0.2290E-04  0.2129E-04  0.1972E-04  0.1803E-04  0.1686E-04  0.1582E-04  0.1480E-04  0.1385E-04  0.1294E-04  0.1207E-04
  0.1178E-03  0.1433E-03  0.1761E-03  0.2155E-03  0.2590E-03  0.3021E-03  0.3398E-03  0.3684E-03  0.3904E-03  0.4093E-03  0.4282E-03  0.4446E-03  0.4599E-03  0.4791E-03  0.5028E-03  0.5302E-03  0.5604E-03  0.5922E-03  0.6247E-03  0.6565E-03  0.6889E-03  0.7187E-03  0.7430E-03  0.7592E-03  0.7639E-03  0.7524E-03  0.7204E-03  0.6659E-03  0.5938E-03  0.5112E-03  0.4209E-03  0.3420E-03  0.4561E-03  0.2937E-03  0.2242E-03  0.1254E-03  0.9878E-04  0.8681E-04  0.8242E-04  0.8044E-04  0.7919E-04  0.7831E-04  0.7733E-04  0.7622E-04  0.7506E-04  0.7368E-04  0.7222E-04  0.7053E-04  0.6877E-04  0.6684E-04  0.6484E-04  0.6273E-04  0.6050E-04  0.5828E-04  0.5599E-04  0.5369E-04  0.5124E-04  0.4881E-04  0.4653E-04  0.4426E-04  0.4203E-04  0.3976E-04  0.3747E-04  0.3529E-04  0.3318E-04  0.3118E-04  0.2932E-04  0.2749E-04  0.2572E-04  0.2397E-04  0.2226E-04  0.2063E-04  0.1912E-04  0.1756E-04  0.1604E-04  0.1501E-04  0.1405E-04  0.1311E-04  0.1225E-04
  0.1452E-03  0.1810E-03  0.2264E-03  0.2809E-03  0.3422E-03  0.4035E-03  0.4596E-03  0.5049E-03  0.5396E-03  0.5677E-03  0.5979E-03  0.6308E-03  0.6610E-03  0.6837E-03  0.7071E-03  0.7343E-03  0.7630E-03  0.7889E-03  0.8112E-03  0.8265E-03  0.8327E-03  0.8268E-03  0.8067E-03  0.7705E-03  0.7174E-03  0.6488E-03  0.5746E-03  0.5003E-03  0.4332E-03  0.3584E-03  0.3035E-03  0.5380E-03  0.4992E-03  0.3797E-03  0.2784E-03  0.1585E-03  0.1351E-03  0.1100E-03  0.9669E-04  0.9080E-04  0.8793E-04  0.8620E-04  0.8481E-04  0.8347E-04  0.8202E-04  0.8046E-04  0.7882E-04  0.7699E-04  0.7507E-04  0.7294E-04  0.7073E-04  0.6838E-04  0.6597E-04  0.6342E-04  0.6089E-04  0.5827E-04  0.5575E-04  0.5289E-04  0.5035E-04  0.4790E-04  0.4537E-04  0.4299E-04  0.4051E-04  0.3809E-04  0.3579E-04  0.3352E-04  0.3139E-04  0.2930E-04  0.2735E-04  0.2539E-04  0.2349E-04  0.2170E-04  0.2002E-04  0.1845E-04  0.1698E-04  0.1538E-04  0.1421E-04  0.1328E-04  0.1239E-04
  0.1739E-03  0.2186E-03  0.2756E-03  0.3432E-03  0.4191E-03  0.4962E-03  0.5672E-03  0.6257E-03  0.6715E-03  0.7054E-03  0.7354E-03  0.7680E-03  0.7988E-03  0.8231E-03  0.8355E-03  0.8402E-03  0.8409E-03  0.8353E-03  0.8200E-03  0.7940E-03  0.7558E-03  0.7058E-03  0.6455E-03  0.5798E-03  0.5164E-03  0.4603E-03  0.4184E-03  0.3791E-03  0.3257E-03  0.2968E-03  0.5344E-03  0.6637E-03  0.5307E-03  0.4510E-03  0.3409E-03  0.1764E-03  0.1627E-03  0.1446E-03  0.1211E-03  0.1074E-03  0.1005E-03  0.9649E-04  0.9391E-04  0.9196E-04  0.9018E-04  0.8846E-04  0.8660E-04  0.8462E-04  0.8256E-04  0.8026E-04  0.7786E-04  0.7531E-04  0.7258E-04  0.6982E-04  0.6698E-04  0.6407E-04  0.6120E-04  0.5806E-04  0.5523E-04  0.5249E-04  0.4974E-04  0.4709E-04  0.4442E-04  0.4170E-04  0.3901E-04  0.3642E-04  0.3391E-04  0.3156E-04  0.2932E-04  0.2718E-04  0.2509E-04  0.2312E-04  0.2122E-04  0.1950E-04  0.1788E-04  0.1637E-04  0.1490E-04  0.1342E-04  0.1251E-04
  0.1997E-03  0.2517E-03  0.3165E-03  0.3926E-03  0.4782E-03  0.5643E-03  0.6447E-03  0.7093E-03  0.7569E-03  0.7887E-03  0.8098E-03  0.8284E-03  0.8443E-03  0.8431E-03  0.8299E-03  0.8047E-03  0.7682E-03  0.7262E-03  0.6778E-03  0.6243E-03  0.5685E-03  0.5132E-03  0.4653E-03  0.4278E-03  0.4053E-03  0.3905E-03  0.3670E-03  0.3242E-03  0.3001E-03  0.5006E-03  0.7550E-03  0.6397E-03  0.5614E-03  0.5138E-03  0.3961E-03  0.2009E-03  0.1699E-03  0.1729E-03  0.1536E-03  0.1323E-03  0.1185E-03  0.1107E-03  0.1058E-03  0.1024E-03  0.9991E-04  0.9781E-04  0.9582E-04  0.9382E-04  0.9156E-04  0.8918E-04  0.8659E-04  0.8381E-04  0.8082E-04  0.7772E-04  0.7456E-04  0.7129E-04  0.6808E-04  0.6481E-04  0.6131E-04  0.5822E-04  0.5514E-04  0.5202E-04  0.4892E-04  0.4590E-04  0.4288E-04  0.3992E-04  0.3705E-04  0.3435E-04  0.3175E-04  0.2932E-04  0.2700E-04  0.2480E-04  0.2264E-04  0.2069E-04  0.1887E-04  0.1722E-04  0.1568E-04  0.1426E-04  0.1293E-04
  0.2203E-03  0.2759E-03  0.3440E-03  0.4243E-03  0.5120E-03  0.6004E-03  0.6815E-03  0.7460E-03  0.7899E-03  0.8118E-03  0.8158E-03  0.8088E-03  0.7953E-03  0.7739E-03  0.7302E-03  0.6766E-03  0.6211E-03  0.5644E-03  0.5120E-03  0.4662E-03  0.4320E-03  0.4090E-03  0.4000E-03  0.3992E-03  0.3961E-03  0.3774E-03  0.3355E-03  0.3122E-03  0.4722E-03  0.7717E-03  0.7366E-03  0.6482E-03  0.5821E-03  0.5639E-03  0.4423E-03  0.2355E-03  0.1740E-03  0.1861E-03  0.1830E-03  0.1635E-03  0.1435E-03  0.1301E-03  0.1216E-03  0.1160E-03  0.1121E-03  0.1093E-03  0.1070E-03  0.1049E-03  0.1027E-03  0.1002E-03  0.9749E-04  0.9446E-04  0.9117E-04  0.8774E-04  0.8415E-04  0.8047E-04  0.7679E-04  0.7312E-04  0.6914E-04  0.6549E-04  0.6184E-04  0.5827E-04  0.5473E-04  0.5124E-04  0.4776E-04  0.4437E-04  0.4112E-04  0.3794E-04  0.3491E-04  0.3206E-04  0.2939E-04  0.2690E-04  0.2453E-04  0.2218E-04  0.2010E-04  0.1821E-04  0.1652E-04  0.1497E-04  0.1359E-04
  0.2340E-03  0.2905E-03  0.3590E-03  0.4378E-03  0.5226E-03  0.6076E-03  0.6844E-03  0.7445E-03  0.7822E-03  0.7939E-03  0.7824E-03  0.7538E-03  0.7141E-03  0.6671E-03  0.6133E-03  0.5530E-03  0.4966E-03  0.4521E-03  0.4226E-03  0.4073E-03  0.4047E-03  0.4115E-03  0.4185E-03  0.4154E-03  0.3941E-03  0.3511E-03  0.3271E-03  0.4466E-03  0.7445E-03  0.8199E-03  0.7017E-03  0.6717E-03  0.6054E-03  0.6037E-03  0.4813E-03  0.2736E-03  0.1830E-03  0.1897E-03  0.2008E-03  0.1928E-03  0.1734E-03  0.1547E-03  0.1411E-03  0.1327E-03  0.1273E-03  0.1237E-03  0.1210E-03  0.1188E-03  0.1166E-03  0.1140E-03  0.1112E-03  0.1078E-03  0.1042E-03  0.1003E-03  0.9623E-04  0.9203E-04  0.8784E-04  0.8355E-04  0.7909E-04  0.7466E-04  0.7043E-04  0.6624E-04  0.6213E-04  0.5807E-04  0.5404E-04  0.5008E-04  0.4626E-04  0.4257E-04  0.3901E-04  0.3560E-04  0.3242E-04  0.2948E-04  0.2675E-04  0.2422E-04  0.2179E-04  0.1946E-04  0.1750E-04  0.1579E-04  0.1422E-04
  0.2414E-03  0.2966E-03  0.3619E-03  0.4357E-03  0.5149E-03  0.5929E-03  0.6636E-03  0.7188E-03  0.7497E-03  0.7552E-03  0.7372E-03  0.6997E-03  0.6505E-03  0.5960E-03  0.5417E-03  0.4914E-03  0.4509E-03  0.4278E-03  0.4257E-03  0.4356E-03  0.4457E-03  0.4523E-03  0.4443E-03  0.4158E-03  0.3715E-03  0.3435E-03  0.4344E-03  0.7028E-03  0.8621E-03  0.7665E-03  0.7176E-03  0.6827E-03  0.6349E-03  0.6361E-03  0.5156E-03  0.3152E-03  0.2004E-03  0.1916E-03  0.2087E-03  0.2132E-03  0.2013E-03  0.1816E-03  0.1636E-03  0.1517E-03  0.1448E-03  0.1407E-03  0.1380E-03  0.1358E-03  0.1337E-03  0.1311E-03  0.1282E-03  0.1247E-03  0.1207E-03  0.1163E-03  0.1116E-03  0.1067E-03  0.1017E-03  0.9657E-04  0.9145E-04  0.8616E-04  0.8119E-04  0.7630E-04  0.7145E-04  0.6664E-04  0.6195E-04  0.5732E-04  0.5279E-04  0.4842E-04  0.4420E-04  0.4014E-04  0.3633E-04  0.3281E-04  0.2955E-04  0.2656E-04  0.2381E-04  0.2127E-04  0.1890E-04  0.1674E-04  0.1498E-04
  0.2438E-03  0.2952E-03  0.3562E-03  0.4242E-03  0.4952E-03  0.5667E-03  0.6310E-03  0.6793E-03  0.7096E-03  0.7150E-03  0.6994E-03  0.6642E-03  0.6196E-03  0.5716E-03  0.5273E-03  0.4920E-03  0.4714E-03  0.4641E-03  0.4748E-03  0.4918E-03  0.4955E-03  0.4788E-03  0.4447E-03  0.3975E-03  0.3665E-03  0.4362E-03  0.6660E-03  0.8790E-03  0.8387E-03  0.7479E-03  0.7477E-03  0.6899E-03  0.6666E-03  0.6653E-03  0.5486E-03  0.3555E-03  0.2246E-03  0.1982E-03  0.2122E-03  0.2247E-03  0.2232E-03  0.2085E-03  0.1895E-03  0.1739E-03  0.1641E-03  0.1587E-03  0.1557E-03  0.1536E-03  0.1518E-03  0.1496E-03  0.1469E-03  0.1435E-03  0.1395E-03  0.1350E-03  0.1300E-03  0.1246E-03  0.1188E-03  0.1129E-03  0.1069E-03  0.1006E-03  0.9474E-04  0.8891E-04  0.8310E-04  0.7741E-04  0.7181E-04  0.6631E-04  0.6091E-04  0.5570E-04  0.5064E-04  0.4582E-04  0.4128E-04  0.3704E-04  0.3311E-04  0.2953E-04  0.2626E-04  0.2326E-04  0.2066E-04  0.1826E-04  0.1608E-04
  0.2425E-03  0.2911E-03  0.3464E-03  0.4066E-03  0.4717E-03  0.5351E-03  0.5931E-03  0.6395E-03  0.6682E-03  0.6790E-03  0.6703E-03  0.6472E-03  0.6146E-03  0.5793E-03  0.5482E-03  0.5277E-03  0.5173E-03  0.5178E-03  0.5233E-03  0.5254E-03  0.5155E-03  0.4809E-03  0.4322E-03  0.3994E-03  0.4477E-03  0.6381E-03  0.8716E-03  0.9067E-03  0.7961E-03  0.7757E-03  0.7716E-03  0.7042E-03  0.6990E-03  0.6933E-03  0.5778E-03  0.3952E-03  0.2521E-03  0.2094E-03  0.2152E-03  0.2297E-03  0.2356E-03  0.2286E-03  0.2132E-03  0.1971E-03  0.1851E-03  0.1776E-03  0.1733E-03  0.1707E-03  0.1687E-03  0.1668E-03  0.1644E-03  0.1614E-03  0.1578E-03  0.1536E-03  0.1488E-03  0.1433E-03  0.1374E-03  0.1311E-03  0.1247E-03  0.1179E-03  0.1110E-03  0.1043E-03  0.9751E-04  0.9077E-04  0.8409E-04  0.7753E-04  0.7102E-04  0.6474E-04  0.5867E-04  0.5287E-04  0.4739E-04  0.4225E-04  0.3753E-04  0.3318E-04  0.2925E-04  0.2576E-04  0.2265E-04  0.1993E-04  0.1752E-04
  0.2403E-03  0.2838E-03  0.3338E-03  0.3890E-03  0.4453E-03  0.5038E-03  0.5567E-03  0.6005E-03  0.6324E-03  0.6486E-03  0.6510E-03  0.6408E-03  0.6229E-03  0.6016E-03  0.5831E-03  0.5694E-03  0.5651E-03  0.5633E-03  0.5576E-03  0.5426E-03  0.5145E-03  0.4733E-03  0.4395E-03  0.4705E-03  0.6269E-03  0.8556E-03  0.9485E-03  0.8664E-03  0.7962E-03  0.8155E-03  0.7808E-03  0.7194E-03  0.7274E-03  0.7164E-03  0.6043E-03  0.4308E-03  0.2821E-03  0.2244E-03  0.2198E-03  0.2307E-03  0.2384E-03  0.2376E-03  0.2289E-03  0.2167E-03  0.2052E-03  0.1964E-03  0.1905E-03  0.1866E-03  0.1840E-03  0.1818E-03  0.1795E-03  0.1769E-03  0.1737E-03  0.1699E-03  0.1655E-03  0.1604E-03  0.1549E-03  0.1488E-03  0.1424E-03  0.1355E-03  0.1283E-03  0.1211E-03  0.1137E-03  0.1061E-03  0.9855E-04  0.9093E-04  0.8332E-04  0.7586E-04  0.6863E-04  0.6163E-04  0.5502E-04  0.4884E-04  0.4305E-04  0.3781E-04  0.3309E-04  0.2887E-04  0.2515E-04  0.2192E-04  0.1908E-04
  0.2357E-03  0.2767E-03  0.3216E-03  0.3705E-03  0.4225E-03  0.4746E-03  0.5236E-03  0.5668E-03  0.6008E-03  0.6242E-03  0.6363E-03  0.6388E-03  0.6340E-03  0.6257E-03  0.6154E-03  0.6094E-03  0.6040E-03  0.5960E-03  0.5803E-03  0.5536E-03  0.5173E-03  0.4843E-03  0.5022E-03  0.6219E-03  0.8318E-03  0.9705E-03  0.9289E-03  0.8332E-03  0.8241E-03  0.8422E-03  0.7797E-03  0.7325E-03  0.7477E-03  0.7311E-03  0.6248E-03  0.4616E-03  0.3112E-03  0.2412E-03  0.2261E-03  0.2325E-03  0.2391E-03  0.2417E-03  0.2383E-03  0.2309E-03  0.2219E-03  0.2133E-03  0.2062E-03  0.2009E-03  0.1971E-03  0.1943E-03  0.1917E-03  0.1892E-03  0.1863E-03  0.1830E-03  0.1791E-03  0.1746E-03  0.1696E-03  0.1640E-03  0.1579E-03  0.1514E-03  0.1443E-03  0.1370E-03  0.1294E-03  0.1215E-03  0.1134E-03  0.1051E-03  0.9672E-04  0.8826E-04  0.7998E-04  0.7191E-04  0.6418E-04  0.5682E-04  0.4997E-04  0.4370E-04  0.3801E-04  0.3291E-04  0.2845E-04  0.2453E-04  0.2118E-04
  0.2324E-03  0.2697E-03  0.3105E-03  0.3552E-03  0.4016E-03  0.4496E-03  0.4956E-03  0.5381E-03  0.5741E-03  0.6031E-03  0.6239E-03  0.6370E-03  0.6427E-03  0.6436E-03  0.6418E-03  0.6379E-03  0.6311E-03  0.6172E-03  0.5949E-03  0.5634E-03  0.5334E-03  0.5430E-03  0.6333E-03  0.8134E-03  0.9698E-03  0.9774E-03  0.8781E-03  0.8279E-03  0.8577E-03  0.8462E-03  0.7705E-03  0.7405E-03  0.7608E-03  0.7387E-03  0.6387E-03  0.4863E-03  0.3376E-03  0.2588E-03  0.2354E-03  0.2370E-03  0.2420E-03  0.2452E-03  0.2448E-03  0.2407E-03  0.2341E-03  0.2263E-03  0.2192E-03  0.2130E-03  0.2081E-03  0.2043E-03  0.2012E-03  0.1985E-03  0.1958E-03  0.1926E-03  0.1891E-03  0.1852E-03  0.1808E-03  0.1758E-03  0.1703E-03  0.1642E-03  0.1576E-03  0.1505E-03  0.1430E-03  0.1351E-03  0.1268E-03  0.1182E-03  0.1093E-03  0.1003E-03  0.9127E-04  0.8240E-04  0.7379E-04  0.6555E-04  0.5774E-04  0.5048E-04  0.4388E-04  0.3795E-04  0.3266E-04  0.2804E-04  0.2404E-04
  0.2286E-03  0.2629E-03  0.3010E-03  0.3416E-03  0.3848E-03  0.4288E-03  0.4725E-03  0.5142E-03  0.5518E-03  0.5847E-03  0.6115E-03  0.6320E-03  0.6458E-03  0.6544E-03  0.6574E-03  0.6561E-03  0.6471E-03  0.6302E-03  0.6053E-03  0.5810E-03  0.5849E-03  0.6535E-03  0.8074E-03  0.9667E-03  0.1009E-02  0.9299E-03  0.8456E-03  0.8471E-03  0.8742E-03  0.8310E-03  0.7561E-03  0.7441E-03  0.7658E-03  0.7385E-03  0.6464E-03  0.5035E-03  0.3599E-03  0.2750E-03  0.2458E-03  0.2429E-03  0.2465E-03  0.2493E-03  0.2499E-03  0.2475E-03  0.2424E-03  0.2357E-03  0.2287E-03  0.2221E-03  0.2165E-03  0.2119E-03  0.2082E-03  0.2050E-03  0.2021E-03  0.1991E-03  0.1958E-03  0.1923E-03  0.1884E-03  0.1839E-03  0.1790E-03  0.1735E-03  0.1673E-03  0.1605E-03  0.1533E-03  0.1456E-03  0.1373E-03  0.1287E-03  0.1197E-03  0.1104E-03  0.1010E-03  0.9162E-04  0.8246E-04  0.7358E-04  0.6512E-04  0.5718E-04  0.4983E-04  0.4315E-04  0.3721E-04  0.3194E-04  0.2732E-04
  0.2252E-03  0.2573E-03  0.2927E-03  0.3301E-03  0.3702E-03  0.4112E-03  0.4528E-03  0.4936E-03  0.5319E-03  0.5670E-03  0.5974E-03  0.6225E-03  0.6419E-03  0.6552E-03  0.6623E-03  0.6623E-03  0.6542E-03  0.6376E-03  0.6187E-03  0.6220E-03  0.6768E-03  0.8029E-03  0.9591E-03  0.1030E-02  0.9688E-03  0.8678E-03  0.8347E-03  0.8679E-03  0.8733E-03  0.8050E-03  0.7406E-03  0.7426E-03  0.7640E-03  0.7327E-03  0.6491E-03  0.5166E-03  0.3788E-03  0.2899E-03  0.2552E-03  0.2485E-03  0.2508E-03  0.2530E-03  0.2535E-03  0.2516E-03  0.2474E-03  0.2416E-03  0.2347E-03  0.2281E-03  0.2222E-03  0.2170E-03  0.2126E-03  0.2090E-03  0.2057E-03  0.2027E-03  0.1995E-03  0.1961E-03  0.1924E-03  0.1884E-03  0.1839E-03  0.1789E-03  0.1731E-03  0.1668E-03  0.1599E-03  0.1525E-03  0.1445E-03  0.1360E-03  0.1271E-03  0.1178E-03  0.1083E-03  0.9879E-04  0.8937E-04  0.8020E-04  0.7135E-04  0.6296E-04  0.5515E-04  0.4796E-04  0.4145E-04  0.3567E-04  0.3057E-04
  0.2218E-03  0.2523E-03  0.2849E-03  0.3201E-03  0.3572E-03  0.3959E-03  0.4356E-03  0.4745E-03  0.5125E-03  0.5484E-03  0.5805E-03  0.6086E-03  0.6312E-03  0.6474E-03  0.6574E-03  0.6594E-03  0.6535E-03  0.6438E-03  0.6507E-03  0.6944E-03  0.8040E-03  0.9493E-03  0.1041E-02  0.1008E-02  0.8964E-03  0.8165E-03  0.8270E-03  0.8757E-03  0.8568E-03  0.7750E-03  0.7265E-03  0.7393E-03  0.7570E-03  0.7247E-03  0.6481E-03  0.5261E-03  0.3938E-03  0.3033E-03  0.2640E-03  0.2529E-03  0.2544E-03  0.2557E-03  0.2556E-03  0.2537E-03  0.2497E-03  0.2442E-03  0.2378E-03  0.2311E-03  0.2250E-03  0.2195E-03  0.2148E-03  0.2106E-03  0.2071E-03  0.2039E-03  0.2006E-03  0.1971E-03  0.1937E-03  0.1898E-03  0.1856E-03  0.1809E-03  0.1755E-03  0.1696E-03  0.1631E-03  0.1560E-03  0.1484E-03  0.1402E-03  0.1315E-03  0.1224E-03  0.1131E-03  0.1037E-03  0.9432E-04  0.8508E-04  0.7612E-04  0.6757E-04  0.5950E-04  0.5203E-04  0.4519E-04  0.3905E-04  0.3358E-04
  0.2180E-03  0.2463E-03  0.2772E-03  0.3103E-03  0.3451E-03  0.3814E-03  0.4189E-03  0.4559E-03  0.4929E-03  0.5282E-03  0.5609E-03  0.5895E-03  0.6138E-03  0.6322E-03  0.6441E-03  0.6487E-03  0.6484E-03  0.6607E-03  0.7029E-03  0.7987E-03  0.9355E-03  0.1042E-02  0.1041E-02  0.9410E-03  0.8291E-03  0.7923E-03  0.8360E-03  0.8708E-03  0.8314E-03  0.7484E-03  0.7147E-03  0.7359E-03  0.7500E-03  0.7154E-03  0.6458E-03  0.5327E-03  0.4070E-03  0.3149E-03  0.2713E-03  0.2563E-03  0.2564E-03  0.2568E-03  0.2559E-03  0.2536E-03  0.2496E-03  0.2442E-03  0.2381E-03  0.2316E-03  0.2254E-03  0.2198E-03  0.2148E-03  0.2105E-03  0.2066E-03  0.2031E-03  0.1996E-03  0.1960E-03  0.1926E-03  0.1888E-03  0.1847E-03  0.1802E-03  0.1751E-03  0.1695E-03  0.1633E-03  0.1567E-03  0.1494E-03  0.1416E-03  0.1333E-03  0.1246E-03  0.1156E-03  0.1064E-03  0.9727E-04  0.8817E-04  0.7937E-04  0.7084E-04  0.6274E-04  0.5519E-04  0.4822E-04  0.4191E-04  0.3621E-04
  0.2133E-03  0.2399E-03  0.2689E-03  0.2999E-03  0.3323E-03  0.3666E-03  0.4014E-03  0.4373E-03  0.4717E-03  0.5059E-03  0.5377E-03  0.5663E-03  0.5908E-03  0.6103E-03  0.6243E-03  0.6331E-03  0.6520E-03  0.6962E-03  0.7832E-03  0.9105E-03  0.1027E-02  0.1058E-02  0.9788E-03  0.8619E-03  0.7861E-03  0.7964E-03  0.8488E-03  0.8622E-03  0.8009E-03  0.7266E-03  0.7095E-03  0.7340E-03  0.7414E-03  0.7077E-03  0.6433E-03  0.5390E-03  0.4180E-03  0.3257E-03  0.2774E-03  0.2596E-03  0.2568E-03  0.2562E-03  0.2546E-03  0.2517E-03  0.2475E-03  0.2423E-03  0.2362E-03  0.2300E-03  0.2238E-03  0.2182E-03  0.2131E-03  0.2086E-03  0.2045E-03  0.2007E-03  0.1970E-03  0.1933E-03  0.1897E-03  0.1860E-03  0.1819E-03  0.1774E-03  0.1726E-03  0.1671E-03  0.1612E-03  0.1549E-03  0.1480E-03  0.1407E-03  0.1328E-03  0.1245E-03  0.1160E-03  0.1072E-03  0.9847E-04  0.8969E-04  0.8108E-04  0.7282E-04  0.6486E-04  0.5740E-04  0.5045E-04  0.4407E-04  0.3831E-04
  0.2076E-03  0.2327E-03  0.2598E-03  0.2887E-03  0.3190E-03  0.3506E-03  0.3834E-03  0.4166E-03  0.4499E-03  0.4810E-03  0.5118E-03  0.5392E-03  0.5632E-03  0.5834E-03  0.5990E-03  0.6244E-03  0.6718E-03  0.7540E-03  0.8745E-03  0.9962E-03  0.1051E-02  0.1007E-02  0.8934E-03  0.7940E-03  0.7647E-03  0.8100E-03  0.8545E-03  0.8441E-03  0.7720E-03  0.7133E-03  0.7111E-03  0.7319E-03  0.7311E-03  0.6976E-03  0.6421E-03  0.5466E-03  0.4302E-03  0.3357E-03  0.2833E-03  0.2612E-03  0.2554E-03  0.2538E-03  0.2516E-03  0.2482E-03  0.2437E-03  0.2385E-03  0.2327E-03  0.2265E-03  0.2206E-03  0.2151E-03  0.2100E-03  0.2053E-03  0.2012E-03  0.1971E-03  0.1931E-03  0.1893E-03  0.1855E-03  0.1817E-03  0.1776E-03  0.1731E-03  0.1683E-03  0.1630E-03  0.1573E-03  0.1513E-03  0.1448E-03  0.1380E-03  0.1305E-03  0.1227E-03  0.1146E-03  0.1065E-03  0.9810E-04  0.8980E-04  0.8158E-04  0.7364E-04  0.6597E-04  0.5868E-04  0.5189E-04  0.4558E-04  0.3986E-04
  0.2012E-03  0.2245E-03  0.2498E-03  0.2764E-03  0.3045E-03  0.3338E-03  0.3640E-03  0.3947E-03  0.4256E-03  0.4555E-03  0.4833E-03  0.5095E-03  0.5325E-03  0.5532E-03  0.5839E-03  0.6312E-03  0.7102E-03  0.8250E-03  0.9470E-03  0.1021E-02  0.1008E-02  0.9152E-03  0.8096E-03  0.7514E-03  0.7648E-03  0.8180E-03  0.8461E-03  0.8147E-03  0.7483E-03  0.7088E-03  0.7178E-03  0.7301E-03  0.7157E-03  0.6734E-03  0.6182E-03  0.5397E-03  0.4393E-03  0.3475E-03  0.2900E-03  0.2629E-03  0.2523E-03  0.2501E-03  0.2471E-03  0.2432E-03  0.2386E-03  0.2334E-03  0.2277E-03  0.2219E-03  0.2161E-03  0.2107E-03  0.2056E-03  0.2010E-03  0.1966E-03  0.1925E-03  0.1883E-03  0.1843E-03  0.1803E-03  0.1764E-03  0.1723E-03  0.1678E-03  0.1630E-03  0.1579E-03  0.1522E-03  0.1465E-03  0.1404E-03  0.1338E-03  0.1270E-03  0.1196E-03  0.1121E-03  0.1043E-03  0.9659E-04  0.8873E-04  0.8100E-04  0.7340E-04  0.6616E-04  0.5916E-04  0.5261E-04  0.4648E-04  0.4085E-04
  0.1937E-03  0.2154E-03  0.2386E-03  0.2635E-03  0.2892E-03  0.3162E-03  0.3437E-03  0.3718E-03  0.3997E-03  0.4277E-03  0.4537E-03  0.4775E-03  0.5027E-03  0.5336E-03  0.5822E-03  0.6568E-03  0.7614E-03  0.8802E-03  0.9694E-03  0.9832E-03  0.9195E-03  0.8202E-03  0.7459E-03  0.7299E-03  0.7667E-03  0.8117E-03  0.8198E-03  0.7795E-03  0.7272E-03  0.7070E-03  0.7196E-03  0.7237E-03  0.6960E-03  0.6519E-03  0.5970E-03  0.5275E-03  0.4424E-03  0.3599E-03  0.3016E-03  0.2671E-03  0.2505E-03  0.2451E-03  0.2412E-03  0.2370E-03  0.2323E-03  0.2272E-03  0.2217E-03  0.2161E-03  0.2106E-03  0.2052E-03  0.2003E-03  0.1956E-03  0.1911E-03  0.1870E-03  0.1828E-03  0.1786E-03  0.1745E-03  0.1705E-03  0.1662E-03  0.1617E-03  0.1569E-03  0.1519E-03  0.1464E-03  0.1407E-03  0.1349E-03  0.1287E-03  0.1223E-03  0.1156E-03  0.1085E-03  0.1014E-03  0.9405E-04  0.8680E-04  0.7952E-04  0.7243E-04  0.6550E-04  0.5895E-04  0.5267E-04  0.4683E-04  0.4138E-04
  0.1853E-03  0.2055E-03  0.2270E-03  0.2497E-03  0.2735E-03  0.2978E-03  0.3231E-03  0.3483E-03  0.3741E-03  0.3988E-03  0.4235E-03  0.4487E-03  0.4824E-03  0.5277E-03  0.5961E-03  0.6927E-03  0.8041E-03  0.8979E-03  0.9351E-03  0.8986E-03  0.8189E-03  0.7410E-03  0.7036E-03  0.7176E-03  0.7618E-03  0.7888E-03  0.7834E-03  0.7431E-03  0.7080E-03  0.7016E-03  0.7095E-03  0.7069E-03  0.6782E-03  0.6331E-03  0.5800E-03  0.5163E-03  0.4429E-03  0.3688E-03  0.3100E-03  0.2721E-03  0.2509E-03  0.2385E-03  0.2344E-03  0.2299E-03  0.2253E-03  0.2201E-03  0.2147E-03  0.2094E-03  0.2041E-03  0.1990E-03  0.1940E-03  0.1895E-03  0.1851E-03  0.1808E-03  0.1767E-03  0.1724E-03  0.1683E-03  0.1640E-03  0.1598E-03  0.1553E-03  0.1505E-03  0.1455E-03  0.1402E-03  0.1346E-03  0.1290E-03  0.1232E-03  0.1171E-03  0.1108E-03  0.1043E-03  0.9767E-04  0.9094E-04  0.8413E-04  0.7745E-04  0.7078E-04  0.6434E-04  0.5810E-04  0.5224E-04  0.4664E-04  0.4148E-04
  0.1765E-03  0.1952E-03  0.2149E-03  0.2357E-03  0.2573E-03  0.2795E-03  0.3020E-03  0.3252E-03  0.3478E-03  0.3720E-03  0.3975E-03  0.4297E-03  0.4745E-03  0.5365E-03  0.6226E-03  0.7241E-03  0.8182E-03  0.8662E-03  0.8570E-03  0.7996E-03  0.7299E-03  0.6830E-03  0.6759E-03  0.7040E-03  0.7396E-03  0.7577E-03  0.7425E-03  0.7118E-03  0.6913E-03  0.6900E-03  0.6959E-03  0.6867E-03  0.6558E-03  0.6130E-03  0.5629E-03  0.5055E-03  0.4402E-03  0.3733E-03  0.3162E-03  0.2751E-03  0.2492E-03  0.2354E-03  0.2267E-03  0.2224E-03  0.2175E-03  0.2124E-03  0.2073E-03  0.2021E-03  0.1969E-03  0.1921E-03  0.1872E-03  0.1829E-03  0.1787E-03  0.1744E-03  0.1701E-03  0.1659E-03  0.1616E-03  0.1573E-03  0.1531E-03  0.1486E-03  0.1439E-03  0.1389E-03  0.1338E-03  0.1284E-03  0.1229E-03  0.1174E-03  0.1116E-03  0.1057E-03  0.9971E-04  0.9354E-04  0.8731E-04  0.8108E-04  0.7479E-04  0.6871E-04  0.6267E-04  0.5688E-04  0.5130E-04  0.4611E-04  0.4116E-04
  0.1673E-03  0.1843E-03  0.2023E-03  0.2212E-03  0.2408E-03  0.2610E-03  0.2815E-03  0.3021E-03  0.3254E-03  0.3503E-03  0.3804E-03  0.4196E-03  0.4757E-03  0.5515E-03  0.6435E-03  0.7319E-03  0.7911E-03  0.7978E-03  0.7633E-03  0.7075E-03  0.6593E-03  0.6399E-03  0.6516E-03  0.6856E-03  0.7150E-03  0.7303E-03  0.7198E-03  0.6962E-03  0.6843E-03  0.6791E-03  0.6777E-03  0.6626E-03  0.6324E-03  0.5898E-03  0.5435E-03  0.4912E-03  0.4342E-03  0.3744E-03  0.3186E-03  0.2763E-03  0.2480E-03  0.2307E-03  0.2197E-03  0.2141E-03  0.2092E-03  0.2042E-03  0.1992E-03  0.1942E-03  0.1894E-03  0.1846E-03  0.1800E-03  0.1758E-03  0.1716E-03  0.1675E-03  0.1634E-03  0.1591E-03  0.1548E-03  0.1506E-03  0.1463E-03  0.1419E-03  0.1372E-03  0.1323E-03  0.1273E-03  0.1221E-03  0.1167E-03  0.1115E-03  0.1061E-03  0.1005E-03  0.9486E-04  0.8918E-04  0.8341E-04  0.7766E-04  0.7191E-04  0.6619E-04  0.6069E-04  0.5528E-04  0.5011E-04  0.4516E-04  0.4059E-04
  0.1579E-03  0.1733E-03  0.1896E-03  0.2068E-03  0.2246E-03  0.2428E-03  0.2622E-03  0.2837E-03  0.3082E-03  0.3368E-03  0.3728E-03  0.4213E-03  0.4859E-03  0.5669E-03  0.6503E-03  0.7083E-03  0.7325E-03  0.7169E-03  0.6737E-03  0.6298E-03  0.6059E-03  0.6049E-03  0.6313E-03  0.6704E-03  0.7052E-03  0.7324E-03  0.7337E-03  0.7218E-03  0.7038E-03  0.6837E-03  0.6656E-03  0.6371E-03  0.6026E-03  0.5637E-03  0.5189E-03  0.4749E-03  0.4230E-03  0.3696E-03  0.3177E-03  0.2758E-03  0.2460E-03  0.2266E-03  0.2145E-03  0.2055E-03  0.2005E-03  0.1957E-03  0.1908E-03  0.1860E-03  0.1814E-03  0.1769E-03  0.1726E-03  0.1684E-03  0.1643E-03  0.1603E-03  0.1563E-03  0.1521E-03  0.1479E-03  0.1437E-03  0.1395E-03  0.1351E-03  0.1306E-03  0.1258E-03  0.1209E-03  0.1160E-03  0.1108E-03  0.1056E-03  0.1005E-03  0.9525E-04  0.8996E-04  0.8472E-04  0.7939E-04  0.7401E-04  0.6878E-04  0.6349E-04  0.5837E-04  0.5345E-04  0.4861E-04  0.4404E-04  0.3967E-04
  0.1481E-03  0.1622E-03  0.1772E-03  0.1926E-03  0.2091E-03  0.2269E-03  0.2462E-03  0.2697E-03  0.2958E-03  0.3274E-03  0.3682E-03  0.4201E-03  0.4859E-03  0.5560E-03  0.6218E-03  0.6593E-03  0.6588E-03  0.6356E-03  0.5999E-03  0.5718E-03  0.5638E-03  0.5754E-03  0.6070E-03  0.6452E-03  0.6901E-03  0.7253E-03  0.7401E-03  0.7378E-03  0.7179E-03  0.6907E-03  0.6529E-03  0.6130E-03  0.5728E-03  0.5298E-03  0.4874E-03  0.4481E-03  0.4035E-03  0.3557E-03  0.3109E-03  0.2716E-03  0.2431E-03  0.2226E-03  0.2081E-03  0.1988E-03  0.1916E-03  0.1868E-03  0.1821E-03  0.1776E-03  0.1732E-03  0.1689E-03  0.1648E-03  0.1607E-03  0.1569E-03  0.1530E-03  0.1490E-03  0.1451E-03  0.1411E-03  0.1368E-03  0.1327E-03  0.1284E-03  0.1241E-03  0.1195E-03  0.1148E-03  0.1100E-03  0.1050E-03  0.9996E-04  0.9511E-04  0.9016E-04  0.8520E-04  0.8023E-04  0.7530E-04  0.7037E-04  0.6550E-04  0.6072E-04  0.5594E-04  0.5134E-04  0.4690E-04  0.4266E-04  0.3864E-04
  0.1387E-03  0.1516E-03  0.1648E-03  0.1789E-03  0.1949E-03  0.2121E-03  0.2312E-03  0.2541E-03  0.2815E-03  0.3128E-03  0.3509E-03  0.3948E-03  0.4497E-03  0.5078E-03  0.5545E-03  0.5837E-03  0.5809E-03  0.5632E-03  0.5383E-03  0.5217E-03  0.5197E-03  0.5329E-03  0.5551E-03  0.5886E-03  0.6234E-03  0.6548E-03  0.6733E-03  0.6749E-03  0.6641E-03  0.6396E-03  0.6058E-03  0.5696E-03  0.5311E-03  0.4924E-03  0.4538E-03  0.4156E-03  0.3766E-03  0.3365E-03  0.2978E-03  0.2641E-03  0.2371E-03  0.2171E-03  0.2019E-03  0.1913E-03  0.1835E-03  0.1780E-03  0.1734E-03  0.1691E-03  0.1649E-03  0.1610E-03  0.1570E-03  0.1532E-03  0.1496E-03  0.1459E-03  0.1420E-03  0.1381E-03  0.1341E-03  0.1301E-03  0.1260E-03  0.1219E-03  0.1176E-03  0.1133E-03  0.1087E-03  0.1041E-03  0.9945E-04  0.9468E-04  0.8990E-04  0.8523E-04  0.8060E-04  0.7595E-04  0.7134E-04  0.6677E-04  0.6225E-04  0.5781E-04  0.5344E-04  0.4919E-04  0.4508E-04  0.4115E-04  0.3741E-04
