DSAA
          79         109
    318.3670    342.0670
   7336.5760   7369.2760
  0.0000E+00  0.1236E-02
  0.0000E+00  0.0000E+00  0.0000E+00  0.0000E+00  0.0000E+00  0.0000E+00  0.0000E+00  0.0000E+00  0.0000E+00  0.0000E+00  0.0000E+00  0.0000E+00  0.0000E+00  0.0000E+00  0.0000E+00  0.0000E+00  0.0000E+00  0.0000E+00  0.0000E+00  0.0000E+00  0.0000E+00  0.0000E+00  0.0000E+00  0.0000E+00  0.0000E+00  0.0000E+00  0.0000E+00  0.0000E+00  0.0000E+00  0.0000E+00  0.0000E+00  0.0000E+00  0.0000E+00  0.0000E+00  0.0000E+00  0.0000E+00  0.0000E+00  0.0000E+00  0.0000E+00  0.0000E+00  0.0000E+00  0.0000E+00  0.0000E+00  0.0000E+00  0.0000E+00  0.0000E+00  0.0000E+00  0.0000E+00  0.0000E+00  0.0000E+00  0.0000E+00  0.0000E+00  0.0000E+00  0.0000E+00  0.0000E+00  0.0000E+00  0.0000E+00  0.0000E+00  0.0000E+00  0.0000E+00  0.0000E+00  0.0000E+00  0.0000E+00  0.0000E+00  0.0000E+00  0.0000E+00  0.0000E+00  0.0000E+00  0.0000E+00  0.0000E+00  0.0000E+00  0.0000E+00  0.0000E+00  0.0000E+00  0.0000E+00  0.0000E+00  0.0000E+00  0.0000E+00  0.0000E+00
  0.0000E+00  0.0000E+00  0.0000E+00  0.0000E+00  0.0000E+00  0.0000E+00  0.0000E+00  0.0000E+00  0.0000E+00  0.0000E+00  0.0000E+00  0.0000E+00  0.0000E+00  0.0000E+00  0.0000E+00  0.0000E+00  0.0000E+00  0.0000E+00  0.0000E+00  0.0000E+00  0.0000E+00  0.0000E+00  0.0000E+00  0.0000E+00  0.0000E+00  0.0000E+00  0.0000E+00  0.0000E+00  0.0000E+00  0.0000E+00  0.0000E+00  0.0000E+00  0.0000E+00  0.0000E+00  0.0000E+00  0.0000E+00  0.0000E+00  0.0000E+00  0.0000E+00  0.0000E+00  0.0000E+00  0.0000E+00  0.0000E+00  0.0000E+00  0.0000E+00  0.0000E+00  0.0000E+00  0.0000E+00  0.0000E+00  0.0000E+00  0.0000E+00  0.0000E+00  0.0000E+00  0.0000E+00  0.0000E+00  0.0000E+00  0.0000E+00  0.0000E+00  0.0000E+00  0.0000E+00  0.0000E+00  0.0000E+00  0.0000E+00  0.0000E+00  0.0000E+00  0.0000E+00  0.0000E+00  0.0000E+00  0.0000E+00  0.0000E+00  0.0000E+00  0.0000E+00  0.0000E+00  0.0000E+00  0.0000E+00  0.0000E+00  0.0000E+00  0.0000E+00  0.0000E+00
  0.0000E+00  0.0000E+00  0.0000E+00  0.0000E+00  0.0000E+00  0.0000E+00  0.0000E+00  0.0000E+00  0.0000E+00  0.0000E+00  0.0000E+00  0.0000E+00  0.0000E+00  0.0000E+00  0.0000E+00  0.0000E+00  0.0000E+00  0.0000E+00  0.0000E+00  0.0000E+00  0.0000E+00  0.0000E+00  0.0000E+00  0.0000E+00  0.0000E+00  0.0000E+00  0.0000E+00  0.0000E+00  0.0000E+00  0.0000E+00  0.0000E+00  0.0000E+00  0.0000E+00  0.0000E+00  0.0000E+00  0.0000E+00  0.0000E+00  0.0000E+00  0.0000E+00  0.0000E+00  0.0000E+00  0.0000E+00  0.0000E+00  0.0000E+00  0.0000E+00  0.0000E+00  0.0000E+00  0.0000E+00  0.0000E+00  0.0000E+00  0.0000E+00  0.0000E+00  0.0000E+00  0.0000E+00  0.0000E+00  0.0000E+00  0.0000E+00  0.0000E+00  0.0000E+00  0.0000E+00  0.0000E+00  0.0000E+00  0.0000E+00  0.0000E+00  0.0000E+00  0.0000E+00  0.0000E+00  0.0000E+00  0.0000E+00  0.0000E+00  0.0000E+00  0.0000E+00  0.0000E+00  0.0000E+00  0.0000E+00  0.0000E+00  0.0000E+00  0.0000E+00  0.0000E+00
  0.0000E+00  0.0000E+00  0.0000E+00  0.0000E+00  0.0000E+00  0.0000E+00  0.0000E+00  0.0000E+00  0.0000E+00  0.0000E+00  0.0000E+00  0.0000E+00  0.0000E+00  0.0000E+00  0.0000E+00  0.0000E+00  0.0000E+00  0.0000E+00  0.0000E+00  0.0000E+00  0.0000E+00  0.0000E+00  0.0000E+00  0.0000E+00  0.0000E+00  0.0000E+00  0.0000E+00  0.0000E+00  0.0000E+00  0.0000E+00  0.0000E+00  0.0000E+00  0.0000E+00  0.0000E+00  0.0000E+00  0.0000E+00  0.0000E+00  0.0000E+00  0.0000E+00  0.0000E+00  0.0000E+00  0.0000E+00  0.0000E+00  0.0000E+00  0.0000E+00  0.0000E+00  0.0000E+00  0.0000E+00  0.0000E+00  0.0000E+00  0.0000E+00  0.0000E+00  0.0000E+00  0.0000E+00  0.0000E+00  0.0000E+00  0.0000E+00  0.0000E+00  0.0000E+00  0.0000E+00  0.0000E+00  0.0000E+00  0.0000E+00  0.0000E+00  0.0000E+00  0.0000E+00  0.0000E+00  0.0000E+00  0.0000E+00  0.0000E+00  0.0000E+00  0.0000E+00  0.0000E+00  0.0000E+00  0.0000E+00  0.0000E+00  0.0000E+00  0.0000E+00  0.0000E+00
  0.0000E+00  0.0000E+00  0.0000E+00  0.0000E+00  0.0000E+00  0.0000E+00  0.0000E+00  0.0000E+00  0.0000E+00  0.0000E+00  0.0000E+00  0.0000E+00  0.0000E+00  0.0000E+00  0.0000E+00  0.0000E+00  0.0000E+00  0.0000E+00  0.0000E+00  0.0000E+00  0.0000E+00  0.0000E+00  0.0000E+00  0.0000E+00  0.0000E+00  0.0000E+00  0.0000E+00  0.0000E+00  0.0000E+00  0.0000E+00  0.0000E+00  0.0000E+00  0.0000E+00  0.0000E+00  0.0000E+00  0.0000E+00  0.0000E+00  0.0000E+00  0.0000E+00  0.0000E+00  0.0000E+00  0.0000E+00  0.0000E+00  0.0000E+00  0.0000E+00  0.0000E+00  0.0000E+00  0.0000E+00  0.0000E+00  0.0000E+00  0.0000E+00  0.0000E+00  0.0000E+00  0.0000E+00  0.0000E+00  0.0000E+00  0.0000E+00  0.0000E+00  0.0000E+00  0.0000E+00  0.0000E+00  0.0000E+00  0.0000E+00  0.0000E+00  0.0000E+00  0.0000E+00  0.0000E+00  0.0000E+00  0.0000E+00  0.0000E+00  0.0000E+00  0.0000E+00  0.0000E+00  0.0000E+00  0.0000E+00  0.0000E+00  0.0000E+00  0.0000E+00  0.0000E+00
  0.0000E+00  0.0000E+00  0.0000E+00  0.0000E+00  0.0000E+00  0.0000E+00  0.0000E+00  0.0000E+00  0.0000E+00  0.0000E+00  0.0000E+00  0.0000E+00  0.0000E+00  0.0000E+00  0.0000E+00  0.0000E+00  0.0000E+00  0.0000E+00  0.0000E+00  0.0000E+00  0.0000E+00  0.0000E+00  0.0000E+00  0.0000E+00  0.0000E+00  0.0000E+00  0.0000E+00  0.0000E+00  0.0000E+00  0.0000E+00  0.0000E+00  0.0000E+00  0.0000E+00  0.0000E+00  0.0000E+00  0.0000E+00  0.0000E+00  0.0000E+00  0.0000E+00  0.0000E+00  0.0000E+00  0.0000E+00  0.0000E+00  0.0000E+00  0.0000E+00  0.0000E+00  0.0000E+00  0.0000E+00  0.0000E+00  0.0000E+00  0.0000E+00  0.0000E+00  0.0000E+00  0.0000E+00  0.0000E+00  0.0000E+00  0.0000E+00  0.0000E+00  0.0000E+00  0.0000E+00  0.0000E+00  0.0000E+00  0.0000E+00  0.0000E+00  0.0000E+00  0.0000E+00  0.0000E+00  0.0000E+00  0.0000E+00  0.0000E+00  0.0000E+00  0.0000E+00  0.0000E+00  0.0000E+00  0.0000E+00  0.0000E+00  0.0000E+00  0.0000E+00  0.0000E+00
  0.0000E+00  0.0000E+00  0.0000E+00  0.0000E+00  0.0000E+00  0.0000E+00  0.0000E+00  0.0000E+00  0.0000E+00  0.0000E+00  0.0000E+00  0.0000E+00  0.0000E+00  0.0000E+00  0.0000E+00  0.0000E+00  0.0000E+00  0.0000E+00  0.0000E+00  0.0000E+00  0.0000E+00  0.0000E+00  0.0000E+00  0.0000E+00  0.0000E+00  0.0000E+00  0.0000E+00  0.0000E+00  0.0000E+00  0.0000E+00  0.0000E+00  0.0000E+00  0.0000E+00  0.0000E+00  0.0000E+00  0.0000E+00  0.0000E+00  0.0000E+00  0.0000E+00  0.0000E+00  0.0000E+00  0.0000E+00  0.0000E+00  0.0000E+00  0.0000E+00  0.0000E+00  0.0000E+00  0.0000E+00  0.0000E+00  0.0000E+00  0.0000E+00  0.0000E+00  0.0000E+00  0.0000E+00  0.0000E+00  0.0000E+00  0.0000E+00  0.0000E+00  0.0000E+00  0.0000E+00  0.0000E+00  0.0000E+00  0.0000E+00  0.0000E+00  0.0000E+00  0.0000E+00  0.0000E+00  0.0000E+00  0.0000E+00  0.0000E+00  0.0000E+00  0.0000E+00  0.0000E+00  0.0000E+00  0.0000E+00  0.0000E+00  0.0000E+00  0.0000E+00  0.0000E+00
  0.0000E+00  0.0000E+00  0.0000E+00  0.0000E+00  0.0000E+00  0.0000E+00  0.0000E+00  0.0000E+00  0.0000E+00  0.0000E+00  0.0000E+00  0.0000E+00  0.0000E+00  0.0000E+00  0.0000E+00  0.0000E+00  0.0000E+00  0.0000E+00  0.0000E+00  0.0000E+00  0.0000E+00  0.0000E+00  0.0000E+00  0.0000E+00  0.0000E+00  0.0000E+00  0.0000E+00  0.0000E+00  0.0000E+00  0.0000E+00  0.0000E+00  0.0000E+00  0.0000E+00  0.0000E+00  0.0000E+00  0.0000E+00  0.0000E+00  0.0000E+00  0.0000E+00  0.0000E+00  0.0000E+00  0.0000E+00  0.0000E+00  0.0000E+00  0.0000E+00  0.0000E+00  0.0000E+00  0.0000E+00  0.0000E+00  0.0000E+00  0.0000E+00  0.0000E+00  0.0000E+00  0.0000E+00  0.0000E+00  0.0000E+00  0.0000E+00  0.0000E+00  0.0000E+00  0.0000E+00  0.0000E+00  0.0000E+00  0.0000E+00  0.0000E+00  0.0000E+00  0.0000E+00  0.0000E+00  0.0000E+00  0.0000E+00  0.0000E+00  0.0000E+00  0.0000E+00  0.0000E+00  0.0000E+00  0.0000E+00  0.0000E+00  0.0000E+00  0.0000E+00  0.0000E+00
  0.0000E+00  0.0000E+00  0.0000E+00  0.0000E+00  0.0000E+00  0.0000E+00  0.0000E+00  0.0000E+00  0.0000E+00  0.0000E+00  0.0000E+00  0.0000E+00  0.0000E+00  0.0000E+00  0.0000E+00  0.0000E+00  0.0000E+00  0.0000E+00  0.0000E+00  0.0000E+00  0.0000E+00  0.0000E+00  0.0000E+00  0.0000E+00  0.0000E+00  0.0000E+00  0.0000E+00  0.0000E+00  0.0000E+00  0.0000E+00  0.0000E+00  0.0000E+00  0.0000E+00  0.0000E+00  0.0000E+00  0.0000E+00  0.0000E+00  0.0000E+00  0.0000E+00  0.0000E+00  0.0000E+00  0.0000E+00  0.0000E+00  0.0000E+00  0.0000E+00  0.0000E+00  0.0000E+00  0.0000E+00  0.0000E+00  0.0000E+00  0.0000E+00  0.0000E+00  0.0000E+00  0.0000E+00  0.0000E+00  0.0000E+00  0.0000E+00  0.0000E+00  0.0000E+00  0.0000E+00  0.0000E+00  0.0000E+00  0.0000E+00  0.0000E+00  0.0000E+00  0.0000E+00  0.0000E+00  0.0000E+00  0.0000E+00  0.0000E+00  0.0000E+00  0.0000E+00  0.0000E+00  0.0000E+00  0.0000E+00  0.0000E+00  0.0000E+00  0.0000E+00  0.0000E+00
  0.0000E+00  0.0000E+00  0.0000E+00  0.0000E+00  0.0000E+00  0.0000E+00  0.0000E+00  0.0000E+00  0.0000E+00  0.0000E+00  0.0000E+00  0.0000E+00  0.0000E+00  0.0000E+00  0.0000E+00  0.0000E+00  0.0000E+00  0.0000E+00  0.0000E+00  0.0000E+00  0.0000E+00  0.0000E+00  0.0000E+00  0.0000E+00  0.0000E+00  0.0000E+00  0.0000E+00  0.0000E+00  0.0000E+00  0.0000E+00  0.0000E+00  0.0000E+00  0.0000E+00  0.0000E+00  0.0000E+00  0.0000E+00  0.0000E+00  0.0000E+00  0.0000E+00  0.0000E+00  0.0000E+00  0.0000E+00  0.0000E+00  0.0000E+00  0.0000E+00  0.0000E+00  0.0000E+00  0.0000E+00  0.0000E+00  0.0000E+00  0.0000E+00  0.0000E+00  0.0000E+00  0.0000E+00  0.0000E+00  0.0000E+00  0.0000E+00  0.0000E+00  0.0000E+00  0.0000E+00  0.0000E+00  0.0000E+00  0.0000E+00  0.0000E+00  0.0000E+00  0.0000E+00  0.0000E+00  0.0000E+00  0.0000E+00  0.0000E+00  0.0000E+00  0.0000E+00  0.0000E+00  0.0000E+00  0.0000E+00  0.0000E+00  0.0000E+00  0.0000E+00  0.0000E+00
  0.0000E+00  0.0000E+00  0.0000E+00  0.0000E+00  0.0000E+00  0.0000E+00  0.0000E+00  0.0000E+00  0.0000E+00  0.0000E+00  0.0000E+00  0.0000E+00  0.0000E+00  0.0000E+00  0.0000E+00  0.0000E+00  0.0000E+00  0.0000E+00  0.0000E+00  0.0000E+00  0.0000E+00  0.0000E+00  0.0000E+00  0.0000E+00  0.0000E+00  0.0000E+00  0.0000E+00  0.0000E+00  0.0000E+00  0.0000E+00  0.0000E+00  0.0000E+00  0.0000E+00  0.0000E+00  0.0000E+00  0.0000E+00  0.0000E+00  0.0000E+00  0.0000E+00  0.0000E+00  0.0000E+00  0.0000E+00  0.0000E+00  0.0000E+00  0.0000E+00  0.0000E+00  0.0000E+00  0.0000E+00  0.0000E+00  0.0000E+00  0.0000E+00  0.0000E+00  0.0000E+00  0.0000E+00  0.0000E+00  0.0000E+00  0.0000E+00  0.0000E+00  0.0000E+00  0.0000E+00  0.0000E+00  0.0000E+00  0.0000E+00  0.0000E+00  0.0000E+00  0.0000E+00  0.0000E+00  0.0000E+00  0.0000E+00  0.0000E+00  0.0000E+00  0.0000E+00  0.0000E+00  0.0000E+00  0.0000E+00  0.0000E+00  0.0000E+00  0.0000E+00  0.0000E+00
  0.0000E+00  0.0000E+00  0.0000E+00  0.0000E+00  0.0000E+00  0.0000E+00  0.0000E+00  0.0000E+00  0.0000E+00  0.0000E+00  0.0000E+00  0.0000E+00  0.0000E+00  0.0000E+00  0.0000E+00  0.0000E+00  0.0000E+00  0.0000E+00  0.0000E+00  0.0000E+00  0.0000E+00  0.0000E+00  0.0000E+00  0.0000E+00  0.0000E+00  0.0000E+00  0.0000E+00  0.0000E+00  0.0000E+00  0.0000E+00  0.0000E+00  0.0000E+00  0.0000E+00  0.0000E+00  0.0000E+00  0.0000E+00  0.0000E+00  0.0000E+00  0.0000E+00  0.0000E+00  0.0000E+00  0.0000E+00  0.0000E+00  0.0000E+00  0.0000E+00  0.0000E+00  0.0000E+00  0.0000E+00  0.0000E+00  0.0000E+00  0.0000E+00  0.0000E+00  0.0000E+00  0.0000E+00  0.0000E+00  0.0000E+00  0.0000E+00  0.0000E+00  0.0000E+00  0.0000E+00  0.0000E+00  0.0000E+00  0.0000E+00  0.0000E+00  0.0000E+00  0.0000E+00  0.0000E+00  0.0000E+00  0.0000E+00  0.0000E+00  0.0000E+00  0.0000E+00  0.0000E+00  0.0000E+00  0.0000E+00  0.0000E+00  0.0000E+00  0.0000E+00  0.0000E+00
  0.0000E+00  0.0000E+00  0.0000E+00  0.0000E+00  0.0000E+00  0.0000E+00  0.0000E+00  0.0000E+00  0.0000E+00  0.0000E+00  0.0000E+00  0.0000E+00  0.0000E+00  0.0000E+00  0.0000E+00  0.0000E+00  0.0000E+00  0.0000E+00  0.0000E+00  0.0000E+00  0.0000E+00  0.0000E+00  0.0000E+00  0.0000E+00  0.0000E+00  0.0000E+00  0.0000E+00  0.0000E+00  0.0000E+00  0.0000E+00  0.0000E+00  0.0000E+00  0.0000E+00  0.0000E+00  0.0000E+00  0.0000E+00  0.0000E+00  0.0000E+00  0.0000E+00  0.0000E+00  0.0000E+00  0.0000E+00  0.0000E+00  0.0000E+00  0.0000E+00  0.0000E+00  0.0000E+00  0.0000E+00  0.0000E+00  0.0000E+00  0.0000E+00  0.0000E+00  0.0000E+00  0.0000E+00  0.0000E+00  0.0000E+00  0.0000E+00  0.0000E+00  0.0000E+00  0.0000E+00  0.0000E+00  0.0000E+00  0.0000E+00  0.0000E+00  0.0000E+00  0.0000E+00  0.0000E+00  0.0000E+00  0.0000E+00  0.0000E+00  0.0000E+00  0.0000E+00  0.0000E+00  0.0000E+00  0.0000E+00  0.0000E+00  0.0000E+00  0.0000E+00  0.0000E+00
  0.0000E+00  0.0000E+00  0.0000E+00  0.0000E+00  0.0000E+00  0.0000E+00  0.0000E+00  0.0000E+00  0.0000E+00  0.0000E+00  0.0000E+00  0.0000E+00  0.0000E+00  0.0000E+00  0.0000E+00  0.0000E+00  0.0000E+00  0.0000E+00  0.0000E+00  0.0000E+00  0.0000E+00  0.0000E+00  0.0000E+00  0.0000E+00  0.0000E+00  0.0000E+00  0.0000E+00  0.0000E+00  0.0000E+00  0.0000E+00  0.0000E+00  0.0000E+00  0.0000E+00  0.0000E+00  0.0000E+00  0.0000E+00  0.0000E+00  0.0000E+00  0.0000E+00  0.0000E+00  0.0000E+00  0.0000E+00  0.0000E+00  0.0000E+00  0.0000E+00  0.0000E+00  0.0000E+00  0.0000E+00  0.0000E+00  0.0000E+00  0.0000E+00  0.0000E+00  0.0000E+00  0.0000E+00  0.0000E+00  0.0000E+00  0.0000E+00  0.0000E+00  0.0000E+00  0.0000E+00  0.0000E+00  0.0000E+00  0.0000E+00  0.0000E+00  0.0000E+00  0.0000E+00  0.0000E+00  0.0000E+00  0.0000E+00  0.0000E+00  0.0000E+00  0.0000E+00  0.0000E+00  0.0000E+00  0.0000E+00  0.0000E+00  0.0000E+00  0.0000E+00  0.0000E+00
  0.0000E+00  0.0000E+00  0.0000E+00  0.0000E+00  0.0000E+00  0.0000E+00  0.0000E+00  0.0000E+00  0.0000E+00  0.0000E+00  0.0000E+00  0.0000E+00  0.0000E+00  0.0000E+00  0.0000E+00  0.0000E+00  0.0000E+00  0.0000E+00  0.0000E+00  0.0000E+00  0.0000E+00  0.0000E+00  0.0000E+00  0.0000E+00  0.0000E+00  0.0000E+00  0.0000E+00  0.0000E+00  0.0000E+00  0.0000E+00  0.0000E+00  0.0000E+00  0.0000E+00  0.0000E+00  0.0000E+00  0.0000E+00  0.0000E+00  0.0000E+00  0.0000E+00  0.0000E+00  0.0000E+00  0.0000E+00  0.0000E+00  0.0000E+00  0.0000E+00  0.0000E+00  0.0000E+00  0.0000E+00  0.0000E+00  0.0000E+00  0.0000E+00  0.0000E+00  0.0000E+00  0.0000E+00  0.0000E+00  0.0000E+00  0.0000E+00  0.0000E+00  0.0000E+00  0.0000E+00  0.0000E+00  0.0000E+00  0.0000E+00  0.0000E+00  0.0000E+00  0.0000E+00  0.0000E+00  0.0000E+00  0.0000E+00  0.0000E+00  0.0000E+00  0.0000E+00  0.0000E+00  0.0000E+00  0.0000E+00  0.0000E+00  0.0000E+00  0.0000E+00  0.0000E+00
  0.0000E+00  0.0000E+00  0.0000E+00  0.0000E+00  0.0000E+00  0.0000E+00  0.0000E+00  0.0000E+00  0.0000E+00  0.0000E+00  0.0000E+00  0.0000E+00  0.0000E+00  0.0000E+00  0.0000E+00  0.0000E+00  0.0000E+00  0.0000E+00  0.0000E+00  0.0000E+00  0.0000E+00  0.0000E+00  0.0000E+00  0.0000E+00  0.0000E+00  0.0000E+00  0.0000E+00  0.0000E+00  0.0000E+00  0.0000E+00  0.0000E+00  0.0000E+00  0.0000E+00  0.0000E+00  0.0000E+00  0.0000E+00  0.0000E+00  0.0000E+00  0.0000E+00  0.0000E+00  0.0000E+00  0.0000E+00  0.0000E+00  0.0000E+00  0.0000E+00  0.0000E+00  0.0000E+00  0.0000E+00  0.0000E+00  0.0000E+00  0.0000E+00  0.0000E+00  0.0000E+00  0.0000E+00  0.0000E+00  0.0000E+00  0.0000E+00  0.0000E+00  0.0000E+00  0.0000E+00  0.0000E+00  0.0000E+00  0.0000E+00  0.0000E+00  0.0000E+00  0.0000E+00  0.0000E+00  0.0000E+00  0.0000E+00  0.0000E+00  0.0000E+00  0.0000E+00  0.0000E+00  0.0000E+00  0.0000E+00  0.0000E+00  0.0000E+00  0.0000E+00  0.0000E+00
  0.0000E+00  0.0000E+00  0.0000E+00  0.0000E+00  0.0000E+00  0.0000E+00  0.0000E+00  0.0000E+00  0.0000E+00  0.0000E+00  0.0000E+00  0.0000E+00  0.0000E+00  0.0000E+00  0.0000E+00  0.0000E+00  0.0000E+00  0.0000E+00  0.0000E+00  0.0000E+00  0.0000E+00  0.0000E+00  0.0000E+00  0.0000E+00  0.0000E+00  0.0000E+00  0.0000E+00  0.0000E+00  0.0000E+00  0.0000E+00  0.0000E+00  0.0000E+00  0.0000E+00  0.0000E+00  0.0000E+00  0.0000E+00  0.0000E+00  0.0000E+00  0.0000E+00  0.0000E+00  0.0000E+00  0.0000E+00  0.0000E+00  0.0000E+00  0.0000E+00  0.0000E+00  0.0000E+00  0.0000E+00  0.0000E+00  0.0000E+00  0.0000E+00  0.0000E+00  0.0000E+00  0.0000E+00  0.0000E+00  0.0000E+00  0.0000E+00  0.0000E+00  0.0000E+00  0.0000E+00  0.0000E+00  0.0000E+00  0.0000E+00  0.0000E+00  0.0000E+00  0.0000E+00  0.0000E+00  0.0000E+00  0.0000E+00  0.0000E+00  0.0000E+00  0.0000E+00  0.0000E+00  0.0000E+00  0.0000E+00  0.0000E+00  0.0000E+00  0.0000E+00  0.0000E+00
  0.0000E+00  0.0000E+00  0.0000E+00  0.0000E+00  0.0000E+00  0.0000E+00  0.0000E+00  0.0000E+00  0.0000E+00  0.0000E+00  0.0000E+00  0.0000E+00  0.0000E+00  0.0000E+00  0.0000E+00  0.0000E+00  0.0000E+00  0.0000E+00  0.0000E+00  0.0000E+00  0.0000E+00  0.0000E+00  0.0000E+00  0.0000E+00  0.0000E+00  0.0000E+00  0.0000E+00  0.0000E+00  0.0000E+00  0.0000E+00  0.0000E+00  0.0000E+00  0.0000E+00  0.0000E+00  0.0000E+00  0.0000E+00  0.0000E+00  0.0000E+00  0.0000E+00  0.0000E+00  0.0000E+00  0.0000E+00  0.0000E+00  0.0000E+00  0.0000E+00  0.0000E+00  0.0000E+00  0.0000E+00  0.0000E+00  0.0000E+00  0.0000E+00  0.0000E+00  0.0000E+00  0.0000E+00  0.0000E+00  0.0000E+00  0.0000E+00  0.0000E+00  0.0000E+00  0.0000E+00  0.0000E+00  0.0000E+00  0.0000E+00  0.0000E+00  0.0000E+00  0.0000E+00  0.0000E+00  0.0000E+00  0.0000E+00  0.0000E+00  0.0000E+00  0.0000E+00  0.0000E+00  0.0000E+00  0.0000E+00  0.0000E+00  0.0000E+00  0.0000E+00  0.0000E+00
  0.0000E+00  0.0000E+00  0.0000E+00  0.0000E+00  0.0000E+00  0.0000E+00  0.0000E+00  0.0000E+00  0.0000E+00  0.0000E+00  0.0000E+00  0.0000E+00  0.0000E+00  0.0000E+00  0.0000E+00  0.0000E+00  0.0000E+00  0.0000E+00  0.0000E+00  0.0000E+00  0.0000E+00  0.0000E+00  0.0000E+00  0.0000E+00  0.0000E+00  0.0000E+00  0.0000E+00  0.0000E+00  0.0000E+00  0.0000E+00  0.0000E+00  0.0000E+00  0.0000E+00  0.0000E+00  0.0000E+00  0.0000E+00  0.0000E+00  0.0000E+00  0.0000E+00  0.0000E+00  0.0000E+00  0.0000E+00  0.0000E+00  0.0000E+00  0.0000E+00  0.0000E+00  0.0000E+00  0.0000E+00  0.0000E+00  0.0000E+00  0.0000E+00  0.0000E+00  0.0000E+00  0.0000E+00  0.0000E+00  0.0000E+00  0.0000E+00  0.0000E+00  0.0000E+00  0.0000E+00  0.0000E+00  0.0000E+00  0.0000E+00  0.0000E+00  0.0000E+00  0.0000E+00  0.0000E+00  0.0000E+00  0.0000E+00  0.0000E+00  0.0000E+00  0.0000E+00  0.0000E+00  0.0000E+00  0.0000E+00  0.0000E+00  0.0000E+00  0.0000E+00  0.0000E+00
  0.0000E+00  0.0000E+00  0.0000E+00  0.0000E+00  0.0000E+00  0.0000E+00  0.0000E+00  0.0000E+00  0.0000E+00  0.0000E+00  0.0000E+00  0.0000E+00  0.0000E+00  0.0000E+00  0.0000E+00  0.0000E+00  0.0000E+00  0.0000E+00  0.0000E+00  0.0000E+00  0.0000E+00  0.0000E+00  0.0000E+00  0.0000E+00  0.0000E+00  0.0000E+00  0.0000E+00  0.0000E+00  0.0000E+00  0.0000E+00  0.0000E+00  0.0000E+00  0.0000E+00  0.0000E+00  0.0000E+00  0.0000E+00  0.0000E+00  0.0000E+00  0.0000E+00  0.0000E+00  0.0000E+00  0.0000E+00  0.0000E+00  0.0000E+00  0.0000E+00  0.0000E+00  0.0000E+00  0.0000E+00  0.0000E+00  0.0000E+00  0.0000E+00  0.0000E+00  0.0000E+00  0.0000E+00  0.0000E+00  0.0000E+00  0.0000E+00  0.0000E+00  0.0000E+00  0.0000E+00  0.0000E+00  0.0000E+00  0.0000E+00  0.0000E+00  0.0000E+00  0.0000E+00  0.0000E+00  0.0000E+00  0.0000E+00  0.0000E+00  0.0000E+00  0.0000E+00  0.0000E+00  0.0000E+00  0.0000E+00  0.0000E+00  0.0000E+00  0.0000E+00  0.0000E+00
  0.0000E+00  0.0000E+00  0.0000E+00  0.0000E+00  0.0000E+00  0.0000E+00  0.0000E+00  0.0000E+00  0.0000E+00  0.0000E+00  0.0000E+00  0.0000E+00  0.0000E+00  0.0000E+00  0.0000E+00  0.0000E+00  0.0000E+00  0.0000E+00  0.0000E+00  0.0000E+00  0.0000E+00  0.0000E+00  0.0000E+00  0.0000E+00  0.0000E+00  0.0000E+00  0.0000E+00  0.0000E+00  0.0000E+00  0.0000E+00  0.0000E+00  0.0000E+00  0.0000E+00  0.0000E+00  0.0000E+00  0.0000E+00  0.0000E+00  0.0000E+00  0.0000E+00  0.0000E+00  0.0000E+00  0.0000E+00  0.0000E+00  0.0000E+00  0.0000E+00  0.0000E+00  0.0000E+00  0.0000E+00  0.0000E+00  0.0000E+00  0.0000E+00  0.0000E+00  0.0000E+00  0.0000E+00  0.0000E+00  0.0000E+00  0.0000E+00  0.0000E+00  0.0000E+00  0.0000E+00  0.0000E+00  0.0000E+00  0.0000E+00  0.0000E+00  0.0000E+00  0.0000E+00  0.0000E+00  0.0000E+00  0.0000E+00  0.0000E+00  0.0000E+00  0.0000E+00  0.0000E+00  0.0000E+00  0.0000E+00  0.0000E+00  0.0000E+00  0.0000E+00  0.0000E+00
  0.0000E+00  0.0000E+00  0.0000E+00  0.0000E+00  0.0000E+00  0.0000E+00  0.0000E+00  0.0000E+00  0.0000E+00  0.0000E+00  0.0000E+00  0.0000E+00  0.0000E+00  0.0000E+00  0.0000E+00  0.0000E+00  0.0000E+00  0.0000E+00  0.0000E+00  0.0000E+00  0.0000E+00  0.0000E+00  0.0000E+00  0.0000E+00  0.0000E+00  0.0000E+00  0.0000E+00  0.0000E+00  0.0000E+00  0.0000E+00  0.0000E+00  0.0000E+00  0.0000E+00  0.0000E+00  0.0000E+00  0.0000E+00  0.0000E+00  0.0000E+00  0.0000E+00  0.0000E+00  0.0000E+00  0.0000E+00  0.0000E+00  0.0000E+00  0.0000E+00  0.0000E+00  0.0000E+00  0.0000E+00  0.0000E+00  0.0000E+00  0.0000E+00  0.0000E+00  0.0000E+00  0.0000E+00  0.0000E+00  0.0000E+00  0.0000E+00  0.0000E+00  0.0000E+00  0.0000E+00  0.0000E+00  0.0000E+00  0.0000E+00  0.0000E+00  0.0000E+00  0.0000E+00  0.0000E+00  0.0000E+00  0.0000E+00  0.0000E+00  0.0000E+00  0.0000E+00  0.0000E+00  0.0000E+00  0.0000E+00  0.0000E+00  0.0000E+00  0.0000E+00  0.0000E+00
  0.0000E+00  0.0000E+00  0.0000E+00  0.0000E+00  0.0000E+00  0.0000E+00  0.0000E+00  0.0000E+00  0.0000E+00  0.0000E+00  0.0000E+00  0.0000E+00  0.0000E+00  0.0000E+00  0.0000E+00  0.0000E+00  0.0000E+00  0.0000E+00  0.0000E+00  0.0000E+00  0.0000E+00  0.0000E+00  0.0000E+00  0.0000E+00  0.0000E+00  0.0000E+00  0.0000E+00  0.0000E+00  0.0000E+00  0.0000E+00  0.0000E+00  0.0000E+00  0.0000E+00  0.0000E+00  0.0000E+00  0.0000E+00  0.0000E+00  0.0000E+00  0.0000E+00  0.0000E+00  0.0000E+00  0.0000E+00  0.0000E+00  0.0000E+00  0.0000E+00  0.0000E+00  0.0000E+00  0.0000E+00  0.0000E+00  0.0000E+00  0.0000E+00  0.0000E+00  0.0000E+00  0.0000E+00  0.0000E+00  0.0000E+00  0.0000E+00  0.0000E+00  0.0000E+00  0.0000E+00  0.0000E+00  0.0000E+00  0.0000E+00  0.0000E+00  0.0000E+00  0.0000E+00  0.0000E+00  0.0000E+00  0.0000E+00  0.0000E+00  0.0000E+00  0.0000E+00  0.0000E+00  0.0000E+00  0.0000E+00  0.0000E+00  0.0000E+00  0.0000E+00  0.0000E+00
  0.0000E+00  0.0000E+00  0.0000E+00  0.0000E+00  0.0000E+00  0.0000E+00  0.0000E+00  0.0000E+00  0.0000E+00  0.0000E+00  0.0000E+00  0.0000E+00  0.0000E+00  0.0000E+00  0.0000E+00  0.0000E+00  0.0000E+00  0.0000E+00  0.0000E+00  0.0000E+00  0.0000E+00  0.0000E+00  0.0000E+00  0.0000E+00  0.0000E+00  0.0000E+00  0.0000E+00  0.0000E+00  0.0000E+00  0.0000E+00  0.0000E+00  0.0000E+00  0.0000E+00  0.0000E+00  0.0000E+00  0.0000E+00  0.0000E+00  0.0000E+00  0.0000E+00  0.0000E+00  0.0000E+00  0.0000E+00  0.0000E+00  0.0000E+00  0.0000E+00  0.0000E+00  0.0000E+00  0.0000E+00  0.0000E+00  0.0000E+00  0.0000E+00  0.0000E+00  0.0000E+00  0.0000E+00  0.0000E+00  0.0000E+00  0.0000E+00  0.0000E+00  0.0000E+00  0.0000E+00  0.0000E+00  0.0000E+00  0.0000E+00  0.0000E+00  0.0000E+00  0.0000E+00  0.0000E+00  0.0000E+00  0.0000E+00  0.0000E+00  0.0000E+00  0.0000E+00  0.0000E+00  0.0000E+00  0.0000E+00  0.0000E+00  0.0000E+00  0.0000E+00  0.0000E+00
  0.0000E+00  0.0000E+00  0.0000E+00  0.0000E+00  0.0000E+00  0.0000E+00  0.0000E+00  0.0000E+00  0.0000E+00  0.0000E+00  0.0000E+00  0.0000E+00  0.0000E+00  0.0000E+00  0.0000E+00  0.0000E+00  0.0000E+00  0.0000E+00  0.0000E+00  0.0000E+00  0.0000E+00  0.0000E+00  0.0000E+00  0.0000E+00  0.0000E+00  0.0000E+00  0.0000E+00  0.0000E+00  0.0000E+00  0.0000E+00  0.0000E+00  0.0000E+00  0.0000E+00  0.0000E+00  0.0000E+00  0.0000E+00  0.0000E+00  0.0000E+00  0.0000E+00  0.0000E+00  0.0000E+00  0.0000E+00  0.0000E+00  0.0000E+00  0.0000E+00  0.0000E+00  0.0000E+00  0.0000E+00  0.0000E+00  0.0000E+00  0.0000E+00  0.0000E+00  0.0000E+00  0.0000E+00  0.0000E+00  0.0000E+00  0.0000E+00  0.0000E+00  0.0000E+00  0.0000E+00  0.0000E+00  0.0000E+00  0.0000E+00  0.0000E+00  0.0000E+00  0.0000E+00  0.0000E+00  0.0000E+00  0.0000E+00  0.0000E+00  0.0000E+00  0.0000E+00  0.0000E+00  0.0000E+00  0.0000E+00  0.0000E+00  0.0000E+00  0.0000E+00  0.0000E+00
  0.0000E+00  0.0000E+00  0.0000E+00  0.0000E+00  0.0000E+00  0.0000E+00  0.0000E+00  0.0000E+00  0.0000E+00  0.0000E+00  0.0000E+00  0.0000E+00  0.0000E+00  0.0000E+00  0.0000E+00  0.0000E+00  0.0000E+00  0.0000E+00  0.0000E+00  0.0000E+00  0.0000E+00  0.0000E+00  0.0000E+00  0.0000E+00  0.0000E+00  0.0000E+00  0.0000E+00  0.0000E+00  0.0000E+00  0.0000E+00  0.0000E+00  0.0000E+00  0.0000E+00  0.0000E+00  0.0000E+00  0.0000E+00  0.0000E+00  0.0000E+00  0.0000E+00  0.0000E+00  0.0000E+00  0.0000E+00  0.0000E+00  0.0000E+00  0.0000E+00  0.0000E+00  0.0000E+00  0.0000E+00  0.0000E+00  0.0000E+00  0.0000E+00  0.0000E+00  0.0000E+00  0.0000E+00  0.0000E+00  0.0000E+00  0.0000E+00  0.0000E+00  0.0000E+00  0.0000E+00  0.0000E+00  0.0000E+00  0.0000E+00  0.0000E+00  0.0000E+00  0.0000E+00  0.0000E+00  0.0000E+00  0.0000E+00  0.0000E+00  0.0000E+00  0.0000E+00  0.0000E+00  0.0000E+00  0.0000E+00  0.0000E+00  0.0000E+00  0.0000E+00  0.0000E+00
  0.0000E+00  0.0000E+00  0.0000E+00  0.0000E+00  0.0000E+00  0.0000E+00  0.0000E+00  0.0000E+00  0.0000E+00  0.0000E+00  0.0000E+00  0.0000E+00  0.0000E+00  0.0000E+00  0.0000E+00  0.0000E+00  0.0000E+00  0.0000E+00  0.0000E+00  0.0000E+00  0.0000E+00  0.0000E+00  0.0000E+00  0.0000E+00  0.0000E+00  0.0000E+00  0.0000E+00  0.0000E+00  0.0000E+00  0.0000E+00  0.0000E+00  0.0000E+00  0.0000E+00  0.0000E+00  0.0000E+00  0.0000E+00  0.0000E+00  0.0000E+00  0.0000E+00  0.0000E+00  0.0000E+00  0.0000E+00  0.0000E+00  0.0000E+00  0.0000E+00  0.0000E+00  0.0000E+00  0.0000E+00  0.0000E+00  0.0000E+00  0.0000E+00  0.0000E+00  0.0000E+00  0.0000E+00  0.0000E+00  0.0000E+00  0.0000E+00  0.0000E+00  0.0000E+00  0.0000E+00  0.0000E+00  0.0000E+00  0.0000E+00  0.0000E+00  0.0000E+00  0.0000E+00  0.0000E+00  0.0000E+00  0.0000E+00  0.0000E+00  0.0000E+00  0.0000E+00  0.0000E+00  0.0000E+00  0.0000E+00  0.0000E+00  0.0000E+00  0.0000E+00  0.0000E+00
  0.0000E+00  0.0000E+00  0.0000E+00  0.0000E+00  0.0000E+00  0.0000E+00  0.0000E+00  0.0000E+00  0.0000E+00  0.0000E+00  0.0000E+00  0.0000E+00  0.0000E+00  0.0000E+00  0.0000E+00  0.0000E+00  0.0000E+00  0.0000E+00  0.0000E+00  0.0000E+00  0.0000E+00  0.0000E+00  0.0000E+00  0.0000E+00  0.0000E+00  0.0000E+00  0.0000E+00  0.0000E+00  0.0000E+00  0.0000E+00  0.0000E+00  0.0000E+00  0.0000E+00  0.0000E+00  0.0000E+00  0.0000E+00  0.0000E+00  0.0000E+00  0.0000E+00  0.0000E+00  0.0000E+00  0.0000E+00  0.0000E+00  0.0000E+00  0.0000E+00  0.0000E+00  0.0000E+00  0.0000E+00  0.0000E+00  0.0000E+00  0.0000E+00  0.0000E+00  0.0000E+00  0.0000E+00  0.0000E+00  0.0000E+00  0.0000E+00  0.0000E+00  0.0000E+00  0.0000E+00  0.0000E+00  0.0000E+00  0.0000E+00  0.0000E+00  0.0000E+00  0.0000E+00  0.0000E+00  0.0000E+00  0.0000E+00  0.0000E+00  0.0000E+00  0.0000E+00  0.0000E+00  0.0000E+00  0.0000E+00  0.0000E+00  0.0000E+00  0.0000E+00  0.0000E+00
  0.0000E+00  0.0000E+00  0.0000E+00  0.0000E+00  0.0000E+00  0.0000E+00  0.0000E+00  0.0000E+00  0.0000E+00  0.0000E+00  0.0000E+00  0.0000E+00  0.0000E+00  0.0000E+00  0.0000E+00  0.0000E+00  0.0000E+00  0.0000E+00  0.0000E+00  0.0000E+00  0.0000E+00  0.0000E+00  0.0000E+00  0.0000E+00  0.0000E+00  0.0000E+00  0.0000E+00  0.0000E+00  0.0000E+00  0.0000E+00  0.0000E+00  0.0000E+00  0.0000E+00  0.0000E+00  0.0000E+00  0.0000E+00  0.0000E+00  0.0000E+00  0.0000E+00  0.0000E+00  0.0000E+00  0.0000E+00  0.0000E+00  0.0000E+00  0.0000E+00  0.0000E+00  0.0000E+00  0.0000E+00  0.0000E+00  0.0000E+00  0.0000E+00  0.0000E+00  0.0000E+00  0.0000E+00  0.0000E+00  0.0000E+00  0.0000E+00  0.0000E+00  0.0000E+00  0.0000E+00  0.0000E+00  0.0000E+00  0.0000E+00  0.0000E+00  0.0000E+00  0.0000E+00  0.0000E+00  0.0000E+00  0.0000E+00  0.0000E+00  0.0000E+00  0.0000E+00  0.0000E+00  0.0000E+00  0.0000E+00  0.0000E+00  0.0000E+00  0.0000E+00  0.0000E+00
  0.0000E+00  0.0000E+00  0.0000E+00  0.0000E+00  0.0000E+00  0.0000E+00  0.0000E+00  0.0000E+00  0.0000E+00  0.0000E+00  0.0000E+00  0.0000E+00  0.0000E+00  0.0000E+00  0.0000E+00  0.0000E+00  0.0000E+00  0.0000E+00  0.0000E+00  0.0000E+00  0.0000E+00  0.0000E+00  0.0000E+00  0.0000E+00  0.0000E+00  0.0000E+00  0.0000E+00  0.0000E+00  0.0000E+00  0.0000E+00  0.0000E+00  0.0000E+00  0.0000E+00  0.0000E+00  0.0000E+00  0.0000E+00  0.0000E+00  0.0000E+00  0.0000E+00  0.0000E+00  0.0000E+00  0.0000E+00  0.0000E+00  0.0000E+00  0.0000E+00  0.0000E+00  0.0000E+00  0.0000E+00  0.0000E+00  0.0000E+00  0.0000E+00  0.0000E+00  0.0000E+00  0.0000E+00  0.0000E+00  0.0000E+00  0.0000E+00  0.0000E+00  0.0000E+00  0.0000E+00  0.0000E+00  0.0000E+00  0.0000E+00  0.0000E+00  0.0000E+00  0.0000E+00  0.0000E+00  0.0000E+00  0.0000E+00  0.0000E+00  0.0000E+00  0.0000E+00  0.0000E+00  0.0000E+00  0.0000E+00  0.0000E+00  0.0000E+00  0.0000E+00  0.0000E+00
  0.0000E+00  0.0000E+00  0.0000E+00  0.0000E+00  0.0000E+00  0.0000E+00  0.0000E+00  0.0000E+00  0.0000E+00  0.0000E+00  0.0000E+00  0.0000E+00  0.0000E+00  0.0000E+00  0.0000E+00  0.0000E+00  0.0000E+00  0.0000E+00  0.0000E+00  0.0000E+00  0.0000E+00  0.0000E+00  0.0000E+00  0.0000E+00  0.0000E+00  0.0000E+00  0.0000E+00  0.0000E+00  0.0000E+00  0.0000E+00  0.0000E+00  0.0000E+00  0.0000E+00  0.0000E+00  0.0000E+00  0.0000E+00  0.0000E+00  0.0000E+00  0.0000E+00  0.0000E+00  0.0000E+00  0.0000E+00  0.0000E+00  0.0000E+00  0.0000E+00  0.0000E+00  0.0000E+00  0.0000E+00  0.0000E+00  0.0000E+00  0.0000E+00  0.0000E+00  0.0000E+00  0.0000E+00  0.0000E+00  0.0000E+00  0.0000E+00  0.0000E+00  0.0000E+00  0.0000E+00  0.0000E+00  0.0000E+00  0.0000E+00  0.0000E+00  0.0000E+00  0.0000E+00  0.0000E+00  0.0000E+00  0.0000E+00  0.0000E+00  0.0000E+00  0.0000E+00  0.0000E+00  0.0000E+00  0.0000E+00  0.0000E+00  0.0000E+00  0.0000E+00  0.0000E+00
  0.0000E+00  0.0000E+00  0.0000E+00  0.0000E+00  0.0000E+00  0.0000E+00  0.0000E+00  0.0000E+00  0.0000E+00  0.0000E+00  0.0000E+00  0.0000E+00  0.0000E+00  0.0000E+00  0.0000E+00  0.0000E+00  0.0000E+00  0.0000E+00  0.0000E+00  0.0000E+00  0.0000E+00  0.0000E+00  0.0000E+00  0.0000E+00  0.0000E+00  0.0000E+00  0.0000E+00  0.0000E+00  0.0000E+00  0.0000E+00  0.0000E+00  0.0000E+00  0.0000E+00  0.0000E+00  0.0000E+00  0.0000E+00  0.0000E+00  0.0000E+00  0.0000E+00  0.0000E+00  0.0000E+00  0.0000E+00  0.0000E+00  0.0000E+00  0.0000E+00  0.0000E+00  0.0000E+00  0.0000E+00  0.0000E+00  0.0000E+00  0.0000E+00  0.0000E+00  0.0000E+00  0.0000E+00  0.0000E+00  0.0000E+00  0.0000E+00  0.0000E+00  0.0000E+00  0.0000E+00  0.0000E+00  0.0000E+00  0.0000E+00  0.0000E+00  0.0000E+00  0.0000E+00  0.0000E+00  0.0000E+00  0.0000E+00  0.0000E+00  0.0000E+00  0.0000E+00  0.0000E+00  0.0000E+00  0.0000E+00  0.0000E+00  0.0000E+00  0.0000E+00  0.0000E+00
  0.0000E+00  0.0000E+00  0.0000E+00  0.0000E+00  0.0000E+00  0.0000E+00  0.0000E+00  0.0000E+00  0.0000E+00  0.0000E+00  0.0000E+00  0.0000E+00  0.0000E+00  0.0000E+00  0.0000E+00  0.0000E+00  0.0000E+00  0.0000E+00  0.0000E+00  0.0000E+00  0.0000E+00  0.0000E+00  0.0000E+00  0.0000E+00  0.0000E+00  0.0000E+00  0.0000E+00  0.0000E+00  0.0000E+00  0.0000E+00  0.0000E+00  0.0000E+00  0.0000E+00  0.0000E+00  0.0000E+00  0.0000E+00  0.0000E+00  0.0000E+00  0.0000E+00  0.0000E+00  0.0000E+00  0.0000E+00  0.0000E+00  0.0000E+00  0.0000E+00  0.0000E+00  0.0000E+00  0.0000E+00  0.0000E+00  0.0000E+00  0.0000E+00  0.0000E+00  0.0000E+00  0.0000E+00  0.0000E+00  0.0000E+00  0.0000E+00  0.0000E+00  0.0000E+00  0.0000E+00  0.0000E+00  0.0000E+00  0.0000E+00  0.0000E+00  0.0000E+00  0.0000E+00  0.0000E+00  0.0000E+00  0.0000E+00  0.0000E+00  0.0000E+00  0.0000E+00  0.0000E+00  0.0000E+00  0.0000E+00  0.0000E+00  0.0000E+00  0.0000E+00  0.0000E+00
  0.0000E+00  0.0000E+00  0.0000E+00  0.0000E+00  0.0000E+00  0.0000E+00  0.0000E+00  0.0000E+00  0.0000E+00  0.0000E+00  0.0000E+00  0.0000E+00  0.0000E+00  0.0000E+00  0.0000E+00  0.0000E+00  0.0000E+00  0.0000E+00  0.0000E+00  0.0000E+00  0.0000E+00  0.0000E+00  0.0000E+00  0.0000E+00  0.0000E+00  0.0000E+00  0.0000E+00  0.0000E+00  0.0000E+00  0.0000E+00  0.0000E+00  0.0000E+00  0.0000E+00  0.0000E+00  0.0000E+00  0.0000E+00  0.0000E+00  0.0000E+00  0.0000E+00  0.0000E+00  0.0000E+00  0.0000E+00  0.0000E+00  0.0000E+00  0.0000E+00  0.0000E+00  0.0000E+00  0.0000E+00  0.0000E+00  0.0000E+00  0.0000E+00  0.0000E+00  0.0000E+00  0.0000E+00  0.0000E+00  0.0000E+00  0.0000E+00  0.0000E+00  0.0000E+00  0.0000E+00  0.0000E+00  0.0000E+00  0.0000E+00  0.0000E+00  0.0000E+00  0.0000E+00  0.0000E+00  0.0000E+00  0.0000E+00  0.0000E+00  0.0000E+00  0.0000E+00  0.0000E+00  0.0000E+00  0.0000E+00  0.0000E+00  0.0000E+00  0.0000E+00  0.0000E+00
  0.0000E+00  0.0000E+00  0.0000E+00  0.0000E+00  0.0000E+00  0.0000E+00  0.0000E+00  0.0000E+00  0.0000E+00  0.0000E+00  0.0000E+00  0.0000E+00  0.0000E+00  0.0000E+00  0.0000E+00  0.0000E+00  0.0000E+00  0.0000E+00  0.0000E+00  0.0000E+00  0.0000E+00  0.0000E+00  0.0000E+00  0.0000E+00  0.0000E+00  0.0000E+00  0.0000E+00  0.0000E+00  0.0000E+00  0.0000E+00  0.0000E+00  0.0000E+00  0.0000E+00  0.0000E+00  0.0000E+00  0.0000E+00  0.0000E+00  0.0000E+00  0.0000E+00  0.0000E+00  0.0000E+00  0.0000E+00  0.0000E+00  0.0000E+00  0.0000E+00  0.0000E+00  0.0000E+00  0.0000E+00  0.0000E+00  0.0000E+00  0.0000E+00  0.0000E+00  0.0000E+00  0.0000E+00  0.0000E+00  0.0000E+00  0.0000E+00  0.0000E+00  0.0000E+00  0.0000E+00  0.0000E+00  0.0000E+00  0.0000E+00  0.0000E+00  0.0000E+00  0.0000E+00  0.0000E+00  0.0000E+00  0.0000E+00  0.0000E+00  0.0000E+00  0.0000E+00  0.0000E+00  0.0000E+00  0.0000E+00  0.0000E+00  0.0000E+00  0.0000E+00  0.0000E+00
  0.0000E+00  0.0000E+00  0.0000E+00  0.0000E+00  0.0000E+00  0.0000E+00  0.0000E+00  0.0000E+00  0.0000E+00  0.0000E+00  0.0000E+00  0.0000E+00  0.0000E+00  0.0000E+00  0.0000E+00  0.0000E+00  0.0000E+00  0.0000E+00  0.0000E+00  0.0000E+00  0.0000E+00  0.0000E+00  0.0000E+00  0.0000E+00  0.0000E+00  0.0000E+00  0.0000E+00  0.0000E+00  0.0000E+00  0.0000E+00  0.0000E+00  0.0000E+00  0.0000E+00  0.0000E+00  0.0000E+00  0.0000E+00  0.0000E+00  0.0000E+00  0.0000E+00  0.0000E+00  0.0000E+00  0.0000E+00  0.0000E+00  0.0000E+00  0.0000E+00  0.0000E+00  0.0000E+00  0.0000E+00  0.0000E+00  0.0000E+00  0.0000E+00  0.7654E-09  0.7745E-09  0.1537E-08  0.1549E-08  0.1558E-08  0.1563E-08  0.1565E-08  0.1565E-08  0.1560E-08  0.1553E-08  0.1543E-08  0.7782E-09  0.7697E-09  0.0000E+00  0.0000E+00  0.0000E+00  0.0000E+00  0.0000E+00  0.0000E+00  0.0000E+00  0.0000E+00  0.0000E+00  0.0000E+00  0.0000E+00  0.0000E+00  0.0000E+00  0.0000E+00  0.0000E+00
  0.0000E+00  0.0000E+00  0.0000E+00  0.0000E+00  0.0000E+00  0.0000E+00  0.0000E+00  0.0000E+00  0.0000E+00  0.0000E+00  0.0000E+00  0.0000E+00  0.0000E+00  0.0000E+00  0.0000E+00  0.0000E+00  0.0000E+00  0.0000E+00  0.0000E+00  0.0000E+00  0.0000E+00  0.0000E+00  0.0000E+00  0.0000E+00  0.0000E+00  0.0000E+00  0.0000E+00  0.0000E+00  0.0000E+00  0.0000E+00  0.0000E+00  0.0000E+00  0.0000E+00  0.0000E+00  0.0000E+00  0.0000E+00  0.0000E+00  0.0000E+00  0.0000E+00  0.0000E+00  0.0000E+00  0.0000E+00  0.0000E+00  0.0000E+00  0.0000E+00  0.7807E-09  0.1572E-08  0.3164E-08  0.4012E-08  0.4087E-08  0.5756E-08  0.5842E-08  0.6729E-08  0.6801E-08  0.7661E-08  0.8559E-08  0.8598E-08  0.8620E-08  0.8623E-08  0.8607E-08  0.8573E-08  0.8521E-08  0.8451E-08  0.6735E-08  0.6650E-08  0.5753E-08  0.5656E-08  0.3991E-08  0.3139E-08  0.1552E-08  0.7696E-09  0.0000E+00  0.0000E+00  0.0000E+00  0.0000E+00  0.0000E+00  0.0000E+00  0.0000E+00  0.0000E+00
  0.0000E+00  0.0000E+00  0.0000E+00  0.0000E+00  0.0000E+00  0.0000E+00  0.0000E+00  0.0000E+00  0.0000E+00  0.0000E+00  0.0000E+00  0.0000E+00  0.0000E+00  0.0000E+00  0.0000E+00  0.0000E+00  0.0000E+00  0.0000E+00  0.0000E+00  0.0000E+00  0.0000E+00  0.0000E+00  0.0000E+00  0.0000E+00  0.0000E+00  0.0000E+00  0.0000E+00  0.0000E+00  0.0000E+00  0.0000E+00  0.0000E+00  0.0000E+00  0.0000E+00  0.0000E+00  0.0000E+00  0.0000E+00  0.0000E+00  0.0000E+00  0.0000E+00  0.0000E+00  0.7651E-09  0.1558E-08  0.3165E-08  0.4052E-08  0.4956E-08  0.6737E-08  0.7713E-08  0.8752E-08  0.9789E-08  0.1082E-07  0.1190E-07  0.1296E-07  0.1400E-07  0.1508E-07  0.1523E-07  0.1624E-07  0.1633E-07  0.1639E-07  0.1641E-07  0.1640E-07  0.1634E-07  0.1626E-07  0.1613E-07  0.1598E-07  0.1490E-07  0.1469E-07  0.1271E-07  0.1161E-07  0.1137E-07  0.9448E-08  0.8395E-08  0.6568E-08  0.4020E-08  0.3127E-08  0.7774E-09  0.0000E+00  0.0000E+00  0.0000E+00  0.0000E+00
  0.0000E+00  0.0000E+00  0.0000E+00  0.0000E+00  0.0000E+00  0.0000E+00  0.0000E+00  0.0000E+00  0.0000E+00  0.0000E+00  0.0000E+00  0.0000E+00  0.0000E+00  0.0000E+00  0.0000E+00  0.0000E+00  0.0000E+00  0.0000E+00  0.0000E+00  0.0000E+00  0.0000E+00  0.0000E+00  0.0000E+00  0.0000E+00  0.0000E+00  0.0000E+00  0.0000E+00  0.0000E+00  0.0000E+00  0.0000E+00  0.0000E+00  0.0000E+00  0.0000E+00  0.0000E+00  0.0000E+00  0.0000E+00  0.0000E+00  0.7758E-09  0.2348E-08  0.4031E-08  0.4971E-08  0.6803E-08  0.7852E-08  0.9819E-08  0.1096E-07  0.1304E-07  0.1426E-07  0.1554E-07  0.1682E-07  0.1902E-07  0.2033E-07  0.2068E-07  0.2291E-07  0.2322E-07  0.2445E-07  0.2467E-07  0.2679E-07  0.2692E-07  0.2699E-07  0.2699E-07  0.2694E-07  0.2681E-07  0.2663E-07  0.2639E-07  0.2609E-07  0.2380E-07  0.2342E-07  0.2204E-07  0.1972E-07  0.1835E-07  0.1701E-07  0.1475E-07  0.1258E-07  0.1134E-07  0.8489E-08  0.6581E-08  0.3991E-08  0.1556E-08  0.0000E+00
  0.0000E+00  0.0000E+00  0.0000E+00  0.0000E+00  0.0000E+00  0.0000E+00  0.0000E+00  0.0000E+00  0.0000E+00  0.0000E+00  0.0000E+00  0.0000E+00  0.0000E+00  0.0000E+00  0.0000E+00  0.0000E+00  0.0000E+00  0.0000E+00  0.0000E+00  0.0000E+00  0.0000E+00  0.0000E+00  0.0000E+00  0.0000E+00  0.0000E+00  0.0000E+00  0.0000E+00  0.0000E+00  0.0000E+00  0.0000E+00  0.0000E+00  0.0000E+00  0.0000E+00  0.0000E+00  0.7705E-09  0.2349E-08  0.4052E-08  0.5027E-08  0.6914E-08  0.8882E-08  0.1092E-07  0.1223E-07  0.1443E-07  0.1675E-07  0.1819E-07  0.2064E-07  0.2217E-07  0.2376E-07  0.2628E-07  0.2791E-07  0.2951E-07  0.3106E-07  0.3265E-07  0.3418E-07  0.3563E-07  0.3710E-07  0.3741E-07  0.3870E-07  0.3884E-07  0.3889E-07  0.3884E-07  0.3976E-07  0.3847E-07  0.3815E-07  0.3773E-07  0.3724E-07  0.3560E-07  0.3496E-07  0.3219E-07  0.3044E-07  0.2767E-07  0.2593E-07  0.2325E-07  0.2157E-07  0.1811E-07  0.1568E-07  0.1249E-07  0.9481E-08  0.6649E-08
  0.0000E+00  0.0000E+00  0.0000E+00  0.0000E+00  0.0000E+00  0.0000E+00  0.0000E+00  0.0000E+00  0.0000E+00  0.0000E+00  0.0000E+00  0.0000E+00  0.0000E+00  0.0000E+00  0.0000E+00  0.0000E+00  0.0000E+00  0.0000E+00  0.0000E+00  0.0000E+00  0.0000E+00  0.0000E+00  0.0000E+00  0.0000E+00  0.0000E+00  0.0000E+00  0.0000E+00  0.0000E+00  0.0000E+00  0.0000E+00  0.0000E+00  0.0000E+00  0.1558E-08  0.3218E-08  0.4980E-08  0.6881E-08  0.8886E-08  0.1099E-07  0.1324E-07  0.1468E-07  0.1713E-07  0.1967E-07  0.2229E-07  0.2408E-07  0.2685E-07  0.2876E-07  0.3166E-07  0.3364E-07  0.3662E-07  0.3863E-07  0.4061E-07  0.4365E-07  0.4558E-07  0.4742E-07  0.5205E-07  0.5658E-07  0.5718E-07  0.6147E-07  0.6183E-07  0.6204E-07  0.6209E-07  0.6197E-07  0.6170E-07  0.6127E-07  0.6068E-07  0.5994E-07  0.5905E-07  0.5426E-07  0.5318E-07  0.4820E-07  0.4207E-07  0.3983E-07  0.3651E-07  0.3328E-07  0.3008E-07  0.2701E-07  0.2309E-07  0.1936E-07  0.1584E-07
  0.2365E-08  0.9857E-08  0.2071E-07  0.2445E-07  0.3486E-07  0.4623E-07  0.4734E-07  0.4786E-07  0.4828E-07  0.4861E-07  0.4937E-07  0.6337E-07  0.6086E-07  0.5817E-07  0.5259E-07  0.4903E-07  0.4866E-07  0.4767E-07  0.4712E-07  0.3917E-07  0.2809E-07  0.2435E-07  0.1915E-07  0.8747E-08  0.0000E+00  0.0000E+00  0.0000E+00  0.0000E+00  0.0000E+00  0.0000E+00  0.2340E-08  0.4067E-08  0.5913E-08  0.7879E-08  0.1000E-07  0.1225E-07  0.1461E-07  0.1714E-07  0.1979E-07  0.2255E-07  0.2451E-07  0.2750E-07  0.3063E-07  0.3386E-07  0.3615E-07  0.3954E-07  0.4299E-07  0.4545E-07  0.4899E-07  0.5429E-07  0.5963E-07  0.6496E-07  0.6637E-07  0.7162E-07  0.7672E-07  0.7784E-07  0.8264E-07  0.8342E-07  0.8398E-07  0.8432E-07  0.8443E-07  0.8432E-07  0.8398E-07  0.8342E-07  0.8264E-07  0.8165E-07  0.8045E-07  0.7526E-07  0.6987E-07  0.6829E-07  0.6272E-07  0.6099E-07  0.5915E-07  0.5343E-07  0.4774E-07  0.4108E-07  0.3626E-07  0.3165E-07  0.2728E-07
  0.6128E-07  0.7095E-07  0.7348E-07  0.7488E-07  0.7614E-07  0.7781E-07  0.7881E-07  0.7965E-07  0.8144E-07  0.8198E-07  0.8235E-07  0.8256E-07  0.8260E-07  0.8247E-07  0.8217E-07  0.8171E-07  0.8108E-07  0.8029E-07  0.7934E-07  0.7772E-07  0.7593E-07  0.7458E-07  0.7069E-07  0.5860E-07  0.4865E-07  0.4205E-07  0.2802E-07  0.1926E-07  0.8422E-08  0.4105E-08  0.5988E-08  0.8009E-08  0.1103E-07  0.1340E-07  0.1501E-07  0.1857E-07  0.2141E-07  0.2343E-07  0.2752E-07  0.3083E-07  0.3324E-07  0.3683E-07  0.4053E-07  0.4433E-07  0.4830E-07  0.5119E-07  0.6099E-07  0.6702E-07  0.7315E-07  0.7933E-07  0.8549E-07  0.8769E-07  0.9372E-07  0.9564E-07  0.1014E-06  0.1068E-06  0.1082E-06  0.1092E-06  0.1100E-06  0.1105E-06  0.1107E-06  0.1105E-06  0.1101E-06  0.1094E-06  0.1083E-06  0.1070E-06  0.1054E-06  0.9975E-07  0.9382E-07  0.8771E-07  0.8549E-07  0.8310E-07  0.8056E-07  0.7411E-07  0.6768E-07  0.6133E-07  0.5886E-07  0.5257E-07  0.4149E-07
  0.8078E-07  0.8319E-07  0.8552E-07  0.8716E-07  0.8921E-07  0.9055E-07  0.9228E-07  0.9388E-07  0.9471E-07  0.9535E-07  0.9580E-07  0.9605E-07  0.9669E-07  0.9655E-07  0.9621E-07  0.9567E-07  0.9435E-07  0.9344E-07  0.9234E-07  0.9106E-07  0.8962E-07  0.8747E-07  0.8516E-07  0.8329E-07  0.8075E-07  0.7866E-07  0.7829E-07  0.7239E-07  0.6143E-07  0.5095E-07  0.3913E-07  0.2772E-07  0.1666E-07  0.1893E-07  0.2190E-07  0.2505E-07  0.2837E-07  0.3289E-07  0.3561E-07  0.3949E-07  0.4462E-07  0.4780E-07  0.5218E-07  0.6239E-07  0.6900E-07  0.7976E-07  0.8679E-07  0.8997E-07  0.1011E-06  0.1083E-06  0.1115E-06  0.1185E-06  0.1213E-06  0.1279E-06  0.1342E-06  0.1363E-06  0.1381E-06  0.1394E-06  0.1404E-06  0.1411E-06  0.1413E-06  0.1411E-06  0.1405E-06  0.1396E-06  0.1382E-06  0.1365E-06  0.1305E-06  0.1282E-06  0.1216E-06  0.1148E-06  0.1119E-06  0.1087E-06  0.1053E-06  0.9407E-07  0.8675E-07  0.8342E-07  0.8000E-07  0.6890E-07  0.6192E-07
  0.9377E-07  0.9712E-07  0.9920E-07  0.1017E-06  0.1035E-06  0.1056E-06  0.1076E-06  0.1088E-06  0.1098E-06  0.1112E-06  0.1117E-06  0.1120E-06  0.1121E-06  0.1120E-06  0.1116E-06  0.1110E-06  0.1101E-06  0.1091E-06  0.1078E-06  0.1063E-06  0.1040E-06  0.1021E-06  0.9953E-07  0.9673E-07  0.9673E-07  0.9466E-07  0.9341E-07  0.9306E-07  0.9343E-07  0.9256E-07  0.9098E-07  0.8099E-07  0.7150E-07  0.5642E-07  0.4563E-07  0.3414E-07  0.3761E-07  0.4180E-07  0.4618E-07  0.5082E-07  0.5843E-07  0.6924E-07  0.7662E-07  0.8825E-07  0.9625E-07  0.1084E-06  0.1127E-06  0.1211E-06  0.1335E-06  0.1378E-06  0.1420E-06  0.1500E-06  0.1577E-06  0.1651E-06  0.1681E-06  0.1708E-06  0.1730E-06  0.1747E-06  0.1759E-06  0.1767E-06  0.1769E-06  0.1767E-06  0.1759E-06  0.1747E-06  0.1729E-06  0.1707E-06  0.1641E-06  0.1611E-06  0.1538E-06  0.1462E-06  0.1423E-06  0.1382E-06  0.1299E-06  0.1216E-06  0.1132E-06  0.1088E-06  0.1004E-06  0.8815E-07  0.8407E-07
  0.1091E-06  0.1123E-06  0.1154E-06  0.1176E-06  0.1203E-06  0.1228E-06  0.1244E-06  0.1258E-06  0.1277E-06  0.1286E-06  0.1292E-06  0.1296E-06  0.1297E-06  0.1302E-06  0.1298E-06  0.1291E-06  0.1281E-06  0.1269E-06  0.1247E-06  0.1230E-06  0.1211E-06  0.1182E-06  0.1167E-06  0.1158E-06  0.1151E-06  0.1144E-06  0.1131E-06  0.1118E-06  0.1107E-06  0.1106E-06  0.1099E-06  0.1094E-06  0.1091E-06  0.1101E-06  0.1006E-06  0.8833E-07  0.7516E-07  0.6209E-07  0.6019E-07  0.7155E-07  0.8740E-07  0.9603E-07  0.1089E-06  0.1142E-06  0.1278E-06  0.1375E-06  0.1473E-06  0.1572E-06  0.1669E-06  0.1724E-06  0.1818E-06  0.1909E-06  0.1996E-06  0.2039E-06  0.2077E-06  0.2109E-06  0.2136E-06  0.2157E-06  0.2172E-06  0.2181E-06  0.2183E-06  0.2180E-06  0.2170E-06  0.2154E-06  0.2131E-06  0.2103E-06  0.2030E-06  0.1951E-06  0.1869E-06  0.1824E-06  0.1775E-06  0.1722E-06  0.1628E-06  0.1492E-06  0.1437E-06  0.1380E-06  0.1243E-06  0.1148E-06  0.1094E-06
  0.1258E-06  0.1295E-06  0.1330E-06  0.1356E-06  0.1394E-06  0.1415E-06  0.1435E-06  0.1458E-06  0.1472E-06  0.1482E-06  0.1504E-06  0.1509E-06  0.1511E-06  0.1509E-06  0.1504E-06  0.1496E-06  0.1485E-06  0.1471E-06  0.1454E-06  0.1427E-06  0.1397E-06  0.1396E-06  0.1394E-06  0.1369E-06  0.1359E-06  0.1352E-06  0.1345E-06  0.1332E-06  0.1320E-06  0.1310E-06  0.1311E-06  0.1316E-06  0.1304E-06  0.1299E-06  0.1314E-06  0.1333E-06  0.1357E-06  0.1257E-06  0.1261E-06  0.1195E-06  0.1127E-06  0.1270E-06  0.1378E-06  0.1529E-06  0.1643E-06  0.1757E-06  0.1872E-06  0.1986E-06  0.2058E-06  0.2169E-06  0.2276E-06  0.2379E-06  0.2437E-06  0.2489E-06  0.2535E-06  0.2574E-06  0.2607E-06  0.2632E-06  0.2650E-06  0.2660E-06  0.2662E-06  0.2657E-06  0.2644E-06  0.2623E-06  0.2595E-06  0.2559E-06  0.2477E-06  0.2389E-06  0.2296E-06  0.2240E-06  0.2178E-06  0.2073E-06  0.1965E-06  0.1855E-06  0.1785E-06  0.1673E-06  0.1562E-06  0.1452E-06  0.1382E-06
  0.1454E-06  0.1489E-06  0.1529E-06  0.1567E-06  0.1602E-06  0.1628E-06  0.1658E-06  0.1677E-06  0.1700E-06  0.1721E-06  0.1730E-06  0.1736E-06  0.1738E-06  0.1736E-06  0.1739E-06  0.1730E-06  0.1709E-06  0.1693E-06  0.1674E-06  0.1658E-06  0.1649E-06  0.1639E-06  0.1629E-06  0.1626E-06  0.1600E-06  0.1589E-06  0.1582E-06  0.1576E-06  0.1563E-06  0.1552E-06  0.1543E-06  0.1548E-06  0.1551E-06  0.1554E-06  0.1549E-06  0.1651E-06  0.1771E-06  0.1855E-06  0.1915E-06  0.1934E-06  0.1865E-06  0.1822E-06  0.1758E-06  0.1929E-06  0.2022E-06  0.2197E-06  0.2331E-06  0.2423E-06  0.2553E-06  0.2680E-06  0.2802E-06  0.2878E-06  0.2948E-06  0.3011E-06  0.3066E-06  0.3113E-06  0.3151E-06  0.3181E-06  0.3202E-06  0.3213E-06  0.3215E-06  0.3207E-06  0.3190E-06  0.3164E-06  0.3128E-06  0.3084E-06  0.2992E-06  0.2893E-06  0.2787E-06  0.2717E-06  0.2641E-06  0.2520E-06  0.2355E-06  0.2271E-06  0.2183E-06  0.2054E-06  0.1885E-06  0.1798E-06  0.1671E-06
  0.1667E-06  0.1715E-06  0.1753E-06  0.1797E-06  0.1837E-06  0.1875E-06  0.1901E-06  0.1932E-06  0.1959E-06  0.1975E-06  0.1986E-06  0.2001E-06  0.2004E-06  0.2002E-06  0.1996E-06  0.1986E-06  0.1972E-06  0.1953E-06  0.1954E-06  0.1945E-06  0.1927E-06  0.1915E-06  0.1911E-06  0.1900E-06  0.1880E-06  0.1860E-06  0.1849E-06  0.1843E-06  0.1838E-06  0.1826E-06  0.1818E-06  0.1806E-06  0.1816E-06  0.1915E-06  0.2020E-06  0.2106E-06  0.2202E-06  0.2302E-06  0.2413E-06  0.2497E-06  0.2665E-06  0.2620E-06  0.2596E-06  0.2541E-06  0.2505E-06  0.2702E-06  0.2816E-06  0.2927E-06  0.3119E-06  0.3223E-06  0.3363E-06  0.3454E-06  0.3537E-06  0.3612E-06  0.3677E-06  0.3776E-06  0.3821E-06  0.3856E-06  0.3879E-06  0.3848E-06  0.3849E-06  0.3838E-06  0.3816E-06  0.3783E-06  0.3740E-06  0.3644E-06  0.3539E-06  0.3426E-06  0.3348E-06  0.3262E-06  0.3170E-06  0.2990E-06  0.2848E-06  0.2744E-06  0.2636E-06  0.2447E-06  0.2299E-06  0.2192E-06  0.2004E-06
  0.1906E-06  0.1962E-06  0.2014E-06  0.2064E-06  0.2103E-06  0.2146E-06  0.2185E-06  0.2221E-06  0.2243E-06  0.2261E-06  0.2283E-06  0.2292E-06  0.2296E-06  0.2294E-06  0.2288E-06  0.2286E-06  0.2269E-06  0.2272E-06  0.2263E-06  0.2262E-06  0.2242E-06  0.2229E-06  0.2216E-06  0.2210E-06  0.2198E-06  0.2176E-06  0.2146E-06  0.2145E-06  0.2132E-06  0.2130E-06  0.2122E-06  0.2144E-06  0.2244E-06  0.2359E-06  0.2440E-06  0.2582E-06  0.2729E-06  0.2814E-06  0.2943E-06  0.3081E-06  0.3193E-06  0.3347E-06  0.3466E-06  0.3466E-06  0.3425E-06  0.3380E-06  0.3376E-06  0.3553E-06  0.3725E-06  0.3892E-06  0.4008E-06  0.4116E-06  0.4215E-06  0.4347E-06  0.4424E-06  0.4489E-06  0.4542E-06  0.4581E-06  0.4608E-06  0.4577E-06  0.4576E-06  0.4561E-06  0.4534E-06  0.4492E-06  0.4438E-06  0.4331E-06  0.4212E-06  0.4083E-06  0.3988E-06  0.3884E-06  0.3730E-06  0.3529E-06  0.3408E-06  0.3282E-06  0.3111E-06  0.2899E-06  0.2769E-06  0.2597E-06  0.2387E-06
  0.2176E-06  0.2239E-06  0.2299E-06  0.2357E-06  0.2410E-06  0.2451E-06  0.2496E-06  0.2537E-06  0.2564E-06  0.2595E-06  0.2611E-06  0.2621E-06  0.2697E-06  0.2697E-06  0.2691E-06  0.2679E-06  0.2685E-06  0.2687E-06  0.2687E-06  0.2675E-06  0.2662E-06  0.2577E-06  0.2570E-06  0.2554E-06  0.2548E-06  0.2534E-06  0.2501E-06  0.2480E-06  0.2474E-06  0.2471E-06  0.2556E-06  0.2658E-06  0.2775E-06  0.2900E-06  0.3007E-06  0.3121E-06  0.3254E-06  0.3434E-06  0.3543E-06  0.3709E-06  0.3837E-06  0.4013E-06  0.4112E-06  0.4305E-06  0.4454E-06  0.4359E-06  0.4347E-06  0.4302E-06  0.4466E-06  0.4613E-06  0.4751E-06  0.4878E-06  0.5038E-06  0.5141E-06  0.5231E-06  0.5307E-06  0.5368E-06  0.5413E-06  0.5442E-06  0.5410E-06  0.5407E-06  0.5388E-06  0.5353E-06  0.5302E-06  0.5236E-06  0.5114E-06  0.4979E-06  0.4832E-06  0.4718E-06  0.4592E-06  0.4373E-06  0.4191E-06  0.4045E-06  0.3893E-06  0.3655E-06  0.3458E-06  0.3300E-06  0.3061E-06  0.2866E-06
  0.2478E-06  0.2550E-06  0.2619E-06  0.2685E-06  0.2747E-06  0.2804E-06  0.2908E-06  0.2948E-06  0.3044E-06  0.3074E-06  0.3157E-06  0.3174E-06  0.3184E-06  0.3249E-06  0.3259E-06  0.3256E-06  0.3263E-06  0.3265E-06  0.3200E-06  0.3195E-06  0.3178E-06  0.3088E-06  0.3076E-06  0.3064E-06  0.3052E-06  0.2982E-06  0.2955E-06  0.2868E-06  0.2859E-06  0.2942E-06  0.3082E-06  0.3192E-06  0.3328E-06  0.3480E-06  0.3599E-06  0.3783E-06  0.3931E-06  0.4059E-06  0.4232E-06  0.4375E-06  0.4569E-06  0.4735E-06  0.4900E-06  0.5113E-06  0.5244E-06  0.5418E-06  0.5592E-06  0.5566E-06  0.5507E-06  0.5438E-06  0.5599E-06  0.5792E-06  0.5928E-06  0.6048E-06  0.6152E-06  0.6239E-06  0.6309E-06  0.6359E-06  0.6391E-06  0.6359E-06  0.6354E-06  0.6329E-06  0.6285E-06  0.6222E-06  0.6099E-06  0.5960E-06  0.5806E-06  0.5682E-06  0.5544E-06  0.5351E-06  0.5149E-06  0.4939E-06  0.4764E-06  0.4541E-06  0.4273E-06  0.4088E-06  0.3858E-06  0.3588E-06  0.3405E-06
  0.2816E-06  0.2899E-06  0.2978E-06  0.3108E-06  0.3236E-06  0.3360E-06  0.3483E-06  0.3536E-06  0.3646E-06  0.3686E-06  0.3717E-06  0.3804E-06  0.3818E-06  0.3846E-06  0.3852E-06  0.3858E-06  0.3865E-06  0.3866E-06  0.3862E-06  0.3789E-06  0.3768E-06  0.3733E-06  0.3714E-06  0.3632E-06  0.3613E-06  0.3531E-06  0.3506E-06  0.3411E-06  0.3574E-06  0.3658E-06  0.3713E-06  0.3852E-06  0.4009E-06  0.4174E-06  0.4325E-06  0.4440E-06  0.4664E-06  0.4809E-06  0.5018E-06  0.5186E-06  0.5409E-06  0.5596E-06  0.5790E-06  0.5989E-06  0.6190E-06  0.6392E-06  0.6592E-06  0.6746E-06  0.6769E-06  0.6691E-06  0.6618E-06  0.6787E-06  0.6944E-06  0.7127E-06  0.7247E-06  0.7347E-06  0.7426E-06  0.7438E-06  0.7472E-06  0.7439E-06  0.7430E-06  0.7397E-06  0.7343E-06  0.7267E-06  0.7127E-06  0.6969E-06  0.6792E-06  0.6644E-06  0.6479E-06  0.6258E-06  0.5983E-06  0.5785E-06  0.5577E-06  0.5279E-06  0.5019E-06  0.4799E-06  0.4492E-06  0.4230E-06  0.4011E-06
  0.3248E-06  0.3401E-06  0.3618E-06  0.3772E-06  0.3859E-06  0.4005E-06  0.4147E-06  0.4216E-06  0.4342E-06  0.4394E-06  0.4435E-06  0.4466E-06  0.4573E-06  0.4599E-06  0.4607E-06  0.4623E-06  0.4629E-06  0.4564E-06  0.4556E-06  0.4542E-06  0.4503E-06  0.4404E-06  0.4377E-06  0.4348E-06  0.4254E-06  0.4164E-06  0.4145E-06  0.4233E-06  0.4329E-06  0.4424E-06  0.4544E-06  0.4707E-06  0.4780E-06  0.4883E-06  0.5101E-06  0.5285E-06  0.5443E-06  0.5711E-06  0.5899E-06  0.6141E-06  0.6308E-06  0.6572E-06  0.6797E-06  0.6983E-06  0.7216E-06  0.7448E-06  0.7679E-06  0.7860E-06  0.8033E-06  0.8242E-06  0.8198E-06  0.8201E-06  0.8142E-06  0.8302E-06  0.8439E-06  0.8553E-06  0.8641E-06  0.8659E-06  0.8696E-06  0.8661E-06  0.8647E-06  0.8606E-06  0.8539E-06  0.8447E-06  0.8288E-06  0.8106E-06  0.7905E-06  0.7729E-06  0.7490E-06  0.7237E-06  0.6971E-06  0.6737E-06  0.6449E-06  0.6112E-06  0.5857E-06  0.5554E-06  0.5208E-06  0.4949E-06  0.4606E-06
  0.3920E-06  0.4104E-06  0.4289E-06  0.4470E-06  0.4581E-06  0.4750E-06  0.4915E-06  0.5003E-06  0.5147E-06  0.5212E-06  0.5264E-06  0.5326E-06  0.5377E-06  0.5392E-06  0.5419E-06  0.5436E-06  0.5441E-06  0.5437E-06  0.5423E-06  0.5325E-06  0.5277E-06  0.5243E-06  0.5137E-06  0.5097E-06  0.4992E-06  0.5034E-06  0.5031E-06  0.5194E-06  0.5277E-06  0.5346E-06  0.5438E-06  0.5617E-06  0.5757E-06  0.5881E-06  0.6026E-06  0.6245E-06  0.6425E-06  0.6631E-06  0.6896E-06  0.7129E-06  0.7383E-06  0.7681E-06  0.7898E-06  0.8164E-06  0.8431E-06  0.8698E-06  0.8910E-06  0.9122E-06  0.9371E-06  0.9563E-06  0.9786E-06  0.9739E-06  0.9696E-06  0.9633E-06  0.9789E-06  0.9917E-06  0.1002E-05  0.1004E-05  0.1008E-05  0.1004E-05  0.1002E-05  0.9969E-06  0.9887E-06  0.9732E-06  0.9550E-06  0.9343E-06  0.9158E-06  0.8949E-06  0.8676E-06  0.8341E-06  0.8080E-06  0.7805E-06  0.7431E-06  0.7095E-06  0.6795E-06  0.6404E-06  0.6058E-06  0.5753E-06  0.5324E-06
  0.4629E-06  0.4847E-06  0.5065E-06  0.5278E-06  0.5483E-06  0.5614E-06  0.5804E-06  0.5913E-06  0.6077E-06  0.6158E-06  0.6245E-06  0.6319E-06  0.6355E-06  0.6399E-06  0.6429E-06  0.6445E-06  0.6448E-06  0.6369E-06  0.6339E-06  0.6288E-06  0.6178E-06  0.6132E-06  0.6013E-06  0.5959E-06  0.5918E-06  0.6003E-06  0.6084E-06  0.6112E-06  0.6314E-06  0.6394E-06  0.6564E-06  0.6696E-06  0.6815E-06  0.6957E-06  0.7167E-06  0.7318E-06  0.7534E-06  0.7781E-06  0.8031E-06  0.8303E-06  0.8588E-06  0.8882E-06  0.9183E-06  0.9489E-06  0.9796E-06  0.1006E-05  0.1030E-05  0.1060E-05  0.1083E-05  0.1110E-05  0.1131E-05  0.1149E-05  0.1163E-05  0.1145E-05  0.1131E-05  0.1146E-05  0.1157E-05  0.1160E-05  0.1164E-05  0.1160E-05  0.1157E-05  0.1151E-05  0.1141E-05  0.1123E-05  0.1102E-05  0.1078E-05  0.1057E-05  0.1032E-05  0.9963E-06  0.9630E-06  0.9325E-06  0.8959E-06  0.8538E-06  0.8196E-06  0.7802E-06  0.7361E-06  0.7007E-06  0.6565E-06  0.6173E-06
  0.5446E-06  0.5774E-06  0.5960E-06  0.6210E-06  0.6450E-06  0.6610E-06  0.6830E-06  0.6962E-06  0.7077E-06  0.7269E-06  0.7373E-06  0.7436E-06  0.7504E-06  0.7554E-06  0.7586E-06  0.7530E-06  0.7529E-06  0.7503E-06  0.7452E-06  0.7337E-06  0.7282E-06  0.7151E-06  0.7082E-06  0.7022E-06  0.7128E-06  0.7150E-06  0.7281E-06  0.7385E-06  0.7449E-06  0.7539E-06  0.7660E-06  0.7875E-06  0.8054E-06  0.8174E-06  0.8368E-06  0.8632E-06  0.8788E-06  0.9105E-06  0.9309E-06  0.9613E-06  0.9942E-06  0.1023E-05  0.1063E-05  0.1098E-05  0.1128E-05  0.1158E-05  0.1193E-05  0.1221E-05  0.1253E-05  0.1278E-05  0.1306E-05  0.1327E-05  0.1346E-05  0.1361E-05  0.1350E-05  0.1335E-05  0.1331E-05  0.1335E-05  0.1339E-05  0.1334E-05  0.1331E-05  0.1323E-05  0.1311E-05  0.1290E-05  0.1262E-05  0.1240E-05  0.1214E-05  0.1181E-05  0.1140E-05  0.1107E-05  0.1071E-05  0.1025E-05  0.9819E-06  0.9421E-06  0.8927E-06  0.8474E-06  0.8062E-06  0.7521E-06  0.7116E-06
  0.6461E-06  0.6768E-06  0.7067E-06  0.7287E-06  0.7566E-06  0.7760E-06  0.8013E-06  0.8173E-06  0.8334E-06  0.8453E-06  0.8574E-06  0.8674E-06  0.8751E-06  0.8807E-06  0.8841E-06  0.8854E-06  0.8817E-06  0.8717E-06  0.8673E-06  0.8543E-06  0.8471E-06  0.8317E-06  0.8309E-06  0.8361E-06  0.8432E-06  0.8502E-06  0.8557E-06  0.8711E-06  0.8782E-06  0.8887E-06  0.9021E-06  0.9211E-06  0.9365E-06  0.9598E-06  0.9773E-06  0.1002E-05  0.1030E-05  0.1056E-05  0.1085E-05  0.1120E-05  0.1147E-05  0.1181E-05  0.1225E-05  0.1260E-05  0.1296E-05  0.1335E-05  0.1370E-05  0.1407E-05  0.1438E-05  0.1472E-05  0.1498E-05  0.1523E-05  0.1544E-05  0.1562E-05  0.1576E-05  0.1562E-05  0.1551E-05  0.1531E-05  0.1531E-05  0.1530E-05  0.1525E-05  0.1515E-05  0.1497E-05  0.1473E-05  0.1446E-05  0.1420E-05  0.1390E-05  0.1347E-05  0.1306E-05  0.1267E-05  0.1222E-05  0.1169E-05  0.1125E-05  0.1074E-05  0.1018E-05  0.9711E-06  0.9147E-06  0.8631E-06  0.8161E-06
  0.7553E-06  0.7912E-06  0.8262E-06  0.8527E-06  0.8851E-06  0.9084E-06  0.9374E-06  0.9565E-06  0.9755E-06  0.9921E-06  0.1006E-05  0.1018E-05  0.1026E-05  0.1032E-05  0.1033E-05  0.1026E-05  0.1024E-05  0.1013E-05  0.1007E-05  0.9993E-06  0.9825E-06  0.9683E-06  0.9827E-06  0.9845E-06  0.9919E-06  0.1003E-05  0.1005E-05  0.1010E-05  0.1025E-05  0.1036E-05  0.1051E-05  0.1070E-05  0.1087E-05  0.1111E-05  0.1140E-05  0.1163E-05  0.1195E-05  0.1225E-05  0.1257E-05  0.1292E-05  0.1329E-05  0.1369E-05  0.1402E-05  0.1443E-05  0.1488E-05  0.1528E-05  0.1572E-05  0.1609E-05  0.1650E-05  0.1683E-05  0.1714E-05  0.1741E-05  0.1765E-05  0.1785E-05  0.1801E-05  0.1808E-05  0.1794E-05  0.1775E-05  0.1750E-05  0.1749E-05  0.1742E-05  0.1730E-05  0.1709E-05  0.1677E-05  0.1651E-05  0.1620E-05  0.1581E-05  0.1533E-05  0.1491E-05  0.1445E-05  0.1389E-05  0.1334E-05  0.1283E-05  0.1216E-05  0.1162E-05  0.1103E-05  0.1040E-05  0.9856E-06  0.9183E-06
  0.8809E-06  0.9229E-06  0.9637E-06  0.9955E-06  0.1033E-05  0.1061E-05  0.1086E-05  0.1119E-05  0.1141E-05  0.1160E-05  0.1177E-05  0.1189E-05  0.1196E-05  0.1195E-05  0.1198E-05  0.1191E-05  0.1188E-05  0.1182E-05  0.1167E-05  0.1153E-05  0.1133E-05  0.1145E-05  0.1152E-05  0.1149E-05  0.1165E-05  0.1167E-05  0.1174E-05  0.1190E-05  0.1199E-05  0.1207E-05  0.1224E-05  0.1239E-05  0.1259E-05  0.1283E-05  0.1306E-05  0.1338E-05  0.1368E-05  0.1407E-05  0.1444E-05  0.1484E-05  0.1526E-05  0.1570E-05  0.1611E-05  0.1657E-05  0.1698E-05  0.1749E-05  0.1793E-05  0.1841E-05  0.1882E-05  0.1919E-05  0.1954E-05  0.1984E-05  0.2012E-05  0.2034E-05  0.2051E-05  0.2060E-05  0.2067E-05  0.2043E-05  0.2018E-05  0.1992E-05  0.1983E-05  0.1969E-05  0.1939E-05  0.1909E-05  0.1878E-05  0.1842E-05  0.1793E-05  0.1743E-05  0.1695E-05  0.1638E-05  0.1574E-05  0.1517E-05  0.1453E-05  0.1383E-05  0.1321E-05  0.1250E-05  0.1183E-05  0.1116E-05  0.1046E-05
  0.1034E-05  0.1075E-05  0.1122E-05  0.1160E-05  0.1195E-05  0.1244E-05  0.1276E-05  0.1305E-05  0.1331E-05  0.1353E-05  0.1369E-05  0.1384E-05  0.1394E-05  0.1385E-05  0.1388E-05  0.1387E-05  0.1383E-05  0.1364E-05  0.1353E-05  0.1332E-05  0.1330E-05  0.1341E-05  0.1344E-05  0.1352E-05  0.1360E-05  0.1359E-05  0.1360E-05  0.1377E-05  0.1382E-05  0.1395E-05  0.1413E-05  0.1430E-05  0.1453E-05  0.1479E-05  0.1510E-05  0.1541E-05  0.1575E-05  0.1618E-05  0.1655E-05  0.1705E-05  0.1753E-05  0.1798E-05  0.1844E-05  0.1890E-05  0.1943E-05  0.1995E-05  0.2045E-05  0.2094E-05  0.2139E-05  0.2182E-05  0.2222E-05  0.2256E-05  0.2287E-05  0.2311E-05  0.2331E-05  0.2340E-05  0.2343E-05  0.2344E-05  0.2314E-05  0.2286E-05  0.2251E-05  0.2229E-05  0.2201E-05  0.2166E-05  0.2130E-05  0.2084E-05  0.2028E-05  0.1976E-05  0.1921E-05  0.1852E-05  0.1784E-05  0.1718E-05  0.1637E-05  0.1567E-05  0.1492E-05  0.1412E-05  0.1341E-05  0.1256E-05  0.1186E-05
  0.1200E-05  0.1257E-05  0.1304E-05  0.1348E-05  0.1390E-05  0.1439E-05  0.1485E-05  0.1519E-05  0.1546E-05  0.1571E-05  0.1584E-05  0.1592E-05  0.1604E-05  0.1610E-05  0.1613E-05  0.1607E-05  0.1593E-05  0.1582E-05  0.1560E-05  0.1556E-05  0.1561E-05  0.1564E-05  0.1561E-05  0.1565E-05  0.1572E-05  0.1574E-05  0.1579E-05  0.1585E-05  0.1594E-05  0.1611E-05  0.1625E-05  0.1645E-05  0.1674E-05  0.1698E-05  0.1732E-05  0.1767E-05  0.1810E-05  0.1849E-05  0.1896E-05  0.1945E-05  0.1993E-05  0.2044E-05  0.2102E-05  0.2161E-05  0.2220E-05  0.2267E-05  0.2319E-05  0.2375E-05  0.2426E-05  0.2475E-05  0.2518E-05  0.2557E-05  0.2590E-05  0.2619E-05  0.2640E-05  0.2650E-05  0.2653E-05  0.2649E-05  0.2643E-05  0.2609E-05  0.2571E-05  0.2522E-05  0.2485E-05  0.2450E-05  0.2408E-05  0.2351E-05  0.2292E-05  0.2233E-05  0.2164E-05  0.2087E-05  0.2015E-05  0.1930E-05  0.1849E-05  0.1769E-05  0.1675E-05  0.1594E-05  0.1508E-05  0.1419E-05  0.1339E-05
  0.1391E-05  0.1457E-05  0.1512E-05  0.1565E-05  0.1624E-05  0.1670E-05  0.1713E-05  0.1752E-05  0.1786E-05  0.1815E-05  0.1838E-05  0.1848E-05  0.1858E-05  0.1864E-05  0.1857E-05  0.1853E-05  0.1843E-05  0.1814E-05  0.1804E-05  0.1818E-05  0.1814E-05  0.1819E-05  0.1811E-05  0.1814E-05  0.1815E-05  0.1811E-05  0.1816E-05  0.1821E-05  0.1826E-05  0.1841E-05  0.1861E-05  0.1884E-05  0.1903E-05  0.1936E-05  0.1969E-05  0.2012E-05  0.2056E-05  0.2104E-05  0.2157E-05  0.2213E-05  0.2268E-05  0.2331E-05  0.2389E-05  0.2454E-05  0.2515E-05  0.2576E-05  0.2635E-05  0.2686E-05  0.2744E-05  0.2798E-05  0.2847E-05  0.2890E-05  0.2928E-05  0.2958E-05  0.2977E-05  0.2993E-05  0.2996E-05  0.2991E-05  0.2983E-05  0.2967E-05  0.2918E-05  0.2864E-05  0.2803E-05  0.2762E-05  0.2709E-05  0.2644E-05  0.2583E-05  0.2515E-05  0.2432E-05  0.2350E-05  0.2268E-05  0.2169E-05  0.2081E-05  0.1986E-05  0.1886E-05  0.1794E-05  0.1688E-05  0.1597E-05  0.1493E-05
  0.1610E-05  0.1689E-05  0.1754E-05  0.1815E-05  0.1875E-05  0.1938E-05  0.1989E-05  0.2033E-05  0.2064E-05  0.2095E-05  0.2120E-05  0.2139E-05  0.2151E-05  0.2149E-05  0.2149E-05  0.2134E-05  0.2117E-05  0.2089E-05  0.2100E-05  0.2105E-05  0.2099E-05  0.2095E-05  0.2101E-05  0.2093E-05  0.2092E-05  0.2087E-05  0.2086E-05  0.2090E-05  0.2099E-05  0.2110E-05  0.2121E-05  0.2149E-05  0.2173E-05  0.2208E-05  0.2244E-05  0.2292E-05  0.2335E-05  0.2394E-05  0.2453E-05  0.2504E-05  0.2571E-05  0.2641E-05  0.2708E-05  0.2781E-05  0.2843E-05  0.2911E-05  0.2977E-05  0.3041E-05  0.3095E-05  0.3155E-05  0.3210E-05  0.3258E-05  0.3299E-05  0.3333E-05  0.3353E-05  0.3370E-05  0.3373E-05  0.3367E-05  0.3357E-05  0.3338E-05  0.3305E-05  0.3238E-05  0.3167E-05  0.3105E-05  0.3040E-05  0.2972E-05  0.2901E-05  0.2819E-05  0.2726E-05  0.2638E-05  0.2535E-05  0.2434E-05  0.2334E-05  0.2218E-05  0.2115E-05  0.2002E-05  0.1894E-05  0.1786E-05  0.1675E-05
  0.1866E-05  0.1954E-05  0.2030E-05  0.2104E-05  0.2176E-05  0.2239E-05  0.2296E-05  0.2349E-05  0.2392E-05  0.2429E-05  0.2455E-05  0.2467E-05  0.2480E-05  0.2481E-05  0.2467E-05  0.2449E-05  0.2432E-05  0.2425E-05  0.2441E-05  0.2431E-05  0.2423E-05  0.2413E-05  0.2416E-05  0.2393E-05  0.2389E-05  0.2386E-05  0.2383E-05  0.2386E-05  0.2390E-05  0.2404E-05  0.2421E-05  0.2440E-05  0.2476E-05  0.2505E-05  0.2550E-05  0.2590E-05  0.2644E-05  0.2709E-05  0.2769E-05  0.2839E-05  0.2913E-05  0.2986E-05  0.3059E-05  0.3135E-05  0.3211E-05  0.3287E-05  0.3354E-05  0.3425E-05  0.3493E-05  0.3548E-05  0.3609E-05  0.3662E-05  0.3708E-05  0.3744E-05  0.3766E-05  0.3779E-05  0.3782E-05  0.3779E-05  0.3767E-05  0.3744E-05  0.3701E-05  0.3653E-05  0.3581E-05  0.3484E-05  0.3401E-05  0.3329E-05  0.3248E-05  0.3146E-05  0.3052E-05  0.2951E-05  0.2832E-05  0.2723E-05  0.2600E-05  0.2481E-05  0.2365E-05  0.2234E-05  0.2117E-05  0.1987E-05  0.1872E-05
  0.2167E-05  0.2263E-05  0.2354E-05  0.2442E-05  0.2521E-05  0.2597E-05  0.2663E-05  0.2721E-05  0.2770E-05  0.2802E-05  0.2832E-05  0.2852E-05  0.2853E-05  0.2856E-05  0.2839E-05  0.2822E-05  0.2799E-05  0.2810E-05  0.2815E-05  0.2799E-05  0.2787E-05  0.2776E-05  0.2756E-05  0.2754E-05  0.2736E-05  0.2717E-05  0.2720E-05  0.2721E-05  0.2715E-05  0.2733E-05  0.2750E-05  0.2767E-05  0.2795E-05  0.2837E-05  0.2881E-05  0.2933E-05  0.2992E-05  0.3059E-05  0.3126E-05  0.3196E-05  0.3279E-05  0.3364E-05  0.3448E-05  0.3525E-05  0.3610E-05  0.3694E-05  0.3776E-05  0.3849E-05  0.3923E-05  0.3992E-05  0.4048E-05  0.4106E-05  0.4156E-05  0.4196E-05  0.4220E-05  0.4234E-05  0.4236E-05  0.4232E-05  0.4216E-05  0.4184E-05  0.4135E-05  0.4086E-05  0.4026E-05  0.3917E-05  0.3806E-05  0.3719E-05  0.3622E-05  0.3513E-05  0.3406E-05  0.3283E-05  0.3160E-05  0.3036E-05  0.2895E-05  0.2766E-05  0.2621E-05  0.2490E-05  0.2349E-05  0.2214E-05  0.2081E-05
  0.2520E-05  0.2623E-05  0.2733E-05  0.2828E-05  0.2920E-05  0.3004E-05  0.3070E-05  0.3144E-05  0.3198E-05  0.3243E-05  0.3267E-05  0.3290E-05  0.3283E-05  0.3284E-05  0.3262E-05  0.3239E-05  0.3244E-05  0.3237E-05  0.3238E-05  0.3218E-05  0.3198E-05  0.3178E-05  0.3152E-05  0.3138E-05  0.3123E-05  0.3105E-05  0.3091E-05  0.3078E-05  0.3087E-05  0.3100E-05  0.3105E-05  0.3131E-05  0.3161E-05  0.3206E-05  0.3249E-05  0.3311E-05  0.3369E-05  0.3436E-05  0.3516E-05  0.3602E-05  0.3693E-05  0.3775E-05  0.3868E-05  0.3961E-05  0.4049E-05  0.4142E-05  0.4232E-05  0.4319E-05  0.4395E-05  0.4471E-05  0.4533E-05  0.4592E-05  0.4646E-05  0.4688E-05  0.4715E-05  0.4729E-05  0.4731E-05  0.4724E-05  0.4705E-05  0.4663E-05  0.4613E-05  0.4556E-05  0.4481E-05  0.4388E-05  0.4268E-05  0.4142E-05  0.4023E-05  0.3910E-05  0.3785E-05  0.3647E-05  0.3514E-05  0.3366E-05  0.3219E-05  0.3069E-05  0.2913E-05  0.2766E-05  0.2605E-05  0.2459E-05  0.2301E-05
  0.2952E-05  0.3072E-05  0.3181E-05  0.3285E-05  0.3384E-05  0.3479E-05  0.3564E-05  0.3638E-05  0.3700E-05  0.3739E-05  0.3774E-05  0.3786E-05  0.3796E-05  0.3783E-05  0.3768E-05  0.3756E-05  0.3747E-05  0.3738E-05  0.3728E-05  0.3695E-05  0.3665E-05  0.3631E-05  0.3603E-05  0.3567E-05  0.3540E-05  0.3523E-05  0.3501E-05  0.3492E-05  0.3485E-05  0.3490E-05  0.3507E-05  0.3528E-05  0.3565E-05  0.3600E-05  0.3658E-05  0.3720E-05  0.3786E-05  0.3866E-05  0.3946E-05  0.4036E-05  0.4130E-05  0.4229E-05  0.4324E-05  0.4428E-05  0.4531E-05  0.4627E-05  0.4727E-05  0.4822E-05  0.4906E-05  0.4989E-05  0.5064E-05  0.5123E-05  0.5175E-05  0.5222E-05  0.5250E-05  0.5264E-05  0.5269E-05  0.5260E-05  0.5232E-05  0.5189E-05  0.5132E-05  0.5066E-05  0.4977E-05  0.4880E-05  0.4766E-05  0.4616E-05  0.4468E-05  0.4341E-05  0.4195E-05  0.4047E-05  0.3892E-05  0.3727E-05  0.3568E-05  0.3391E-05  0.3228E-05  0.3049E-05  0.2886E-05  0.2714E-05  0.2549E-05
  0.3453E-05  0.3586E-05  0.3707E-05  0.3823E-05  0.3942E-05  0.4045E-05  0.4138E-05  0.4211E-05  0.4279E-05  0.4322E-05  0.4359E-05  0.4363E-05  0.4370E-05  0.4355E-05  0.4333E-05  0.4332E-05  0.4323E-05  0.4299E-05  0.4269E-05  0.4247E-05  0.4210E-05  0.4150E-05  0.4103E-05  0.4066E-05  0.4027E-05  0.3994E-05  0.3967E-05  0.3949E-05  0.3945E-05  0.3942E-05  0.3950E-05  0.3983E-05  0.4017E-05  0.4055E-05  0.4111E-05  0.4166E-05  0.4238E-05  0.4320E-05  0.4410E-05  0.4500E-05  0.4603E-05  0.4712E-05  0.4823E-05  0.4930E-05  0.5043E-05  0.5156E-05  0.5258E-05  0.5362E-05  0.5454E-05  0.5544E-05  0.5625E-05  0.5689E-05  0.5747E-05  0.5791E-05  0.5825E-05  0.5845E-05  0.5849E-05  0.5836E-05  0.5802E-05  0.5752E-05  0.5692E-05  0.5617E-05  0.5512E-05  0.5409E-05  0.5292E-05  0.5130E-05  0.4960E-05  0.4800E-05  0.4638E-05  0.4478E-05  0.4296E-05  0.4123E-05  0.3941E-05  0.3752E-05  0.3565E-05  0.3373E-05  0.3192E-05  0.2997E-05  0.2820E-05
  0.4031E-05  0.4172E-05  0.4307E-05  0.4435E-05  0.4544E-05  0.4656E-05  0.4766E-05  0.4853E-05  0.4919E-05  0.4966E-05  0.4996E-05  0.5018E-05  0.5020E-05  0.5007E-05  0.4992E-05  0.4990E-05  0.4972E-05  0.4941E-05  0.4902E-05  0.4860E-05  0.4799E-05  0.4744E-05  0.4691E-05  0.4642E-05  0.4580E-05  0.4536E-05  0.4503E-05  0.4476E-05  0.4455E-05  0.4452E-05  0.4458E-05  0.4478E-05  0.4507E-05  0.4547E-05  0.4593E-05  0.4660E-05  0.4737E-05  0.4818E-05  0.4915E-05  0.5021E-05  0.5126E-05  0.5244E-05  0.5365E-05  0.5488E-05  0.5604E-05  0.5726E-05  0.5837E-05  0.5950E-05  0.6055E-05  0.6146E-05  0.6232E-05  0.6300E-05  0.6362E-05  0.6402E-05  0.6439E-05  0.6458E-05  0.6459E-05  0.6443E-05  0.6409E-05  0.6357E-05  0.6289E-05  0.6197E-05  0.6090E-05  0.5973E-05  0.5832E-05  0.5683E-05  0.5499E-05  0.5292E-05  0.5118E-05  0.4935E-05  0.4740E-05  0.4549E-05  0.4339E-05  0.4140E-05  0.3925E-05  0.3724E-05  0.3510E-05  0.3312E-05  0.3102E-05
  0.4663E-05  0.4822E-05  0.4974E-05  0.5117E-05  0.5248E-05  0.5369E-05  0.5477E-05  0.5569E-05  0.5636E-05  0.5685E-05  0.5718E-05  0.5750E-05  0.5750E-05  0.5732E-05  0.5728E-05  0.5718E-05  0.5684E-05  0.5653E-05  0.5603E-05  0.5536E-05  0.5472E-05  0.5409E-05  0.5339E-05  0.5273E-05  0.5205E-05  0.5151E-05  0.5096E-05  0.5053E-05  0.5031E-05  0.5012E-05  0.5007E-05  0.5019E-05  0.5036E-05  0.5077E-05  0.5131E-05  0.5193E-05  0.5276E-05  0.5370E-05  0.5467E-05  0.5581E-05  0.5702E-05  0.5821E-05  0.5952E-05  0.6085E-05  0.6210E-05  0.6341E-05  0.6467E-05  0.6581E-05  0.6693E-05  0.6790E-05  0.6881E-05  0.6953E-05  0.7017E-05  0.7065E-05  0.7090E-05  0.7107E-05  0.7105E-05  0.7084E-05  0.7044E-05  0.6985E-05  0.6907E-05  0.6810E-05  0.6696E-05  0.6564E-05  0.6408E-05  0.6247E-05  0.6063E-05  0.5837E-05  0.5624E-05  0.5412E-05  0.5209E-05  0.4988E-05  0.4769E-05  0.4546E-05  0.4316E-05  0.4091E-05  0.3863E-05  0.3641E-05  0.3419E-05
  0.5391E-05  0.5570E-05  0.5728E-05  0.5887E-05  0.6032E-05  0.6164E-05  0.6280E-05  0.6377E-05  0.6435E-05  0.6492E-05  0.6540E-05  0.6567E-05  0.6558E-05  0.6534E-05  0.6537E-05  0.6524E-05  0.6477E-05  0.6435E-05  0.6373E-05  0.6292E-05  0.6214E-05  0.6132E-05  0.6043E-05  0.5958E-05  0.5891E-05  0.5824E-05  0.5753E-05  0.5704E-05  0.5658E-05  0.5609E-05  0.5598E-05  0.5599E-05  0.5623E-05  0.5660E-05  0.5707E-05  0.5780E-05  0.5857E-05  0.5957E-05  0.6069E-05  0.6182E-05  0.6311E-05  0.6447E-05  0.6579E-05  0.6721E-05  0.6855E-05  0.6994E-05  0.7128E-05  0.7249E-05  0.7368E-05  0.7470E-05  0.7565E-05  0.7646E-05  0.7705E-05  0.7754E-05  0.7778E-05  0.7787E-05  0.7781E-05  0.7754E-05  0.7707E-05  0.7639E-05  0.7550E-05  0.7441E-05  0.7314E-05  0.7169E-05  0.7007E-05  0.6829E-05  0.6627E-05  0.6408E-05  0.6152E-05  0.5919E-05  0.5695E-05  0.5450E-05  0.5216E-05  0.4963E-05  0.4723E-05  0.4469E-05  0.4231E-05  0.3981E-05  0.3749E-05
  0.6189E-05  0.6389E-05  0.6580E-05  0.6756E-05  0.6916E-05  0.7060E-05  0.7184E-05  0.7275E-05  0.7346E-05  0.7418E-05  0.7463E-05  0.7479E-05  0.7461E-05  0.7444E-05  0.7438E-05  0.7407E-05  0.7362E-05  0.7293E-05  0.7212E-05  0.7120E-05  0.7026E-05  0.6937E-05  0.6831E-05  0.6741E-05  0.6643E-05  0.6554E-05  0.6459E-05  0.6386E-05  0.6318E-05  0.6286E-05  0.6262E-05  0.6236E-05  0.6253E-05  0.6288E-05  0.6341E-05  0.6405E-05  0.6493E-05  0.6587E-05  0.6705E-05  0.6833E-05  0.6962E-05  0.7106E-05  0.7246E-05  0.7396E-05  0.7546E-05  0.7685E-05  0.7827E-05  0.7954E-05  0.8079E-05  0.8185E-05  0.8284E-05  0.8360E-05  0.8426E-05  0.8467E-05  0.8495E-05  0.8494E-05  0.8483E-05  0.8451E-05  0.8395E-05  0.8317E-05  0.8216E-05  0.8095E-05  0.7953E-05  0.7793E-05  0.7615E-05  0.7420E-05  0.7210E-05  0.6987E-05  0.6715E-05  0.6450E-05  0.6183E-05  0.5933E-05  0.5662E-05  0.5405E-05  0.5130E-05  0.4871E-05  0.4597E-05  0.4343E-05  0.4077E-05
  0.7046E-05  0.7273E-05  0.7487E-05  0.7684E-05  0.7862E-05  0.8022E-05  0.8161E-05  0.8282E-05  0.8377E-05  0.8449E-05  0.8482E-05  0.8482E-05  0.8476E-05  0.8465E-05  0.8421E-05  0.8385E-05  0.8325E-05  0.8235E-05  0.8131E-05  0.8031E-05  0.7913E-05  0.7795E-05  0.7676E-05  0.7557E-05  0.7439E-05  0.7322E-05  0.7226E-05  0.7136E-05  0.7064E-05  0.6991E-05  0.6957E-05  0.6952E-05  0.6949E-05  0.6963E-05  0.7014E-05  0.7083E-05  0.7163E-05  0.7269E-05  0.7381E-05  0.7515E-05  0.7651E-05  0.7802E-05  0.7957E-05  0.8107E-05  0.8264E-05  0.8411E-05  0.8558E-05  0.8691E-05  0.8820E-05  0.8929E-05  0.9030E-05  0.9107E-05  0.9173E-05  0.9211E-05  0.9235E-05  0.9230E-05  0.9208E-05  0.9167E-05  0.9101E-05  0.9012E-05  0.8899E-05  0.8764E-05  0.8607E-05  0.8432E-05  0.8236E-05  0.8024E-05  0.7795E-05  0.7553E-05  0.7291E-05  0.6996E-05  0.6698E-05  0.6427E-05  0.6136E-05  0.5857E-05  0.5562E-05  0.5282E-05  0.4989E-05  0.4710E-05  0.4431E-05
  0.7991E-05  0.8244E-05  0.8484E-05  0.8704E-05  0.8902E-05  0.9084E-05  0.9245E-05  0.9378E-05  0.9483E-05  0.9556E-05  0.9599E-05  0.9611E-05  0.9599E-05  0.9570E-05  0.9534E-05  0.9472E-05  0.9369E-05  0.9271E-05  0.9151E-05  0.9009E-05  0.8890E-05  0.8735E-05  0.8582E-05  0.8434E-05  0.8293E-05  0.8163E-05  0.8039E-05  0.7930E-05  0.7840E-05  0.7771E-05  0.7724E-05  0.7680E-05  0.7688E-05  0.7709E-05  0.7732E-05  0.7800E-05  0.7877E-05  0.7982E-05  0.8105E-05  0.8237E-05  0.8376E-05  0.8533E-05  0.8695E-05  0.8851E-05  0.9014E-05  0.9166E-05  0.9320E-05  0.9456E-05  0.9589E-05  0.9700E-05  0.9802E-05  0.9878E-05  0.9942E-05  0.9977E-05  0.9995E-05  0.9984E-05  0.9948E-05  0.9899E-05  0.9823E-05  0.9722E-05  0.9595E-05  0.9446E-05  0.9273E-05  0.9081E-05  0.8867E-05  0.8636E-05  0.8389E-05  0.8127E-05  0.7852E-05  0.7548E-05  0.7226E-05  0.6914E-05  0.6617E-05  0.6302E-05  0.6001E-05  0.5686E-05  0.5389E-05  0.5080E-05  0.4791E-05
  0.9023E-05  0.9307E-05  0.9575E-05  0.9819E-05  0.1005E-04  0.1026E-04  0.1043E-04  0.1058E-04  0.1069E-04  0.1077E-04  0.1081E-04  0.1082E-04  0.1080E-04  0.1080E-04  0.1075E-04  0.1065E-04  0.1054E-04  0.1041E-04  0.1026E-04  0.1011E-04  0.9925E-05  0.9741E-05  0.9560E-05  0.9374E-05  0.9208E-05  0.9054E-05  0.8916E-05  0.8796E-05  0.8677E-05  0.8600E-05  0.8537E-05  0.8490E-05  0.8477E-05  0.8481E-05  0.8519E-05  0.8560E-05  0.8643E-05  0.8738E-05  0.8863E-05  0.8995E-05  0.9146E-05  0.9297E-05  0.9464E-05  0.9626E-05  0.9794E-05  0.9951E-05  0.1011E-04  0.1025E-04  0.1038E-04  0.1049E-04  0.1059E-04  0.1067E-04  0.1073E-04  0.1076E-04  0.1077E-04  0.1075E-04  0.1071E-04  0.1064E-04  0.1056E-04  0.1044E-04  0.1030E-04  0.1014E-04  0.9946E-05  0.9737E-05  0.9505E-05  0.9255E-05  0.8988E-05  0.8706E-05  0.8411E-05  0.8101E-05  0.7756E-05  0.7419E-05  0.7094E-05  0.6768E-05  0.6436E-05  0.6111E-05  0.5778E-05  0.5466E-05  0.5143E-05
  0.1015E-04  0.1046E-04  0.1076E-04  0.1104E-04  0.1130E-04  0.1152E-04  0.1172E-04  0.1187E-04  0.1199E-04  0.1208E-04  0.1212E-04  0.1213E-04  0.1212E-04  0.1210E-04  0.1204E-04  0.1194E-04  0.1180E-04  0.1164E-04  0.1147E-04  0.1126E-04  0.1104E-04  0.1082E-04  0.1060E-04  0.1040E-04  0.1020E-04  0.1001E-04  0.9845E-05  0.9700E-05  0.9579E-05  0.9472E-05  0.9392E-05  0.9338E-05  0.9304E-05  0.9315E-05  0.9324E-05  0.9380E-05  0.9448E-05  0.9534E-05  0.9653E-05  0.9791E-05  0.9937E-05  0.1009E-04  0.1026E-04  0.1043E-04  0.1060E-04  0.1076E-04  0.1092E-04  0.1106E-04  0.1119E-04  0.1130E-04  0.1140E-04  0.1147E-04  0.1153E-04  0.1155E-04  0.1156E-04  0.1153E-04  0.1147E-04  0.1139E-04  0.1129E-04  0.1116E-04  0.1101E-04  0.1083E-04  0.1062E-04  0.1039E-04  0.1014E-04  0.9873E-05  0.9586E-05  0.9284E-05  0.8969E-05  0.8643E-05  0.8291E-05  0.7922E-05  0.7571E-05  0.7231E-05  0.6878E-05  0.6538E-05  0.6186E-05  0.5838E-05  0.5512E-05
  0.1158E-04  0.1196E-04  0.1232E-04  0.1265E-04  0.1295E-04  0.1320E-04  0.1340E-04  0.1347E-04  0.1348E-04  0.1349E-04  0.1354E-04  0.1354E-04  0.1354E-04  0.1350E-04  0.1342E-04  0.1331E-04  0.1316E-04  0.1299E-04  0.1275E-04  0.1250E-04  0.1225E-04  0.1199E-04  0.1173E-04  0.1148E-04  0.1125E-04  0.1104E-04  0.1085E-04  0.1066E-04  0.1052E-04  0.1040E-04  0.1030E-04  0.1023E-04  0.1019E-04  0.1017E-04  0.1019E-04  0.1021E-04  0.1029E-04  0.1038E-04  0.1048E-04  0.1061E-04  0.1076E-04  0.1091E-04  0.1108E-04  0.1125E-04  0.1142E-04  0.1158E-04  0.1173E-04  0.1188E-04  0.1201E-04  0.1212E-04  0.1221E-04  0.1229E-04  0.1233E-04  0.1235E-04  0.1234E-04  0.1231E-04  0.1224E-04  0.1215E-04  0.1203E-04  0.1189E-04  0.1171E-04  0.1152E-04  0.1129E-04  0.1105E-04  0.1078E-04  0.1049E-04  0.1018E-04  0.9860E-05  0.9524E-05  0.9178E-05  0.8818E-05  0.8426E-05  0.8047E-05  0.7682E-05  0.7320E-05  0.6950E-05  0.6593E-05  0.6227E-05  0.5872E-05
  0.1308E-04  0.1354E-04  0.1396E-04  0.1434E-04  0.1468E-04  0.1496E-04  0.1522E-04  0.1543E-04  0.1557E-04  0.1565E-04  0.1564E-04  0.1555E-04  0.1549E-04  0.1535E-04  0.1516E-04  0.1490E-04  0.1464E-04  0.1437E-04  0.1412E-04  0.1383E-04  0.1353E-04  0.1323E-04  0.1293E-04  0.1266E-04  0.1237E-04  0.1213E-04  0.1189E-04  0.1169E-04  0.1151E-04  0.1136E-04  0.1124E-04  0.1116E-04  0.1111E-04  0.1107E-04  0.1108E-04  0.1110E-04  0.1116E-04  0.1124E-04  0.1134E-04  0.1145E-04  0.1160E-04  0.1175E-04  0.1192E-04  0.1209E-04  0.1226E-04  0.1242E-04  0.1257E-04  0.1272E-04  0.1284E-04  0.1295E-04  0.1303E-04  0.1310E-04  0.1314E-04  0.1315E-04  0.1313E-04  0.1308E-04  0.1300E-04  0.1290E-04  0.1276E-04  0.1260E-04  0.1241E-04  0.1220E-04  0.1196E-04  0.1169E-04  0.1140E-04  0.1109E-04  0.1077E-04  0.1043E-04  0.1007E-04  0.9704E-05  0.9329E-05  0.8931E-05  0.8520E-05  0.8126E-05  0.7746E-05  0.7368E-05  0.6982E-05  0.6613E-05  0.6235E-05
  0.1475E-04  0.1525E-04  0.1573E-04  0.1615E-04  0.1653E-04  0.1688E-04  0.1717E-04  0.1739E-04  0.1756E-04  0.1766E-04  0.1770E-04  0.1768E-04  0.1761E-04  0.1747E-04  0.1727E-04  0.1701E-04  0.1669E-04  0.1636E-04  0.1599E-04  0.1560E-04  0.1516E-04  0.1474E-04  0.1433E-04  0.1391E-04  0.1358E-04  0.1326E-04  0.1301E-04  0.1276E-04  0.1255E-04  0.1237E-04  0.1223E-04  0.1212E-04  0.1205E-04  0.1201E-04  0.1200E-04  0.1201E-04  0.1206E-04  0.1212E-04  0.1222E-04  0.1234E-04  0.1246E-04  0.1261E-04  0.1277E-04  0.1293E-04  0.1310E-04  0.1326E-04  0.1341E-04  0.1355E-04  0.1367E-04  0.1377E-04  0.1385E-04  0.1391E-04  0.1394E-04  0.1394E-04  0.1391E-04  0.1385E-04  0.1376E-04  0.1364E-04  0.1348E-04  0.1330E-04  0.1310E-04  0.1287E-04  0.1261E-04  0.1232E-04  0.1201E-04  0.1169E-04  0.1134E-04  0.1098E-04  0.1061E-04  0.1022E-04  0.9826E-05  0.9420E-05  0.8988E-05  0.8567E-05  0.8165E-05  0.7769E-05  0.7376E-05  0.6978E-05  0.6599E-05
  0.1675E-04  0.1730E-04  0.1783E-04  0.1829E-04  0.1869E-04  0.1906E-04  0.1935E-04  0.1958E-04  0.1975E-04  0.1985E-04  0.1989E-04  0.1990E-04  0.1984E-04  0.1971E-04  0.1947E-04  0.1914E-04  0.1877E-04  0.1836E-04  0.1791E-04  0.1744E-04  0.1696E-04  0.1647E-04  0.1596E-04  0.1549E-04  0.1502E-04  0.1462E-04  0.1424E-04  0.1392E-04  0.1364E-04  0.1343E-04  0.1326E-04  0.1312E-04  0.1303E-04  0.1296E-04  0.1294E-04  0.1295E-04  0.1297E-04  0.1304E-04  0.1312E-04  0.1323E-04  0.1335E-04  0.1348E-04  0.1363E-04  0.1379E-04  0.1394E-04  0.1410E-04  0.1425E-04  0.1438E-04  0.1450E-04  0.1459E-04  0.1467E-04  0.1471E-04  0.1473E-04  0.1472E-04  0.1467E-04  0.1460E-04  0.1450E-04  0.1436E-04  0.1419E-04  0.1399E-04  0.1377E-04  0.1352E-04  0.1324E-04  0.1294E-04  0.1261E-04  0.1227E-04  0.1190E-04  0.1152E-04  0.1113E-04  0.1072E-04  0.1031E-04  0.9891E-05  0.9449E-05  0.9001E-05  0.8574E-05  0.8161E-05  0.7752E-05  0.7349E-05  0.6942E-05
  0.1893E-04  0.1957E-04  0.2016E-04  0.2069E-04  0.2117E-04  0.2157E-04  0.2191E-04  0.2217E-04  0.2234E-04  0.2243E-04  0.2245E-04  0.2243E-04  0.2233E-04  0.2213E-04  0.2184E-04  0.2147E-04  0.2103E-04  0.2053E-04  0.2001E-04  0.1945E-04  0.1887E-04  0.1830E-04  0.1773E-04  0.1713E-04  0.1660E-04  0.1608E-04  0.1562E-04  0.1521E-04  0.1486E-04  0.1456E-04  0.1433E-04  0.1415E-04  0.1407E-04  0.2287E-04  0.2476E-04  0.1389E-04  0.1391E-04  0.1395E-04  0.1403E-04  0.1411E-04  0.1424E-04  0.1436E-04  0.1450E-04  0.1464E-04  0.1479E-04  0.1494E-04  0.1508E-04  0.1520E-04  0.1531E-04  0.1540E-04  0.1545E-04  0.1549E-04  0.1550E-04  0.1548E-04  0.1542E-04  0.1533E-04  0.1521E-04  0.1506E-04  0.1487E-04  0.1465E-04  0.1442E-04  0.1415E-04  0.1385E-04  0.1353E-04  0.1319E-04  0.1282E-04  0.1244E-04  0.1204E-04  0.1163E-04  0.1121E-04  0.1078E-04  0.1034E-04  0.9891E-05  0.9424E-05  0.8972E-05  0.8541E-05  0.8117E-05  0.7699E-05  0.7288E-05
  0.2135E-04  0.2207E-04  0.2274E-04  0.2335E-04  0.2388E-04  0.2433E-04  0.2470E-04  0.2498E-04  0.2517E-04  0.2526E-04  0.2527E-04  0.2523E-04  0.2508E-04  0.2480E-04  0.2445E-04  0.2402E-04  0.2353E-04  0.2294E-04  0.2231E-04  0.2165E-04  0.2098E-04  0.2030E-04  0.1962E-04  0.1894E-04  0.1829E-04  0.1767E-04  0.1711E-04  0.1660E-04  0.1616E-04  0.1578E-04  0.1548E-04  0.1839E-04  0.7678E-04  0.1909E-03  0.9792E-04  0.1537E-04  0.1485E-04  0.1488E-04  0.1494E-04  0.1502E-04  0.1511E-04  0.1524E-04  0.1535E-04  0.1549E-04  0.1563E-04  0.1576E-04  0.1589E-04  0.1600E-04  0.1610E-04  0.1618E-04  0.1623E-04  0.1626E-04  0.1625E-04  0.1621E-04  0.1614E-04  0.1604E-04  0.1590E-04  0.1573E-04  0.1553E-04  0.1530E-04  0.1504E-04  0.1475E-04  0.1444E-04  0.1410E-04  0.1374E-04  0.1336E-04  0.1296E-04  0.1254E-04  0.1211E-04  0.1167E-04  0.1122E-04  0.1077E-04  0.1031E-04  0.9837E-05  0.9359E-05  0.8908E-05  0.8470E-05  0.8038E-05  0.7613E-05
  0.2404E-04  0.2487E-04  0.2563E-04  0.2632E-04  0.2693E-04  0.2745E-04  0.2787E-04  0.2819E-04  0.2839E-04  0.2848E-04  0.2851E-04  0.2842E-04  0.2819E-04  0.2785E-04  0.2742E-04  0.2690E-04  0.2630E-04  0.2564E-04  0.2489E-04  0.2412E-04  0.2331E-04  0.2250E-04  0.2170E-04  0.2090E-04  0.2012E-04  0.1939E-04  0.1870E-04  0.1808E-04  0.1754E-04  0.1766E-04  0.2880E-04  0.1258E-03  0.4205E-03  0.2424E-03  0.2195E-03  0.1861E-04  0.1586E-04  0.1580E-04  0.1584E-04  0.1591E-04  0.1600E-04  0.1609E-04  0.1621E-04  0.1632E-04  0.1645E-04  0.1657E-04  0.1669E-04  0.1678E-04  0.1687E-04  0.1693E-04  0.1697E-04  0.1698E-04  0.1696E-04  0.1691E-04  0.1683E-04  0.1671E-04  0.1655E-04  0.1637E-04  0.1615E-04  0.1591E-04  0.1563E-04  0.1532E-04  0.1499E-04  0.1464E-04  0.1426E-04  0.1386E-04  0.1345E-04  0.1301E-04  0.1257E-04  0.1211E-04  0.1165E-04  0.1118E-04  0.1071E-04  0.1023E-04  0.9733E-05  0.9261E-05  0.8808E-05  0.8362E-05  0.7925E-05
  0.2704E-04  0.2799E-04  0.2887E-04  0.2966E-04  0.3036E-04  0.3096E-04  0.3145E-04  0.3182E-04  0.3206E-04  0.3217E-04  0.3220E-04  0.3206E-04  0.3177E-04  0.3136E-04  0.3083E-04  0.3020E-04  0.2947E-04  0.2867E-04  0.2781E-04  0.2686E-04  0.2591E-04  0.2493E-04  0.2397E-04  0.2303E-04  0.2211E-04  0.2122E-04  0.2043E-04  0.1966E-04  0.2081E-04  0.4310E-04  0.1588E-03  0.4804E-03  0.5909E-03  0.2868E-03  0.3294E-03  0.3900E-04  0.1702E-04  0.1672E-04  0.1673E-04  0.1679E-04  0.1684E-04  0.1695E-04  0.1703E-04  0.1714E-04  0.1723E-04  0.1734E-04  0.1744E-04  0.1753E-04  0.1760E-04  0.1765E-04  0.1768E-04  0.1767E-04  0.1764E-04  0.1757E-04  0.1748E-04  0.1734E-04  0.1718E-04  0.1698E-04  0.1674E-04  0.1648E-04  0.1618E-04  0.1586E-04  0.1552E-04  0.1515E-04  0.1475E-04  0.1434E-04  0.1391E-04  0.1346E-04  0.1300E-04  0.1253E-04  0.1205E-04  0.1157E-04  0.1109E-04  0.1060E-04  0.1010E-04  0.9600E-05  0.9129E-05  0.8672E-05  0.8224E-05
  0.3033E-04  0.3142E-04  0.3243E-04  0.3336E-04  0.3417E-04  0.3488E-04  0.3545E-04  0.3589E-04  0.3618E-04  0.3634E-04  0.3636E-04  0.3618E-04  0.3585E-04  0.3536E-04  0.3473E-04  0.3398E-04  0.3312E-04  0.3215E-04  0.3111E-04  0.3002E-04  0.2884E-04  0.2766E-04  0.2651E-04  0.2537E-04  0.2429E-04  0.2325E-04  0.2272E-04  0.2581E-04  0.5662E-04  0.1742E-03  0.4740E-03  0.7771E-03  0.5363E-03  0.3464E-03  0.4145E-03  0.7864E-04  0.1922E-04  0.1768E-04  0.1760E-04  0.1762E-04  0.1769E-04  0.1775E-04  0.1784E-04  0.1792E-04  0.1800E-04  0.1808E-04  0.1816E-04  0.1824E-04  0.1829E-04  0.1833E-04  0.1834E-04  0.1832E-04  0.1828E-04  0.1820E-04  0.1808E-04  0.1793E-04  0.1775E-04  0.1754E-04  0.1729E-04  0.1701E-04  0.1669E-04  0.1636E-04  0.1600E-04  0.1562E-04  0.1521E-04  0.1478E-04  0.1433E-04  0.1387E-04  0.1340E-04  0.1292E-04  0.1243E-04  0.1194E-04  0.1144E-04  0.1094E-04  0.1043E-04  0.9921E-05  0.9434E-05  0.8967E-05  0.8508E-05
  0.3381E-04  0.3508E-04  0.3625E-04  0.3733E-04  0.3830E-04  0.3913E-04  0.3982E-04  0.4035E-04  0.4071E-04  0.4094E-04  0.4094E-04  0.4075E-04  0.4039E-04  0.3984E-04  0.3913E-04  0.3826E-04  0.3724E-04  0.3610E-04  0.3487E-04  0.3355E-04  0.3219E-04  0.3075E-04  0.2933E-04  0.2796E-04  0.2667E-04  0.2657E-04  0.3322E-04  0.6767E-04  0.1810E-03  0.4461E-03  0.7978E-03  0.8106E-03  0.4757E-03  0.4022E-03  0.4755E-03  0.1292E-03  0.2254E-04  0.1865E-04  0.1846E-04  0.1845E-04  0.1848E-04  0.1853E-04  0.1859E-04  0.1864E-04  0.1873E-04  0.1878E-04  0.1885E-04  0.1891E-04  0.1894E-04  0.1896E-04  0.1895E-04  0.1893E-04  0.1886E-04  0.1876E-04  0.1864E-04  0.1848E-04  0.1828E-04  0.1805E-04  0.1779E-04  0.1749E-04  0.1717E-04  0.1682E-04  0.1644E-04  0.1605E-04  0.1563E-04  0.1519E-04  0.1473E-04  0.1426E-04  0.1377E-04  0.1328E-04  0.1278E-04  0.1227E-04  0.1177E-04  0.1126E-04  0.1075E-04  0.1023E-04  0.9724E-05  0.9243E-05  0.8775E-05
  0.3768E-04  0.3919E-04  0.4055E-04  0.4175E-04  0.4281E-04  0.4369E-04  0.4446E-04  0.4511E-04  0.4558E-04  0.4585E-04  0.4589E-04  0.4571E-04  0.4533E-04  0.4474E-04  0.4395E-04  0.4297E-04  0.4182E-04  0.4052E-04  0.3908E-04  0.3754E-04  0.3593E-04  0.3426E-04  0.3256E-04  0.3088E-04  0.3112E-04  0.4072E-04  0.7771E-04  0.1842E-03  0.4172E-03  0.7510E-03  0.9477E-03  0.7109E-03  0.4577E-03  0.4532E-03  0.5204E-03  0.1828E-03  0.3142E-04  0.1996E-04  0.1928E-04  0.1922E-04  0.1923E-04  0.1925E-04  0.1930E-04  0.1935E-04  0.1938E-04  0.1944E-04  0.1947E-04  0.1950E-04  0.1952E-04  0.1953E-04  0.1951E-04  0.1946E-04  0.1938E-04  0.1928E-04  0.1914E-04  0.1896E-04  0.1875E-04  0.1850E-04  0.1823E-04  0.1793E-04  0.1759E-04  0.1723E-04  0.1684E-04  0.1644E-04  0.1601E-04  0.1556E-04  0.1509E-04  0.1460E-04  0.1411E-04  0.1361E-04  0.1310E-04  0.1259E-04  0.1207E-04  0.1156E-04  0.1104E-04  0.1051E-04  0.9993E-05  0.9501E-05  0.9025E-05
  0.4198E-04  0.4372E-04  0.4533E-04  0.4675E-04  0.4805E-04  0.4912E-04  0.4987E-04  0.5041E-04  0.5072E-04  0.5094E-04  0.5104E-04  0.5090E-04  0.5052E-04  0.4990E-04  0.4905E-04  0.4799E-04  0.4672E-04  0.4527E-04  0.4366E-04  0.4191E-04  0.4007E-04  0.3816E-04  0.3655E-04  0.3664E-04  0.4809E-04  0.8574E-04  0.1842E-03  0.3909E-03  0.6926E-03  0.9684E-03  0.9209E-03  0.6183E-03  0.4649E-03  0.4946E-03  0.5542E-03  0.2335E-03  0.4614E-04  0.2209E-04  0.2010E-04  0.1996E-04  0.1993E-04  0.1992E-04  0.1995E-04  0.1997E-04  0.1999E-04  0.2002E-04  0.2003E-04  0.2005E-04  0.2006E-04  0.2004E-04  0.2000E-04  0.1994E-04  0.1985E-04  0.1973E-04  0.1957E-04  0.1939E-04  0.1917E-04  0.1891E-04  0.1863E-04  0.1831E-04  0.1796E-04  0.1759E-04  0.1720E-04  0.1678E-04  0.1634E-04  0.1588E-04  0.1541E-04  0.1492E-04  0.1442E-04  0.1391E-04  0.1339E-04  0.1287E-04  0.1235E-04  0.1183E-04  0.1131E-04  0.1077E-04  0.1024E-04  0.9739E-05  0.9257E-05
  0.4636E-04  0.4841E-04  0.5031E-04  0.5202E-04  0.5355E-04  0.5484E-04  0.5583E-04  0.5655E-04  0.5698E-04  0.5690E-04  0.5662E-04  0.5625E-04  0.5579E-04  0.5517E-04  0.5428E-04  0.5314E-04  0.5177E-04  0.5020E-04  0.4844E-04  0.4653E-04  0.4449E-04  0.4291E-04  0.4273E-04  0.5641E-04  0.9387E-04  0.1829E-03  0.3668E-03  0.6379E-03  0.9283E-03  0.1041E-02  0.8216E-03  0.5733E-03  0.4813E-03  0.5335E-03  0.5815E-03  0.2804E-03  0.6529E-04  0.2505E-04  0.2102E-04  0.2065E-04  0.2058E-04  0.2059E-04  0.2061E-04  0.2063E-04  0.2067E-04  0.2068E-04  0.2073E-04  0.2072E-04  0.2073E-04  0.2071E-04  0.2067E-04  0.2059E-04  0.2045E-04  0.2029E-04  0.2007E-04  0.1984E-04  0.1958E-04  0.1929E-04  0.1898E-04  0.1864E-04  0.1828E-04  0.1790E-04  0.1750E-04  0.1708E-04  0.1663E-04  0.1617E-04  0.1569E-04  0.1519E-04  0.1468E-04  0.1417E-04  0.1365E-04  0.1312E-04  0.1260E-04  0.1207E-04  0.1155E-04  0.1101E-04  0.1048E-04  0.9960E-05  0.9470E-05
  0.5099E-04  0.5338E-04  0.5556E-04  0.5755E-04  0.5932E-04  0.6083E-04  0.6205E-04  0.6292E-04  0.6351E-04  0.6371E-04  0.6342E-04  0.6277E-04  0.6182E-04  0.6070E-04  0.5953E-04  0.5823E-04  0.5678E-04  0.5511E-04  0.5322E-04  0.5128E-04  0.4969E-04  0.4959E-04  0.6312E-04  0.9944E-04  0.1807E-03  0.3468E-03  0.5871E-03  0.8706E-03  0.1072E-02  0.1000E-02  0.7335E-03  0.5669E-03  0.5033E-03  0.5707E-03  0.6075E-03  0.3240E-03  0.8845E-04  0.2922E-04  0.2259E-04  0.2171E-04  0.2151E-04  0.2144E-04  0.2143E-04  0.2145E-04  0.2144E-04  0.2147E-04  0.2147E-04  0.2146E-04  0.2142E-04  0.2136E-04  0.2127E-04  0.2115E-04  0.2100E-04  0.2081E-04  0.2059E-04  0.2034E-04  0.2004E-04  0.1972E-04  0.1937E-04  0.1899E-04  0.1860E-04  0.1818E-04  0.1776E-04  0.1732E-04  0.1687E-04  0.1640E-04  0.1592E-04  0.1542E-04  0.1491E-04  0.1439E-04  0.1387E-04  0.1334E-04  0.1281E-04  0.1228E-04  0.1175E-04  0.1122E-04  0.1068E-04  0.1016E-04  0.9661E-05
  0.5625E-04  0.5907E-04  0.6167E-04  0.6390E-04  0.6597E-04  0.6749E-04  0.6877E-04  0.6960E-04  0.7026E-04  0.7054E-04  0.7041E-04  0.6991E-04  0.6875E-04  0.6748E-04  0.6594E-04  0.6397E-04  0.6188E-04  0.5984E-04  0.5781E-04  0.5619E-04  0.5763E-04  0.7098E-04  0.1038E-03  0.1763E-03  0.3227E-03  0.5404E-03  0.8040E-03  0.1047E-02  0.1108E-02  0.9105E-03  0.6806E-03  0.5796E-03  0.5346E-03  0.6052E-03  0.6311E-03  0.3644E-03  0.1162E-03  0.3562E-04  0.2571E-04  0.2328E-04  0.2277E-04  0.2245E-04  0.2239E-04  0.2234E-04  0.2231E-04  0.2228E-04  0.2221E-04  0.2216E-04  0.2206E-04  0.2196E-04  0.2184E-04  0.2169E-04  0.2151E-04  0.2130E-04  0.2104E-04  0.2076E-04  0.2044E-04  0.2009E-04  0.1972E-04  0.1932E-04  0.1890E-04  0.1845E-04  0.1800E-04  0.1753E-04  0.1706E-04  0.1658E-04  0.1610E-04  0.1560E-04  0.1509E-04  0.1457E-04  0.1405E-04  0.1352E-04  0.1298E-04  0.1245E-04  0.1193E-04  0.1139E-04  0.1086E-04  0.1033E-04  0.9825E-05
  0.6241E-04  0.6584E-04  0.6894E-04  0.7181E-04  0.7417E-04  0.7617E-04  0.7771E-04  0.7827E-04  0.7875E-04  0.7856E-04  0.7806E-04  0.7736E-04  0.7636E-04  0.7479E-04  0.7286E-04  0.7087E-04  0.6863E-04  0.6606E-04  0.6372E-04  0.6548E-04  0.7698E-04  0.1081E-03  0.1714E-03  0.2950E-03  0.4853E-03  0.7304E-03  0.9822E-03  0.1136E-02  0.1056E-02  0.8197E-03  0.6618E-03  0.5949E-03  0.5614E-03  0.6358E-03  0.6513E-03  0.4018E-03  0.1468E-03  0.5072E-04  0.3101E-04  0.2600E-04  0.2465E-04  0.2388E-04  0.2361E-04  0.2345E-04  0.2331E-04  0.2318E-04  0.2305E-04  0.2293E-04  0.2278E-04  0.2263E-04  0.2248E-04  0.2228E-04  0.2205E-04  0.2180E-04  0.2151E-04  0.2118E-04  0.2083E-04  0.2045E-04  0.2004E-04  0.1960E-04  0.1916E-04  0.1870E-04  0.1822E-04  0.1773E-04  0.1724E-04  0.1674E-04  0.1624E-04  0.1573E-04  0.1522E-04  0.1471E-04  0.1418E-04  0.1365E-04  0.1312E-04  0.1259E-04  0.1207E-04  0.1154E-04  0.1100E-04  0.1047E-04  0.9966E-05
  0.6995E-04  0.7411E-04  0.7802E-04  0.8152E-04  0.8445E-04  0.8700E-04  0.8901E-04  0.9044E-04  0.9115E-04  0.9120E-04  0.9062E-04  0.8924E-04  0.8770E-04  0.8577E-04  0.8307E-04  0.8051E-04  0.7782E-04  0.7575E-04  0.7742E-04  0.8847E-04  0.1147E-03  0.1716E-03  0.2772E-03  0.4395E-03  0.6522E-03  0.8933E-03  0.1098E-02  0.1137E-02  0.9651E-03  0.7580E-03  0.6626E-03  0.6088E-03  0.5864E-03  0.6599E-03  0.6704E-03  0.4375E-03  0.1807E-03  0.6829E-04  0.3872E-04  0.3042E-04  0.2774E-04  0.2613E-04  0.2524E-04  0.2486E-04  0.2457E-04  0.2429E-04  0.2408E-04  0.2387E-04  0.2366E-04  0.2344E-04  0.2321E-04  0.2295E-04  0.2268E-04  0.2236E-04  0.2202E-04  0.2165E-04  0.2124E-04  0.2081E-04  0.2035E-04  0.1989E-04  0.1941E-04  0.1891E-04  0.1840E-04  0.1790E-04  0.1739E-04  0.1686E-04  0.1634E-04  0.1582E-04  0.1531E-04  0.1479E-04  0.1427E-04  0.1375E-04  0.1322E-04  0.1270E-04  0.1217E-04  0.1165E-04  0.1112E-04  0.1059E-04  0.1008E-04
  0.7959E-04  0.8481E-04  0.8955E-04  0.9383E-04  0.9780E-04  0.1012E-03  0.1039E-03  0.1058E-03  0.1070E-03  0.1077E-03  0.1077E-03  0.1070E-03  0.1056E-03  0.1036E-03  0.1015E-03  0.9909E-04  0.9760E-04  0.9929E-04  0.1082E-03  0.1323E-03  0.1825E-03  0.2723E-03  0.4135E-03  0.5965E-03  0.8105E-03  0.1021E-02  0.1142E-02  0.1073E-02  0.8760E-03  0.7273E-03  0.6721E-03  0.6236E-03  0.6063E-03  0.6802E-03  0.6862E-03  0.4709E-03  0.2174E-03  0.9068E-04  0.5015E-04  0.3829E-04  0.3256E-04  0.2947E-04  0.2758E-04  0.2678E-04  0.2623E-04  0.2574E-04  0.2538E-04  0.2504E-04  0.2472E-04  0.2442E-04  0.2411E-04  0.2376E-04  0.2341E-04  0.2302E-04  0.2260E-04  0.2216E-04  0.2169E-04  0.2121E-04  0.2068E-04  0.2017E-04  0.1964E-04  0.1911E-04  0.1857E-04  0.1803E-04  0.1750E-04  0.1697E-04  0.1644E-04  0.1590E-04  0.1536E-04  0.1484E-04  0.1433E-04  0.1381E-04  0.1329E-04  0.1276E-04  0.1224E-04  0.1173E-04  0.1120E-04  0.1068E-04  0.1017E-04
  0.9275E-04  0.9924E-04  0.1055E-03  0.1112E-03  0.1163E-03  0.1209E-03  0.1248E-03  0.1280E-03  0.1303E-03  0.1320E-03  0.1332E-03  0.1341E-03  0.1343E-03  0.1345E-03  0.1345E-03  0.1365E-03  0.1403E-03  0.1495E-03  0.1683E-03  0.2105E-03  0.2845E-03  0.4069E-03  0.5635E-03  0.7523E-03  0.9500E-03  0.1101E-02  0.1115E-02  0.9760E-03  0.8063E-03  0.7229E-03  0.6845E-03  0.6375E-03  0.6223E-03  0.6924E-03  0.6937E-03  0.4953E-03  0.2508E-03  0.1160E-03  0.6564E-04  0.4985E-04  0.4063E-04  0.3500E-04  0.3144E-04  0.2964E-04  0.2852E-04  0.2769E-04  0.2705E-04  0.2655E-04  0.2606E-04  0.2563E-04  0.2521E-04  0.2476E-04  0.2431E-04  0.2382E-04  0.2331E-04  0.2277E-04  0.2222E-04  0.2165E-04  0.2105E-04  0.2047E-04  0.1989E-04  0.1930E-04  0.1873E-04  0.1815E-04  0.1759E-04  0.1703E-04  0.1649E-04  0.1595E-04  0.1541E-04  0.1486E-04  0.1434E-04  0.1383E-04  0.1331E-04  0.1280E-04  0.1229E-04  0.1177E-04  0.1126E-04  0.1074E-04  0.1023E-04
  0.1102E-03  0.1188E-03  0.1269E-03  0.1348E-03  0.1419E-03  0.1485E-03  0.1542E-03  0.1595E-03  0.1640E-03  0.1681E-03  0.1716E-03  0.1751E-03  0.1789E-03  0.1835E-03  0.1899E-03  0.1991E-03  0.2138E-03  0.2354E-03  0.2716E-03  0.3301E-03  0.4326E-03  0.5636E-03  0.7220E-03  0.8984E-03  0.1058E-02  0.1127E-02  0.1045E-02  0.8745E-03  0.7543E-03  0.7258E-03  0.6994E-03  0.6481E-03  0.6312E-03  0.6911E-03  0.6848E-03  0.5031E-03  0.2729E-03  0.1365E-03  0.8016E-04  0.6252E-04  0.5058E-04  0.4255E-04  0.3731E-04  0.3402E-04  0.3209E-04  0.3061E-04  0.2950E-04  0.2861E-04  0.2785E-04  0.2723E-04  0.2661E-04  0.2601E-04  0.2541E-04  0.2480E-04  0.2416E-04  0.2351E-04  0.2285E-04  0.2217E-04  0.2149E-04  0.2082E-04  0.2016E-04  0.1951E-04  0.1888E-04  0.1825E-04  0.1766E-04  0.1708E-04  0.1651E-04  0.1596E-04  0.1541E-04  0.1485E-04  0.1433E-04  0.1381E-04  0.1331E-04  0.1280E-04  0.1229E-04  0.1179E-04  0.1128E-04  0.1077E-04  0.1027E-04
  0.1321E-03  0.1435E-03  0.1545E-03  0.1652E-03  0.1755E-03  0.1853E-03  0.1943E-03  0.2028E-03  0.2111E-03  0.2189E-03  0.2272E-03  0.2360E-03  0.2461E-03  0.2582E-03  0.2726E-03  0.2935E-03  0.3191E-03  0.3548E-03  0.4085E-03  0.4860E-03  0.5947E-03  0.7338E-03  0.8839E-03  0.1036E-02  0.1138E-02  0.1116E-02  0.9705E-03  0.8078E-03  0.7352E-03  0.7310E-03  0.7061E-03  0.6548E-03  0.6408E-03  0.6925E-03  0.6782E-03  0.5077E-03  0.2878E-03  0.1506E-03  0.9314E-04  0.7189E-04  0.5959E-04  0.5060E-04  0.4378E-04  0.3933E-04  0.3663E-04  0.3456E-04  0.3290E-04  0.3152E-04  0.3039E-04  0.2944E-04  0.2852E-04  0.2770E-04  0.2688E-04  0.2606E-04  0.2525E-04  0.2443E-04  0.2361E-04  0.2281E-04  0.2200E-04  0.2123E-04  0.2047E-04  0.1973E-04  0.1902E-04  0.1836E-04  0.1772E-04  0.1711E-04  0.1652E-04  0.1595E-04  0.1538E-04  0.1482E-04  0.1429E-04  0.1377E-04  0.1327E-04  0.1277E-04  0.1227E-04  0.1178E-04  0.1128E-04  0.1078E-04  0.1029E-04
  0.1571E-03  0.1718E-03  0.1865E-03  0.2010E-03  0.2154E-03  0.2292E-03  0.2424E-03  0.2558E-03  0.2690E-03  0.2830E-03  0.2972E-03  0.3134E-03  0.3323E-03  0.3530E-03  0.3790E-03  0.4104E-03  0.4524E-03  0.5028E-03  0.5674E-03  0.6524E-03  0.7616E-03  0.8987E-03  0.1051E-02  0.1163E-02  0.1191E-02  0.1093E-02  0.9197E-03  0.7835E-03  0.7377E-03  0.7273E-03  0.6921E-03  0.6431E-03  0.6435E-03  0.6956E-03  0.6749E-03  0.5123E-03  0.3004E-03  0.1615E-03  0.1013E-03  0.7854E-04  0.6630E-04  0.5687E-04  0.4961E-04  0.4447E-04  0.4129E-04  0.3886E-04  0.3684E-04  0.3511E-04  0.3362E-04  0.3230E-04  0.3108E-04  0.2994E-04  0.2885E-04  0.2777E-04  0.2671E-04  0.2567E-04  0.2464E-04  0.2364E-04  0.2266E-04  0.2174E-04  0.2085E-04  0.2001E-04  0.1922E-04  0.1848E-04  0.1779E-04  0.1713E-04  0.1650E-04  0.1590E-04  0.1532E-04  0.1477E-04  0.1423E-04  0.1372E-04  0.1321E-04  0.1271E-04  0.1223E-04  0.1174E-04  0.1126E-04  0.1076E-04  0.1027E-04
  0.1831E-03  0.2015E-03  0.2202E-03  0.2389E-03  0.2574E-03  0.2758E-03  0.2943E-03  0.3126E-03  0.3318E-03  0.3520E-03  0.3732E-03  0.3975E-03  0.4241E-03  0.4552E-03  0.4923E-03  0.5350E-03  0.5871E-03  0.6484E-03  0.7246E-03  0.8163E-03  0.9232E-03  0.1047E-02  0.1169E-02  0.1236E-02  0.1202E-02  0.1052E-02  0.8772E-03  0.7705E-03  0.7383E-03  0.7082E-03  0.6638E-03  0.6209E-03  0.6383E-03  0.6976E-03  0.6792E-03  0.5224E-03  0.3144E-03  0.1708E-03  0.1076E-03  0.8218E-04  0.7076E-04  0.6160E-04  0.5426E-04  0.4881E-04  0.4545E-04  0.4295E-04  0.4079E-04  0.3887E-04  0.3714E-04  0.3557E-04  0.3408E-04  0.3269E-04  0.3130E-04  0.2995E-04  0.2864E-04  0.2733E-04  0.2606E-04  0.2483E-04  0.2363E-04  0.2251E-04  0.2145E-04  0.2045E-04  0.1954E-04  0.1869E-04  0.1791E-04  0.1718E-04  0.1650E-04  0.1587E-04  0.1527E-04  0.1470E-04  0.1416E-04  0.1363E-04  0.1311E-04  0.1262E-04  0.1215E-04  0.1168E-04  0.1120E-04  0.1072E-04  0.1025E-04
  0.2077E-03  0.2296E-03  0.2522E-03  0.2751E-03  0.2977E-03  0.3205E-03  0.3436E-03  0.3671E-03  0.3915E-03  0.4168E-03  0.4442E-03  0.4754E-03  0.5097E-03  0.5474E-03  0.5911E-03  0.6416E-03  0.6996E-03  0.7678E-03  0.8448E-03  0.9304E-03  0.1026E-02  0.1121E-02  0.1199E-02  0.1216E-02  0.1128E-02  0.9664E-03  0.8058E-03  0.7194E-03  0.6886E-03  0.6610E-03  0.6267E-03  0.5987E-03  0.6326E-03  0.6997E-03  0.6853E-03  0.5356E-03  0.3329E-03  0.1852E-03  0.1144E-03  0.8552E-04  0.7412E-04  0.6525E-04  0.5820E-04  0.5258E-04  0.4869E-04  0.4641E-04  0.4428E-04  0.4234E-04  0.4049E-04  0.3878E-04  0.3713E-04  0.3551E-04  0.3392E-04  0.3234E-04  0.3079E-04  0.2926E-04  0.2775E-04  0.2630E-04  0.2490E-04  0.2356E-04  0.2232E-04  0.2115E-04  0.2008E-04  0.1911E-04  0.1821E-04  0.1738E-04  0.1663E-04  0.1594E-04  0.1529E-04  0.1468E-04  0.1411E-04  0.1355E-04  0.1304E-04  0.1253E-04  0.1205E-04  0.1159E-04  0.1113E-04  0.1066E-04  0.1019E-04
  0.2285E-03  0.2535E-03  0.2793E-03  0.3054E-03  0.3318E-03  0.3583E-03  0.3851E-03  0.4126E-03  0.4405E-03  0.4701E-03  0.5017E-03  0.5359E-03  0.5731E-03  0.6145E-03  0.6602E-03  0.7122E-03  0.7708E-03  0.8329E-03  0.9022E-03  0.9734E-03  0.1044E-02  0.1101E-02  0.1128E-02  0.1100E-02  0.1003E-02  0.8533E-03  0.7239E-03  0.6499E-03  0.6188E-03  0.5969E-03  0.5779E-03  0.5770E-03  0.6310E-03  0.7038E-03  0.6934E-03  0.5536E-03  0.3563E-03  0.2050E-03  0.1242E-03  0.8978E-04  0.7792E-04  0.6840E-04  0.6096E-04  0.5522E-04  0.5124E-04  0.4876E-04  0.4692E-04  0.4503E-04  0.4322E-04  0.4143E-04  0.3971E-04  0.3795E-04  0.3622E-04  0.3449E-04  0.3277E-04  0.3106E-04  0.2938E-04  0.2773E-04  0.2616E-04  0.2466E-04  0.2325E-04  0.2192E-04  0.2072E-04  0.1961E-04  0.1860E-04  0.1767E-04  0.1683E-04  0.1605E-04  0.1535E-04  0.1470E-04  0.1409E-04  0.1352E-04  0.1298E-04  0.1246E-04  0.1196E-04  0.1149E-04  0.1103E-04  0.1058E-04  0.1012E-04
  0.2444E-03  0.2713E-03  0.2992E-03  0.3278E-03  0.3569E-03  0.3858E-03  0.4152E-03  0.4452E-03  0.4753E-03  0.5060E-03  0.5389E-03  0.5733E-03  0.6105E-03  0.6507E-03  0.6950E-03  0.7418E-03  0.7940E-03  0.8463E-03  0.8990E-03  0.9507E-03  0.9928E-03  0.1017E-02  0.1009E-02  0.9585E-03  0.8621E-03  0.7442E-03  0.6441E-03  0.5839E-03  0.5533E-03  0.5405E-03  0.5361E-03  0.5603E-03  0.6298E-03  0.7092E-03  0.7062E-03  0.5769E-03  0.3864E-03  0.2314E-03  0.1434E-03  0.9967E-04  0.8291E-04  0.7196E-04  0.6384E-04  0.5747E-04  0.5301E-04  0.5043E-04  0.4851E-04  0.4686E-04  0.4509E-04  0.4339E-04  0.4159E-04  0.3982E-04  0.3802E-04  0.3620E-04  0.3436E-04  0.3254E-04  0.3074E-04  0.2899E-04  0.2728E-04  0.2564E-04  0.2411E-04  0.2266E-04  0.2132E-04  0.2011E-04  0.1899E-04  0.1797E-04  0.1704E-04  0.1621E-04  0.1544E-04  0.1473E-04  0.1409E-04  0.1349E-04  0.1292E-04  0.1239E-04  0.1189E-04  0.1140E-04  0.1093E-04  0.1047E-04  0.1003E-04
  0.2541E-03  0.2822E-03  0.3113E-03  0.3413E-03  0.3714E-03  0.4017E-03  0.4327E-03  0.4628E-03  0.4931E-03  0.5238E-03  0.5557E-03  0.5883E-03  0.6227E-03  0.6586E-03  0.6974E-03  0.7375E-03  0.7782E-03  0.8184E-03  0.8563E-03  0.8889E-03  0.9069E-03  0.9067E-03  0.8797E-03  0.8240E-03  0.7400E-03  0.6499E-03  0.5766E-03  0.5281E-03  0.5034E-03  0.4937E-03  0.5038E-03  0.5417E-03  0.6244E-03  0.7121E-03  0.7206E-03  0.6086E-03  0.4276E-03  0.2690E-03  0.1697E-03  0.1172E-03  0.9110E-04  0.7689E-04  0.6708E-04  0.5958E-04  0.5438E-04  0.5128E-04  0.4935E-04  0.4767E-04  0.4617E-04  0.4450E-04  0.4279E-04  0.4098E-04  0.3922E-04  0.3735E-04  0.3549E-04  0.3362E-04  0.3174E-04  0.2993E-04  0.2815E-04  0.2643E-04  0.2481E-04  0.2328E-04  0.2186E-04  0.2055E-04  0.1935E-04  0.1825E-04  0.1725E-04  0.1635E-04  0.1553E-04  0.1478E-04  0.1409E-04  0.1346E-04  0.1287E-04  0.1233E-04  0.1180E-04  0.1131E-04  0.1084E-04  0.1038E-04  0.9933E-05
  0.2581E-03  0.2863E-03  0.3157E-03  0.3456E-03  0.3757E-03  0.4056E-03  0.4362E-03  0.4658E-03  0.4949E-03  0.5235E-03  0.5527E-03  0.5818E-03  0.6112E-03  0.6420E-03  0.6734E-03  0.7049E-03  0.7358E-03  0.7657E-03  0.7900E-03  0.8051E-03  0.8096E-03  0.7953E-03  0.7626E-03  0.7096E-03  0.6405E-03  0.5721E-03  0.5168E-03  0.4786E-03  0.4599E-03  0.4568E-03  0.4731E-03  0.5225E-03  0.6110E-03  0.7027E-03  0.7233E-03  0.6335E-03  0.4713E-03  0.3153E-03  0.2066E-03  0.1423E-03  0.1049E-03  0.8482E-04  0.7134E-04  0.6183E-04  0.5535E-04  0.5162E-04  0.4943E-04  0.4783E-04  0.4636E-04  0.4491E-04  0.4326E-04  0.4155E-04  0.3977E-04  0.3799E-04  0.3611E-04  0.3426E-04  0.3237E-04  0.3054E-04  0.2873E-04  0.2698E-04  0.2531E-04  0.2373E-04  0.2226E-04  0.2090E-04  0.1964E-04  0.1849E-04  0.1744E-04  0.1647E-04  0.1561E-04  0.1482E-04  0.1410E-04  0.1344E-04  0.1282E-04  0.1225E-04  0.1173E-04  0.1123E-04  0.1074E-04  0.1027E-04  0.9829E-05
  0.2563E-03  0.2839E-03  0.3124E-03  0.3410E-03  0.3700E-03  0.3991E-03  0.4274E-03  0.4552E-03  0.4820E-03  0.5079E-03  0.5329E-03  0.5565E-03  0.5803E-03  0.6043E-03  0.6282E-03  0.6524E-03  0.6751E-03  0.6943E-03  0.7096E-03  0.7159E-03  0.7113E-03  0.6913E-03  0.6600E-03  0.6110E-03  0.5577E-03  0.5023E-03  0.4617E-03  0.4311E-03  0.4182E-03  0.4222E-03  0.4439E-03  0.4958E-03  0.5732E-03  0.6487E-03  0.6710E-03  0.6104E-03  0.4898E-03  0.3577E-03  0.2502E-03  0.1749E-03  0.1263E-03  0.9645E-04  0.7756E-04  0.6518E-04  0.5701E-04  0.5181E-04  0.4907E-04  0.4737E-04  0.4600E-04  0.4457E-04  0.4313E-04  0.4150E-04  0.3983E-04  0.3809E-04  0.3629E-04  0.3445E-04  0.3262E-04  0.3078E-04  0.2902E-04  0.2727E-04  0.2560E-04  0.2401E-04  0.2251E-04  0.2113E-04  0.1984E-04  0.1865E-04  0.1756E-04  0.1657E-04  0.1566E-04  0.1484E-04  0.1409E-04  0.1340E-04  0.1278E-04  0.1218E-04  0.1164E-04  0.1113E-04  0.1065E-04  0.1018E-04  0.9720E-05
  0.2499E-03  0.2760E-03  0.3029E-03  0.3300E-03  0.3571E-03  0.3838E-03  0.4097E-03  0.4341E-03  0.4577E-03  0.4796E-03  0.4999E-03  0.5192E-03  0.5378E-03  0.5548E-03  0.5723E-03  0.5880E-03  0.6028E-03  0.6159E-03  0.6226E-03  0.6257E-03  0.6171E-03  0.5989E-03  0.5686E-03  0.5271E-03  0.4839E-03  0.4406E-03  0.4066E-03  0.3838E-03  0.3771E-03  0.3838E-03  0.4075E-03  0.4542E-03  0.5156E-03  0.5725E-03  0.5922E-03  0.5552E-03  0.4734E-03  0.3724E-03  0.2781E-03  0.2024E-03  0.1480E-03  0.1111E-03  0.8680E-04  0.7038E-04  0.5960E-04  0.5283E-04  0.4889E-04  0.4660E-04  0.4517E-04  0.4381E-04  0.4239E-04  0.4099E-04  0.3937E-04  0.3774E-04  0.3603E-04  0.3429E-04  0.3253E-04  0.3075E-04  0.2899E-04  0.2732E-04  0.2566E-04  0.2410E-04  0.2261E-04  0.2121E-04  0.1993E-04  0.1872E-04  0.1761E-04  0.1660E-04  0.1568E-04  0.1484E-04  0.1407E-04  0.1336E-04  0.1271E-04  0.1212E-04  0.1155E-04  0.1103E-04  0.1055E-04  0.1008E-04  0.9632E-05
  0.2396E-03  0.2638E-03  0.2886E-03  0.3133E-03  0.3382E-03  0.3621E-03  0.3848E-03  0.4066E-03  0.4264E-03  0.4442E-03  0.4603E-03  0.4750E-03  0.4876E-03  0.4993E-03  0.5106E-03  0.5207E-03  0.5290E-03  0.5352E-03  0.5390E-03  0.5374E-03  0.5287E-03  0.5115E-03  0.4853E-03  0.4527E-03  0.4177E-03  0.3836E-03  0.3562E-03  0.3401E-03  0.3350E-03  0.3430E-03  0.3646E-03  0.4027E-03  0.4494E-03  0.4906E-03  0.5073E-03  0.4854E-03  0.4309E-03  0.3583E-03  0.2830E-03  0.2158E-03  0.1625E-03  0.1234E-03  0.9468E-04  0.7587E-04  0.6289E-04  0.5413E-04  0.4898E-04  0.4593E-04  0.4408E-04  0.4269E-04  0.4130E-04  0.3997E-04  0.3855E-04  0.3702E-04  0.3542E-04  0.3377E-04  0.3211E-04  0.3043E-04  0.2874E-04  0.2714E-04  0.2553E-04  0.2400E-04  0.2255E-04  0.2118E-04  0.1990E-04  0.1871E-04  0.1760E-04  0.1658E-04  0.1564E-04  0.1479E-04  0.1401E-04  0.1329E-04  0.1263E-04  0.1203E-04  0.1146E-04  0.1093E-04  0.1044E-04  0.9972E-05  0.9523E-05
  0.2266E-03  0.2482E-03  0.2709E-03  0.2933E-03  0.3151E-03  0.3362E-03  0.3560E-03  0.3741E-03  0.3902E-03  0.4047E-03  0.4166E-03  0.4266E-03  0.4360E-03  0.4427E-03  0.4488E-03  0.4538E-03  0.4579E-03  0.4603E-03  0.4601E-03  0.4565E-03  0.4480E-03  0.4328E-03  0.4117E-03  0.3864E-03  0.3588E-03  0.3325E-03  0.3121E-03  0.2998E-03  0.2962E-03  0.3031E-03  0.3194E-03  0.3494E-03  0.3842E-03  0.4134E-03  0.4246E-03  0.4117E-03  0.3762E-03  0.3256E-03  0.2682E-03  0.2134E-03  0.1665E-03  0.1286E-03  0.1002E-03  0.7926E-04  0.6485E-04  0.5520E-04  0.4899E-04  0.4524E-04  0.4291E-04  0.4139E-04  0.3996E-04  0.3868E-04  0.3740E-04  0.3602E-04  0.3451E-04  0.3300E-04  0.3144E-04  0.2986E-04  0.2829E-04  0.2672E-04  0.2522E-04  0.2375E-04  0.2234E-04  0.2102E-04  0.1976E-04  0.1860E-04  0.1750E-04  0.1649E-04  0.1556E-04  0.1470E-04  0.1391E-04  0.1319E-04  0.1252E-04  0.1191E-04  0.1135E-04  0.1083E-04  0.1033E-04  0.9858E-05  0.9411E-05
