DSAA
          79         109
    318.3670    342.0670
   7336.5760   7369.2760
  0.0000E+00  0.1968E-02
  0.0000E+00  0.0000E+00  0.0000E+00  0.0000E+00  0.0000E+00  0.0000E+00  0.0000E+00  0.0000E+00  0.0000E+00  0.0000E+00  0.0000E+00  0.0000E+00  0.0000E+00  0.0000E+00  0.0000E+00  0.0000E+00  0.0000E+00  0.0000E+00  0.0000E+00  0.0000E+00  0.0000E+00  0.0000E+00  0.0000E+00  0.0000E+00  0.0000E+00  0.0000E+00  0.0000E+00  0.0000E+00  0.0000E+00  0.0000E+00  0.0000E+00  0.0000E+00  0.0000E+00  0.0000E+00  0.0000E+00  0.0000E+00  0.0000E+00  0.0000E+00  0.0000E+00  0.0000E+00  0.0000E+00  0.0000E+00  0.0000E+00  0.0000E+00  0.0000E+00  0.0000E+00  0.0000E+00  0.0000E+00  0.0000E+00  0.0000E+00  0.0000E+00  0.0000E+00  0.0000E+00  0.0000E+00  0.0000E+00  0.0000E+00  0.0000E+00  0.0000E+00  0.0000E+00  0.0000E+00  0.0000E+00  0.0000E+00  0.0000E+00  0.0000E+00  0.0000E+00  0.0000E+00  0.0000E+00  0.0000E+00  0.0000E+00  0.0000E+00  0.0000E+00  0.0000E+00  0.0000E+00  0.0000E+00  0.0000E+00  0.0000E+00  0.0000E+00  0.0000E+00  0.0000E+00
  0.0000E+00  0.0000E+00  0.0000E+00  0.0000E+00  0.0000E+00  0.0000E+00  0.0000E+00  0.0000E+00  0.0000E+00  0.0000E+00  0.0000E+00  0.0000E+00  0.0000E+00  0.0000E+00  0.0000E+00  0.0000E+00  0.0000E+00  0.0000E+00  0.0000E+00  0.0000E+00  0.0000E+00  0.0000E+00  0.0000E+00  0.0000E+00  0.0000E+00  0.0000E+00  0.0000E+00  0.0000E+00  0.0000E+00  0.0000E+00  0.0000E+00  0.0000E+00  0.0000E+00  0.0000E+00  0.0000E+00  0.0000E+00  0.0000E+00  0.0000E+00  0.0000E+00  0.0000E+00  0.0000E+00  0.0000E+00  0.0000E+00  0.0000E+00  0.0000E+00  0.0000E+00  0.0000E+00  0.0000E+00  0.0000E+00  0.0000E+00  0.0000E+00  0.0000E+00  0.0000E+00  0.0000E+00  0.0000E+00  0.0000E+00  0.0000E+00  0.0000E+00  0.0000E+00  0.0000E+00  0.0000E+00  0.0000E+00  0.0000E+00  0.0000E+00  0.0000E+00  0.0000E+00  0.0000E+00  0.0000E+00  0.0000E+00  0.0000E+00  0.0000E+00  0.0000E+00  0.0000E+00  0.0000E+00  0.0000E+00  0.0000E+00  0.0000E+00  0.0000E+00  0.0000E+00
  0.0000E+00  0.0000E+00  0.0000E+00  0.0000E+00  0.0000E+00  0.0000E+00  0.0000E+00  0.0000E+00  0.0000E+00  0.0000E+00  0.0000E+00  0.0000E+00  0.0000E+00  0.0000E+00  0.0000E+00  0.0000E+00  0.0000E+00  0.0000E+00  0.0000E+00  0.0000E+00  0.0000E+00  0.0000E+00  0.0000E+00  0.0000E+00  0.0000E+00  0.0000E+00  0.0000E+00  0.0000E+00  0.0000E+00  0.0000E+00  0.0000E+00  0.0000E+00  0.0000E+00  0.0000E+00  0.0000E+00  0.0000E+00  0.0000E+00  0.0000E+00  0.0000E+00  0.0000E+00  0.0000E+00  0.0000E+00  0.0000E+00  0.0000E+00  0.0000E+00  0.0000E+00  0.0000E+00  0.0000E+00  0.0000E+00  0.0000E+00  0.0000E+00  0.0000E+00  0.0000E+00  0.0000E+00  0.0000E+00  0.0000E+00  0.0000E+00  0.0000E+00  0.0000E+00  0.0000E+00  0.0000E+00  0.0000E+00  0.0000E+00  0.0000E+00  0.0000E+00  0.0000E+00  0.0000E+00  0.0000E+00  0.0000E+00  0.0000E+00  0.0000E+00  0.0000E+00  0.0000E+00  0.0000E+00  0.0000E+00  0.0000E+00  0.0000E+00  0.0000E+00  0.0000E+00
  0.0000E+00  0.0000E+00  0.0000E+00  0.0000E+00  0.0000E+00  0.0000E+00  0.0000E+00  0.0000E+00  0.0000E+00  0.0000E+00  0.0000E+00  0.0000E+00  0.0000E+00  0.0000E+00  0.0000E+00  0.0000E+00  0.0000E+00  0.0000E+00  0.0000E+00  0.0000E+00  0.0000E+00  0.0000E+00  0.0000E+00  0.0000E+00  0.0000E+00  0.0000E+00  0.0000E+00  0.0000E+00  0.0000E+00  0.0000E+00  0.0000E+00  0.0000E+00  0.0000E+00  0.0000E+00  0.0000E+00  0.0000E+00  0.0000E+00  0.0000E+00  0.0000E+00  0.0000E+00  0.0000E+00  0.0000E+00  0.0000E+00  0.0000E+00  0.0000E+00  0.0000E+00  0.0000E+00  0.0000E+00  0.0000E+00  0.0000E+00  0.0000E+00  0.0000E+00  0.0000E+00  0.0000E+00  0.0000E+00  0.0000E+00  0.0000E+00  0.0000E+00  0.0000E+00  0.0000E+00  0.0000E+00  0.0000E+00  0.0000E+00  0.0000E+00  0.0000E+00  0.0000E+00  0.0000E+00  0.0000E+00  0.0000E+00  0.0000E+00  0.0000E+00  0.0000E+00  0.0000E+00  0.0000E+00  0.0000E+00  0.0000E+00  0.0000E+00  0.0000E+00  0.0000E+00
  0.0000E+00  0.0000E+00  0.0000E+00  0.0000E+00  0.0000E+00  0.0000E+00  0.0000E+00  0.0000E+00  0.0000E+00  0.0000E+00  0.0000E+00  0.0000E+00  0.0000E+00  0.0000E+00  0.0000E+00  0.0000E+00  0.0000E+00  0.0000E+00  0.0000E+00  0.0000E+00  0.0000E+00  0.0000E+00  0.0000E+00  0.0000E+00  0.0000E+00  0.0000E+00  0.0000E+00  0.0000E+00  0.0000E+00  0.0000E+00  0.0000E+00  0.0000E+00  0.0000E+00  0.0000E+00  0.0000E+00  0.0000E+00  0.0000E+00  0.0000E+00  0.0000E+00  0.0000E+00  0.0000E+00  0.0000E+00  0.0000E+00  0.0000E+00  0.0000E+00  0.0000E+00  0.0000E+00  0.0000E+00  0.0000E+00  0.0000E+00  0.0000E+00  0.0000E+00  0.0000E+00  0.0000E+00  0.0000E+00  0.0000E+00  0.0000E+00  0.0000E+00  0.0000E+00  0.0000E+00  0.0000E+00  0.0000E+00  0.0000E+00  0.0000E+00  0.0000E+00  0.0000E+00  0.0000E+00  0.0000E+00  0.0000E+00  0.0000E+00  0.0000E+00  0.0000E+00  0.0000E+00  0.0000E+00  0.0000E+00  0.0000E+00  0.0000E+00  0.0000E+00  0.0000E+00
  0.0000E+00  0.0000E+00  0.0000E+00  0.0000E+00  0.0000E+00  0.0000E+00  0.0000E+00  0.0000E+00  0.0000E+00  0.0000E+00  0.0000E+00  0.0000E+00  0.0000E+00  0.0000E+00  0.0000E+00  0.0000E+00  0.0000E+00  0.0000E+00  0.0000E+00  0.0000E+00  0.0000E+00  0.0000E+00  0.0000E+00  0.0000E+00  0.0000E+00  0.0000E+00  0.0000E+00  0.0000E+00  0.0000E+00  0.0000E+00  0.0000E+00  0.0000E+00  0.0000E+00  0.0000E+00  0.0000E+00  0.0000E+00  0.0000E+00  0.0000E+00  0.0000E+00  0.0000E+00  0.0000E+00  0.0000E+00  0.0000E+00  0.0000E+00  0.0000E+00  0.0000E+00  0.0000E+00  0.0000E+00  0.0000E+00  0.0000E+00  0.0000E+00  0.0000E+00  0.0000E+00  0.0000E+00  0.0000E+00  0.0000E+00  0.0000E+00  0.0000E+00  0.0000E+00  0.0000E+00  0.0000E+00  0.0000E+00  0.0000E+00  0.0000E+00  0.0000E+00  0.0000E+00  0.0000E+00  0.0000E+00  0.0000E+00  0.0000E+00  0.0000E+00  0.0000E+00  0.0000E+00  0.0000E+00  0.0000E+00  0.0000E+00  0.0000E+00  0.0000E+00  0.0000E+00
  0.0000E+00  0.0000E+00  0.0000E+00  0.0000E+00  0.0000E+00  0.0000E+00  0.0000E+00  0.0000E+00  0.0000E+00  0.0000E+00  0.0000E+00  0.0000E+00  0.0000E+00  0.0000E+00  0.0000E+00  0.0000E+00  0.0000E+00  0.0000E+00  0.0000E+00  0.0000E+00  0.0000E+00  0.0000E+00  0.0000E+00  0.0000E+00  0.0000E+00  0.0000E+00  0.0000E+00  0.0000E+00  0.0000E+00  0.0000E+00  0.0000E+00  0.0000E+00  0.0000E+00  0.0000E+00  0.0000E+00  0.0000E+00  0.0000E+00  0.0000E+00  0.0000E+00  0.0000E+00  0.0000E+00  0.0000E+00  0.0000E+00  0.0000E+00  0.0000E+00  0.0000E+00  0.0000E+00  0.0000E+00  0.0000E+00  0.0000E+00  0.0000E+00  0.0000E+00  0.0000E+00  0.0000E+00  0.0000E+00  0.0000E+00  0.0000E+00  0.0000E+00  0.0000E+00  0.0000E+00  0.0000E+00  0.0000E+00  0.0000E+00  0.0000E+00  0.0000E+00  0.0000E+00  0.0000E+00  0.0000E+00  0.0000E+00  0.0000E+00  0.0000E+00  0.0000E+00  0.0000E+00  0.0000E+00  0.0000E+00  0.0000E+00  0.0000E+00  0.0000E+00  0.0000E+00
  0.0000E+00  0.0000E+00  0.0000E+00  0.0000E+00  0.0000E+00  0.0000E+00  0.0000E+00  0.0000E+00  0.0000E+00  0.0000E+00  0.0000E+00  0.0000E+00  0.0000E+00  0.0000E+00  0.0000E+00  0.0000E+00  0.0000E+00  0.0000E+00  0.0000E+00  0.0000E+00  0.0000E+00  0.0000E+00  0.0000E+00  0.0000E+00  0.0000E+00  0.0000E+00  0.0000E+00  0.0000E+00  0.0000E+00  0.0000E+00  0.0000E+00  0.0000E+00  0.0000E+00  0.0000E+00  0.0000E+00  0.0000E+00  0.0000E+00  0.0000E+00  0.0000E+00  0.0000E+00  0.0000E+00  0.0000E+00  0.0000E+00  0.0000E+00  0.0000E+00  0.0000E+00  0.0000E+00  0.0000E+00  0.0000E+00  0.0000E+00  0.0000E+00  0.0000E+00  0.0000E+00  0.0000E+00  0.0000E+00  0.0000E+00  0.0000E+00  0.0000E+00  0.0000E+00  0.0000E+00  0.0000E+00  0.0000E+00  0.0000E+00  0.0000E+00  0.0000E+00  0.0000E+00  0.0000E+00  0.0000E+00  0.0000E+00  0.0000E+00  0.0000E+00  0.0000E+00  0.0000E+00  0.0000E+00  0.0000E+00  0.0000E+00  0.0000E+00  0.0000E+00  0.0000E+00
  0.0000E+00  0.0000E+00  0.0000E+00  0.0000E+00  0.0000E+00  0.0000E+00  0.0000E+00  0.0000E+00  0.0000E+00  0.0000E+00  0.0000E+00  0.0000E+00  0.0000E+00  0.0000E+00  0.0000E+00  0.0000E+00  0.0000E+00  0.0000E+00  0.0000E+00  0.0000E+00  0.0000E+00  0.0000E+00  0.0000E+00  0.0000E+00  0.0000E+00  0.0000E+00  0.0000E+00  0.0000E+00  0.0000E+00  0.0000E+00  0.0000E+00  0.0000E+00  0.0000E+00  0.0000E+00  0.0000E+00  0.0000E+00  0.0000E+00  0.0000E+00  0.0000E+00  0.0000E+00  0.0000E+00  0.0000E+00  0.0000E+00  0.0000E+00  0.0000E+00  0.0000E+00  0.0000E+00  0.0000E+00  0.0000E+00  0.0000E+00  0.0000E+00  0.0000E+00  0.0000E+00  0.0000E+00  0.0000E+00  0.0000E+00  0.0000E+00  0.0000E+00  0.0000E+00  0.0000E+00  0.0000E+00  0.0000E+00  0.0000E+00  0.0000E+00  0.0000E+00  0.0000E+00  0.0000E+00  0.0000E+00  0.0000E+00  0.0000E+00  0.0000E+00  0.0000E+00  0.0000E+00  0.0000E+00  0.0000E+00  0.0000E+00  0.0000E+00  0.0000E+00  0.0000E+00
  0.0000E+00  0.0000E+00  0.0000E+00  0.0000E+00  0.0000E+00  0.0000E+00  0.0000E+00  0.0000E+00  0.0000E+00  0.0000E+00  0.0000E+00  0.0000E+00  0.0000E+00  0.0000E+00  0.0000E+00  0.0000E+00  0.0000E+00  0.0000E+00  0.0000E+00  0.0000E+00  0.0000E+00  0.0000E+00  0.0000E+00  0.0000E+00  0.0000E+00  0.0000E+00  0.0000E+00  0.0000E+00  0.0000E+00  0.0000E+00  0.0000E+00  0.0000E+00  0.0000E+00  0.0000E+00  0.0000E+00  0.0000E+00  0.0000E+00  0.0000E+00  0.0000E+00  0.0000E+00  0.0000E+00  0.0000E+00  0.0000E+00  0.0000E+00  0.0000E+00  0.0000E+00  0.0000E+00  0.0000E+00  0.0000E+00  0.0000E+00  0.0000E+00  0.0000E+00  0.0000E+00  0.0000E+00  0.0000E+00  0.0000E+00  0.0000E+00  0.0000E+00  0.0000E+00  0.0000E+00  0.0000E+00  0.0000E+00  0.0000E+00  0.0000E+00  0.0000E+00  0.0000E+00  0.0000E+00  0.0000E+00  0.0000E+00  0.0000E+00  0.0000E+00  0.0000E+00  0.0000E+00  0.0000E+00  0.0000E+00  0.0000E+00  0.0000E+00  0.0000E+00  0.0000E+00
  0.0000E+00  0.0000E+00  0.0000E+00  0.0000E+00  0.0000E+00  0.0000E+00  0.0000E+00  0.0000E+00  0.0000E+00  0.0000E+00  0.0000E+00  0.0000E+00  0.0000E+00  0.0000E+00  0.0000E+00  0.0000E+00  0.0000E+00  0.0000E+00  0.0000E+00  0.0000E+00  0.0000E+00  0.0000E+00  0.0000E+00  0.0000E+00  0.0000E+00  0.0000E+00  0.0000E+00  0.0000E+00  0.0000E+00  0.0000E+00  0.0000E+00  0.0000E+00  0.0000E+00  0.0000E+00  0.0000E+00  0.0000E+00  0.0000E+00  0.0000E+00  0.0000E+00  0.0000E+00  0.0000E+00  0.0000E+00  0.0000E+00  0.0000E+00  0.0000E+00  0.0000E+00  0.0000E+00  0.0000E+00  0.0000E+00  0.0000E+00  0.0000E+00  0.0000E+00  0.0000E+00  0.0000E+00  0.0000E+00  0.0000E+00  0.0000E+00  0.0000E+00  0.0000E+00  0.0000E+00  0.0000E+00  0.0000E+00  0.0000E+00  0.0000E+00  0.0000E+00  0.0000E+00  0.0000E+00  0.0000E+00  0.0000E+00  0.0000E+00  0.0000E+00  0.0000E+00  0.0000E+00  0.0000E+00  0.0000E+00  0.0000E+00  0.0000E+00  0.0000E+00  0.0000E+00
  0.0000E+00  0.0000E+00  0.0000E+00  0.0000E+00  0.0000E+00  0.0000E+00  0.0000E+00  0.0000E+00  0.0000E+00  0.0000E+00  0.0000E+00  0.0000E+00  0.0000E+00  0.0000E+00  0.0000E+00  0.0000E+00  0.0000E+00  0.0000E+00  0.0000E+00  0.0000E+00  0.0000E+00  0.0000E+00  0.0000E+00  0.0000E+00  0.0000E+00  0.0000E+00  0.0000E+00  0.0000E+00  0.0000E+00  0.0000E+00  0.0000E+00  0.0000E+00  0.0000E+00  0.0000E+00  0.0000E+00  0.0000E+00  0.0000E+00  0.0000E+00  0.0000E+00  0.0000E+00  0.0000E+00  0.0000E+00  0.0000E+00  0.0000E+00  0.0000E+00  0.0000E+00  0.0000E+00  0.0000E+00  0.0000E+00  0.0000E+00  0.0000E+00  0.0000E+00  0.0000E+00  0.0000E+00  0.0000E+00  0.0000E+00  0.0000E+00  0.0000E+00  0.0000E+00  0.0000E+00  0.0000E+00  0.0000E+00  0.0000E+00  0.0000E+00  0.0000E+00  0.0000E+00  0.0000E+00  0.0000E+00  0.0000E+00  0.0000E+00  0.0000E+00  0.0000E+00  0.0000E+00  0.0000E+00  0.0000E+00  0.0000E+00  0.0000E+00  0.0000E+00  0.0000E+00
  0.0000E+00  0.0000E+00  0.0000E+00  0.0000E+00  0.0000E+00  0.0000E+00  0.0000E+00  0.0000E+00  0.0000E+00  0.0000E+00  0.0000E+00  0.0000E+00  0.0000E+00  0.0000E+00  0.0000E+00  0.0000E+00  0.0000E+00  0.0000E+00  0.0000E+00  0.0000E+00  0.0000E+00  0.0000E+00  0.0000E+00  0.0000E+00  0.0000E+00  0.0000E+00  0.0000E+00  0.0000E+00  0.0000E+00  0.0000E+00  0.0000E+00  0.0000E+00  0.0000E+00  0.0000E+00  0.0000E+00  0.0000E+00  0.0000E+00  0.0000E+00  0.0000E+00  0.0000E+00  0.0000E+00  0.0000E+00  0.0000E+00  0.0000E+00  0.0000E+00  0.0000E+00  0.0000E+00  0.0000E+00  0.0000E+00  0.0000E+00  0.0000E+00  0.0000E+00  0.0000E+00  0.0000E+00  0.0000E+00  0.0000E+00  0.0000E+00  0.0000E+00  0.0000E+00  0.0000E+00  0.0000E+00  0.0000E+00  0.0000E+00  0.0000E+00  0.0000E+00  0.0000E+00  0.0000E+00  0.0000E+00  0.0000E+00  0.0000E+00  0.0000E+00  0.0000E+00  0.0000E+00  0.0000E+00  0.0000E+00  0.0000E+00  0.0000E+00  0.0000E+00  0.0000E+00
  0.0000E+00  0.0000E+00  0.0000E+00  0.0000E+00  0.0000E+00  0.0000E+00  0.0000E+00  0.0000E+00  0.0000E+00  0.0000E+00  0.0000E+00  0.0000E+00  0.0000E+00  0.0000E+00  0.0000E+00  0.0000E+00  0.0000E+00  0.0000E+00  0.0000E+00  0.0000E+00  0.0000E+00  0.0000E+00  0.0000E+00  0.0000E+00  0.0000E+00  0.0000E+00  0.0000E+00  0.0000E+00  0.0000E+00  0.0000E+00  0.0000E+00  0.0000E+00  0.0000E+00  0.0000E+00  0.0000E+00  0.0000E+00  0.0000E+00  0.0000E+00  0.0000E+00  0.0000E+00  0.0000E+00  0.0000E+00  0.0000E+00  0.0000E+00  0.0000E+00  0.0000E+00  0.0000E+00  0.0000E+00  0.0000E+00  0.0000E+00  0.0000E+00  0.0000E+00  0.0000E+00  0.0000E+00  0.0000E+00  0.0000E+00  0.0000E+00  0.0000E+00  0.0000E+00  0.0000E+00  0.0000E+00  0.0000E+00  0.0000E+00  0.0000E+00  0.0000E+00  0.0000E+00  0.0000E+00  0.0000E+00  0.0000E+00  0.0000E+00  0.0000E+00  0.0000E+00  0.0000E+00  0.0000E+00  0.0000E+00  0.0000E+00  0.0000E+00  0.0000E+00  0.0000E+00
  0.0000E+00  0.0000E+00  0.0000E+00  0.0000E+00  0.0000E+00  0.0000E+00  0.0000E+00  0.0000E+00  0.0000E+00  0.0000E+00  0.0000E+00  0.0000E+00  0.0000E+00  0.0000E+00  0.0000E+00  0.0000E+00  0.0000E+00  0.0000E+00  0.0000E+00  0.0000E+00  0.0000E+00  0.0000E+00  0.0000E+00  0.0000E+00  0.0000E+00  0.0000E+00  0.0000E+00  0.0000E+00  0.0000E+00  0.0000E+00  0.0000E+00  0.0000E+00  0.0000E+00  0.0000E+00  0.0000E+00  0.0000E+00  0.0000E+00  0.0000E+00  0.0000E+00  0.0000E+00  0.0000E+00  0.0000E+00  0.0000E+00  0.0000E+00  0.0000E+00  0.0000E+00  0.0000E+00  0.0000E+00  0.0000E+00  0.0000E+00  0.0000E+00  0.0000E+00  0.0000E+00  0.0000E+00  0.0000E+00  0.0000E+00  0.0000E+00  0.0000E+00  0.0000E+00  0.0000E+00  0.0000E+00  0.0000E+00  0.0000E+00  0.0000E+00  0.0000E+00  0.0000E+00  0.0000E+00  0.0000E+00  0.0000E+00  0.0000E+00  0.0000E+00  0.0000E+00  0.0000E+00  0.0000E+00  0.0000E+00  0.0000E+00  0.0000E+00  0.0000E+00  0.0000E+00
  0.0000E+00  0.0000E+00  0.0000E+00  0.0000E+00  0.0000E+00  0.0000E+00  0.0000E+00  0.0000E+00  0.0000E+00  0.0000E+00  0.0000E+00  0.0000E+00  0.0000E+00  0.0000E+00  0.0000E+00  0.0000E+00  0.0000E+00  0.0000E+00  0.0000E+00  0.0000E+00  0.0000E+00  0.0000E+00  0.0000E+00  0.0000E+00  0.0000E+00  0.0000E+00  0.0000E+00  0.0000E+00  0.0000E+00  0.0000E+00  0.0000E+00  0.0000E+00  0.0000E+00  0.0000E+00  0.0000E+00  0.0000E+00  0.0000E+00  0.0000E+00  0.0000E+00  0.0000E+00  0.0000E+00  0.0000E+00  0.0000E+00  0.0000E+00  0.0000E+00  0.0000E+00  0.0000E+00  0.0000E+00  0.0000E+00  0.0000E+00  0.0000E+00  0.0000E+00  0.0000E+00  0.0000E+00  0.0000E+00  0.0000E+00  0.0000E+00  0.0000E+00  0.0000E+00  0.0000E+00  0.0000E+00  0.0000E+00  0.0000E+00  0.0000E+00  0.0000E+00  0.0000E+00  0.0000E+00  0.0000E+00  0.0000E+00  0.0000E+00  0.0000E+00  0.0000E+00  0.0000E+00  0.0000E+00  0.0000E+00  0.0000E+00  0.0000E+00  0.0000E+00  0.0000E+00
  0.0000E+00  0.0000E+00  0.0000E+00  0.0000E+00  0.0000E+00  0.0000E+00  0.0000E+00  0.0000E+00  0.0000E+00  0.0000E+00  0.0000E+00  0.0000E+00  0.0000E+00  0.0000E+00  0.0000E+00  0.0000E+00  0.0000E+00  0.0000E+00  0.0000E+00  0.0000E+00  0.0000E+00  0.0000E+00  0.0000E+00  0.0000E+00  0.0000E+00  0.0000E+00  0.0000E+00  0.0000E+00  0.0000E+00  0.0000E+00  0.0000E+00  0.0000E+00  0.0000E+00  0.0000E+00  0.0000E+00  0.0000E+00  0.0000E+00  0.0000E+00  0.0000E+00  0.0000E+00  0.0000E+00  0.0000E+00  0.0000E+00  0.0000E+00  0.0000E+00  0.0000E+00  0.0000E+00  0.0000E+00  0.0000E+00  0.0000E+00  0.0000E+00  0.0000E+00  0.0000E+00  0.0000E+00  0.0000E+00  0.0000E+00  0.0000E+00  0.0000E+00  0.0000E+00  0.0000E+00  0.0000E+00  0.0000E+00  0.0000E+00  0.0000E+00  0.0000E+00  0.0000E+00  0.0000E+00  0.0000E+00  0.0000E+00  0.0000E+00  0.0000E+00  0.0000E+00  0.0000E+00  0.0000E+00  0.0000E+00  0.0000E+00  0.0000E+00  0.0000E+00  0.0000E+00
  0.0000E+00  0.0000E+00  0.0000E+00  0.0000E+00  0.0000E+00  0.0000E+00  0.0000E+00  0.0000E+00  0.0000E+00  0.0000E+00  0.0000E+00  0.0000E+00  0.0000E+00  0.0000E+00  0.0000E+00  0.0000E+00  0.0000E+00  0.0000E+00  0.0000E+00  0.0000E+00  0.0000E+00  0.0000E+00  0.0000E+00  0.0000E+00  0.0000E+00  0.0000E+00  0.0000E+00  0.0000E+00  0.0000E+00  0.0000E+00  0.0000E+00  0.0000E+00  0.0000E+00  0.0000E+00  0.0000E+00  0.0000E+00  0.0000E+00  0.0000E+00  0.0000E+00  0.0000E+00  0.0000E+00  0.0000E+00  0.0000E+00  0.0000E+00  0.0000E+00  0.0000E+00  0.0000E+00  0.0000E+00  0.0000E+00  0.0000E+00  0.0000E+00  0.0000E+00  0.0000E+00  0.0000E+00  0.0000E+00  0.0000E+00  0.0000E+00  0.0000E+00  0.0000E+00  0.0000E+00  0.0000E+00  0.0000E+00  0.0000E+00  0.0000E+00  0.0000E+00  0.0000E+00  0.0000E+00  0.0000E+00  0.0000E+00  0.0000E+00  0.0000E+00  0.0000E+00  0.0000E+00  0.0000E+00  0.0000E+00  0.0000E+00  0.0000E+00  0.0000E+00  0.0000E+00
  0.0000E+00  0.0000E+00  0.0000E+00  0.0000E+00  0.0000E+00  0.0000E+00  0.0000E+00  0.0000E+00  0.0000E+00  0.0000E+00  0.0000E+00  0.0000E+00  0.0000E+00  0.0000E+00  0.0000E+00  0.0000E+00  0.0000E+00  0.0000E+00  0.0000E+00  0.0000E+00  0.0000E+00  0.0000E+00  0.0000E+00  0.0000E+00  0.0000E+00  0.0000E+00  0.0000E+00  0.0000E+00  0.0000E+00  0.0000E+00  0.0000E+00  0.0000E+00  0.0000E+00  0.0000E+00  0.0000E+00  0.0000E+00  0.0000E+00  0.0000E+00  0.0000E+00  0.0000E+00  0.0000E+00  0.0000E+00  0.0000E+00  0.0000E+00  0.0000E+00  0.0000E+00  0.0000E+00  0.0000E+00  0.0000E+00  0.0000E+00  0.0000E+00  0.0000E+00  0.0000E+00  0.0000E+00  0.0000E+00  0.0000E+00  0.0000E+00  0.0000E+00  0.0000E+00  0.0000E+00  0.0000E+00  0.0000E+00  0.0000E+00  0.0000E+00  0.0000E+00  0.0000E+00  0.0000E+00  0.0000E+00  0.0000E+00  0.0000E+00  0.0000E+00  0.0000E+00  0.0000E+00  0.0000E+00  0.0000E+00  0.0000E+00  0.0000E+00  0.0000E+00  0.0000E+00
  0.0000E+00  0.0000E+00  0.0000E+00  0.0000E+00  0.0000E+00  0.0000E+00  0.0000E+00  0.0000E+00  0.0000E+00  0.0000E+00  0.0000E+00  0.0000E+00  0.0000E+00  0.0000E+00  0.0000E+00  0.0000E+00  0.0000E+00  0.0000E+00  0.0000E+00  0.0000E+00  0.0000E+00  0.0000E+00  0.0000E+00  0.0000E+00  0.0000E+00  0.0000E+00  0.0000E+00  0.0000E+00  0.0000E+00  0.0000E+00  0.0000E+00  0.0000E+00  0.0000E+00  0.0000E+00  0.0000E+00  0.0000E+00  0.0000E+00  0.0000E+00  0.0000E+00  0.0000E+00  0.0000E+00  0.0000E+00  0.0000E+00  0.0000E+00  0.0000E+00  0.0000E+00  0.0000E+00  0.0000E+00  0.0000E+00  0.0000E+00  0.0000E+00  0.0000E+00  0.0000E+00  0.0000E+00  0.0000E+00  0.0000E+00  0.0000E+00  0.0000E+00  0.0000E+00  0.0000E+00  0.0000E+00  0.0000E+00  0.0000E+00  0.0000E+00  0.0000E+00  0.0000E+00  0.0000E+00  0.0000E+00  0.0000E+00  0.0000E+00  0.0000E+00  0.0000E+00  0.0000E+00  0.0000E+00  0.0000E+00  0.0000E+00  0.0000E+00  0.0000E+00  0.0000E+00
  0.0000E+00  0.0000E+00  0.0000E+00  0.0000E+00  0.0000E+00  0.0000E+00  0.0000E+00  0.0000E+00  0.0000E+00  0.0000E+00  0.0000E+00  0.0000E+00  0.0000E+00  0.0000E+00  0.0000E+00  0.0000E+00  0.0000E+00  0.0000E+00  0.0000E+00  0.0000E+00  0.0000E+00  0.0000E+00  0.0000E+00  0.0000E+00  0.0000E+00  0.0000E+00  0.0000E+00  0.0000E+00  0.0000E+00  0.0000E+00  0.0000E+00  0.0000E+00  0.0000E+00  0.0000E+00  0.0000E+00  0.0000E+00  0.0000E+00  0.0000E+00  0.0000E+00  0.0000E+00  0.0000E+00  0.0000E+00  0.0000E+00  0.0000E+00  0.0000E+00  0.0000E+00  0.0000E+00  0.0000E+00  0.0000E+00  0.0000E+00  0.0000E+00  0.0000E+00  0.0000E+00  0.0000E+00  0.0000E+00  0.0000E+00  0.0000E+00  0.0000E+00  0.0000E+00  0.0000E+00  0.0000E+00  0.0000E+00  0.0000E+00  0.0000E+00  0.0000E+00  0.0000E+00  0.0000E+00  0.0000E+00  0.0000E+00  0.0000E+00  0.0000E+00  0.0000E+00  0.0000E+00  0.0000E+00  0.0000E+00  0.0000E+00  0.0000E+00  0.0000E+00  0.0000E+00
  0.0000E+00  0.0000E+00  0.0000E+00  0.0000E+00  0.0000E+00  0.0000E+00  0.0000E+00  0.0000E+00  0.0000E+00  0.0000E+00  0.0000E+00  0.0000E+00  0.0000E+00  0.0000E+00  0.0000E+00  0.0000E+00  0.0000E+00  0.0000E+00  0.0000E+00  0.0000E+00  0.0000E+00  0.0000E+00  0.0000E+00  0.0000E+00  0.0000E+00  0.0000E+00  0.0000E+00  0.0000E+00  0.0000E+00  0.0000E+00  0.0000E+00  0.0000E+00  0.0000E+00  0.0000E+00  0.0000E+00  0.0000E+00  0.0000E+00  0.0000E+00  0.0000E+00  0.0000E+00  0.0000E+00  0.0000E+00  0.0000E+00  0.0000E+00  0.0000E+00  0.0000E+00  0.0000E+00  0.0000E+00  0.0000E+00  0.0000E+00  0.0000E+00  0.0000E+00  0.0000E+00  0.0000E+00  0.0000E+00  0.0000E+00  0.0000E+00  0.0000E+00  0.0000E+00  0.0000E+00  0.0000E+00  0.0000E+00  0.0000E+00  0.0000E+00  0.0000E+00  0.0000E+00  0.0000E+00  0.0000E+00  0.0000E+00  0.0000E+00  0.0000E+00  0.0000E+00  0.0000E+00  0.0000E+00  0.0000E+00  0.0000E+00  0.0000E+00  0.0000E+00  0.0000E+00
  0.0000E+00  0.0000E+00  0.0000E+00  0.0000E+00  0.0000E+00  0.0000E+00  0.0000E+00  0.0000E+00  0.0000E+00  0.0000E+00  0.0000E+00  0.0000E+00  0.0000E+00  0.0000E+00  0.0000E+00  0.0000E+00  0.0000E+00  0.0000E+00  0.0000E+00  0.0000E+00  0.0000E+00  0.0000E+00  0.0000E+00  0.0000E+00  0.0000E+00  0.0000E+00  0.0000E+00  0.0000E+00  0.0000E+00  0.0000E+00  0.0000E+00  0.0000E+00  0.0000E+00  0.0000E+00  0.0000E+00  0.0000E+00  0.0000E+00  0.0000E+00  0.0000E+00  0.0000E+00  0.0000E+00  0.0000E+00  0.0000E+00  0.0000E+00  0.0000E+00  0.0000E+00  0.0000E+00  0.0000E+00  0.0000E+00  0.0000E+00  0.0000E+00  0.0000E+00  0.0000E+00  0.0000E+00  0.0000E+00  0.0000E+00  0.0000E+00  0.0000E+00  0.0000E+00  0.0000E+00  0.0000E+00  0.0000E+00  0.0000E+00  0.0000E+00  0.0000E+00  0.0000E+00  0.0000E+00  0.0000E+00  0.0000E+00  0.0000E+00  0.0000E+00  0.0000E+00  0.0000E+00  0.0000E+00  0.0000E+00  0.0000E+00  0.0000E+00  0.0000E+00  0.0000E+00
  0.0000E+00  0.0000E+00  0.0000E+00  0.0000E+00  0.0000E+00  0.0000E+00  0.0000E+00  0.0000E+00  0.0000E+00  0.0000E+00  0.0000E+00  0.0000E+00  0.0000E+00  0.0000E+00  0.0000E+00  0.0000E+00  0.0000E+00  0.0000E+00  0.0000E+00  0.0000E+00  0.0000E+00  0.0000E+00  0.0000E+00  0.0000E+00  0.0000E+00  0.0000E+00  0.0000E+00  0.0000E+00  0.0000E+00  0.0000E+00  0.0000E+00  0.0000E+00  0.0000E+00  0.0000E+00  0.0000E+00  0.0000E+00  0.0000E+00  0.0000E+00  0.0000E+00  0.0000E+00  0.0000E+00  0.0000E+00  0.0000E+00  0.0000E+00  0.0000E+00  0.0000E+00  0.0000E+00  0.0000E+00  0.0000E+00  0.0000E+00  0.0000E+00  0.0000E+00  0.0000E+00  0.0000E+00  0.0000E+00  0.0000E+00  0.0000E+00  0.0000E+00  0.0000E+00  0.0000E+00  0.0000E+00  0.0000E+00  0.0000E+00  0.0000E+00  0.0000E+00  0.0000E+00  0.0000E+00  0.0000E+00  0.0000E+00  0.0000E+00  0.0000E+00  0.0000E+00  0.0000E+00  0.0000E+00  0.0000E+00  0.0000E+00  0.0000E+00  0.0000E+00  0.0000E+00
  0.0000E+00  0.0000E+00  0.0000E+00  0.0000E+00  0.0000E+00  0.0000E+00  0.0000E+00  0.0000E+00  0.0000E+00  0.0000E+00  0.0000E+00  0.0000E+00  0.0000E+00  0.0000E+00  0.0000E+00  0.0000E+00  0.0000E+00  0.0000E+00  0.0000E+00  0.0000E+00  0.0000E+00  0.0000E+00  0.0000E+00  0.0000E+00  0.0000E+00  0.0000E+00  0.0000E+00  0.0000E+00  0.0000E+00  0.0000E+00  0.0000E+00  0.0000E+00  0.0000E+00  0.0000E+00  0.0000E+00  0.0000E+00  0.0000E+00  0.0000E+00  0.0000E+00  0.0000E+00  0.0000E+00  0.0000E+00  0.0000E+00  0.0000E+00  0.0000E+00  0.0000E+00  0.0000E+00  0.0000E+00  0.0000E+00  0.0000E+00  0.0000E+00  0.0000E+00  0.0000E+00  0.0000E+00  0.0000E+00  0.0000E+00  0.0000E+00  0.0000E+00  0.0000E+00  0.0000E+00  0.0000E+00  0.0000E+00  0.0000E+00  0.0000E+00  0.0000E+00  0.0000E+00  0.0000E+00  0.0000E+00  0.0000E+00  0.0000E+00  0.0000E+00  0.0000E+00  0.0000E+00  0.0000E+00  0.0000E+00  0.0000E+00  0.0000E+00  0.0000E+00  0.0000E+00
  0.0000E+00  0.0000E+00  0.0000E+00  0.0000E+00  0.0000E+00  0.0000E+00  0.0000E+00  0.0000E+00  0.0000E+00  0.0000E+00  0.0000E+00  0.0000E+00  0.0000E+00  0.0000E+00  0.0000E+00  0.0000E+00  0.0000E+00  0.0000E+00  0.0000E+00  0.0000E+00  0.0000E+00  0.0000E+00  0.0000E+00  0.0000E+00  0.0000E+00  0.0000E+00  0.0000E+00  0.0000E+00  0.0000E+00  0.0000E+00  0.0000E+00  0.0000E+00  0.0000E+00  0.0000E+00  0.0000E+00  0.0000E+00  0.0000E+00  0.0000E+00  0.0000E+00  0.0000E+00  0.0000E+00  0.0000E+00  0.0000E+00  0.0000E+00  0.0000E+00  0.0000E+00  0.0000E+00  0.0000E+00  0.0000E+00  0.0000E+00  0.0000E+00  0.0000E+00  0.0000E+00  0.0000E+00  0.0000E+00  0.0000E+00  0.0000E+00  0.0000E+00  0.0000E+00  0.0000E+00  0.0000E+00  0.0000E+00  0.0000E+00  0.0000E+00  0.0000E+00  0.0000E+00  0.0000E+00  0.0000E+00  0.0000E+00  0.0000E+00  0.0000E+00  0.0000E+00  0.0000E+00  0.0000E+00  0.0000E+00  0.0000E+00  0.0000E+00  0.0000E+00  0.0000E+00
  0.0000E+00  0.0000E+00  0.0000E+00  0.0000E+00  0.0000E+00  0.0000E+00  0.0000E+00  0.0000E+00  0.0000E+00  0.0000E+00  0.0000E+00  0.0000E+00  0.0000E+00  0.0000E+00  0.0000E+00  0.0000E+00  0.0000E+00  0.0000E+00  0.0000E+00  0.0000E+00  0.0000E+00  0.0000E+00  0.0000E+00  0.0000E+00  0.0000E+00  0.0000E+00  0.0000E+00  0.0000E+00  0.0000E+00  0.0000E+00  0.0000E+00  0.0000E+00  0.0000E+00  0.0000E+00  0.0000E+00  0.0000E+00  0.0000E+00  0.0000E+00  0.0000E+00  0.0000E+00  0.0000E+00  0.0000E+00  0.0000E+00  0.0000E+00  0.0000E+00  0.0000E+00  0.0000E+00  0.0000E+00  0.0000E+00  0.0000E+00  0.0000E+00  0.0000E+00  0.0000E+00  0.0000E+00  0.0000E+00  0.0000E+00  0.0000E+00  0.0000E+00  0.0000E+00  0.0000E+00  0.0000E+00  0.0000E+00  0.0000E+00  0.0000E+00  0.0000E+00  0.0000E+00  0.0000E+00  0.0000E+00  0.0000E+00  0.0000E+00  0.0000E+00  0.0000E+00  0.0000E+00  0.0000E+00  0.0000E+00  0.0000E+00  0.0000E+00  0.0000E+00  0.0000E+00
  0.0000E+00  0.0000E+00  0.0000E+00  0.0000E+00  0.0000E+00  0.0000E+00  0.0000E+00  0.0000E+00  0.0000E+00  0.0000E+00  0.0000E+00  0.0000E+00  0.0000E+00  0.0000E+00  0.0000E+00  0.0000E+00  0.0000E+00  0.0000E+00  0.0000E+00  0.0000E+00  0.0000E+00  0.0000E+00  0.0000E+00  0.0000E+00  0.0000E+00  0.0000E+00  0.0000E+00  0.0000E+00  0.0000E+00  0.0000E+00  0.0000E+00  0.0000E+00  0.0000E+00  0.0000E+00  0.0000E+00  0.0000E+00  0.0000E+00  0.0000E+00  0.0000E+00  0.0000E+00  0.0000E+00  0.0000E+00  0.0000E+00  0.0000E+00  0.0000E+00  0.0000E+00  0.0000E+00  0.0000E+00  0.0000E+00  0.0000E+00  0.0000E+00  0.0000E+00  0.0000E+00  0.0000E+00  0.0000E+00  0.0000E+00  0.0000E+00  0.0000E+00  0.0000E+00  0.0000E+00  0.0000E+00  0.0000E+00  0.0000E+00  0.0000E+00  0.0000E+00  0.0000E+00  0.0000E+00  0.0000E+00  0.0000E+00  0.0000E+00  0.0000E+00  0.0000E+00  0.0000E+00  0.0000E+00  0.0000E+00  0.0000E+00  0.0000E+00  0.0000E+00  0.0000E+00
  0.0000E+00  0.0000E+00  0.0000E+00  0.0000E+00  0.0000E+00  0.0000E+00  0.0000E+00  0.0000E+00  0.0000E+00  0.0000E+00  0.0000E+00  0.0000E+00  0.0000E+00  0.0000E+00  0.0000E+00  0.0000E+00  0.0000E+00  0.0000E+00  0.0000E+00  0.0000E+00  0.0000E+00  0.0000E+00  0.0000E+00  0.0000E+00  0.0000E+00  0.0000E+00  0.0000E+00  0.0000E+00  0.0000E+00  0.0000E+00  0.0000E+00  0.0000E+00  0.0000E+00  0.0000E+00  0.0000E+00  0.0000E+00  0.0000E+00  0.0000E+00  0.0000E+00  0.0000E+00  0.0000E+00  0.0000E+00  0.0000E+00  0.0000E+00  0.0000E+00  0.0000E+00  0.0000E+00  0.0000E+00  0.0000E+00  0.0000E+00  0.0000E+00  0.0000E+00  0.0000E+00  0.0000E+00  0.0000E+00  0.0000E+00  0.0000E+00  0.0000E+00  0.0000E+00  0.0000E+00  0.0000E+00  0.0000E+00  0.0000E+00  0.0000E+00  0.0000E+00  0.0000E+00  0.0000E+00  0.0000E+00  0.0000E+00  0.0000E+00  0.0000E+00  0.0000E+00  0.0000E+00  0.0000E+00  0.0000E+00  0.0000E+00  0.0000E+00  0.0000E+00  0.0000E+00
  0.0000E+00  0.0000E+00  0.0000E+00  0.0000E+00  0.0000E+00  0.0000E+00  0.0000E+00  0.0000E+00  0.0000E+00  0.0000E+00  0.0000E+00  0.0000E+00  0.0000E+00  0.0000E+00  0.0000E+00  0.0000E+00  0.0000E+00  0.0000E+00  0.0000E+00  0.0000E+00  0.0000E+00  0.0000E+00  0.0000E+00  0.0000E+00  0.0000E+00  0.0000E+00  0.0000E+00  0.0000E+00  0.0000E+00  0.0000E+00  0.0000E+00  0.0000E+00  0.0000E+00  0.0000E+00  0.0000E+00  0.0000E+00  0.0000E+00  0.0000E+00  0.0000E+00  0.0000E+00  0.0000E+00  0.0000E+00  0.0000E+00  0.0000E+00  0.0000E+00  0.0000E+00  0.0000E+00  0.0000E+00  0.0000E+00  0.0000E+00  0.0000E+00  0.0000E+00  0.0000E+00  0.0000E+00  0.0000E+00  0.0000E+00  0.0000E+00  0.0000E+00  0.0000E+00  0.0000E+00  0.0000E+00  0.0000E+00  0.0000E+00  0.0000E+00  0.0000E+00  0.0000E+00  0.0000E+00  0.0000E+00  0.0000E+00  0.0000E+00  0.0000E+00  0.0000E+00  0.0000E+00  0.0000E+00  0.0000E+00  0.0000E+00  0.0000E+00  0.0000E+00  0.0000E+00
  0.0000E+00  0.0000E+00  0.0000E+00  0.0000E+00  0.0000E+00  0.0000E+00  0.0000E+00  0.0000E+00  0.0000E+00  0.0000E+00  0.0000E+00  0.0000E+00  0.0000E+00  0.0000E+00  0.0000E+00  0.0000E+00  0.0000E+00  0.0000E+00  0.0000E+00  0.0000E+00  0.0000E+00  0.0000E+00  0.0000E+00  0.0000E+00  0.0000E+00  0.0000E+00  0.0000E+00  0.0000E+00  0.0000E+00  0.0000E+00  0.0000E+00  0.0000E+00  0.0000E+00  0.0000E+00  0.0000E+00  0.0000E+00  0.0000E+00  0.0000E+00  0.0000E+00  0.0000E+00  0.0000E+00  0.0000E+00  0.0000E+00  0.0000E+00  0.0000E+00  0.0000E+00  0.0000E+00  0.0000E+00  0.0000E+00  0.0000E+00  0.0000E+00  0.0000E+00  0.0000E+00  0.0000E+00  0.0000E+00  0.0000E+00  0.0000E+00  0.0000E+00  0.0000E+00  0.0000E+00  0.0000E+00  0.0000E+00  0.0000E+00  0.0000E+00  0.0000E+00  0.0000E+00  0.0000E+00  0.0000E+00  0.0000E+00  0.0000E+00  0.0000E+00  0.0000E+00  0.0000E+00  0.0000E+00  0.0000E+00  0.0000E+00  0.0000E+00  0.0000E+00  0.0000E+00
  0.0000E+00  0.0000E+00  0.0000E+00  0.0000E+00  0.0000E+00  0.0000E+00  0.0000E+00  0.0000E+00  0.0000E+00  0.0000E+00  0.0000E+00  0.0000E+00  0.0000E+00  0.0000E+00  0.0000E+00  0.0000E+00  0.0000E+00  0.0000E+00  0.0000E+00  0.0000E+00  0.0000E+00  0.0000E+00  0.0000E+00  0.0000E+00  0.0000E+00  0.0000E+00  0.0000E+00  0.0000E+00  0.0000E+00  0.0000E+00  0.0000E+00  0.0000E+00  0.0000E+00  0.0000E+00  0.0000E+00  0.0000E+00  0.0000E+00  0.0000E+00  0.0000E+00  0.0000E+00  0.0000E+00  0.0000E+00  0.0000E+00  0.0000E+00  0.0000E+00  0.0000E+00  0.0000E+00  0.0000E+00  0.0000E+00  0.0000E+00  0.0000E+00  0.0000E+00  0.0000E+00  0.0000E+00  0.0000E+00  0.0000E+00  0.0000E+00  0.0000E+00  0.0000E+00  0.0000E+00  0.0000E+00  0.0000E+00  0.0000E+00  0.0000E+00  0.0000E+00  0.0000E+00  0.0000E+00  0.0000E+00  0.0000E+00  0.0000E+00  0.0000E+00  0.0000E+00  0.0000E+00  0.0000E+00  0.0000E+00  0.0000E+00  0.0000E+00  0.0000E+00  0.0000E+00
  0.0000E+00  0.0000E+00  0.0000E+00  0.0000E+00  0.0000E+00  0.0000E+00  0.0000E+00  0.0000E+00  0.0000E+00  0.0000E+00  0.0000E+00  0.0000E+00  0.0000E+00  0.0000E+00  0.0000E+00  0.0000E+00  0.0000E+00  0.0000E+00  0.0000E+00  0.0000E+00  0.0000E+00  0.0000E+00  0.0000E+00  0.0000E+00  0.0000E+00  0.0000E+00  0.0000E+00  0.0000E+00  0.0000E+00  0.0000E+00  0.0000E+00  0.0000E+00  0.0000E+00  0.0000E+00  0.0000E+00  0.0000E+00  0.0000E+00  0.0000E+00  0.0000E+00  0.0000E+00  0.0000E+00  0.0000E+00  0.0000E+00  0.0000E+00  0.0000E+00  0.0000E+00  0.0000E+00  0.0000E+00  0.0000E+00  0.0000E+00  0.0000E+00  0.0000E+00  0.0000E+00  0.0000E+00  0.0000E+00  0.0000E+00  0.0000E+00  0.0000E+00  0.0000E+00  0.0000E+00  0.0000E+00  0.0000E+00  0.0000E+00  0.0000E+00  0.0000E+00  0.0000E+00  0.0000E+00  0.0000E+00  0.0000E+00  0.0000E+00  0.0000E+00  0.0000E+00  0.0000E+00  0.0000E+00  0.0000E+00  0.0000E+00  0.0000E+00  0.0000E+00  0.0000E+00
  0.0000E+00  0.0000E+00  0.0000E+00  0.0000E+00  0.0000E+00  0.0000E+00  0.0000E+00  0.0000E+00  0.0000E+00  0.0000E+00  0.0000E+00  0.0000E+00  0.0000E+00  0.0000E+00  0.0000E+00  0.0000E+00  0.0000E+00  0.0000E+00  0.0000E+00  0.0000E+00  0.0000E+00  0.0000E+00  0.0000E+00  0.0000E+00  0.0000E+00  0.0000E+00  0.0000E+00  0.0000E+00  0.0000E+00  0.0000E+00  0.0000E+00  0.0000E+00  0.0000E+00  0.0000E+00  0.0000E+00  0.0000E+00  0.0000E+00  0.0000E+00  0.0000E+00  0.0000E+00  0.0000E+00  0.0000E+00  0.0000E+00  0.0000E+00  0.0000E+00  0.0000E+00  0.0000E+00  0.0000E+00  0.0000E+00  0.0000E+00  0.0000E+00  0.0000E+00  0.0000E+00  0.0000E+00  0.0000E+00  0.0000E+00  0.0000E+00  0.0000E+00  0.0000E+00  0.0000E+00  0.0000E+00  0.0000E+00  0.0000E+00  0.0000E+00  0.0000E+00  0.0000E+00  0.0000E+00  0.0000E+00  0.0000E+00  0.0000E+00  0.0000E+00  0.0000E+00  0.0000E+00  0.0000E+00  0.0000E+00  0.0000E+00  0.0000E+00  0.0000E+00  0.3608E-08
  0.0000E+00  0.0000E+00  0.0000E+00  0.0000E+00  0.0000E+00  0.0000E+00  0.0000E+00  0.0000E+00  0.0000E+00  0.0000E+00  0.0000E+00  0.0000E+00  0.0000E+00  0.0000E+00  0.0000E+00  0.0000E+00  0.0000E+00  0.0000E+00  0.0000E+00  0.0000E+00  0.0000E+00  0.0000E+00  0.0000E+00  0.0000E+00  0.0000E+00  0.0000E+00  0.0000E+00  0.0000E+00  0.0000E+00  0.0000E+00  0.0000E+00  0.0000E+00  0.0000E+00  0.0000E+00  0.0000E+00  0.0000E+00  0.0000E+00  0.0000E+00  0.0000E+00  0.0000E+00  0.0000E+00  0.0000E+00  0.0000E+00  0.0000E+00  0.0000E+00  0.0000E+00  0.0000E+00  0.0000E+00  0.0000E+00  0.0000E+00  0.0000E+00  0.0000E+00  0.0000E+00  0.0000E+00  0.0000E+00  0.0000E+00  0.0000E+00  0.0000E+00  0.0000E+00  0.0000E+00  0.0000E+00  0.0000E+00  0.0000E+00  0.0000E+00  0.0000E+00  0.0000E+00  0.0000E+00  0.0000E+00  0.0000E+00  0.0000E+00  0.0000E+00  0.0000E+00  0.0000E+00  0.0000E+00  0.4015E-08  0.8213E-08  0.1256E-07  0.1504E-07  0.1758E-07
  0.0000E+00  0.0000E+00  0.0000E+00  0.0000E+00  0.0000E+00  0.0000E+00  0.0000E+00  0.0000E+00  0.0000E+00  0.0000E+00  0.0000E+00  0.0000E+00  0.0000E+00  0.0000E+00  0.0000E+00  0.0000E+00  0.0000E+00  0.0000E+00  0.0000E+00  0.0000E+00  0.0000E+00  0.0000E+00  0.0000E+00  0.0000E+00  0.0000E+00  0.0000E+00  0.0000E+00  0.0000E+00  0.0000E+00  0.0000E+00  0.0000E+00  0.0000E+00  0.0000E+00  0.0000E+00  0.0000E+00  0.0000E+00  0.0000E+00  0.0000E+00  0.0000E+00  0.0000E+00  0.0000E+00  0.0000E+00  0.0000E+00  0.0000E+00  0.0000E+00  0.0000E+00  0.0000E+00  0.0000E+00  0.0000E+00  0.0000E+00  0.0000E+00  0.0000E+00  0.0000E+00  0.0000E+00  0.0000E+00  0.0000E+00  0.0000E+00  0.0000E+00  0.0000E+00  0.0000E+00  0.0000E+00  0.0000E+00  0.0000E+00  0.0000E+00  0.0000E+00  0.0000E+00  0.0000E+00  0.0000E+00  0.0000E+00  0.0000E+00  0.2212E-08  0.6830E-08  0.1172E-07  0.1684E-07  0.2215E-07  0.2533E-07  0.3088E-07  0.3650E-07  0.4212E-07
  0.0000E+00  0.0000E+00  0.0000E+00  0.0000E+00  0.0000E+00  0.0000E+00  0.0000E+00  0.0000E+00  0.0000E+00  0.0000E+00  0.0000E+00  0.0000E+00  0.0000E+00  0.0000E+00  0.0000E+00  0.0000E+00  0.0000E+00  0.0000E+00  0.0000E+00  0.0000E+00  0.0000E+00  0.0000E+00  0.0000E+00  0.0000E+00  0.0000E+00  0.0000E+00  0.0000E+00  0.0000E+00  0.0000E+00  0.0000E+00  0.0000E+00  0.0000E+00  0.0000E+00  0.0000E+00  0.0000E+00  0.0000E+00  0.0000E+00  0.0000E+00  0.0000E+00  0.0000E+00  0.0000E+00  0.0000E+00  0.0000E+00  0.0000E+00  0.0000E+00  0.0000E+00  0.0000E+00  0.0000E+00  0.0000E+00  0.0000E+00  0.0000E+00  0.0000E+00  0.0000E+00  0.0000E+00  0.0000E+00  0.0000E+00  0.0000E+00  0.0000E+00  0.0000E+00  0.0000E+00  0.0000E+00  0.0000E+00  0.0000E+00  0.0000E+00  0.0000E+00  0.0000E+00  0.0000E+00  0.4849E-08  0.1013E-07  0.1581E-07  0.2184E-07  0.2816E-07  0.3473E-07  0.4148E-07  0.4835E-07  0.5529E-07  0.5964E-07  0.6390E-07  0.7072E-07
  0.0000E+00  0.0000E+00  0.0000E+00  0.0000E+00  0.0000E+00  0.0000E+00  0.0000E+00  0.0000E+00  0.0000E+00  0.0000E+00  0.0000E+00  0.2174E-07  0.5315E-07  0.8767E-07  0.1257E-06  0.1677E-06  0.2143E-06  0.2304E-06  0.2318E-06  0.2327E-06  0.2330E-06  0.2327E-06  0.2248E-06  0.2014E-06  0.1765E-06  0.1498E-06  0.1121E-06  0.8131E-07  0.4867E-07  0.2196E-08  0.0000E+00  0.0000E+00  0.0000E+00  0.0000E+00  0.0000E+00  0.0000E+00  0.0000E+00  0.0000E+00  0.0000E+00  0.0000E+00  0.0000E+00  0.0000E+00  0.0000E+00  0.0000E+00  0.0000E+00  0.0000E+00  0.0000E+00  0.0000E+00  0.0000E+00  0.0000E+00  0.0000E+00  0.0000E+00  0.0000E+00  0.0000E+00  0.0000E+00  0.0000E+00  0.0000E+00  0.0000E+00  0.0000E+00  0.0000E+00  0.0000E+00  0.0000E+00  0.0000E+00  0.0000E+00  0.5310E-08  0.1122E-07  0.2044E-07  0.2750E-07  0.3502E-07  0.4292E-07  0.5115E-07  0.5961E-07  0.6824E-07  0.7695E-07  0.8262E-07  0.9127E-07  0.1143E-06  0.1171E-06  0.1193E-06
  0.0000E+00  0.0000E+00  0.0000E+00  0.0000E+00  0.2199E-07  0.5394E-07  0.8053E-07  0.1095E-06  0.1411E-06  0.1755E-06  0.2132E-06  0.2442E-06  0.2493E-06  0.2539E-06  0.2580E-06  0.2615E-06  0.2668E-06  0.2691E-06  0.2708E-06  0.2719E-06  0.2723E-06  0.2720E-06  0.2710E-06  0.2694E-06  0.2671E-06  0.2642E-06  0.2607E-06  0.2566E-06  0.2519E-06  0.2467E-06  0.2120E-06  0.1729E-06  0.1339E-06  0.9258E-07  0.3768E-07  0.0000E+00  0.0000E+00  0.0000E+00  0.0000E+00  0.0000E+00  0.0000E+00  0.0000E+00  0.0000E+00  0.0000E+00  0.0000E+00  0.0000E+00  0.0000E+00  0.0000E+00  0.0000E+00  0.0000E+00  0.0000E+00  0.0000E+00  0.0000E+00  0.0000E+00  0.0000E+00  0.0000E+00  0.0000E+00  0.0000E+00  0.0000E+00  0.0000E+00  0.0000E+00  0.5659E-08  0.1212E-07  0.2235E-07  0.3044E-07  0.3921E-07  0.4858E-07  0.6172E-07  0.7214E-07  0.8290E-07  0.9389E-07  0.1050E-06  0.1330E-06  0.1378E-06  0.1419E-06  0.1666E-06  0.1703E-06  0.1731E-06  0.1845E-06
  0.3771E-07  0.5502E-07  0.8235E-07  0.1123E-06  0.1450E-06  0.1808E-06  0.2088E-06  0.2511E-06  0.2611E-06  0.2685E-06  0.2754E-06  0.2843E-06  0.2903E-06  0.2958E-06  0.3006E-06  0.3072E-06  0.3107E-06  0.3135E-06  0.3156E-06  0.3169E-06  0.3174E-06  0.3171E-06  0.3160E-06  0.3142E-06  0.3116E-06  0.3082E-06  0.3041E-06  0.2993E-06  0.2939E-06  0.2878E-06  0.2811E-06  0.2739E-06  0.2638E-06  0.2558E-06  0.2331E-06  0.1870E-06  0.1354E-06  0.8267E-07  0.2606E-07  0.0000E+00  0.0000E+00  0.0000E+00  0.0000E+00  0.0000E+00  0.0000E+00  0.0000E+00  0.0000E+00  0.0000E+00  0.0000E+00  0.0000E+00  0.0000E+00  0.0000E+00  0.0000E+00  0.0000E+00  0.0000E+00  0.0000E+00  0.0000E+00  0.0000E+00  0.3017E-08  0.9709E-08  0.2056E-07  0.2946E-07  0.4280E-07  0.5374E-07  0.6905E-07  0.8169E-07  0.9877E-07  0.1126E-06  0.1363E-06  0.1571E-06  0.1642E-06  0.1951E-06  0.2018E-06  0.2075E-06  0.2340E-06  0.2385E-06  0.2419E-06  0.2631E-06  0.2650E-06
  0.1249E-06  0.1494E-06  0.1866E-06  0.2162E-06  0.2604E-06  0.2725E-06  0.2823E-06  0.2940E-06  0.3031E-06  0.3118E-06  0.3200E-06  0.3301E-06  0.3372E-06  0.3436E-06  0.3519E-06  0.3569E-06  0.3611E-06  0.3645E-06  0.3669E-06  0.3685E-06  0.3719E-06  0.3717E-06  0.3705E-06  0.3684E-06  0.3654E-06  0.3615E-06  0.3568E-06  0.3512E-06  0.3420E-06  0.3350E-06  0.3272E-06  0.3189E-06  0.3099E-06  0.3005E-06  0.2880E-06  0.2778E-06  0.2674E-06  0.2542E-06  0.2070E-06  0.1574E-06  0.9331E-07  0.2601E-07  0.0000E+00  0.0000E+00  0.6338E-08  0.6568E-08  0.1343E-07  0.1378E-07  0.2097E-07  0.2131E-07  0.2152E-07  0.2874E-07  0.2873E-07  0.2855E-07  0.2466E-07  0.2076E-07  0.1691E-07  0.1787E-07  0.2728E-07  0.4159E-07  0.5767E-07  0.7134E-07  0.9014E-07  0.1104E-06  0.1276E-06  0.1562E-06  0.1822E-06  0.2066E-06  0.2314E-06  0.2417E-06  0.2759E-06  0.2848E-06  0.2921E-06  0.3204E-06  0.3256E-06  0.3293E-06  0.3509E-06  0.3523E-06  0.3525E-06
  0.2077E-06  0.2518E-06  0.2777E-06  0.2896E-06  0.3014E-06  0.3154E-06  0.3268E-06  0.3402E-06  0.3509E-06  0.3611E-06  0.3732E-06  0.3823E-06  0.3906E-06  0.3981E-06  0.4077E-06  0.4136E-06  0.4185E-06  0.4225E-06  0.4254E-06  0.4303E-06  0.4312E-06  0.4310E-06  0.4298E-06  0.4274E-06  0.4240E-06  0.4195E-06  0.4140E-06  0.4075E-06  0.4002E-06  0.3919E-06  0.3799E-06  0.3702E-06  0.3598E-06  0.3488E-06  0.3373E-06  0.3226E-06  0.3104E-06  0.2979E-06  0.2827E-06  0.2700E-06  0.2612E-06  0.2194E-06  0.1566E-06  0.8283E-07  0.3057E-07  0.3942E-07  0.4091E-07  0.5026E-07  0.5579E-07  0.6117E-07  0.6216E-07  0.7149E-07  0.7183E-07  0.7170E-07  0.7111E-07  0.7009E-07  0.7024E-07  0.6882E-07  0.7067E-07  0.9191E-07  0.1149E-06  0.1354E-06  0.1739E-06  0.2057E-06  0.2367E-06  0.2686E-06  0.2984E-06  0.3279E-06  0.3420E-06  0.3798E-06  0.3911E-06  0.4001E-06  0.4300E-06  0.4357E-06  0.4392E-06  0.4608E-06  0.4613E-06  0.4600E-06  0.4573E-06
  0.2903E-06  0.3042E-06  0.3204E-06  0.3343E-06  0.3480E-06  0.3641E-06  0.3773E-06  0.3928E-06  0.4052E-06  0.4171E-06  0.4311E-06  0.4417E-06  0.4514E-06  0.4602E-06  0.4712E-06  0.4782E-06  0.4840E-06  0.4887E-06  0.4955E-06  0.4979E-06  0.4990E-06  0.4989E-06  0.4975E-06  0.4948E-06  0.4909E-06  0.4858E-06  0.4794E-06  0.4720E-06  0.4635E-06  0.4539E-06  0.4434E-06  0.4320E-06  0.4168E-06  0.4040E-06  0.3906E-06  0.3738E-06  0.3596E-06  0.3515E-06  0.3412E-06  0.3344E-06  0.3283E-06  0.3168E-06  0.3123E-06  0.2880E-06  0.2322E-06  0.1694E-06  0.8462E-07  0.1020E-06  0.1151E-06  0.1187E-06  0.1318E-06  0.1520E-06  0.1719E-06  0.1734E-06  0.1736E-06  0.1743E-06  0.1773E-06  0.1829E-06  0.1919E-06  0.1869E-06  0.2240E-06  0.2624E-06  0.3029E-06  0.3419E-06  0.3812E-06  0.4174E-06  0.4526E-06  0.4710E-06  0.5128E-06  0.5266E-06  0.5371E-06  0.5684E-06  0.5741E-06  0.5770E-06  0.5979E-06  0.5966E-06  0.5932E-06  0.5878E-06  0.5985E-06
  0.3340E-06  0.3501E-06  0.3662E-06  0.3848E-06  0.4007E-06  0.4190E-06  0.4344E-06  0.4521E-06  0.4666E-06  0.4804E-06  0.4965E-06  0.5089E-06  0.5203E-06  0.5338E-06  0.5432E-06  0.5514E-06  0.5583E-06  0.5674E-06  0.5717E-06  0.5746E-06  0.5760E-06  0.5760E-06  0.5745E-06  0.5715E-06  0.5671E-06  0.5612E-06  0.5540E-06  0.5454E-06  0.5355E-06  0.5245E-06  0.5124E-06  0.4992E-06  0.4851E-06  0.4669E-06  0.4545E-06  0.4453E-06  0.4333E-06  0.4216E-06  0.4140E-06  0.4044E-06  0.3988E-06  0.3914E-06  0.3881E-06  0.3880E-06  0.3874E-06  0.3807E-06  0.3309E-06  0.2817E-06  0.1976E-06  0.2057E-06  0.2482E-06  0.2551E-06  0.2600E-06  0.2629E-06  0.2656E-06  0.2704E-06  0.2778E-06  0.2883E-06  0.3028E-06  0.3274E-06  0.3602E-06  0.4287E-06  0.4776E-06  0.5259E-06  0.5699E-06  0.6116E-06  0.6348E-06  0.6810E-06  0.6973E-06  0.7091E-06  0.7414E-06  0.7465E-06  0.7479E-06  0.7672E-06  0.7632E-06  0.7565E-06  0.7474E-06  0.7546E-06  0.7422E-06
  0.3807E-06  0.4018E-06  0.4204E-06  0.4416E-06  0.4600E-06  0.4810E-06  0.4989E-06  0.5192E-06  0.5360E-06  0.5521E-06  0.5705E-06  0.5849E-06  0.5982E-06  0.6138E-06  0.6248E-06  0.6345E-06  0.6426E-06  0.6530E-06  0.6582E-06  0.6617E-06  0.6635E-06  0.6637E-06  0.6660E-06  0.6627E-06  0.6577E-06  0.6511E-06  0.6428E-06  0.6329E-06  0.6176E-06  0.6049E-06  0.5909E-06  0.5756E-06  0.5625E-06  0.5522E-06  0.5386E-06  0.5290E-06  0.5201E-06  0.5086E-06  0.5016E-06  0.4926E-06  0.4883E-06  0.4900E-06  0.4861E-06  0.4841E-06  0.5121E-06  0.5053E-06  0.5380E-06  0.5342E-06  0.4806E-06  0.4274E-06  0.3583E-06  0.3687E-06  0.3763E-06  0.3829E-06  0.3911E-06  0.4015E-06  0.4148E-06  0.4319E-06  0.4613E-06  0.5076E-06  0.5898E-06  0.6511E-06  0.7102E-06  0.7482E-06  0.8126E-06  0.8415E-06  0.8922E-06  0.9108E-06  0.9235E-06  0.9562E-06  0.9597E-06  0.9586E-06  0.9752E-06  0.9671E-06  0.9557E-06  0.9415E-06  0.9437E-06  0.9255E-06  0.9058E-06
  0.4358E-06  0.4599E-06  0.4814E-06  0.5056E-06  0.5269E-06  0.5509E-06  0.5716E-06  0.5916E-06  0.6143E-06  0.6330E-06  0.6541E-06  0.6709E-06  0.6864E-06  0.7044E-06  0.7173E-06  0.7286E-06  0.7422E-06  0.7502E-06  0.7564E-06  0.7607E-06  0.7630E-06  0.7676E-06  0.7661E-06  0.7625E-06  0.7569E-06  0.7493E-06  0.7398E-06  0.7285E-06  0.7155E-06  0.7007E-06  0.6802E-06  0.6694E-06  0.6584E-06  0.6475E-06  0.6407E-06  0.6272E-06  0.6185E-06  0.6110E-06  0.6013E-06  0.6016E-06  0.5961E-06  0.5961E-06  0.6215E-06  0.6539E-06  0.6521E-06  0.6903E-06  0.6923E-06  0.6936E-06  0.7342E-06  0.7350E-06  0.6742E-06  0.5550E-06  0.5303E-06  0.5444E-06  0.5599E-06  0.5777E-06  0.5990E-06  0.6333E-06  0.6951E-06  0.7943E-06  0.8538E-06  0.9428E-06  0.9915E-06  0.1065E-05  0.1100E-05  0.1155E-05  0.1176E-05  0.1189E-05  0.1221E-05  0.1222E-05  0.1217E-05  0.1229E-05  0.1215E-05  0.1198E-05  0.1176E-05  0.1172E-05  0.1146E-05  0.1118E-05  0.1090E-05
  0.4975E-06  0.5249E-06  0.5497E-06  0.5773E-06  0.6018E-06  0.6292E-06  0.6530E-06  0.6762E-06  0.7022E-06  0.7238E-06  0.7481E-06  0.7676E-06  0.7856E-06  0.8063E-06  0.8214E-06  0.8347E-06  0.8504E-06  0.8599E-06  0.8673E-06  0.8725E-06  0.8802E-06  0.8809E-06  0.8794E-06  0.8755E-06  0.8692E-06  0.8607E-06  0.8499E-06  0.8370E-06  0.8220E-06  0.8115E-06  0.8004E-06  0.7889E-06  0.7729E-06  0.7617E-06  0.7512E-06  0.7416E-06  0.7292E-06  0.7318E-06  0.7238E-06  0.7223E-06  0.7454E-06  0.7785E-06  0.7959E-06  0.8211E-06  0.8638E-06  0.8765E-06  0.8859E-06  0.9329E-06  0.9447E-06  0.9510E-06  0.9540E-06  0.9574E-06  0.8672E-06  0.7583E-06  0.7833E-06  0.8108E-06  0.8517E-06  0.9294E-06  0.1049E-05  0.1127E-05  0.1232E-05  0.1293E-05  0.1377E-05  0.1419E-05  0.1479E-05  0.1502E-05  0.1514E-05  0.1544E-05  0.1541E-05  0.1530E-05  0.1536E-05  0.1515E-05  0.1488E-05  0.1458E-05  0.1444E-05  0.1409E-05  0.1371E-05  0.1333E-05  0.1293E-05
  0.5665E-06  0.5977E-06  0.6261E-06  0.6575E-06  0.6858E-06  0.7136E-06  0.7445E-06  0.7712E-06  0.8009E-06  0.8259E-06  0.8537E-06  0.8764E-06  0.8974E-06  0.9212E-06  0.9388E-06  0.9544E-06  0.9727E-06  0.9840E-06  0.9929E-06  0.1033E-05  0.1038E-05  0.1040E-05  0.1040E-05  0.1034E-05  0.1028E-05  0.1019E-05  0.1006E-05  0.9914E-06  0.9807E-06  0.9722E-06  0.9596E-06  0.9465E-06  0.9333E-06  0.8939E-06  0.8838E-06  0.8750E-06  0.8681E-06  0.8639E-06  0.8747E-06  0.9009E-06  0.9392E-06  0.9626E-06  0.1014E-05  0.1048E-05  0.1085E-05  0.1109E-05  0.1168E-05  0.1191E-05  0.1209E-05  0.1223E-05  0.1236E-05  0.1248E-05  0.1260E-05  0.1245E-05  0.1113E-05  0.1125E-05  0.1220E-05  0.1365E-05  0.1465E-05  0.1589E-05  0.1665E-05  0.1761E-05  0.1810E-05  0.1875E-05  0.1899E-05  0.1910E-05  0.1936E-05  0.1927E-05  0.1909E-05  0.1906E-05  0.1874E-05  0.1837E-05  0.1795E-05  0.1769E-05  0.1721E-05  0.1671E-05  0.1620E-05  0.1568E-05  0.1532E-05
  0.6433E-06  0.6755E-06  0.7111E-06  0.7435E-06  0.7793E-06  0.8112E-06  0.8464E-06  0.8772E-06  0.9111E-06  0.9401E-06  0.9719E-06  0.9982E-06  0.1025E-05  0.1054E-05  0.1079E-05  0.1129E-05  0.1152E-05  0.1168E-05  0.1185E-05  0.1232E-05  0.1240E-05  0.1244E-05  0.1245E-05  0.1242E-05  0.1235E-05  0.1224E-05  0.1213E-05  0.1197E-05  0.1185E-05  0.1167E-05  0.1148E-05  0.1097E-05  0.1083E-05  0.1070E-05  0.1068E-05  0.1058E-05  0.1051E-05  0.1043E-05  0.1077E-05  0.1117E-05  0.1170E-05  0.1227E-05  0.1256E-05  0.1325E-05  0.1363E-05  0.1437E-05  0.1473E-05  0.1509E-05  0.1539E-05  0.1566E-05  0.1595E-05  0.1661E-05  0.1666E-05  0.1673E-05  0.1714E-05  0.1711E-05  0.1736E-05  0.1882E-05  0.2029E-05  0.2122E-05  0.2233E-05  0.2290E-05  0.2360E-05  0.2383E-05  0.2391E-05  0.2412E-05  0.2393E-05  0.2364E-05  0.2351E-05  0.2305E-05  0.2253E-05  0.2196E-05  0.2155E-05  0.2091E-05  0.2026E-05  0.1959E-05  0.1908E-05  0.1839E-05  0.1772E-05
  0.7285E-06  0.7653E-06  0.8057E-06  0.8428E-06  0.8834E-06  0.9200E-06  0.9600E-06  0.9955E-06  0.1036E-05  0.1072E-05  0.1112E-05  0.1146E-05  0.1179E-05  0.1246E-05  0.1276E-05  0.1337E-05  0.1365E-05  0.1389E-05  0.1409E-05  0.1461E-05  0.1475E-05  0.1484E-05  0.1486E-05  0.1484E-05  0.1476E-05  0.1470E-05  0.1461E-05  0.1443E-05  0.1428E-05  0.1406E-05  0.1353E-05  0.1331E-05  0.1307E-05  0.1292E-05  0.1275E-05  0.1228E-05  0.1268E-05  0.1321E-05  0.1369E-05  0.1428E-05  0.1470E-05  0.1512E-05  0.1602E-05  0.1654E-05  0.1754E-05  0.1809E-05  0.1866E-05  0.1921E-05  0.2008E-05  0.2054E-05  0.2103E-05  0.2145E-05  0.2185E-05  0.2216E-05  0.2305E-05  0.2467E-05  0.2601E-05  0.2565E-05  0.2679E-05  0.2803E-05  0.2870E-05  0.2945E-05  0.2967E-05  0.2970E-05  0.2983E-05  0.2954E-05  0.2911E-05  0.2882E-05  0.2820E-05  0.2749E-05  0.2672E-05  0.2614E-05  0.2531E-05  0.2446E-05  0.2358E-05  0.2290E-05  0.2202E-05  0.2117E-05  0.2032E-05
  0.8197E-06  0.8650E-06  0.9070E-06  0.9530E-06  0.9990E-06  0.1041E-05  0.1091E-05  0.1136E-05  0.1185E-05  0.1229E-05  0.1271E-05  0.1347E-05  0.1422E-05  0.1464E-05  0.1503E-05  0.1578E-05  0.1614E-05  0.1645E-05  0.1673E-05  0.1731E-05  0.1750E-05  0.1763E-05  0.1782E-05  0.1780E-05  0.1792E-05  0.1786E-05  0.1775E-05  0.1746E-05  0.1679E-05  0.1660E-05  0.1637E-05  0.1609E-05  0.1587E-05  0.1562E-05  0.1504E-05  0.1550E-05  0.1576E-05  0.1647E-05  0.1685E-05  0.1770E-05  0.1845E-05  0.1949E-05  0.1997E-05  0.2111E-05  0.2199E-05  0.2277E-05  0.2355E-05  0.2474E-05  0.2546E-05  0.2618E-05  0.2688E-05  0.2751E-05  0.2819E-05  0.2944E-05  0.3098E-05  0.3287E-05  0.3466E-05  0.3580E-05  0.3485E-05  0.3560E-05  0.3624E-05  0.3660E-05  0.3657E-05  0.3661E-05  0.3617E-05  0.3557E-05  0.3510E-05  0.3424E-05  0.3332E-05  0.3244E-05  0.3152E-05  0.3043E-05  0.2934E-05  0.2823E-05  0.2730E-05  0.2621E-05  0.2513E-05  0.2407E-05  0.2295E-05
  0.9238E-06  0.9749E-06  0.1023E-05  0.1077E-05  0.1129E-05  0.1186E-05  0.1236E-05  0.1298E-05  0.1349E-05  0.1432E-05  0.1520E-05  0.1576E-05  0.1663E-05  0.1719E-05  0.1772E-05  0.1858E-05  0.1903E-05  0.1970E-05  0.2004E-05  0.2032E-05  0.2091E-05  0.2120E-05  0.2127E-05  0.2148E-05  0.2147E-05  0.2140E-05  0.2091E-05  0.2045E-05  0.2024E-05  0.2004E-05  0.1977E-05  0.1953E-05  0.1925E-05  0.1851E-05  0.1876E-05  0.1934E-05  0.1977E-05  0.2018E-05  0.2112E-05  0.2219E-05  0.2307E-05  0.2406E-05  0.2550E-05  0.2670E-05  0.2763E-05  0.2891E-05  0.3022E-05  0.3128E-05  0.3231E-05  0.3329E-05  0.3423E-05  0.3516E-05  0.3666E-05  0.3866E-05  0.4073E-05  0.4269E-05  0.4426E-05  0.4561E-05  0.4625E-05  0.4450E-05  0.4485E-05  0.4473E-05  0.4464E-05  0.4403E-05  0.4321E-05  0.4251E-05  0.4141E-05  0.4016E-05  0.3893E-05  0.3772E-05  0.3636E-05  0.3497E-05  0.3358E-05  0.3239E-05  0.3103E-05  0.2970E-05  0.2840E-05  0.2705E-05  0.2573E-05
  0.1039E-05  0.1094E-05  0.1157E-05  0.1221E-05  0.1281E-05  0.1348E-05  0.1409E-05  0.1502E-05  0.1600E-05  0.1668E-05  0.1770E-05  0.1841E-05  0.1948E-05  0.2015E-05  0.2143E-05  0.2205E-05  0.2276E-05  0.2342E-05  0.2387E-05  0.2425E-05  0.2454E-05  0.2527E-05  0.2559E-05  0.2529E-05  0.2530E-05  0.2522E-05  0.2507E-05  0.2457E-05  0.2430E-05  0.2403E-05  0.2374E-05  0.2302E-05  0.2268E-05  0.2273E-05  0.2332E-05  0.2362E-05  0.2454E-05  0.2552E-05  0.2668E-05  0.2750E-05  0.2883E-05  0.3027E-05  0.3164E-05  0.3320E-05  0.3487E-05  0.3625E-05  0.3776E-05  0.3921E-05  0.4060E-05  0.4190E-05  0.4321E-05  0.4503E-05  0.4738E-05  0.4987E-05  0.5220E-05  0.5410E-05  0.5565E-05  0.5638E-05  0.5682E-05  0.5688E-05  0.5614E-05  0.5393E-05  0.5311E-05  0.5204E-05  0.5105E-05  0.4965E-05  0.4807E-05  0.4653E-05  0.4492E-05  0.4316E-05  0.4144E-05  0.3972E-05  0.3821E-05  0.3655E-05  0.3493E-05  0.3335E-05  0.3171E-05  0.3015E-05  0.2860E-05
  0.1171E-05  0.1236E-05  0.1308E-05  0.1378E-05  0.1452E-05  0.1521E-05  0.1626E-05  0.1738E-05  0.1854E-05  0.1975E-05  0.2061E-05  0.2198E-05  0.2298E-05  0.2410E-05  0.2532E-05  0.2626E-05  0.2714E-05  0.2782E-05  0.2840E-05  0.2889E-05  0.2942E-05  0.2990E-05  0.3013E-05  0.3025E-05  0.3026E-05  0.3017E-05  0.2998E-05  0.2941E-05  0.2907E-05  0.2876E-05  0.2795E-05  0.2752E-05  0.2757E-05  0.2809E-05  0.2832E-05  0.2924E-05  0.3027E-05  0.3153E-05  0.3248E-05  0.3419E-05  0.3588E-05  0.3753E-05  0.3943E-05  0.4169E-05  0.4329E-05  0.4526E-05  0.4721E-05  0.4884E-05  0.5064E-05  0.5236E-05  0.5467E-05  0.5757E-05  0.6062E-05  0.6353E-05  0.6582E-05  0.6746E-05  0.6858E-05  0.6904E-05  0.6902E-05  0.6832E-05  0.6761E-05  0.6597E-05  0.6253E-05  0.6115E-05  0.5930E-05  0.5731E-05  0.5537E-05  0.5322E-05  0.5108E-05  0.4892E-05  0.4676E-05  0.4488E-05  0.4286E-05  0.4088E-05  0.3896E-05  0.3701E-05  0.3522E-05  0.3329E-05  0.3152E-05
  0.1312E-05  0.1394E-05  0.1470E-05  0.1552E-05  0.1663E-05  0.1782E-05  0.1908E-05  0.2041E-05  0.2145E-05  0.2300E-05  0.2420E-05  0.2596E-05  0.2720E-05  0.2843E-05  0.2991E-05  0.3122E-05  0.3217E-05  0.3303E-05  0.3377E-05  0.3455E-05  0.3525E-05  0.3568E-05  0.3596E-05  0.3611E-05  0.3612E-05  0.3600E-05  0.3560E-05  0.3510E-05  0.3431E-05  0.3386E-05  0.3332E-05  0.3320E-05  0.3359E-05  0.3391E-05  0.3479E-05  0.3583E-05  0.3680E-05  0.3843E-05  0.4031E-05  0.4213E-05  0.4415E-05  0.4639E-05  0.4906E-05  0.5112E-05  0.5359E-05  0.5577E-05  0.5833E-05  0.6100E-05  0.6323E-05  0.6613E-05  0.6952E-05  0.7310E-05  0.7650E-05  0.7921E-05  0.8115E-05  0.8236E-05  0.8290E-05  0.8283E-05  0.8200E-05  0.8100E-05  0.7932E-05  0.7729E-05  0.7493E-05  0.7079E-05  0.6839E-05  0.6601E-05  0.6326E-05  0.6051E-05  0.5773E-05  0.5499E-05  0.5246E-05  0.5001E-05  0.4763E-05  0.4533E-05  0.4311E-05  0.4088E-05  0.3860E-05  0.3653E-05  0.3452E-05
  0.1475E-05  0.1560E-05  0.1652E-05  0.1773E-05  0.1904E-05  0.2045E-05  0.2195E-05  0.2354E-05  0.2505E-05  0.2703E-05  0.2907E-05  0.3048E-05  0.3217E-05  0.3355E-05  0.3548E-05  0.3692E-05  0.3812E-05  0.3920E-05  0.4029E-05  0.4126E-05  0.4196E-05  0.4248E-05  0.4286E-05  0.4303E-05  0.4303E-05  0.4286E-05  0.4223E-05  0.4138E-05  0.4083E-05  0.4019E-05  0.3951E-05  0.3977E-05  0.4039E-05  0.4139E-05  0.4261E-05  0.4360E-05  0.4531E-05  0.4731E-05  0.4896E-05  0.5172E-05  0.5417E-05  0.5691E-05  0.5978E-05  0.6279E-05  0.6603E-05  0.6948E-05  0.7269E-05  0.7548E-05  0.7900E-05  0.8271E-05  0.8690E-05  0.9081E-05  0.9431E-05  0.9665E-05  0.9810E-05  0.9870E-05  0.9854E-05  0.9751E-05  0.9629E-05  0.9423E-05  0.9175E-05  0.8926E-05  0.8623E-05  0.8258E-05  0.7791E-05  0.7463E-05  0.7136E-05  0.6812E-05  0.6492E-05  0.6195E-05  0.5866E-05  0.5554E-05  0.5259E-05  0.4984E-05  0.4720E-05  0.4468E-05  0.4224E-05  0.3976E-05  0.3753E-05
  0.1651E-05  0.1747E-05  0.1879E-05  0.2023E-05  0.2214E-05  0.2383E-05  0.2550E-05  0.2765E-05  0.2978E-05  0.3173E-05  0.3403E-05  0.3594E-05  0.3786E-05  0.4019E-05  0.4204E-05  0.4365E-05  0.4514E-05  0.4664E-05  0.4796E-05  0.4901E-05  0.4986E-05  0.5050E-05  0.5091E-05  0.5113E-05  0.5110E-05  0.5086E-05  0.4972E-05  0.4920E-05  0.4849E-05  0.4770E-05  0.4770E-05  0.4816E-05  0.4905E-05  0.5019E-05  0.5135E-05  0.5307E-05  0.5514E-05  0.5713E-05  0.6010E-05  0.6283E-05  0.6574E-05  0.6943E-05  0.7365E-05  0.7723E-05  0.8135E-05  0.8506E-05  0.8897E-05  0.9313E-05  0.9743E-05  0.1023E-04  0.1065E-04  0.1107E-04  0.1135E-04  0.1153E-04  0.1160E-04  0.1158E-04  0.1146E-04  0.1131E-04  0.1106E-04  0.1077E-04  0.1047E-04  0.1012E-04  0.9739E-05  0.9369E-05  0.8894E-05  0.8356E-05  0.7973E-05  0.7605E-05  0.7238E-05  0.6857E-05  0.6497E-05  0.6152E-05  0.5816E-05  0.5481E-05  0.5156E-05  0.4852E-05  0.4565E-05  0.4306E-05  0.4057E-05
  0.1839E-05  0.1981E-05  0.2171E-05  0.2344E-05  0.2531E-05  0.2754E-05  0.2996E-05  0.3213E-05  0.3485E-05  0.3767E-05  0.4000E-05  0.4236E-05  0.4456E-05  0.4749E-05  0.4961E-05  0.5161E-05  0.5360E-05  0.5541E-05  0.5692E-05  0.5820E-05  0.5923E-05  0.5999E-05  0.6046E-05  0.6066E-05  0.6015E-05  0.5983E-05  0.5903E-05  0.5834E-05  0.5748E-05  0.5657E-05  0.5766E-05  0.5843E-05  0.5902E-05  0.6052E-05  0.6218E-05  0.6424E-05  0.6651E-05  0.6939E-05  0.7256E-05  0.7623E-05  0.8068E-05  0.8481E-05  0.8941E-05  0.9410E-05  0.9901E-05  0.1037E-04  0.1084E-04  0.1136E-04  0.1190E-04  0.1240E-04  0.1290E-04  0.1321E-04  0.1343E-04  0.1352E-04  0.1351E-04  0.1337E-04  0.1319E-04  0.1290E-04  0.1256E-04  0.1220E-04  0.1178E-04  0.1133E-04  0.1090E-04  0.1041E-04  0.9936E-05  0.9377E-05  0.8820E-05  0.8386E-05  0.7952E-05  0.7541E-05  0.7140E-05  0.6739E-05  0.6348E-05  0.5979E-05  0.5630E-05  0.5292E-05  0.4956E-05  0.4631E-05  0.4362E-05
  0.2074E-05  0.2275E-05  0.2462E-05  0.2666E-05  0.2926E-05  0.3209E-05  0.3500E-05  0.3809E-05  0.4075E-05  0.4397E-05  0.4698E-05  0.4972E-05  0.5274E-05  0.5591E-05  0.5851E-05  0.6111E-05  0.6353E-05  0.6559E-05  0.6746E-05  0.6900E-05  0.7022E-05  0.7111E-05  0.7118E-05  0.7140E-05  0.7129E-05  0.7054E-05  0.6985E-05  0.6896E-05  0.6754E-05  0.6863E-05  0.6920E-05  0.7000E-05  0.7134E-05  0.7309E-05  0.7464E-05  0.7728E-05  0.8020E-05  0.8330E-05  0.8812E-05  0.9268E-05  0.9703E-05  0.1022E-04  0.1081E-04  0.1134E-04  0.1191E-04  0.1247E-04  0.1311E-04  0.1375E-04  0.1432E-04  0.1488E-04  0.1524E-04  0.1554E-04  0.1561E-04  0.1562E-04  0.1548E-04  0.1527E-04  0.1494E-04  0.1454E-04  0.1412E-04  0.1363E-04  0.1311E-04  0.1260E-04  0.1203E-04  0.1148E-04  0.1092E-04  0.1040E-04  0.9758E-05  0.9145E-05  0.8667E-05  0.8204E-05  0.7747E-05  0.7309E-05  0.6890E-05  0.6484E-05  0.6101E-05  0.5726E-05  0.5356E-05  0.5016E-05  0.4674E-05
  0.2371E-05  0.2571E-05  0.2831E-05  0.3128E-05  0.3425E-05  0.3764E-05  0.4068E-05  0.4423E-05  0.4764E-05  0.5151E-05  0.5500E-05  0.5851E-05  0.6201E-05  0.6581E-05  0.6898E-05  0.7227E-05  0.7502E-05  0.7755E-05  0.7975E-05  0.8159E-05  0.8303E-05  0.8358E-05  0.8420E-05  0.8440E-05  0.8418E-05  0.8340E-05  0.8212E-05  0.8113E-05  0.8108E-05  0.8243E-05  0.8283E-05  0.8414E-05  0.8568E-05  0.8704E-05  0.8953E-05  0.9234E-05  0.9675E-05  0.1006E-04  0.1055E-04  0.1103E-04  0.1160E-04  0.1222E-04  0.1288E-04  0.1354E-04  0.1421E-04  0.1495E-04  0.1566E-04  0.1638E-04  0.1702E-04  0.1747E-04  0.1782E-04  0.1793E-04  0.1796E-04  0.1778E-04  0.1755E-04  0.1718E-04  0.1673E-04  0.1625E-04  0.1568E-04  0.1508E-04  0.1448E-04  0.1384E-04  0.1319E-04  0.1255E-04  0.1194E-04  0.1132E-04  0.1070E-04  0.1001E-04  0.9383E-05  0.8857E-05  0.8352E-05  0.7870E-05  0.7393E-05  0.6950E-05  0.6538E-05  0.6129E-05  0.5779E-05  0.5394E-05  0.5044E-05
  0.2706E-05  0.2944E-05  0.3261E-05  0.3599E-05  0.3971E-05  0.4360E-05  0.4776E-05  0.5155E-05  0.5602E-05  0.6032E-05  0.6439E-05  0.6881E-05  0.7290E-05  0.7743E-05  0.8144E-05  0.8521E-05  0.8859E-05  0.9162E-05  0.9424E-05  0.9591E-05  0.9762E-05  0.9881E-05  0.9948E-05  0.9964E-05  0.9904E-05  0.9791E-05  0.9703E-05  0.9599E-05  0.9773E-05  0.9805E-05  0.9907E-05  0.1005E-04  0.1016E-04  0.1038E-04  0.1077E-04  0.1110E-04  0.1148E-04  0.1194E-04  0.1248E-04  0.1310E-04  0.1378E-04  0.1452E-04  0.1528E-04  0.1606E-04  0.1691E-04  0.1774E-04  0.1856E-04  0.1926E-04  0.1985E-04  0.2025E-04  0.2044E-04  0.2050E-04  0.2032E-04  0.2007E-04  0.1963E-04  0.1913E-04  0.1858E-04  0.1794E-04  0.1725E-04  0.1656E-04  0.1583E-04  0.1508E-04  0.1435E-04  0.1365E-04  0.1294E-04  0.1223E-04  0.1157E-04  0.1088E-04  0.1016E-04  0.9508E-05  0.8956E-05  0.8411E-05  0.7910E-05  0.7429E-05  0.6972E-05  0.6549E-05  0.6126E-05  0.5748E-05  0.5388E-05
  0.3042E-05  0.3419E-05  0.3798E-05  0.4203E-05  0.4632E-05  0.5048E-05  0.5530E-05  0.6005E-05  0.6555E-05  0.7042E-05  0.7553E-05  0.8069E-05  0.8564E-05  0.9118E-05  0.9598E-05  0.1003E-04  0.1038E-04  0.1074E-04  0.1105E-04  0.1131E-04  0.1151E-04  0.1164E-04  0.1171E-04  0.1168E-04  0.1162E-04  0.1155E-04  0.1146E-04  0.1137E-04  0.1159E-04  0.1168E-04  0.1178E-04  0.1190E-04  0.1216E-04  0.1244E-04  0.1270E-04  0.1308E-04  0.1353E-04  0.1408E-04  0.1472E-04  0.1546E-04  0.1625E-04  0.1707E-04  0.1800E-04  0.1897E-04  0.1991E-04  0.2085E-04  0.2167E-04  0.2238E-04  0.2287E-04  0.2312E-04  0.2318E-04  0.2305E-04  0.2275E-04  0.2231E-04  0.2172E-04  0.2112E-04  0.2040E-04  0.1962E-04  0.1884E-04  0.1801E-04  0.1717E-04  0.1632E-04  0.1552E-04  0.1471E-04  0.1391E-04  0.1315E-04  0.1241E-04  0.1170E-04  0.1093E-04  0.1020E-04  0.9534E-05  0.8963E-05  0.8418E-05  0.7884E-05  0.7389E-05  0.6911E-05  0.6483E-05  0.6077E-05  0.5699E-05
  0.3516E-05  0.3916E-05  0.4354E-05  0.4835E-05  0.5348E-05  0.5901E-05  0.6442E-05  0.6998E-05  0.7634E-05  0.8238E-05  0.8854E-05  0.9458E-05  0.1007E-04  0.1067E-04  0.1122E-04  0.1175E-04  0.1223E-04  0.1266E-04  0.1302E-04  0.1332E-04  0.1356E-04  0.1372E-04  0.1375E-04  0.1375E-04  0.1370E-04  0.1362E-04  0.1345E-04  0.1367E-04  0.1376E-04  0.1381E-04  0.1394E-04  0.1414E-04  0.1430E-04  0.1458E-04  0.1491E-04  0.1534E-04  0.1587E-04  0.1650E-04  0.1726E-04  0.1811E-04  0.1901E-04  0.2003E-04  0.2108E-04  0.2219E-04  0.2326E-04  0.2421E-04  0.2504E-04  0.2564E-04  0.2598E-04  0.2608E-04  0.2597E-04  0.2567E-04  0.2520E-04  0.2456E-04  0.2388E-04  0.2306E-04  0.2220E-04  0.2132E-04  0.2038E-04  0.1944E-04  0.1848E-04  0.1757E-04  0.1666E-04  0.1575E-04  0.1489E-04  0.1405E-04  0.1325E-04  0.1247E-04  0.1172E-04  0.1090E-04  0.1015E-04  0.9505E-05  0.8903E-05  0.8349E-05  0.7799E-05  0.7324E-05  0.6840E-05  0.6409E-05  0.6002E-05
  0.4121E-05  0.4619E-05  0.5147E-05  0.5706E-05  0.6264E-05  0.6923E-05  0.7555E-05  0.8288E-05  0.8958E-05  0.9698E-05  0.1039E-04  0.1110E-04  0.1184E-04  0.1252E-04  0.1318E-04  0.1380E-04  0.1437E-04  0.1486E-04  0.1529E-04  0.1565E-04  0.1592E-04  0.1606E-04  0.1617E-04  0.1618E-04  0.1617E-04  0.1604E-04  0.1591E-04  0.1624E-04  0.1627E-04  0.1639E-04  0.1647E-04  0.1653E-04  0.1671E-04  0.1701E-04  0.1735E-04  0.1786E-04  0.1843E-04  0.1923E-04  0.2011E-04  0.2105E-04  0.2216E-04  0.2332E-04  0.2455E-04  0.2571E-04  0.2683E-04  0.2776E-04  0.2851E-04  0.2898E-04  0.2916E-04  0.2907E-04  0.2878E-04  0.2828E-04  0.2760E-04  0.2687E-04  0.2597E-04  0.2502E-04  0.2402E-04  0.2298E-04  0.2192E-04  0.2085E-04  0.1983E-04  0.1880E-04  0.1778E-04  0.1680E-04  0.1586E-04  0.1497E-04  0.1407E-04  0.1322E-04  0.1239E-04  0.1161E-04  0.1080E-04  0.1003E-04  0.9396E-05  0.8806E-05  0.8227E-05  0.7668E-05  0.7183E-05  0.6725E-05  0.6262E-05
  0.4848E-05  0.5416E-05  0.6033E-05  0.6699E-05  0.7370E-05  0.8153E-05  0.8910E-05  0.9753E-05  0.1060E-04  0.1145E-04  0.1233E-04  0.1317E-04  0.1401E-04  0.1481E-04  0.1556E-04  0.1624E-04  0.1687E-04  0.1744E-04  0.1794E-04  0.1829E-04  0.1862E-04  0.1886E-04  0.1900E-04  0.1896E-04  0.1893E-04  0.1880E-04  0.1899E-04  0.1905E-04  0.1910E-04  0.1912E-04  0.1916E-04  0.1928E-04  0.1949E-04  0.1973E-04  0.2020E-04  0.2071E-04  0.2147E-04  0.2224E-04  0.2323E-04  0.2440E-04  0.2565E-04  0.2700E-04  0.2829E-04  0.2955E-04  0.3062E-04  0.3152E-04  0.3207E-04  0.3238E-04  0.3231E-04  0.3206E-04  0.3153E-04  0.3086E-04  0.3003E-04  0.2908E-04  0.2802E-04  0.2695E-04  0.2577E-04  0.2460E-04  0.2342E-04  0.2228E-04  0.2113E-04  0.1999E-04  0.1890E-04  0.1784E-04  0.1683E-04  0.1584E-04  0.1488E-04  0.1398E-04  0.1310E-04  0.1227E-04  0.1140E-04  0.1061E-04  0.9880E-05  0.9233E-05  0.8614E-05  0.8057E-05  0.7526E-05  0.7010E-05  0.6591E-05
  0.5635E-05  0.6294E-05  0.6972E-05  0.7763E-05  0.8621E-05  0.9533E-05  0.1054E-04  0.1163E-04  0.1264E-04  0.1370E-04  0.1479E-04  0.1583E-04  0.1682E-04  0.1773E-04  0.1859E-04  0.1939E-04  0.2010E-04  0.2066E-04  0.2115E-04  0.2154E-04  0.2185E-04  0.2209E-04  0.2213E-04  0.2215E-04  0.2207E-04  0.2188E-04  0.2216E-04  0.2217E-04  0.2212E-04  0.2211E-04  0.2214E-04  0.2220E-04  0.2241E-04  0.2278E-04  0.2321E-04  0.2393E-04  0.2471E-04  0.2570E-04  0.2683E-04  0.2824E-04  0.2968E-04  0.3104E-04  0.3236E-04  0.3358E-04  0.3463E-04  0.3532E-04  0.3574E-04  0.3574E-04  0.3554E-04  0.3501E-04  0.3431E-04  0.3344E-04  0.3242E-04  0.3126E-04  0.3009E-04  0.2881E-04  0.2753E-04  0.2621E-04  0.2493E-04  0.2366E-04  0.2241E-04  0.2118E-04  0.2000E-04  0.1888E-04  0.1777E-04  0.1670E-04  0.1569E-04  0.1473E-04  0.1377E-04  0.1288E-04  0.1203E-04  0.1120E-04  0.1039E-04  0.9643E-05  0.9021E-05  0.8411E-05  0.7855E-05  0.7347E-05  0.6836E-05
  0.6455E-05  0.7223E-05  0.8183E-05  0.9163E-05  0.1029E-04  0.1144E-04  0.1258E-04  0.1388E-04  0.1509E-04  0.1636E-04  0.1761E-04  0.1883E-04  0.1997E-04  0.2109E-04  0.2212E-04  0.2308E-04  0.2387E-04  0.2459E-04  0.2514E-04  0.2550E-04  0.2577E-04  0.2583E-04  0.2576E-04  0.2569E-04  0.2548E-04  0.2547E-04  0.2567E-04  0.2555E-04  0.2547E-04  0.2539E-04  0.2534E-04  0.2545E-04  0.2565E-04  0.2604E-04  0.2665E-04  0.2736E-04  0.2830E-04  0.2941E-04  0.3086E-04  0.3235E-04  0.3393E-04  0.3545E-04  0.3676E-04  0.3794E-04  0.3873E-04  0.3920E-04  0.3931E-04  0.3916E-04  0.3868E-04  0.3794E-04  0.3703E-04  0.3595E-04  0.3471E-04  0.3343E-04  0.3205E-04  0.3062E-04  0.2921E-04  0.2778E-04  0.2638E-04  0.2501E-04  0.2367E-04  0.2235E-04  0.2110E-04  0.1987E-04  0.1868E-04  0.1756E-04  0.1649E-04  0.1544E-04  0.1445E-04  0.1351E-04  0.1264E-04  0.1174E-04  0.1092E-04  0.1014E-04  0.9395E-05  0.8757E-05  0.8172E-05  0.7605E-05  0.7108E-05
  0.7596E-05  0.8650E-05  0.9811E-05  0.1105E-04  0.1230E-04  0.1363E-04  0.1502E-04  0.1655E-04  0.1801E-04  0.1950E-04  0.2096E-04  0.2240E-04  0.2376E-04  0.2510E-04  0.2623E-04  0.2736E-04  0.2830E-04  0.2908E-04  0.2965E-04  0.3000E-04  0.3023E-04  0.3022E-04  0.3007E-04  0.2973E-04  0.2932E-04  0.2948E-04  0.2943E-04  0.2926E-04  0.2912E-04  0.2894E-04  0.2891E-04  0.2894E-04  0.2921E-04  0.2969E-04  0.3029E-04  0.3115E-04  0.3227E-04  0.3366E-04  0.3521E-04  0.3688E-04  0.3848E-04  0.4001E-04  0.4130E-04  0.4231E-04  0.4290E-04  0.4316E-04  0.4302E-04  0.4254E-04  0.4173E-04  0.4081E-04  0.3964E-04  0.3837E-04  0.3698E-04  0.3551E-04  0.3396E-04  0.3242E-04  0.3087E-04  0.2934E-04  0.2781E-04  0.2633E-04  0.2491E-04  0.2352E-04  0.2216E-04  0.2084E-04  0.1960E-04  0.1842E-04  0.1726E-04  0.1615E-04  0.1511E-04  0.1414E-04  0.1319E-04  0.1231E-04  0.1143E-04  0.1056E-04  0.9781E-05  0.9118E-05  0.8474E-05  0.7903E-05  0.7383E-05
  0.9101E-05  0.1038E-04  0.1168E-04  0.1314E-04  0.1468E-04  0.1623E-04  0.1792E-04  0.1969E-04  0.2148E-04  0.2325E-04  0.2498E-04  0.2669E-04  0.2832E-04  0.2977E-04  0.3116E-04  0.3235E-04  0.3339E-04  0.3419E-04  0.3469E-04  0.3509E-04  0.3525E-04  0.3516E-04  0.3485E-04  0.3440E-04  0.3384E-04  0.3387E-04  0.3354E-04  0.3319E-04  0.3296E-04  0.3278E-04  0.3265E-04  0.3278E-04  0.3306E-04  0.3356E-04  0.3429E-04  0.3532E-04  0.3666E-04  0.3821E-04  0.3996E-04  0.4167E-04  0.4334E-04  0.4479E-04  0.4598E-04  0.4673E-04  0.4709E-04  0.4703E-04  0.4664E-04  0.4586E-04  0.4491E-04  0.4366E-04  0.4230E-04  0.4083E-04  0.3926E-04  0.3759E-04  0.3595E-04  0.3426E-04  0.3257E-04  0.3094E-04  0.2931E-04  0.2776E-04  0.2622E-04  0.2473E-04  0.2323E-04  0.2184E-04  0.2052E-04  0.1925E-04  0.1802E-04  0.1686E-04  0.1581E-04  0.1472E-04  0.1377E-04  0.1286E-04  0.1189E-04  0.1101E-04  0.1021E-04  0.9451E-05  0.8777E-05  0.8181E-05  0.7598E-05
  0.1084E-04  0.1234E-04  0.1389E-04  0.1564E-04  0.1747E-04  0.1938E-04  0.2134E-04  0.2348E-04  0.2565E-04  0.2782E-04  0.2991E-04  0.3181E-04  0.3367E-04  0.3539E-04  0.3693E-04  0.3828E-04  0.3934E-04  0.4009E-04  0.4066E-04  0.4080E-04  0.4071E-04  0.4051E-04  0.4012E-04  0.3942E-04  0.3912E-04  0.3880E-04  0.3818E-04  0.3754E-04  0.3712E-04  0.3685E-04  0.3679E-04  0.3685E-04  0.3719E-04  0.3771E-04  0.3865E-04  0.3984E-04  0.4141E-04  0.4319E-04  0.4501E-04  0.4681E-04  0.4839E-04  0.4976E-04  0.5069E-04  0.5119E-04  0.5120E-04  0.5084E-04  0.5013E-04  0.4911E-04  0.4785E-04  0.4636E-04  0.4481E-04  0.4311E-04  0.4136E-04  0.3958E-04  0.3779E-04  0.3596E-04  0.3420E-04  0.3244E-04  0.3076E-04  0.2907E-04  0.2747E-04  0.2588E-04  0.2438E-04  0.2293E-04  0.2152E-04  0.2014E-04  0.1884E-04  0.1762E-04  0.1643E-04  0.1536E-04  0.1434E-04  0.1332E-04  0.1237E-04  0.1147E-04  0.1061E-04  0.9810E-05  0.9091E-05  0.8407E-05  0.7846E-05
  0.1296E-04  0.1466E-04  0.1661E-04  0.1865E-04  0.2081E-04  0.2309E-04  0.2551E-04  0.2814E-04  0.3069E-04  0.3323E-04  0.3563E-04  0.3792E-04  0.4007E-04  0.4203E-04  0.4372E-04  0.4503E-04  0.4612E-04  0.4689E-04  0.4716E-04  0.4723E-04  0.4709E-04  0.4670E-04  0.4581E-04  0.4494E-04  0.4462E-04  0.4397E-04  0.4328E-04  0.4245E-04  0.4175E-04  0.4137E-04  0.4113E-04  0.4128E-04  0.4157E-04  0.4232E-04  0.4336E-04  0.4486E-04  0.4657E-04  0.4849E-04  0.5036E-04  0.5214E-04  0.5361E-04  0.5475E-04  0.5540E-04  0.5558E-04  0.5527E-04  0.5459E-04  0.5359E-04  0.5226E-04  0.5074E-04  0.4906E-04  0.4723E-04  0.4537E-04  0.4347E-04  0.4154E-04  0.3958E-04  0.3769E-04  0.3583E-04  0.3396E-04  0.3221E-04  0.3045E-04  0.2872E-04  0.2711E-04  0.2548E-04  0.2394E-04  0.2246E-04  0.2106E-04  0.1974E-04  0.1841E-04  0.1717E-04  0.1600E-04  0.1485E-04  0.1387E-04  0.1287E-04  0.1190E-04  0.1105E-04  0.1018E-04  0.9349E-05  0.8694E-05  0.8087E-05
  0.1535E-04  0.1740E-04  0.1973E-04  0.2215E-04  0.2484E-04  0.2771E-04  0.3074E-04  0.3377E-04  0.3681E-04  0.3973E-04  0.4257E-04  0.4523E-04  0.4769E-04  0.4982E-04  0.5155E-04  0.5295E-04  0.5400E-04  0.5452E-04  0.5462E-04  0.5452E-04  0.5410E-04  0.5317E-04  0.5222E-04  0.5119E-04  0.5055E-04  0.4961E-04  0.4863E-04  0.4780E-04  0.4697E-04  0.4642E-04  0.4614E-04  0.4612E-04  0.4658E-04  0.4735E-04  0.4866E-04  0.5025E-04  0.5217E-04  0.5409E-04  0.5600E-04  0.5763E-04  0.5894E-04  0.5978E-04  0.6010E-04  0.5989E-04  0.5924E-04  0.5825E-04  0.5694E-04  0.5532E-04  0.5354E-04  0.5163E-04  0.4963E-04  0.4761E-04  0.4553E-04  0.4348E-04  0.4142E-04  0.3945E-04  0.3746E-04  0.3555E-04  0.3370E-04  0.3186E-04  0.3012E-04  0.2834E-04  0.2663E-04  0.2500E-04  0.2347E-04  0.2199E-04  0.2052E-04  0.1919E-04  0.1793E-04  0.1671E-04  0.1554E-04  0.1438E-04  0.1337E-04  0.1238E-04  0.1140E-04  0.1048E-04  0.9747E-05  0.8971E-05  0.8276E-05
  0.1816E-04  0.2065E-04  0.2352E-04  0.2658E-04  0.2987E-04  0.3337E-04  0.3686E-04  0.4059E-04  0.4413E-04  0.4759E-04  0.5091E-04  0.5398E-04  0.5661E-04  0.5896E-04  0.6079E-04  0.6219E-04  0.6296E-04  0.6320E-04  0.6324E-04  0.6270E-04  0.6179E-04  0.6073E-04  0.5931E-04  0.5834E-04  0.5728E-04  0.5589E-04  0.5473E-04  0.5360E-04  0.5266E-04  0.5201E-04  0.5160E-04  0.5153E-04  0.5205E-04  0.5303E-04  0.5447E-04  0.5630E-04  0.5820E-04  0.6011E-04  0.6187E-04  0.6329E-04  0.6429E-04  0.6469E-04  0.6468E-04  0.6406E-04  0.6313E-04  0.6176E-04  0.6020E-04  0.5829E-04  0.5636E-04  0.5420E-04  0.5205E-04  0.4985E-04  0.4761E-04  0.4548E-04  0.4332E-04  0.4123E-04  0.3918E-04  0.3720E-04  0.3526E-04  0.3340E-04  0.3156E-04  0.2977E-04  0.2792E-04  0.2610E-04  0.2448E-04  0.2291E-04  0.2144E-04  0.2001E-04  0.1865E-04  0.1736E-04  0.1613E-04  0.1500E-04  0.1391E-04  0.1278E-04  0.1179E-04  0.1090E-04  0.1003E-04  0.9187E-05  0.8486E-05
  0.2162E-04  0.2470E-04  0.2810E-04  0.3196E-04  0.3589E-04  0.4007E-04  0.4445E-04  0.4874E-04  0.5299E-04  0.5711E-04  0.6095E-04  0.6433E-04  0.6737E-04  0.6983E-04  0.7173E-04  0.7291E-04  0.7342E-04  0.7361E-04  0.7312E-04  0.7213E-04  0.7095E-04  0.6934E-04  0.6752E-04  0.6627E-04  0.6463E-04  0.6311E-04  0.6152E-04  0.6016E-04  0.5894E-04  0.5808E-04  0.5764E-04  0.5761E-04  0.5808E-04  0.5922E-04  0.6078E-04  0.6273E-04  0.6461E-04  0.6641E-04  0.6794E-04  0.6913E-04  0.6964E-04  0.6970E-04  0.6916E-04  0.6821E-04  0.6685E-04  0.6524E-04  0.6334E-04  0.6123E-04  0.5907E-04  0.5677E-04  0.5444E-04  0.5213E-04  0.4982E-04  0.4756E-04  0.4533E-04  0.4313E-04  0.4102E-04  0.3895E-04  0.3692E-04  0.3502E-04  0.3307E-04  0.3123E-04  0.2948E-04  0.2748E-04  0.2555E-04  0.2392E-04  0.2235E-04  0.2083E-04  0.1940E-04  0.1802E-04  0.1675E-04  0.1556E-04  0.1436E-04  0.1332E-04  0.1226E-04  0.1123E-04  0.1028E-04  0.9451E-05  0.8725E-05
  0.2556E-04  0.2933E-04  0.3364E-04  0.3825E-04  0.4318E-04  0.4834E-04  0.5357E-04  0.5875E-04  0.6377E-04  0.6859E-04  0.7301E-04  0.7700E-04  0.8032E-04  0.8295E-04  0.8473E-04  0.8575E-04  0.8610E-04  0.8575E-04  0.8476E-04  0.8323E-04  0.8145E-04  0.7911E-04  0.7721E-04  0.7518E-04  0.7295E-04  0.7095E-04  0.6896E-04  0.6715E-04  0.6576E-04  0.6460E-04  0.6419E-04  0.6424E-04  0.6497E-04  0.6608E-04  0.6772E-04  0.6958E-04  0.7140E-04  0.7294E-04  0.7424E-04  0.7487E-04  0.7503E-04  0.7457E-04  0.7365E-04  0.7230E-04  0.7056E-04  0.6865E-04  0.6644E-04  0.6418E-04  0.6178E-04  0.5940E-04  0.5690E-04  0.5449E-04  0.5210E-04  0.4973E-04  0.4747E-04  0.4520E-04  0.4305E-04  0.4089E-04  0.3877E-04  0.3677E-04  0.3476E-04  0.3283E-04  0.3098E-04  0.2914E-04  0.2702E-04  0.2496E-04  0.2330E-04  0.2170E-04  0.2017E-04  0.1874E-04  0.1740E-04  0.1606E-04  0.1488E-04  0.1377E-04  0.1267E-04  0.1159E-04  0.1062E-04  0.9741E-05  0.8932E-05
  0.3037E-04  0.3538E-04  0.4053E-04  0.4629E-04  0.5228E-04  0.5864E-04  0.6498E-04  0.7143E-04  0.7769E-04  0.8341E-04  0.8847E-04  0.9283E-04  0.9577E-04  0.9843E-04  0.1001E-03  0.1006E-03  0.1006E-03  0.9972E-04  0.9790E-04  0.9580E-04  0.9305E-04  0.9003E-04  0.8773E-04  0.8484E-04  0.8210E-04  0.7941E-04  0.7696E-04  0.7479E-04  0.7304E-04  0.7179E-04  0.7132E-04  0.7148E-04  0.7232E-04  0.7364E-04  0.7521E-04  0.7692E-04  0.7859E-04  0.7993E-04  0.8072E-04  0.8093E-04  0.8063E-04  0.7972E-04  0.7818E-04  0.7631E-04  0.7438E-04  0.7205E-04  0.6966E-04  0.6714E-04  0.6463E-04  0.6202E-04  0.5948E-04  0.5699E-04  0.5453E-04  0.5208E-04  0.4980E-04  0.4746E-04  0.4525E-04  0.4304E-04  0.4087E-04  0.3877E-04  0.3667E-04  0.3462E-04  0.3266E-04  0.3073E-04  0.2882E-04  0.2653E-04  0.2430E-04  0.2260E-04  0.2101E-04  0.1949E-04  0.1801E-04  0.1666E-04  0.1541E-04  0.1420E-04  0.1301E-04  0.1202E-04  0.1101E-04  0.1004E-04  0.9190E-05
  0.3663E-04  0.4272E-04  0.4926E-04  0.5622E-04  0.6377E-04  0.7156E-04  0.7937E-04  0.8730E-04  0.9475E-04  0.1013E-03  0.1071E-03  0.1118E-03  0.1152E-03  0.1174E-03  0.1181E-03  0.1173E-03  0.1165E-03  0.1146E-03  0.1123E-03  0.1090E-03  0.1056E-03  0.1023E-03  0.9880E-04  0.9508E-04  0.9164E-04  0.8845E-04  0.8546E-04  0.8287E-04  0.8079E-04  0.7955E-04  0.7901E-04  0.7932E-04  0.8015E-04  0.8161E-04  0.8324E-04  0.8475E-04  0.8607E-04  0.8701E-04  0.8731E-04  0.8701E-04  0.8618E-04  0.8493E-04  0.8330E-04  0.8137E-04  0.7925E-04  0.7702E-04  0.7458E-04  0.7189E-04  0.6899E-04  0.6603E-04  0.6301E-04  0.6005E-04  0.5715E-04  0.5473E-04  0.5231E-04  0.4997E-04  0.4769E-04  0.4542E-04  0.4321E-04  0.4102E-04  0.3881E-04  0.3664E-04  0.3458E-04  0.3252E-04  0.3049E-04  0.2835E-04  0.2583E-04  0.2364E-04  0.2189E-04  0.2022E-04  0.1870E-04  0.1728E-04  0.1591E-04  0.1466E-04  0.1349E-04  0.1235E-04  0.1132E-04  0.1039E-04  0.9602E-05
  0.4454E-04  0.5189E-04  0.5996E-04  0.6885E-04  0.7807E-04  0.8759E-04  0.9720E-04  0.1065E-03  0.1149E-03  0.1224E-03  0.1287E-03  0.1334E-03  0.1368E-03  0.1382E-03  0.1387E-03  0.1377E-03  0.1350E-03  0.1316E-03  0.1270E-03  0.1230E-03  0.1185E-03  0.1146E-03  0.1102E-03  0.1057E-03  0.1016E-03  0.9766E-04  0.9427E-04  0.9125E-04  0.8906E-04  0.8775E-04  0.8732E-04  0.8761E-04  0.8867E-04  0.9002E-04  0.9157E-04  0.9288E-04  0.9371E-04  0.9408E-04  0.9390E-04  0.9321E-04  0.9195E-04  0.9039E-04  0.8836E-04  0.8621E-04  0.8434E-04  0.8214E-04  0.7974E-04  0.7703E-04  0.7424E-04  0.7139E-04  0.6838E-04  0.6537E-04  0.6222E-04  0.5917E-04  0.5598E-04  0.5306E-04  0.5066E-04  0.4843E-04  0.4590E-04  0.4350E-04  0.4121E-04  0.3896E-04  0.3676E-04  0.3453E-04  0.3232E-04  0.3027E-04  0.2789E-04  0.2511E-04  0.2278E-04  0.2109E-04  0.1944E-04  0.1788E-04  0.1645E-04  0.1515E-04  0.1389E-04  0.1272E-04  0.1172E-04  0.1079E-04  0.9876E-05
  0.5416E-04  0.6318E-04  0.7330E-04  0.8398E-04  0.9535E-04  0.1067E-03  0.1182E-03  0.1290E-03  0.1384E-03  0.1465E-03  0.1532E-03  0.1579E-03  0.1609E-03  0.1616E-03  0.1611E-03  0.1589E-03  0.1555E-03  0.1510E-03  0.1453E-03  0.1389E-03  0.1324E-03  0.1267E-03  0.1215E-03  0.1163E-03  0.1114E-03  0.1069E-03  0.1031E-03  0.9983E-04  0.9756E-04  0.9626E-04  0.9599E-04  0.9631E-04  0.9748E-04  0.9881E-04  0.1001E-03  0.1011E-03  0.1015E-03  0.1012E-03  0.1005E-03  0.9941E-04  0.9785E-04  0.9594E-04  0.9422E-04  0.9281E-04  0.9103E-04  0.8853E-04  0.8597E-04  0.8321E-04  0.8061E-04  0.7770E-04  0.7486E-04  0.7186E-04  0.6882E-04  0.6585E-04  0.6288E-04  0.5988E-04  0.5723E-04  0.5458E-04  0.5192E-04  0.4899E-04  0.4611E-04  0.4276E-04  0.3917E-04  0.3677E-04  0.3443E-04  0.3216E-04  0.2981E-04  0.2714E-04  0.2433E-04  0.2191E-04  0.2015E-04  0.1854E-04  0.1704E-04  0.1562E-04  0.1433E-04  0.1316E-04  0.1213E-04  0.1110E-04  0.1012E-04
  0.6574E-04  0.7691E-04  0.8902E-04  0.1022E-03  0.1158E-03  0.1293E-03  0.1425E-03  0.1545E-03  0.1652E-03  0.1740E-03  0.1806E-03  0.1852E-03  0.1874E-03  0.1878E-03  0.1861E-03  0.1827E-03  0.1782E-03  0.1723E-03  0.1652E-03  0.1576E-03  0.1505E-03  0.1446E-03  0.1391E-03  0.1328E-03  0.1278E-03  0.1227E-03  0.1154E-03  0.1107E-03  0.1086E-03  0.1073E-03  0.1067E-03  0.1067E-03  0.1072E-03  0.1080E-03  0.1088E-03  0.1092E-03  0.1092E-03  0.1084E-03  0.1073E-03  0.1058E-03  0.1044E-03  0.1031E-03  0.1024E-03  0.1011E-03  0.9908E-04  0.9669E-04  0.9420E-04  0.9158E-04  0.8905E-04  0.8648E-04  0.8390E-04  0.8105E-04  0.7812E-04  0.7487E-04  0.7138E-04  0.6780E-04  0.6445E-04  0.6113E-04  0.5798E-04  0.5461E-04  0.5124E-04  0.4784E-04  0.4446E-04  0.4122E-04  0.3712E-04  0.3429E-04  0.3194E-04  0.2923E-04  0.2628E-04  0.2336E-04  0.2097E-04  0.1925E-04  0.1762E-04  0.1615E-04  0.1483E-04  0.1365E-04  0.1248E-04  0.1138E-04  0.1037E-04
  0.7928E-04  0.9286E-04  0.1077E-03  0.1234E-03  0.1393E-03  0.1551E-03  0.1701E-03  0.1834E-03  0.1951E-03  0.2043E-03  0.2112E-03  0.2154E-03  0.2174E-03  0.2171E-03  0.2144E-03  0.2104E-03  0.2047E-03  0.1978E-03  0.1899E-03  0.1813E-03  0.1766E-03  0.1802E-03  0.1975E-03  0.2186E-03  0.2300E-03  0.2291E-03  0.2251E-03  0.2197E-03  0.2128E-03  0.2026E-03  0.1835E-03  0.1579E-03  0.1308E-03  0.1188E-03  0.1196E-03  0.1174E-03  0.1167E-03  0.1157E-03  0.1146E-03  0.1139E-03  0.1135E-03  0.1133E-03  0.1127E-03  0.1113E-03  0.1096E-03  0.1077E-03  0.1056E-03  0.1036E-03  0.1016E-03  0.9942E-04  0.9693E-04  0.9427E-04  0.9110E-04  0.8765E-04  0.8364E-04  0.7941E-04  0.7490E-04  0.7046E-04  0.6640E-04  0.6220E-04  0.5782E-04  0.5358E-04  0.4941E-04  0.4561E-04  0.4188E-04  0.3814E-04  0.3429E-04  0.3136E-04  0.2840E-04  0.2544E-04  0.2239E-04  0.2000E-04  0.1828E-04  0.1675E-04  0.1540E-04  0.1408E-04  0.1282E-04  0.1169E-04  0.1068E-04
  0.9515E-04  0.1113E-03  0.1290E-03  0.1474E-03  0.1659E-03  0.1840E-03  0.2006E-03  0.2154E-03  0.2277E-03  0.2376E-03  0.2445E-03  0.2490E-03  0.2509E-03  0.2499E-03  0.2475E-03  0.2431E-03  0.2372E-03  0.2301E-03  0.2216E-03  0.2152E-03  0.2213E-03  0.2598E-03  0.3537E-03  0.4814E-03  0.5804E-03  0.6162E-03  0.6304E-03  0.6497E-03  0.6597E-03  0.6417E-03  0.5641E-03  0.3991E-03  0.2013E-03  0.1406E-03  0.1320E-03  0.1272E-03  0.1250E-03  0.1245E-03  0.1252E-03  0.1256E-03  0.1262E-03  0.1268E-03  0.1265E-03  0.1259E-03  0.1248E-03  0.1239E-03  0.1228E-03  0.1213E-03  0.1197E-03  0.1177E-03  0.1155E-03  0.1126E-03  0.1094E-03  0.1055E-03  0.1010E-03  0.9566E-04  0.8983E-04  0.8381E-04  0.7792E-04  0.7235E-04  0.6660E-04  0.6108E-04  0.5584E-04  0.5087E-04  0.4636E-04  0.4217E-04  0.3826E-04  0.3433E-04  0.3078E-04  0.2763E-04  0.2443E-04  0.2134E-04  0.1904E-04  0.1742E-04  0.1592E-04  0.1451E-04  0.1319E-04  0.1203E-04  0.1096E-04
  0.1131E-03  0.1325E-03  0.1531E-03  0.1742E-03  0.1953E-03  0.2153E-03  0.2334E-03  0.2496E-03  0.2630E-03  0.2735E-03  0.2806E-03  0.2855E-03  0.2875E-03  0.2876E-03  0.2856E-03  0.2819E-03  0.2767E-03  0.2709E-03  0.2645E-03  0.2629E-03  0.2845E-03  0.3743E-03  0.5797E-03  0.8610E-03  0.1059E-02  0.1061E-02  0.9484E-03  0.8238E-03  0.6756E-03  0.4913E-03  0.3223E-03  0.2283E-03  0.2280E-03  0.2971E-03  0.1874E-03  0.1457E-03  0.1482E-03  0.1481E-03  0.1481E-03  0.1490E-03  0.1501E-03  0.1506E-03  0.1503E-03  0.1500E-03  0.1495E-03  0.1490E-03  0.1481E-03  0.1469E-03  0.1455E-03  0.1435E-03  0.1410E-03  0.1379E-03  0.1342E-03  0.1296E-03  0.1241E-03  0.1176E-03  0.1102E-03  0.1020E-03  0.9382E-04  0.8575E-04  0.7818E-04  0.7071E-04  0.6388E-04  0.5748E-04  0.5186E-04  0.4667E-04  0.4223E-04  0.3802E-04  0.3393E-04  0.3010E-04  0.2663E-04  0.2341E-04  0.2046E-04  0.1807E-04  0.1646E-04  0.1495E-04  0.1359E-04  0.1236E-04  0.1122E-04
  0.1337E-03  0.1560E-03  0.1794E-03  0.2032E-03  0.2267E-03  0.2485E-03  0.2682E-03  0.2852E-03  0.2995E-03  0.3104E-03  0.3187E-03  0.3240E-03  0.3269E-03  0.3280E-03  0.3274E-03  0.3253E-03  0.3227E-03  0.3197E-03  0.3174E-03  0.3213E-03  0.3536E-03  0.4689E-03  0.7215E-03  0.1056E-02  0.1248E-02  0.1139E-02  0.8463E-03  0.5899E-03  0.4396E-03  0.3648E-03  0.3152E-03  0.3280E-03  0.6589E-03  0.4033E-03  0.2990E-03  0.1892E-03  0.1945E-03  0.1971E-03  0.1968E-03  0.1979E-03  0.1995E-03  0.1992E-03  0.1969E-03  0.1938E-03  0.1909E-03  0.1876E-03  0.1848E-03  0.1829E-03  0.1806E-03  0.1778E-03  0.1745E-03  0.1705E-03  0.1657E-03  0.1600E-03  0.1532E-03  0.1451E-03  0.1358E-03  0.1255E-03  0.1145E-03  0.1034E-03  0.9287E-04  0.8300E-04  0.7388E-04  0.6567E-04  0.5841E-04  0.5215E-04  0.4663E-04  0.4199E-04  0.3742E-04  0.3316E-04  0.2935E-04  0.2573E-04  0.2233E-04  0.1940E-04  0.1702E-04  0.1546E-04  0.1403E-04  0.1270E-04  0.1148E-04
  0.1561E-03  0.1814E-03  0.2077E-03  0.2340E-03  0.2591E-03  0.2822E-03  0.3032E-03  0.3212E-03  0.3358E-03  0.3476E-03  0.3566E-03  0.3628E-03  0.3670E-03  0.3693E-03  0.3698E-03  0.3698E-03  0.3696E-03  0.3696E-03  0.3712E-03  0.3782E-03  0.4089E-03  0.5064E-03  0.7134E-03  0.9913E-03  0.1167E-02  0.1098E-02  0.8587E-03  0.6405E-03  0.5213E-03  0.4462E-03  0.4561E-03  0.8450E-03  0.7057E-03  0.5905E-03  0.4633E-03  0.2921E-03  0.2797E-03  0.2848E-03  0.2852E-03  0.2877E-03  0.2912E-03  0.2903E-03  0.2838E-03  0.2732E-03  0.2620E-03  0.2513E-03  0.2420E-03  0.2339E-03  0.2268E-03  0.2195E-03  0.2144E-03  0.2088E-03  0.2026E-03  0.1952E-03  0.1868E-03  0.1771E-03  0.1660E-03  0.1534E-03  0.1395E-03  0.1252E-03  0.1111E-03  0.9797E-04  0.8604E-04  0.7552E-04  0.6639E-04  0.5867E-04  0.5198E-04  0.4638E-04  0.4133E-04  0.3669E-04  0.3236E-04  0.2842E-04  0.2470E-04  0.2147E-04  0.1832E-04  0.1600E-04  0.1445E-04  0.1303E-04  0.1175E-04
  0.1804E-03  0.2085E-03  0.2371E-03  0.2652E-03  0.2913E-03  0.3155E-03  0.3369E-03  0.3550E-03  0.3704E-03  0.3828E-03  0.3918E-03  0.3988E-03  0.4037E-03  0.4068E-03  0.4081E-03  0.4092E-03  0.4100E-03  0.4111E-03  0.4130E-03  0.4173E-03  0.4350E-03  0.4920E-03  0.6236E-03  0.8268E-03  0.1018E-02  0.1096E-02  0.1022E-02  0.8599E-03  0.6931E-03  0.6516E-03  0.9780E-03  0.1098E-02  0.8739E-03  0.7866E-03  0.6461E-03  0.4365E-03  0.3909E-03  0.3932E-03  0.3897E-03  0.3913E-03  0.3982E-03  0.4034E-03  0.3998E-03  0.3864E-03  0.3667E-03  0.3445E-03  0.3229E-03  0.3035E-03  0.2876E-03  0.2739E-03  0.2625E-03  0.2517E-03  0.2420E-03  0.2327E-03  0.2227E-03  0.2116E-03  0.1987E-03  0.1842E-03  0.1680E-03  0.1505E-03  0.1328E-03  0.1159E-03  0.1008E-03  0.8769E-04  0.7634E-04  0.6673E-04  0.5862E-04  0.5189E-04  0.4622E-04  0.4081E-04  0.3608E-04  0.3158E-04  0.2766E-04  0.2391E-04  0.2043E-04  0.1714E-04  0.1487E-04  0.1338E-04  0.1203E-04
  0.2063E-03  0.2365E-03  0.2666E-03  0.2953E-03  0.3222E-03  0.3463E-03  0.3676E-03  0.3857E-03  0.4009E-03  0.4128E-03  0.4219E-03  0.4286E-03  0.4331E-03  0.4358E-03  0.4364E-03  0.4365E-03  0.4355E-03  0.4340E-03  0.4330E-03  0.4328E-03  0.4367E-03  0.4603E-03  0.5322E-03  0.6753E-03  0.8756E-03  0.1069E-02  0.1161E-02  0.1103E-02  0.1012E-02  0.1160E-02  0.1353E-02  0.1070E-02  0.9754E-03  0.8753E-03  0.7463E-03  0.5369E-03  0.4667E-03  0.4609E-03  0.4542E-03  0.4501E-03  0.4582E-03  0.4731E-03  0.4832E-03  0.4835E-03  0.4718E-03  0.4493E-03  0.4213E-03  0.3920E-03  0.3647E-03  0.3412E-03  0.3211E-03  0.3039E-03  0.2900E-03  0.2769E-03  0.2640E-03  0.2506E-03  0.2358E-03  0.2193E-03  0.2008E-03  0.1807E-03  0.1598E-03  0.1390E-03  0.1199E-03  0.1034E-03  0.8937E-04  0.7760E-04  0.6786E-04  0.5994E-04  0.5298E-04  0.4659E-04  0.4081E-04  0.3558E-04  0.3103E-04  0.2674E-04  0.2275E-04  0.1899E-04  0.1589E-04  0.1372E-04  0.1235E-04
  0.2324E-03  0.2638E-03  0.2946E-03  0.3234E-03  0.3498E-03  0.3734E-03  0.3934E-03  0.4109E-03  0.4250E-03  0.4361E-03  0.4441E-03  0.4495E-03  0.4524E-03  0.4527E-03  0.4516E-03  0.4497E-03  0.4482E-03  0.4458E-03  0.4432E-03  0.4417E-03  0.4421E-03  0.4554E-03  0.5043E-03  0.6202E-03  0.8177E-03  0.1062E-02  0.1259E-02  0.1358E-02  0.1461E-02  0.1579E-02  0.1278E-02  0.1038E-02  0.9456E-03  0.8597E-03  0.7520E-03  0.5578E-03  0.4652E-03  0.4508E-03  0.4424E-03  0.4396E-03  0.4469E-03  0.4642E-03  0.4881E-03  0.5096E-03  0.5214E-03  0.5202E-03  0.5056E-03  0.4813E-03  0.4518E-03  0.4216E-03  0.3935E-03  0.3684E-03  0.3472E-03  0.3294E-03  0.3128E-03  0.2960E-03  0.2783E-03  0.2603E-03  0.2395E-03  0.2167E-03  0.1928E-03  0.1681E-03  0.1446E-03  0.1241E-03  0.1068E-03  0.9226E-04  0.7982E-04  0.6936E-04  0.6047E-04  0.5271E-04  0.4578E-04  0.3974E-04  0.3452E-04  0.2975E-04  0.2530E-04  0.2121E-04  0.1731E-04  0.1448E-04  0.1265E-04
  0.2578E-03  0.2894E-03  0.3195E-03  0.3474E-03  0.3724E-03  0.3945E-03  0.4132E-03  0.4288E-03  0.4412E-03  0.4505E-03  0.4565E-03  0.4607E-03  0.4626E-03  0.4630E-03  0.4635E-03  0.4632E-03  0.4646E-03  0.4685E-03  0.4751E-03  0.4861E-03  0.5045E-03  0.5329E-03  0.5814E-03  0.6665E-03  0.8087E-03  0.1006E-02  0.1244E-02  0.1529E-02  0.1781E-02  0.1616E-02  0.1194E-02  0.1068E-02  0.9316E-03  0.8531E-03  0.7388E-03  0.5448E-03  0.4241E-03  0.3930E-03  0.3865E-03  0.3851E-03  0.3917E-03  0.4088E-03  0.4350E-03  0.4669E-03  0.4988E-03  0.5244E-03  0.5376E-03  0.5356E-03  0.5199E-03  0.4948E-03  0.4660E-03  0.4377E-03  0.4119E-03  0.3890E-03  0.3691E-03  0.3486E-03  0.3279E-03  0.3058E-03  0.2825E-03  0.2572E-03  0.2300E-03  0.2019E-03  0.1743E-03  0.1490E-03  0.1278E-03  0.1097E-03  0.9394E-04  0.8065E-04  0.6945E-04  0.5995E-04  0.5176E-04  0.4449E-04  0.3813E-04  0.3257E-04  0.2766E-04  0.2322E-04  0.1910E-04  0.1540E-04  0.1295E-04
  0.2806E-03  0.3114E-03  0.3401E-03  0.3660E-03  0.3891E-03  0.4087E-03  0.4255E-03  0.4389E-03  0.4502E-03  0.4592E-03  0.4664E-03  0.4727E-03  0.4772E-03  0.4830E-03  0.4909E-03  0.5021E-03  0.5184E-03  0.5406E-03  0.5686E-03  0.5973E-03  0.6213E-03  0.6354E-03  0.6447E-03  0.6643E-03  0.7235E-03  0.8738E-03  0.1184E-02  0.1619E-02  0.1797E-02  0.1505E-02  0.1291E-02  0.1209E-02  0.1044E-02  0.9374E-03  0.7916E-03  0.5781E-03  0.4142E-03  0.3528E-03  0.3367E-03  0.3334E-03  0.3374E-03  0.3502E-03  0.3706E-03  0.3998E-03  0.4356E-03  0.4744E-03  0.5085E-03  0.5299E-03  0.5360E-03  0.5282E-03  0.5116E-03  0.4909E-03  0.4686E-03  0.4471E-03  0.4261E-03  0.4042E-03  0.3816E-03  0.3573E-03  0.3312E-03  0.3027E-03  0.2722E-03  0.2411E-03  0.2090E-03  0.1783E-03  0.1511E-03  0.1279E-03  0.1082E-03  0.9184E-04  0.7827E-04  0.6692E-04  0.5722E-04  0.4880E-04  0.4204E-04  0.3575E-04  0.3034E-04  0.2538E-04  0.2105E-04  0.1698E-04  0.1378E-04
  0.2987E-03  0.3273E-03  0.3536E-03  0.3771E-03  0.3983E-03  0.4181E-03  0.4348E-03  0.4494E-03  0.4620E-03  0.4746E-03  0.4872E-03  0.5011E-03  0.5182E-03  0.5401E-03  0.5672E-03  0.5988E-03  0.6309E-03  0.6577E-03  0.6748E-03  0.6781E-03  0.6666E-03  0.6395E-03  0.6037E-03  0.5747E-03  0.6012E-03  0.7694E-03  0.1169E-02  0.1595E-02  0.1652E-02  0.1514E-02  0.1532E-02  0.1495E-02  0.1313E-02  0.1135E-02  0.9512E-03  0.7208E-03  0.5056E-03  0.3896E-03  0.3443E-03  0.3248E-03  0.3189E-03  0.3218E-03  0.3312E-03  0.3495E-03  0.3768E-03  0.4120E-03  0.4499E-03  0.4832E-03  0.5067E-03  0.5190E-03  0.5215E-03  0.5163E-03  0.5059E-03  0.4916E-03  0.4758E-03  0.4558E-03  0.4334E-03  0.4082E-03  0.3804E-03  0.3497E-03  0.3175E-03  0.2819E-03  0.2448E-03  0.2081E-03  0.1745E-03  0.1459E-03  0.1220E-03  0.1024E-03  0.8706E-04  0.7394E-04  0.6280E-04  0.5341E-04  0.4536E-04  0.3844E-04  0.3240E-04  0.2716E-04  0.2235E-04  0.1819E-04  0.1446E-04
  0.3112E-03  0.3395E-03  0.3658E-03  0.3891E-03  0.4111E-03  0.4315E-03  0.4512E-03  0.4705E-03  0.4921E-03  0.5169E-03  0.5471E-03  0.5825E-03  0.6191E-03  0.6542E-03  0.6843E-03  0.7028E-03  0.7072E-03  0.6952E-03  0.6684E-03  0.6294E-03  0.5821E-03  0.5309E-03  0.4800E-03  0.4526E-03  0.5008E-03  0.7234E-03  0.1139E-02  0.1480E-02  0.1581E-02  0.1680E-02  0.1826E-02  0.1815E-02  0.1619E-02  0.1390E-02  0.1198E-02  0.9821E-03  0.7356E-03  0.5535E-03  0.4524E-03  0.3974E-03  0.3656E-03  0.3465E-03  0.3397E-03  0.3425E-03  0.3555E-03  0.3792E-03  0.4094E-03  0.4419E-03  0.4714E-03  0.4960E-03  0.5130E-03  0.5227E-03  0.5243E-03  0.5190E-03  0.5087E-03  0.4949E-03  0.4760E-03  0.4527E-03  0.4250E-03  0.3931E-03  0.3582E-03  0.3189E-03  0.2769E-03  0.2349E-03  0.1958E-03  0.1622E-03  0.1352E-03  0.1125E-03  0.9415E-04  0.7941E-04  0.6726E-04  0.5688E-04  0.4805E-04  0.4062E-04  0.3425E-04  0.2884E-04  0.2408E-04  0.1951E-04  0.1568E-04
  0.3217E-03  0.3515E-03  0.3802E-03  0.4081E-03  0.4365E-03  0.4684E-03  0.5055E-03  0.5443E-03  0.5836E-03  0.6200E-03  0.6514E-03  0.6749E-03  0.6893E-03  0.6923E-03  0.6835E-03  0.6641E-03  0.6351E-03  0.5987E-03  0.5556E-03  0.5120E-03  0.4692E-03  0.4304E-03  0.4028E-03  0.4021E-03  0.4779E-03  0.7092E-03  0.1057E-02  0.1349E-02  0.1551E-02  0.1766E-02  0.1950E-02  0.1968E-02  0.1815E-02  0.1609E-02  0.1455E-02  0.1285E-02  0.1047E-02  0.8231E-03  0.6765E-03  0.5804E-03  0.5133E-03  0.4631E-03  0.4260E-03  0.4058E-03  0.3978E-03  0.4013E-03  0.4163E-03  0.4377E-03  0.4630E-03  0.4873E-03  0.5077E-03  0.5231E-03  0.5333E-03  0.5362E-03  0.5331E-03  0.5239E-03  0.5102E-03  0.4897E-03  0.4632E-03  0.4304E-03  0.3923E-03  0.3483E-03  0.3020E-03  0.2561E-03  0.2134E-03  0.1760E-03  0.1458E-03  0.1208E-03  0.1003E-03  0.8391E-04  0.7072E-04  0.5974E-04  0.5042E-04  0.4294E-04  0.3608E-04  0.3021E-04  0.2498E-04  0.2038E-04  0.1637E-04
  0.3390E-03  0.3804E-03  0.4246E-03  0.4693E-03  0.5136E-03  0.5546E-03  0.5915E-03  0.6234E-03  0.6474E-03  0.6632E-03  0.6700E-03  0.6682E-03  0.6575E-03  0.6378E-03  0.6115E-03  0.5777E-03  0.5423E-03  0.5034E-03  0.4676E-03  0.4372E-03  0.4138E-03  0.4029E-03  0.4057E-03  0.4341E-03  0.5218E-03  0.7006E-03  0.9444E-03  0.1171E-02  0.1383E-02  0.1602E-02  0.1791E-02  0.1864E-02  0.1815E-02  0.1712E-02  0.1630E-02  0.1530E-02  0.1336E-02  0.1108E-02  0.9380E-03  0.8251E-03  0.7421E-03  0.6714E-03  0.6091E-03  0.5579E-03  0.5215E-03  0.4993E-03  0.4899E-03  0.4914E-03  0.4988E-03  0.5129E-03  0.5265E-03  0.5405E-03  0.5502E-03  0.5555E-03  0.5568E-03  0.5511E-03  0.5390E-03  0.5211E-03  0.4948E-03  0.4600E-03  0.4173E-03  0.3703E-03  0.3206E-03  0.2719E-03  0.2269E-03  0.1870E-03  0.1545E-03  0.1275E-03  0.1054E-03  0.8772E-04  0.7344E-04  0.6190E-04  0.5264E-04  0.4434E-04  0.3728E-04  0.3119E-04  0.2580E-04  0.2108E-04  0.1707E-04
  0.3800E-03  0.4295E-03  0.4778E-03  0.5214E-03  0.5590E-03  0.5897E-03  0.6133E-03  0.6284E-03  0.6356E-03  0.6344E-03  0.6264E-03  0.6113E-03  0.5896E-03  0.5621E-03  0.5336E-03  0.5034E-03  0.4721E-03  0.4459E-03  0.4293E-03  0.4217E-03  0.4283E-03  0.4502E-03  0.4825E-03  0.5292E-03  0.5931E-03  0.6830E-03  0.7985E-03  0.9239E-03  0.1073E-02  0.1251E-02  0.1428E-02  0.1565E-02  0.1643E-02  0.1671E-02  0.1682E-02  0.1653E-02  0.1520E-02  0.1313E-02  0.1139E-02  0.1029E-02  0.9554E-03  0.8946E-03  0.8296E-03  0.7638E-03  0.7032E-03  0.6549E-03  0.6198E-03  0.5968E-03  0.5855E-03  0.5812E-03  0.5812E-03  0.5853E-03  0.5885E-03  0.5908E-03  0.5890E-03  0.5834E-03  0.5707E-03  0.5507E-03  0.5226E-03  0.4838E-03  0.4374E-03  0.3867E-03  0.3354E-03  0.2849E-03  0.2378E-03  0.1961E-03  0.1616E-03  0.1331E-03  0.1098E-03  0.9100E-04  0.7568E-04  0.6334E-04  0.5387E-04  0.4542E-04  0.3821E-04  0.3189E-04  0.2645E-04  0.2175E-04  0.1755E-04
  0.4010E-03  0.4473E-03  0.4887E-03  0.5237E-03  0.5517E-03  0.5719E-03  0.5845E-03  0.5894E-03  0.5868E-03  0.5788E-03  0.5654E-03  0.5467E-03  0.5243E-03  0.5012E-03  0.4778E-03  0.4573E-03  0.4451E-03  0.4405E-03  0.4517E-03  0.4748E-03  0.5098E-03  0.5502E-03  0.5850E-03  0.6000E-03  0.6170E-03  0.6156E-03  0.6333E-03  0.6756E-03  0.7568E-03  0.8812E-03  0.1041E-02  0.1213E-02  0.1368E-02  0.1497E-02  0.1600E-02  0.1650E-02  0.1588E-02  0.1419E-02  0.1243E-02  0.1129E-02  0.1067E-02  0.1020E-02  0.9710E-03  0.9145E-03  0.8570E-03  0.8020E-03  0.7564E-03  0.7199E-03  0.6934E-03  0.6749E-03  0.6621E-03  0.6541E-03  0.6486E-03  0.6424E-03  0.6359E-03  0.6244E-03  0.6085E-03  0.5840E-03  0.5494E-03  0.5070E-03  0.4568E-03  0.4028E-03  0.3483E-03  0.2965E-03  0.2478E-03  0.2043E-03  0.1672E-03  0.1376E-03  0.1133E-03  0.9374E-04  0.7768E-04  0.6453E-04  0.5461E-04  0.4614E-04  0.3880E-04  0.3237E-04  0.2682E-04  0.2207E-04  0.1821E-04
  0.3976E-03  0.4356E-03  0.4688E-03  0.4957E-03  0.5164E-03  0.5303E-03  0.5374E-03  0.5381E-03  0.5341E-03  0.5258E-03  0.5126E-03  0.4967E-03  0.4820E-03  0.4669E-03  0.4611E-03  0.4634E-03  0.4738E-03  0.4985E-03  0.5336E-03  0.5719E-03  0.6079E-03  0.6287E-03  0.6244E-03  0.6008E-03  0.5564E-03  0.5126E-03  0.4864E-03  0.4885E-03  0.5316E-03  0.6179E-03  0.7458E-03  0.9036E-03  0.1079E-02  0.1251E-02  0.1412E-02  0.1536E-02  0.1553E-02  0.1434E-02  0.1258E-02  0.1123E-02  0.1051E-02  0.1014E-02  0.9871E-03  0.9550E-03  0.9191E-03  0.8814E-03  0.8448E-03  0.8120E-03  0.7837E-03  0.7606E-03  0.7419E-03  0.7258E-03  0.7131E-03  0.7016E-03  0.6878E-03  0.6721E-03  0.6498E-03  0.6195E-03  0.5800E-03  0.5313E-03  0.4776E-03  0.4203E-03  0.3629E-03  0.3078E-03  0.2578E-03  0.2123E-03  0.1732E-03  0.1412E-03  0.1162E-03  0.9599E-04  0.7923E-04  0.6549E-04  0.5497E-04  0.4643E-04  0.3905E-04  0.3258E-04  0.2703E-04  0.2228E-04  0.1849E-04
  0.3808E-03  0.4119E-03  0.4387E-03  0.4606E-03  0.4773E-03  0.4878E-03  0.4929E-03  0.4946E-03  0.4914E-03  0.4850E-03  0.4792E-03  0.4737E-03  0.4728E-03  0.4803E-03  0.4942E-03  0.5212E-03  0.5546E-03  0.5926E-03  0.6280E-03  0.6492E-03  0.6489E-03  0.6221E-03  0.5790E-03  0.5162E-03  0.4574E-03  0.4080E-03  0.3778E-03  0.3744E-03  0.4041E-03  0.4643E-03  0.5620E-03  0.6864E-03  0.8364E-03  0.1005E-02  0.1185E-02  0.1352E-02  0.1441E-02  0.1386E-02  0.1228E-02  0.1071E-02  0.9734E-03  0.9337E-03  0.9216E-03  0.9144E-03  0.9037E-03  0.8859E-03  0.8694E-03  0.8511E-03  0.8325E-03  0.8137E-03  0.7963E-03  0.7803E-03  0.7648E-03  0.7508E-03  0.7340E-03  0.7148E-03  0.6885E-03  0.6536E-03  0.6090E-03  0.5573E-03  0.4993E-03  0.4391E-03  0.3791E-03  0.3212E-03  0.2676E-03  0.2204E-03  0.1792E-03  0.1452E-03  0.1186E-03  0.9750E-04  0.8065E-04  0.6646E-04  0.5482E-04  0.4625E-04  0.3894E-04  0.3259E-04  0.2705E-04  0.2229E-04  0.1839E-04
  0.3615E-03  0.3872E-03  0.4104E-03  0.4295E-03  0.4437E-03  0.4538E-03  0.4616E-03  0.4662E-03  0.4694E-03  0.4747E-03  0.4806E-03  0.4936E-03  0.5120E-03  0.5384E-03  0.5728E-03  0.6108E-03  0.6425E-03  0.6650E-03  0.6681E-03  0.6483E-03  0.6028E-03  0.5431E-03  0.4745E-03  0.4146E-03  0.3634E-03  0.3284E-03  0.3096E-03  0.3099E-03  0.3351E-03  0.3822E-03  0.4549E-03  0.5489E-03  0.6655E-03  0.8090E-03  0.9783E-03  0.1161E-02  0.1299E-02  0.1311E-02  0.1196E-02  0.1034E-02  0.9113E-03  0.8512E-03  0.8329E-03  0.8363E-03  0.8414E-03  0.8431E-03  0.8424E-03  0.8380E-03  0.8329E-03  0.8257E-03  0.8164E-03  0.8053E-03  0.7929E-03  0.7801E-03  0.7647E-03  0.7433E-03  0.7155E-03  0.6783E-03  0.6328E-03  0.5787E-03  0.5199E-03  0.4573E-03  0.3946E-03  0.3347E-03  0.2784E-03  0.2281E-03  0.1853E-03  0.1492E-03  0.1205E-03  0.9890E-04  0.8131E-04  0.6704E-04  0.5488E-04  0.4540E-04  0.3851E-04  0.3232E-04  0.2676E-04  0.2216E-04  0.1836E-04
  0.3438E-03  0.3678E-03  0.3887E-03  0.4068E-03  0.4234E-03  0.4381E-03  0.4501E-03  0.4644E-03  0.4804E-03  0.4982E-03  0.5216E-03  0.5466E-03  0.5771E-03  0.6065E-03  0.6339E-03  0.6545E-03  0.6603E-03  0.6505E-03  0.6190E-03  0.5674E-03  0.5034E-03  0.4323E-03  0.3762E-03  0.3312E-03  0.2979E-03  0.2778E-03  0.2694E-03  0.2746E-03  0.2951E-03  0.3321E-03  0.3876E-03  0.4593E-03  0.5495E-03  0.6679E-03  0.8170E-03  0.9940E-03  0.1159E-02  0.1230E-02  0.1167E-02  0.1025E-02  0.8863E-03  0.8000E-03  0.7622E-03  0.7564E-03  0.7643E-03  0.7744E-03  0.7849E-03  0.7922E-03  0.7982E-03  0.8023E-03  0.8029E-03  0.8000E-03  0.7947E-03  0.7860E-03  0.7731E-03  0.7535E-03  0.7260E-03  0.6903E-03  0.6451E-03  0.5927E-03  0.5334E-03  0.4709E-03  0.4076E-03  0.3455E-03  0.2881E-03  0.2359E-03  0.1907E-03  0.1534E-03  0.1231E-03  0.9944E-04  0.8162E-04  0.6686E-04  0.5465E-04  0.4470E-04  0.3790E-04  0.3177E-04  0.2643E-04  0.2169E-04  0.1781E-04
  0.3332E-03  0.3568E-03  0.3791E-03  0.4013E-03  0.4224E-03  0.4433E-03  0.4660E-03  0.4884E-03  0.5139E-03  0.5392E-03  0.5672E-03  0.5910E-03  0.6140E-03  0.6280E-03  0.6321E-03  0.6237E-03  0.6006E-03  0.5632E-03  0.5112E-03  0.4531E-03  0.3946E-03  0.3461E-03  0.3076E-03  0.2774E-03  0.2576E-03  0.2478E-03  0.2458E-03  0.2497E-03  0.2689E-03  0.2975E-03  0.3381E-03  0.3962E-03  0.4690E-03  0.5666E-03  0.6946E-03  0.8562E-03  0.1028E-02  0.1143E-02  0.1138E-02  0.1027E-02  0.8899E-03  0.7811E-03  0.7211E-03  0.6961E-03  0.6958E-03  0.7044E-03  0.7173E-03  0.7308E-03  0.7441E-03  0.7561E-03  0.7651E-03  0.7707E-03  0.7722E-03  0.7694E-03  0.7610E-03  0.7447E-03  0.7200E-03  0.6872E-03  0.6450E-03  0.5946E-03  0.5378E-03  0.4771E-03  0.4142E-03  0.3529E-03  0.2944E-03  0.2419E-03  0.1957E-03  0.1566E-03  0.1253E-03  0.1004E-03  0.8104E-04  0.6612E-04  0.5414E-04  0.4372E-04  0.3655E-04  0.3099E-04  0.2572E-04  0.2124E-04  0.1733E-04
  0.3311E-03  0.3576E-03  0.3849E-03  0.4112E-03  0.4389E-03  0.4669E-03  0.4936E-03  0.5211E-03  0.5456E-03  0.5696E-03  0.5872E-03  0.6002E-03  0.6047E-03  0.5983E-03  0.5830E-03  0.5548E-03  0.5158E-03  0.4672E-03  0.4155E-03  0.3637E-03  0.3240E-03  0.2898E-03  0.2632E-03  0.2447E-03  0.2335E-03  0.2288E-03  0.2285E-03  0.2320E-03  0.2455E-03  0.2678E-03  0.3002E-03  0.3479E-03  0.4079E-03  0.4883E-03  0.5971E-03  0.7439E-03  0.9132E-03  0.1051E-02  0.1094E-02  0.1028E-02  0.9028E-03  0.7858E-03  0.7066E-03  0.6643E-03  0.6468E-03  0.6468E-03  0.6540E-03  0.6678E-03  0.6832E-03  0.6987E-03  0.7140E-03  0.7253E-03  0.7318E-03  0.7349E-03  0.7314E-03  0.7200E-03  0.6990E-03  0.6700E-03  0.6321E-03  0.5851E-03  0.5322E-03  0.4741E-03  0.4147E-03  0.3544E-03  0.2972E-03  0.2444E-03  0.1979E-03  0.1587E-03  0.1262E-03  0.1009E-03  0.8077E-04  0.6499E-04  0.5279E-04  0.4301E-04  0.3533E-04  0.2962E-04  0.2494E-04  0.2065E-04  0.1686E-04
  0.3382E-03  0.3689E-03  0.4000E-03  0.4315E-03  0.4607E-03  0.4900E-03  0.5154E-03  0.5389E-03  0.5563E-03  0.5692E-03  0.5743E-03  0.5719E-03  0.5599E-03  0.5393E-03  0.5109E-03  0.4748E-03  0.4307E-03  0.3850E-03  0.3405E-03  0.3055E-03  0.2759E-03  0.2527E-03  0.2344E-03  0.2231E-03  0.2163E-03  0.2140E-03  0.2134E-03  0.2146E-03  0.2251E-03  0.2411E-03  0.2685E-03  0.3072E-03  0.3587E-03  0.4270E-03  0.5202E-03  0.6485E-03  0.8055E-03  0.9514E-03  0.1028E-02  0.1008E-02  0.9138E-03  0.8011E-03  0.7101E-03  0.6515E-03  0.6175E-03  0.6048E-03  0.6040E-03  0.6113E-03  0.6242E-03  0.6399E-03  0.6564E-03  0.6712E-03  0.6823E-03  0.6887E-03  0.6896E-03  0.6821E-03  0.6660E-03  0.6409E-03  0.6076E-03  0.5656E-03  0.5169E-03  0.4637E-03  0.4072E-03  0.3503E-03  0.2948E-03  0.2438E-03  0.1980E-03  0.1588E-03  0.1265E-03  0.1002E-03  0.7949E-04  0.6397E-04  0.5165E-04  0.4168E-04  0.3396E-04  0.2844E-04  0.2366E-04  0.1984E-04  0.1622E-04
  0.3485E-03  0.3826E-03  0.4156E-03  0.4471E-03  0.4760E-03  0.4999E-03  0.5202E-03  0.5338E-03  0.5414E-03  0.5422E-03  0.5355E-03  0.5216E-03  0.4998E-03  0.4728E-03  0.4383E-03  0.3996E-03  0.3592E-03  0.3203E-03  0.2901E-03  0.2635E-03  0.2421E-03  0.2250E-03  0.2135E-03  0.2058E-03  0.2026E-03  0.2001E-03  0.1982E-03  0.1986E-03  0.2057E-03  0.2195E-03  0.2426E-03  0.2748E-03  0.3184E-03  0.3800E-03  0.4605E-03  0.5734E-03  0.7088E-03  0.8444E-03  0.9352E-03  0.9535E-03  0.9021E-03  0.8129E-03  0.7236E-03  0.6531E-03  0.6060E-03  0.5778E-03  0.5665E-03  0.5655E-03  0.5727E-03  0.5848E-03  0.6001E-03  0.6153E-03  0.6283E-03  0.6368E-03  0.6396E-03  0.6359E-03  0.6239E-03  0.6034E-03  0.5744E-03  0.5378E-03  0.4937E-03  0.4453E-03  0.3933E-03  0.3402E-03  0.2881E-03  0.2393E-03  0.1952E-03  0.1572E-03  0.1248E-03  0.9895E-04  0.7800E-04  0.6194E-04  0.5016E-04  0.4078E-04  0.3210E-04  0.2725E-04  0.2265E-04  0.1850E-04  0.1551E-04
  0.3561E-03  0.3890E-03  0.4216E-03  0.4492E-03  0.4737E-03  0.4909E-03  0.5032E-03  0.5077E-03  0.5062E-03  0.4979E-03  0.4824E-03  0.4619E-03  0.4371E-03  0.4071E-03  0.3743E-03  0.3376E-03  0.3026E-03  0.2751E-03  0.2513E-03  0.2323E-03  0.2151E-03  0.2034E-03  0.1964E-03  0.1934E-03  0.1893E-03  0.1858E-03  0.1838E-03  0.1838E-03  0.1883E-03  0.1997E-03  0.2192E-03  0.2458E-03  0.2844E-03  0.3379E-03  0.4110E-03  0.5087E-03  0.6276E-03  0.7481E-03  0.8438E-03  0.8855E-03  0.8676E-03  0.8057E-03  0.7272E-03  0.6570E-03  0.6009E-03  0.5627E-03  0.5387E-03  0.5297E-03  0.5288E-03  0.5359E-03  0.5468E-03  0.5608E-03  0.5732E-03  0.5825E-03  0.5874E-03  0.5858E-03  0.5772E-03  0.5598E-03  0.5357E-03  0.5036E-03  0.4646E-03  0.4210E-03  0.3741E-03  0.3252E-03  0.2773E-03  0.2315E-03  0.1900E-03  0.1530E-03  0.1221E-03  0.9629E-04  0.7591E-04  0.6021E-04  0.4796E-04  0.3926E-04  0.3079E-04  0.2536E-04  0.2153E-04  0.1767E-04  0.1448E-04
  0.3523E-03  0.3844E-03  0.4124E-03  0.4361E-03  0.4541E-03  0.4649E-03  0.4704E-03  0.4682E-03  0.4608E-03  0.4465E-03  0.4278E-03  0.4051E-03  0.3787E-03  0.3490E-03  0.3178E-03  0.2871E-03  0.2625E-03  0.2410E-03  0.2222E-03  0.2062E-03  0.1958E-03  0.1880E-03  0.1837E-03  0.1807E-03  0.1762E-03  0.1727E-03  0.1698E-03  0.1702E-03  0.1740E-03  0.1835E-03  0.1981E-03  0.2201E-03  0.2544E-03  0.3024E-03  0.3675E-03  0.4524E-03  0.5546E-03  0.6635E-03  0.7550E-03  0.8091E-03  0.8142E-03  0.7773E-03  0.7162E-03  0.6515E-03  0.5948E-03  0.5503E-03  0.5191E-03  0.4986E-03  0.4914E-03  0.4920E-03  0.4992E-03  0.5091E-03  0.5208E-03  0.5291E-03  0.5345E-03  0.5341E-03  0.5275E-03  0.5140E-03  0.4934E-03  0.4656E-03  0.4313E-03  0.3926E-03  0.3508E-03  0.3067E-03  0.2626E-03  0.2209E-03  0.1819E-03  0.1477E-03  0.1178E-03  0.9335E-04  0.7338E-04  0.5770E-04  0.4611E-04  0.3699E-04  0.2925E-04  0.2398E-04  0.1983E-04  0.1642E-04  0.1396E-04
  0.3379E-03  0.3665E-03  0.3900E-03  0.4094E-03  0.4218E-03  0.4284E-03  0.4280E-03  0.4223E-03  0.4104E-03  0.3943E-03  0.3740E-03  0.3517E-03  0.3267E-03  0.2996E-03  0.2729E-03  0.2503E-03  0.2306E-03  0.2136E-03  0.1995E-03  0.1883E-03  0.1803E-03  0.1749E-03  0.1716E-03  0.1679E-03  0.1640E-03  0.1606E-03  0.1579E-03  0.1581E-03  0.1610E-03  0.1685E-03  0.1803E-03  0.1994E-03  0.2297E-03  0.2715E-03  0.3288E-03  0.4022E-03  0.4908E-03  0.5844E-03  0.6697E-03  0.7275E-03  0.7461E-03  0.7291E-03  0.6867E-03  0.6337E-03  0.5808E-03  0.5345E-03  0.4984E-03  0.4740E-03  0.4574E-03  0.4528E-03  0.4549E-03  0.4613E-03  0.4706E-03  0.4786E-03  0.4833E-03  0.4837E-03  0.4785E-03  0.4675E-03  0.4498E-03  0.4260E-03  0.3965E-03  0.3620E-03  0.3248E-03  0.2858E-03  0.2458E-03  0.2077E-03  0.1722E-03  0.1402E-03  0.1124E-03  0.8919E-04  0.7009E-04  0.5537E-04  0.4367E-04  0.3506E-04  0.2741E-04  0.2201E-04  0.1828E-04  0.1539E-04  0.1302E-04
  0.3157E-03  0.3393E-03  0.3587E-03  0.3740E-03  0.3826E-03  0.3853E-03  0.3829E-03  0.3745E-03  0.3624E-03  0.3458E-03  0.3272E-03  0.3050E-03  0.2815E-03  0.2593E-03  0.2383E-03  0.2210E-03  0.2053E-03  0.1921E-03  0.1803E-03  0.1723E-03  0.1662E-03  0.1629E-03  0.1601E-03  0.1565E-03  0.1526E-03  0.1490E-03  0.1469E-03  0.1470E-03  0.1489E-03  0.1543E-03  0.1641E-03  0.1811E-03  0.2077E-03  0.2447E-03  0.2935E-03  0.3568E-03  0.4325E-03  0.5127E-03  0.5866E-03  0.6420E-03  0.6688E-03  0.6639E-03  0.6383E-03  0.5984E-03  0.5533E-03  0.5108E-03  0.4741E-03  0.4461E-03  0.4273E-03  0.4158E-03  0.4138E-03  0.4172E-03  0.4232E-03  0.4302E-03  0.4351E-03  0.4353E-03  0.4314E-03  0.4217E-03  0.4067E-03  0.3861E-03  0.3608E-03  0.3305E-03  0.2977E-03  0.2629E-03  0.2275E-03  0.1932E-03  0.1610E-03  0.1317E-03  0.1063E-03  0.8431E-04  0.6669E-04  0.5236E-04  0.4147E-04  0.3274E-04  0.2575E-04  0.2047E-04  0.1672E-04  0.1440E-04  0.1268E-04
  0.2894E-03  0.3082E-03  0.3231E-03  0.3343E-03  0.3413E-03  0.3418E-03  0.3378E-03  0.3299E-03  0.3168E-03  0.3015E-03  0.2844E-03  0.2643E-03  0.2455E-03  0.2268E-03  0.2110E-03  0.1972E-03  0.1844E-03  0.1731E-03  0.1644E-03  0.1580E-03  0.1555E-03  0.1523E-03  0.1490E-03  0.1457E-03  0.1423E-03  0.1388E-03  0.1369E-03  0.1365E-03  0.1383E-03  0.1424E-03  0.1508E-03  0.1642E-03  0.1870E-03  0.2193E-03  0.2620E-03  0.3152E-03  0.3777E-03  0.4444E-03  0.5072E-03  0.5556E-03  0.5826E-03  0.5886E-03  0.5736E-03  0.5462E-03  0.5123E-03  0.4764E-03  0.4433E-03  0.4153E-03  0.3942E-03  0.3810E-03  0.3749E-03  0.3756E-03  0.3794E-03  0.3848E-03  0.3888E-03  0.3894E-03  0.3862E-03  0.3779E-03  0.3652E-03  0.3473E-03  0.3251E-03  0.2989E-03  0.2699E-03  0.2397E-03  0.2085E-03  0.1777E-03  0.1492E-03  0.1225E-03  0.9917E-04  0.7946E-04  0.6269E-04  0.4954E-04  0.3876E-04  0.3084E-04  0.2351E-04  0.1849E-04  0.1555E-04  0.1355E-04  0.1223E-04
