DSAA
          79         109
    318.3670    342.0670
   7336.5760   7369.2760
  0.0000E+00  0.5325E-03
  0.0000E+00  0.0000E+00  0.0000E+00  0.0000E+00  0.0000E+00  0.0000E+00  0.0000E+00  0.0000E+00  0.0000E+00  0.0000E+00  0.0000E+00  0.0000E+00  0.0000E+00  0.0000E+00  0.0000E+00  0.0000E+00  0.0000E+00  0.0000E+00  0.0000E+00  0.0000E+00  0.0000E+00  0.0000E+00  0.0000E+00  0.0000E+00  0.0000E+00  0.0000E+00  0.0000E+00  0.0000E+00  0.0000E+00  0.0000E+00  0.0000E+00  0.0000E+00  0.0000E+00  0.0000E+00  0.0000E+00  0.0000E+00  0.0000E+00  0.0000E+00  0.0000E+00  0.0000E+00  0.0000E+00  0.0000E+00  0.0000E+00  0.0000E+00  0.0000E+00  0.0000E+00  0.0000E+00  0.0000E+00  0.0000E+00  0.0000E+00  0.0000E+00  0.0000E+00  0.0000E+00  0.0000E+00  0.0000E+00  0.0000E+00  0.0000E+00  0.0000E+00  0.0000E+00  0.0000E+00  0.0000E+00  0.0000E+00  0.0000E+00  0.0000E+00  0.0000E+00  0.0000E+00  0.0000E+00  0.0000E+00  0.0000E+00  0.0000E+00  0.0000E+00  0.0000E+00  0.0000E+00  0.0000E+00  0.0000E+00  0.0000E+00  0.0000E+00  0.0000E+00  0.0000E+00
  0.0000E+00  0.0000E+00  0.0000E+00  0.0000E+00  0.0000E+00  0.0000E+00  0.0000E+00  0.0000E+00  0.0000E+00  0.0000E+00  0.0000E+00  0.0000E+00  0.0000E+00  0.0000E+00  0.0000E+00  0.0000E+00  0.0000E+00  0.0000E+00  0.0000E+00  0.0000E+00  0.0000E+00  0.0000E+00  0.0000E+00  0.0000E+00  0.0000E+00  0.0000E+00  0.0000E+00  0.0000E+00  0.0000E+00  0.0000E+00  0.0000E+00  0.0000E+00  0.0000E+00  0.0000E+00  0.0000E+00  0.0000E+00  0.0000E+00  0.0000E+00  0.0000E+00  0.0000E+00  0.0000E+00  0.0000E+00  0.0000E+00  0.0000E+00  0.0000E+00  0.0000E+00  0.0000E+00  0.0000E+00  0.0000E+00  0.0000E+00  0.0000E+00  0.0000E+00  0.0000E+00  0.0000E+00  0.0000E+00  0.0000E+00  0.0000E+00  0.0000E+00  0.0000E+00  0.0000E+00  0.0000E+00  0.0000E+00  0.0000E+00  0.0000E+00  0.0000E+00  0.0000E+00  0.0000E+00  0.0000E+00  0.0000E+00  0.0000E+00  0.0000E+00  0.0000E+00  0.0000E+00  0.0000E+00  0.0000E+00  0.0000E+00  0.0000E+00  0.0000E+00  0.0000E+00
  0.0000E+00  0.0000E+00  0.0000E+00  0.0000E+00  0.0000E+00  0.0000E+00  0.0000E+00  0.0000E+00  0.0000E+00  0.0000E+00  0.0000E+00  0.0000E+00  0.0000E+00  0.0000E+00  0.0000E+00  0.0000E+00  0.0000E+00  0.0000E+00  0.0000E+00  0.0000E+00  0.0000E+00  0.0000E+00  0.0000E+00  0.0000E+00  0.0000E+00  0.0000E+00  0.0000E+00  0.0000E+00  0.0000E+00  0.0000E+00  0.0000E+00  0.0000E+00  0.0000E+00  0.0000E+00  0.0000E+00  0.0000E+00  0.0000E+00  0.0000E+00  0.0000E+00  0.0000E+00  0.0000E+00  0.0000E+00  0.0000E+00  0.0000E+00  0.0000E+00  0.0000E+00  0.0000E+00  0.0000E+00  0.0000E+00  0.0000E+00  0.0000E+00  0.0000E+00  0.0000E+00  0.0000E+00  0.0000E+00  0.0000E+00  0.0000E+00  0.0000E+00  0.0000E+00  0.0000E+00  0.0000E+00  0.0000E+00  0.0000E+00  0.0000E+00  0.0000E+00  0.0000E+00  0.0000E+00  0.0000E+00  0.0000E+00  0.0000E+00  0.0000E+00  0.0000E+00  0.0000E+00  0.0000E+00  0.0000E+00  0.0000E+00  0.0000E+00  0.0000E+00  0.0000E+00
  0.0000E+00  0.0000E+00  0.0000E+00  0.0000E+00  0.0000E+00  0.0000E+00  0.0000E+00  0.0000E+00  0.0000E+00  0.0000E+00  0.0000E+00  0.0000E+00  0.0000E+00  0.0000E+00  0.0000E+00  0.0000E+00  0.0000E+00  0.0000E+00  0.0000E+00  0.0000E+00  0.0000E+00  0.0000E+00  0.0000E+00  0.0000E+00  0.0000E+00  0.0000E+00  0.0000E+00  0.0000E+00  0.0000E+00  0.0000E+00  0.0000E+00  0.0000E+00  0.0000E+00  0.0000E+00  0.0000E+00  0.0000E+00  0.0000E+00  0.0000E+00  0.0000E+00  0.0000E+00  0.0000E+00  0.0000E+00  0.0000E+00  0.0000E+00  0.0000E+00  0.0000E+00  0.0000E+00  0.0000E+00  0.0000E+00  0.0000E+00  0.0000E+00  0.0000E+00  0.0000E+00  0.0000E+00  0.0000E+00  0.0000E+00  0.0000E+00  0.0000E+00  0.0000E+00  0.0000E+00  0.0000E+00  0.0000E+00  0.0000E+00  0.0000E+00  0.0000E+00  0.0000E+00  0.0000E+00  0.0000E+00  0.0000E+00  0.0000E+00  0.0000E+00  0.0000E+00  0.0000E+00  0.0000E+00  0.0000E+00  0.0000E+00  0.0000E+00  0.0000E+00  0.0000E+00
  0.0000E+00  0.0000E+00  0.0000E+00  0.0000E+00  0.0000E+00  0.0000E+00  0.0000E+00  0.0000E+00  0.0000E+00  0.0000E+00  0.0000E+00  0.0000E+00  0.0000E+00  0.0000E+00  0.0000E+00  0.0000E+00  0.0000E+00  0.0000E+00  0.0000E+00  0.0000E+00  0.0000E+00  0.0000E+00  0.0000E+00  0.0000E+00  0.0000E+00  0.0000E+00  0.0000E+00  0.0000E+00  0.0000E+00  0.0000E+00  0.0000E+00  0.0000E+00  0.0000E+00  0.0000E+00  0.0000E+00  0.0000E+00  0.0000E+00  0.0000E+00  0.0000E+00  0.0000E+00  0.0000E+00  0.0000E+00  0.0000E+00  0.0000E+00  0.0000E+00  0.0000E+00  0.0000E+00  0.0000E+00  0.0000E+00  0.0000E+00  0.0000E+00  0.0000E+00  0.0000E+00  0.0000E+00  0.0000E+00  0.0000E+00  0.0000E+00  0.0000E+00  0.0000E+00  0.0000E+00  0.0000E+00  0.0000E+00  0.0000E+00  0.0000E+00  0.0000E+00  0.0000E+00  0.0000E+00  0.0000E+00  0.0000E+00  0.0000E+00  0.0000E+00  0.0000E+00  0.0000E+00  0.0000E+00  0.0000E+00  0.0000E+00  0.0000E+00  0.0000E+00  0.0000E+00
  0.0000E+00  0.0000E+00  0.0000E+00  0.0000E+00  0.0000E+00  0.0000E+00  0.0000E+00  0.0000E+00  0.0000E+00  0.0000E+00  0.0000E+00  0.0000E+00  0.0000E+00  0.0000E+00  0.0000E+00  0.0000E+00  0.0000E+00  0.0000E+00  0.0000E+00  0.0000E+00  0.0000E+00  0.0000E+00  0.0000E+00  0.0000E+00  0.0000E+00  0.0000E+00  0.0000E+00  0.0000E+00  0.0000E+00  0.0000E+00  0.0000E+00  0.0000E+00  0.0000E+00  0.0000E+00  0.0000E+00  0.0000E+00  0.0000E+00  0.0000E+00  0.0000E+00  0.0000E+00  0.0000E+00  0.0000E+00  0.0000E+00  0.0000E+00  0.0000E+00  0.0000E+00  0.0000E+00  0.0000E+00  0.0000E+00  0.0000E+00  0.0000E+00  0.0000E+00  0.0000E+00  0.0000E+00  0.0000E+00  0.0000E+00  0.0000E+00  0.0000E+00  0.0000E+00  0.0000E+00  0.0000E+00  0.0000E+00  0.0000E+00  0.0000E+00  0.0000E+00  0.0000E+00  0.0000E+00  0.0000E+00  0.0000E+00  0.0000E+00  0.0000E+00  0.0000E+00  0.0000E+00  0.0000E+00  0.0000E+00  0.0000E+00  0.0000E+00  0.0000E+00  0.0000E+00
  0.0000E+00  0.0000E+00  0.0000E+00  0.0000E+00  0.0000E+00  0.0000E+00  0.0000E+00  0.0000E+00  0.0000E+00  0.0000E+00  0.0000E+00  0.0000E+00  0.0000E+00  0.0000E+00  0.0000E+00  0.0000E+00  0.0000E+00  0.0000E+00  0.0000E+00  0.0000E+00  0.0000E+00  0.0000E+00  0.0000E+00  0.0000E+00  0.0000E+00  0.0000E+00  0.0000E+00  0.0000E+00  0.0000E+00  0.0000E+00  0.0000E+00  0.0000E+00  0.0000E+00  0.0000E+00  0.0000E+00  0.0000E+00  0.0000E+00  0.0000E+00  0.0000E+00  0.0000E+00  0.0000E+00  0.0000E+00  0.0000E+00  0.0000E+00  0.0000E+00  0.0000E+00  0.0000E+00  0.0000E+00  0.0000E+00  0.0000E+00  0.0000E+00  0.0000E+00  0.0000E+00  0.0000E+00  0.0000E+00  0.0000E+00  0.0000E+00  0.0000E+00  0.0000E+00  0.0000E+00  0.0000E+00  0.0000E+00  0.0000E+00  0.0000E+00  0.0000E+00  0.0000E+00  0.0000E+00  0.0000E+00  0.0000E+00  0.0000E+00  0.0000E+00  0.0000E+00  0.0000E+00  0.0000E+00  0.0000E+00  0.0000E+00  0.0000E+00  0.0000E+00  0.0000E+00
  0.0000E+00  0.0000E+00  0.0000E+00  0.0000E+00  0.0000E+00  0.0000E+00  0.0000E+00  0.0000E+00  0.0000E+00  0.0000E+00  0.0000E+00  0.0000E+00  0.0000E+00  0.0000E+00  0.0000E+00  0.0000E+00  0.0000E+00  0.0000E+00  0.0000E+00  0.0000E+00  0.0000E+00  0.0000E+00  0.0000E+00  0.0000E+00  0.0000E+00  0.0000E+00  0.0000E+00  0.0000E+00  0.0000E+00  0.0000E+00  0.0000E+00  0.0000E+00  0.0000E+00  0.0000E+00  0.0000E+00  0.0000E+00  0.0000E+00  0.0000E+00  0.0000E+00  0.0000E+00  0.0000E+00  0.0000E+00  0.0000E+00  0.0000E+00  0.0000E+00  0.0000E+00  0.0000E+00  0.0000E+00  0.0000E+00  0.0000E+00  0.0000E+00  0.0000E+00  0.0000E+00  0.0000E+00  0.0000E+00  0.0000E+00  0.0000E+00  0.0000E+00  0.0000E+00  0.0000E+00  0.0000E+00  0.0000E+00  0.0000E+00  0.0000E+00  0.0000E+00  0.0000E+00  0.0000E+00  0.0000E+00  0.0000E+00  0.0000E+00  0.0000E+00  0.0000E+00  0.0000E+00  0.0000E+00  0.0000E+00  0.0000E+00  0.0000E+00  0.0000E+00  0.0000E+00
  0.0000E+00  0.0000E+00  0.0000E+00  0.0000E+00  0.0000E+00  0.0000E+00  0.0000E+00  0.0000E+00  0.0000E+00  0.0000E+00  0.0000E+00  0.0000E+00  0.0000E+00  0.0000E+00  0.0000E+00  0.0000E+00  0.0000E+00  0.0000E+00  0.0000E+00  0.0000E+00  0.0000E+00  0.0000E+00  0.0000E+00  0.0000E+00  0.0000E+00  0.0000E+00  0.0000E+00  0.0000E+00  0.0000E+00  0.0000E+00  0.0000E+00  0.0000E+00  0.0000E+00  0.0000E+00  0.0000E+00  0.0000E+00  0.0000E+00  0.0000E+00  0.0000E+00  0.0000E+00  0.0000E+00  0.0000E+00  0.0000E+00  0.0000E+00  0.0000E+00  0.0000E+00  0.0000E+00  0.0000E+00  0.0000E+00  0.0000E+00  0.0000E+00  0.0000E+00  0.0000E+00  0.0000E+00  0.0000E+00  0.0000E+00  0.0000E+00  0.0000E+00  0.0000E+00  0.0000E+00  0.0000E+00  0.0000E+00  0.0000E+00  0.0000E+00  0.0000E+00  0.0000E+00  0.0000E+00  0.0000E+00  0.0000E+00  0.0000E+00  0.0000E+00  0.0000E+00  0.0000E+00  0.0000E+00  0.0000E+00  0.0000E+00  0.0000E+00  0.0000E+00  0.0000E+00
  0.0000E+00  0.0000E+00  0.0000E+00  0.0000E+00  0.0000E+00  0.0000E+00  0.0000E+00  0.0000E+00  0.0000E+00  0.0000E+00  0.0000E+00  0.0000E+00  0.0000E+00  0.0000E+00  0.0000E+00  0.0000E+00  0.0000E+00  0.0000E+00  0.0000E+00  0.0000E+00  0.0000E+00  0.0000E+00  0.0000E+00  0.0000E+00  0.0000E+00  0.0000E+00  0.0000E+00  0.0000E+00  0.0000E+00  0.0000E+00  0.0000E+00  0.0000E+00  0.0000E+00  0.0000E+00  0.0000E+00  0.0000E+00  0.0000E+00  0.0000E+00  0.0000E+00  0.0000E+00  0.0000E+00  0.0000E+00  0.0000E+00  0.0000E+00  0.0000E+00  0.0000E+00  0.0000E+00  0.0000E+00  0.0000E+00  0.0000E+00  0.0000E+00  0.0000E+00  0.0000E+00  0.0000E+00  0.0000E+00  0.0000E+00  0.0000E+00  0.0000E+00  0.0000E+00  0.0000E+00  0.0000E+00  0.0000E+00  0.0000E+00  0.0000E+00  0.0000E+00  0.0000E+00  0.0000E+00  0.0000E+00  0.0000E+00  0.0000E+00  0.0000E+00  0.0000E+00  0.0000E+00  0.0000E+00  0.0000E+00  0.0000E+00  0.0000E+00  0.0000E+00  0.0000E+00
  0.0000E+00  0.0000E+00  0.0000E+00  0.0000E+00  0.0000E+00  0.0000E+00  0.0000E+00  0.0000E+00  0.0000E+00  0.0000E+00  0.0000E+00  0.0000E+00  0.0000E+00  0.0000E+00  0.0000E+00  0.0000E+00  0.0000E+00  0.0000E+00  0.0000E+00  0.0000E+00  0.0000E+00  0.0000E+00  0.0000E+00  0.0000E+00  0.0000E+00  0.0000E+00  0.0000E+00  0.0000E+00  0.0000E+00  0.0000E+00  0.0000E+00  0.0000E+00  0.0000E+00  0.0000E+00  0.0000E+00  0.0000E+00  0.0000E+00  0.0000E+00  0.0000E+00  0.0000E+00  0.0000E+00  0.0000E+00  0.0000E+00  0.0000E+00  0.0000E+00  0.0000E+00  0.0000E+00  0.0000E+00  0.0000E+00  0.0000E+00  0.0000E+00  0.0000E+00  0.0000E+00  0.0000E+00  0.0000E+00  0.0000E+00  0.0000E+00  0.0000E+00  0.0000E+00  0.0000E+00  0.0000E+00  0.0000E+00  0.0000E+00  0.0000E+00  0.0000E+00  0.0000E+00  0.0000E+00  0.0000E+00  0.0000E+00  0.0000E+00  0.0000E+00  0.0000E+00  0.0000E+00  0.0000E+00  0.0000E+00  0.0000E+00  0.0000E+00  0.0000E+00  0.0000E+00
  0.0000E+00  0.0000E+00  0.0000E+00  0.0000E+00  0.0000E+00  0.0000E+00  0.0000E+00  0.0000E+00  0.0000E+00  0.0000E+00  0.0000E+00  0.0000E+00  0.0000E+00  0.0000E+00  0.0000E+00  0.0000E+00  0.0000E+00  0.0000E+00  0.0000E+00  0.0000E+00  0.0000E+00  0.0000E+00  0.0000E+00  0.0000E+00  0.0000E+00  0.0000E+00  0.0000E+00  0.0000E+00  0.0000E+00  0.0000E+00  0.0000E+00  0.0000E+00  0.0000E+00  0.0000E+00  0.0000E+00  0.0000E+00  0.0000E+00  0.0000E+00  0.0000E+00  0.0000E+00  0.0000E+00  0.0000E+00  0.0000E+00  0.0000E+00  0.0000E+00  0.0000E+00  0.0000E+00  0.0000E+00  0.0000E+00  0.0000E+00  0.0000E+00  0.0000E+00  0.0000E+00  0.0000E+00  0.0000E+00  0.0000E+00  0.0000E+00  0.0000E+00  0.0000E+00  0.0000E+00  0.0000E+00  0.0000E+00  0.0000E+00  0.0000E+00  0.0000E+00  0.0000E+00  0.0000E+00  0.0000E+00  0.0000E+00  0.0000E+00  0.0000E+00  0.0000E+00  0.0000E+00  0.0000E+00  0.0000E+00  0.0000E+00  0.0000E+00  0.0000E+00  0.0000E+00
  0.0000E+00  0.0000E+00  0.0000E+00  0.0000E+00  0.0000E+00  0.0000E+00  0.0000E+00  0.0000E+00  0.0000E+00  0.0000E+00  0.0000E+00  0.0000E+00  0.0000E+00  0.0000E+00  0.0000E+00  0.0000E+00  0.0000E+00  0.0000E+00  0.0000E+00  0.0000E+00  0.0000E+00  0.0000E+00  0.0000E+00  0.0000E+00  0.0000E+00  0.0000E+00  0.0000E+00  0.0000E+00  0.0000E+00  0.0000E+00  0.0000E+00  0.0000E+00  0.0000E+00  0.0000E+00  0.0000E+00  0.0000E+00  0.0000E+00  0.0000E+00  0.0000E+00  0.0000E+00  0.0000E+00  0.0000E+00  0.0000E+00  0.0000E+00  0.0000E+00  0.0000E+00  0.0000E+00  0.0000E+00  0.0000E+00  0.0000E+00  0.0000E+00  0.0000E+00  0.0000E+00  0.0000E+00  0.0000E+00  0.0000E+00  0.0000E+00  0.0000E+00  0.0000E+00  0.0000E+00  0.0000E+00  0.0000E+00  0.0000E+00  0.0000E+00  0.0000E+00  0.0000E+00  0.0000E+00  0.0000E+00  0.0000E+00  0.0000E+00  0.0000E+00  0.0000E+00  0.0000E+00  0.0000E+00  0.0000E+00  0.0000E+00  0.0000E+00  0.0000E+00  0.0000E+00
  0.0000E+00  0.0000E+00  0.0000E+00  0.0000E+00  0.0000E+00  0.0000E+00  0.0000E+00  0.0000E+00  0.0000E+00  0.0000E+00  0.0000E+00  0.0000E+00  0.0000E+00  0.0000E+00  0.0000E+00  0.0000E+00  0.0000E+00  0.0000E+00  0.0000E+00  0.0000E+00  0.0000E+00  0.0000E+00  0.0000E+00  0.0000E+00  0.0000E+00  0.0000E+00  0.0000E+00  0.0000E+00  0.0000E+00  0.0000E+00  0.0000E+00  0.0000E+00  0.0000E+00  0.0000E+00  0.0000E+00  0.0000E+00  0.0000E+00  0.0000E+00  0.0000E+00  0.0000E+00  0.0000E+00  0.0000E+00  0.0000E+00  0.0000E+00  0.0000E+00  0.0000E+00  0.0000E+00  0.0000E+00  0.0000E+00  0.0000E+00  0.0000E+00  0.0000E+00  0.0000E+00  0.0000E+00  0.0000E+00  0.0000E+00  0.0000E+00  0.0000E+00  0.0000E+00  0.0000E+00  0.0000E+00  0.0000E+00  0.0000E+00  0.0000E+00  0.0000E+00  0.0000E+00  0.0000E+00  0.0000E+00  0.0000E+00  0.0000E+00  0.0000E+00  0.0000E+00  0.0000E+00  0.0000E+00  0.0000E+00  0.0000E+00  0.0000E+00  0.0000E+00  0.0000E+00
  0.0000E+00  0.0000E+00  0.0000E+00  0.0000E+00  0.0000E+00  0.0000E+00  0.0000E+00  0.0000E+00  0.0000E+00  0.0000E+00  0.0000E+00  0.0000E+00  0.0000E+00  0.0000E+00  0.0000E+00  0.0000E+00  0.0000E+00  0.0000E+00  0.0000E+00  0.0000E+00  0.0000E+00  0.0000E+00  0.0000E+00  0.0000E+00  0.0000E+00  0.0000E+00  0.0000E+00  0.0000E+00  0.0000E+00  0.0000E+00  0.0000E+00  0.0000E+00  0.0000E+00  0.0000E+00  0.0000E+00  0.0000E+00  0.0000E+00  0.0000E+00  0.0000E+00  0.0000E+00  0.0000E+00  0.0000E+00  0.0000E+00  0.0000E+00  0.0000E+00  0.0000E+00  0.0000E+00  0.0000E+00  0.0000E+00  0.0000E+00  0.0000E+00  0.0000E+00  0.0000E+00  0.0000E+00  0.0000E+00  0.0000E+00  0.0000E+00  0.0000E+00  0.0000E+00  0.0000E+00  0.0000E+00  0.0000E+00  0.0000E+00  0.0000E+00  0.0000E+00  0.0000E+00  0.0000E+00  0.0000E+00  0.0000E+00  0.0000E+00  0.0000E+00  0.0000E+00  0.0000E+00  0.0000E+00  0.0000E+00  0.0000E+00  0.0000E+00  0.0000E+00  0.0000E+00
  0.0000E+00  0.0000E+00  0.0000E+00  0.0000E+00  0.0000E+00  0.0000E+00  0.0000E+00  0.0000E+00  0.0000E+00  0.0000E+00  0.0000E+00  0.0000E+00  0.0000E+00  0.0000E+00  0.0000E+00  0.0000E+00  0.0000E+00  0.0000E+00  0.0000E+00  0.0000E+00  0.0000E+00  0.0000E+00  0.0000E+00  0.0000E+00  0.0000E+00  0.0000E+00  0.0000E+00  0.0000E+00  0.0000E+00  0.0000E+00  0.0000E+00  0.0000E+00  0.0000E+00  0.0000E+00  0.0000E+00  0.0000E+00  0.0000E+00  0.0000E+00  0.0000E+00  0.0000E+00  0.0000E+00  0.0000E+00  0.0000E+00  0.0000E+00  0.0000E+00  0.0000E+00  0.0000E+00  0.0000E+00  0.0000E+00  0.0000E+00  0.0000E+00  0.0000E+00  0.0000E+00  0.0000E+00  0.0000E+00  0.0000E+00  0.0000E+00  0.0000E+00  0.0000E+00  0.0000E+00  0.0000E+00  0.0000E+00  0.0000E+00  0.0000E+00  0.0000E+00  0.0000E+00  0.0000E+00  0.0000E+00  0.0000E+00  0.0000E+00  0.0000E+00  0.0000E+00  0.0000E+00  0.0000E+00  0.0000E+00  0.0000E+00  0.0000E+00  0.0000E+00  0.0000E+00
  0.0000E+00  0.0000E+00  0.0000E+00  0.0000E+00  0.0000E+00  0.0000E+00  0.0000E+00  0.0000E+00  0.0000E+00  0.0000E+00  0.0000E+00  0.0000E+00  0.0000E+00  0.0000E+00  0.0000E+00  0.0000E+00  0.0000E+00  0.0000E+00  0.0000E+00  0.0000E+00  0.0000E+00  0.0000E+00  0.0000E+00  0.0000E+00  0.0000E+00  0.0000E+00  0.0000E+00  0.0000E+00  0.0000E+00  0.0000E+00  0.0000E+00  0.0000E+00  0.0000E+00  0.0000E+00  0.0000E+00  0.0000E+00  0.0000E+00  0.0000E+00  0.0000E+00  0.0000E+00  0.0000E+00  0.0000E+00  0.0000E+00  0.0000E+00  0.0000E+00  0.0000E+00  0.0000E+00  0.0000E+00  0.0000E+00  0.0000E+00  0.0000E+00  0.0000E+00  0.0000E+00  0.0000E+00  0.0000E+00  0.0000E+00  0.0000E+00  0.0000E+00  0.0000E+00  0.0000E+00  0.0000E+00  0.0000E+00  0.0000E+00  0.0000E+00  0.0000E+00  0.0000E+00  0.0000E+00  0.0000E+00  0.0000E+00  0.0000E+00  0.0000E+00  0.0000E+00  0.0000E+00  0.0000E+00  0.0000E+00  0.0000E+00  0.0000E+00  0.0000E+00  0.0000E+00
  0.0000E+00  0.0000E+00  0.0000E+00  0.0000E+00  0.0000E+00  0.0000E+00  0.0000E+00  0.0000E+00  0.0000E+00  0.0000E+00  0.0000E+00  0.0000E+00  0.0000E+00  0.0000E+00  0.0000E+00  0.0000E+00  0.0000E+00  0.0000E+00  0.0000E+00  0.0000E+00  0.0000E+00  0.0000E+00  0.0000E+00  0.0000E+00  0.0000E+00  0.0000E+00  0.0000E+00  0.0000E+00  0.0000E+00  0.0000E+00  0.0000E+00  0.0000E+00  0.0000E+00  0.0000E+00  0.0000E+00  0.0000E+00  0.0000E+00  0.0000E+00  0.0000E+00  0.0000E+00  0.0000E+00  0.0000E+00  0.0000E+00  0.0000E+00  0.0000E+00  0.0000E+00  0.0000E+00  0.0000E+00  0.0000E+00  0.0000E+00  0.0000E+00  0.0000E+00  0.0000E+00  0.0000E+00  0.0000E+00  0.0000E+00  0.0000E+00  0.0000E+00  0.0000E+00  0.0000E+00  0.0000E+00  0.0000E+00  0.0000E+00  0.0000E+00  0.0000E+00  0.0000E+00  0.0000E+00  0.0000E+00  0.0000E+00  0.0000E+00  0.0000E+00  0.0000E+00  0.0000E+00  0.0000E+00  0.0000E+00  0.0000E+00  0.0000E+00  0.0000E+00  0.0000E+00
  0.0000E+00  0.0000E+00  0.0000E+00  0.0000E+00  0.0000E+00  0.0000E+00  0.0000E+00  0.0000E+00  0.0000E+00  0.0000E+00  0.0000E+00  0.0000E+00  0.0000E+00  0.0000E+00  0.0000E+00  0.0000E+00  0.0000E+00  0.0000E+00  0.0000E+00  0.0000E+00  0.0000E+00  0.0000E+00  0.0000E+00  0.0000E+00  0.0000E+00  0.0000E+00  0.0000E+00  0.0000E+00  0.0000E+00  0.0000E+00  0.0000E+00  0.0000E+00  0.0000E+00  0.0000E+00  0.0000E+00  0.0000E+00  0.0000E+00  0.0000E+00  0.0000E+00  0.0000E+00  0.0000E+00  0.0000E+00  0.0000E+00  0.0000E+00  0.0000E+00  0.0000E+00  0.0000E+00  0.0000E+00  0.0000E+00  0.0000E+00  0.0000E+00  0.0000E+00  0.0000E+00  0.0000E+00  0.0000E+00  0.0000E+00  0.0000E+00  0.0000E+00  0.0000E+00  0.0000E+00  0.0000E+00  0.0000E+00  0.0000E+00  0.0000E+00  0.0000E+00  0.0000E+00  0.0000E+00  0.0000E+00  0.0000E+00  0.0000E+00  0.0000E+00  0.0000E+00  0.0000E+00  0.0000E+00  0.0000E+00  0.0000E+00  0.0000E+00  0.0000E+00  0.0000E+00
  0.0000E+00  0.0000E+00  0.0000E+00  0.0000E+00  0.0000E+00  0.0000E+00  0.0000E+00  0.0000E+00  0.0000E+00  0.0000E+00  0.0000E+00  0.0000E+00  0.0000E+00  0.0000E+00  0.0000E+00  0.0000E+00  0.0000E+00  0.0000E+00  0.0000E+00  0.0000E+00  0.0000E+00  0.0000E+00  0.0000E+00  0.0000E+00  0.0000E+00  0.0000E+00  0.0000E+00  0.0000E+00  0.0000E+00  0.0000E+00  0.0000E+00  0.0000E+00  0.0000E+00  0.0000E+00  0.0000E+00  0.0000E+00  0.0000E+00  0.0000E+00  0.0000E+00  0.0000E+00  0.0000E+00  0.0000E+00  0.0000E+00  0.0000E+00  0.0000E+00  0.0000E+00  0.0000E+00  0.0000E+00  0.0000E+00  0.0000E+00  0.0000E+00  0.0000E+00  0.0000E+00  0.0000E+00  0.0000E+00  0.0000E+00  0.0000E+00  0.0000E+00  0.0000E+00  0.0000E+00  0.0000E+00  0.0000E+00  0.0000E+00  0.0000E+00  0.0000E+00  0.0000E+00  0.0000E+00  0.0000E+00  0.0000E+00  0.0000E+00  0.0000E+00  0.0000E+00  0.0000E+00  0.0000E+00  0.0000E+00  0.0000E+00  0.0000E+00  0.0000E+00  0.0000E+00
  0.0000E+00  0.0000E+00  0.0000E+00  0.0000E+00  0.0000E+00  0.0000E+00  0.0000E+00  0.0000E+00  0.0000E+00  0.0000E+00  0.0000E+00  0.0000E+00  0.0000E+00  0.0000E+00  0.0000E+00  0.0000E+00  0.0000E+00  0.0000E+00  0.0000E+00  0.0000E+00  0.0000E+00  0.0000E+00  0.0000E+00  0.0000E+00  0.0000E+00  0.0000E+00  0.0000E+00  0.0000E+00  0.0000E+00  0.0000E+00  0.0000E+00  0.0000E+00  0.0000E+00  0.0000E+00  0.0000E+00  0.0000E+00  0.0000E+00  0.0000E+00  0.0000E+00  0.0000E+00  0.0000E+00  0.0000E+00  0.0000E+00  0.0000E+00  0.0000E+00  0.0000E+00  0.0000E+00  0.0000E+00  0.0000E+00  0.0000E+00  0.0000E+00  0.0000E+00  0.0000E+00  0.0000E+00  0.0000E+00  0.0000E+00  0.0000E+00  0.0000E+00  0.0000E+00  0.0000E+00  0.0000E+00  0.0000E+00  0.0000E+00  0.0000E+00  0.0000E+00  0.0000E+00  0.0000E+00  0.0000E+00  0.0000E+00  0.0000E+00  0.0000E+00  0.0000E+00  0.0000E+00  0.0000E+00  0.0000E+00  0.0000E+00  0.0000E+00  0.0000E+00  0.0000E+00
  0.0000E+00  0.0000E+00  0.0000E+00  0.0000E+00  0.0000E+00  0.0000E+00  0.0000E+00  0.0000E+00  0.0000E+00  0.0000E+00  0.0000E+00  0.0000E+00  0.0000E+00  0.0000E+00  0.0000E+00  0.0000E+00  0.0000E+00  0.0000E+00  0.0000E+00  0.0000E+00  0.0000E+00  0.0000E+00  0.0000E+00  0.0000E+00  0.0000E+00  0.0000E+00  0.0000E+00  0.0000E+00  0.0000E+00  0.0000E+00  0.0000E+00  0.0000E+00  0.0000E+00  0.0000E+00  0.0000E+00  0.0000E+00  0.0000E+00  0.0000E+00  0.0000E+00  0.0000E+00  0.0000E+00  0.0000E+00  0.0000E+00  0.0000E+00  0.0000E+00  0.0000E+00  0.0000E+00  0.0000E+00  0.0000E+00  0.0000E+00  0.0000E+00  0.0000E+00  0.0000E+00  0.0000E+00  0.0000E+00  0.0000E+00  0.0000E+00  0.0000E+00  0.0000E+00  0.0000E+00  0.0000E+00  0.0000E+00  0.0000E+00  0.0000E+00  0.0000E+00  0.0000E+00  0.0000E+00  0.0000E+00  0.0000E+00  0.0000E+00  0.0000E+00  0.0000E+00  0.0000E+00  0.0000E+00  0.0000E+00  0.0000E+00  0.0000E+00  0.0000E+00  0.0000E+00
  0.0000E+00  0.0000E+00  0.0000E+00  0.0000E+00  0.0000E+00  0.0000E+00  0.0000E+00  0.0000E+00  0.0000E+00  0.0000E+00  0.0000E+00  0.0000E+00  0.0000E+00  0.0000E+00  0.0000E+00  0.0000E+00  0.0000E+00  0.0000E+00  0.0000E+00  0.0000E+00  0.0000E+00  0.0000E+00  0.0000E+00  0.0000E+00  0.0000E+00  0.0000E+00  0.0000E+00  0.0000E+00  0.0000E+00  0.0000E+00  0.0000E+00  0.0000E+00  0.0000E+00  0.0000E+00  0.0000E+00  0.0000E+00  0.0000E+00  0.0000E+00  0.0000E+00  0.0000E+00  0.0000E+00  0.0000E+00  0.0000E+00  0.0000E+00  0.0000E+00  0.0000E+00  0.0000E+00  0.0000E+00  0.0000E+00  0.0000E+00  0.0000E+00  0.0000E+00  0.0000E+00  0.0000E+00  0.0000E+00  0.0000E+00  0.0000E+00  0.0000E+00  0.0000E+00  0.0000E+00  0.0000E+00  0.0000E+00  0.0000E+00  0.0000E+00  0.0000E+00  0.0000E+00  0.0000E+00  0.0000E+00  0.0000E+00  0.0000E+00  0.0000E+00  0.0000E+00  0.0000E+00  0.0000E+00  0.0000E+00  0.0000E+00  0.0000E+00  0.0000E+00  0.0000E+00
  0.0000E+00  0.0000E+00  0.0000E+00  0.0000E+00  0.0000E+00  0.0000E+00  0.0000E+00  0.0000E+00  0.0000E+00  0.0000E+00  0.0000E+00  0.0000E+00  0.0000E+00  0.0000E+00  0.0000E+00  0.0000E+00  0.0000E+00  0.0000E+00  0.0000E+00  0.0000E+00  0.0000E+00  0.0000E+00  0.0000E+00  0.0000E+00  0.0000E+00  0.0000E+00  0.0000E+00  0.0000E+00  0.0000E+00  0.0000E+00  0.0000E+00  0.0000E+00  0.0000E+00  0.0000E+00  0.0000E+00  0.0000E+00  0.0000E+00  0.0000E+00  0.0000E+00  0.0000E+00  0.0000E+00  0.0000E+00  0.0000E+00  0.0000E+00  0.0000E+00  0.0000E+00  0.0000E+00  0.0000E+00  0.0000E+00  0.0000E+00  0.0000E+00  0.0000E+00  0.0000E+00  0.0000E+00  0.0000E+00  0.0000E+00  0.0000E+00  0.0000E+00  0.0000E+00  0.0000E+00  0.0000E+00  0.0000E+00  0.0000E+00  0.0000E+00  0.0000E+00  0.0000E+00  0.0000E+00  0.0000E+00  0.0000E+00  0.0000E+00  0.0000E+00  0.0000E+00  0.0000E+00  0.0000E+00  0.0000E+00  0.0000E+00  0.0000E+00  0.0000E+00  0.0000E+00
  0.0000E+00  0.0000E+00  0.0000E+00  0.0000E+00  0.0000E+00  0.0000E+00  0.0000E+00  0.0000E+00  0.0000E+00  0.0000E+00  0.0000E+00  0.0000E+00  0.0000E+00  0.0000E+00  0.0000E+00  0.0000E+00  0.0000E+00  0.0000E+00  0.0000E+00  0.0000E+00  0.0000E+00  0.0000E+00  0.0000E+00  0.0000E+00  0.0000E+00  0.0000E+00  0.0000E+00  0.0000E+00  0.0000E+00  0.0000E+00  0.0000E+00  0.0000E+00  0.0000E+00  0.0000E+00  0.0000E+00  0.0000E+00  0.0000E+00  0.0000E+00  0.0000E+00  0.0000E+00  0.0000E+00  0.0000E+00  0.0000E+00  0.0000E+00  0.0000E+00  0.0000E+00  0.0000E+00  0.0000E+00  0.0000E+00  0.0000E+00  0.0000E+00  0.0000E+00  0.0000E+00  0.0000E+00  0.0000E+00  0.0000E+00  0.0000E+00  0.0000E+00  0.0000E+00  0.0000E+00  0.0000E+00  0.0000E+00  0.0000E+00  0.0000E+00  0.0000E+00  0.0000E+00  0.0000E+00  0.0000E+00  0.0000E+00  0.0000E+00  0.0000E+00  0.0000E+00  0.0000E+00  0.0000E+00  0.0000E+00  0.0000E+00  0.0000E+00  0.0000E+00  0.0000E+00
  0.0000E+00  0.0000E+00  0.0000E+00  0.0000E+00  0.0000E+00  0.0000E+00  0.0000E+00  0.0000E+00  0.0000E+00  0.0000E+00  0.0000E+00  0.0000E+00  0.0000E+00  0.0000E+00  0.0000E+00  0.0000E+00  0.0000E+00  0.0000E+00  0.0000E+00  0.0000E+00  0.0000E+00  0.0000E+00  0.0000E+00  0.0000E+00  0.4209E-08  0.4028E-08  0.3831E-08  0.3620E-08  0.3396E-08  0.6241E-08  0.5770E-08  0.5288E-08  0.4801E-08  0.4314E-08  0.3833E-08  0.3366E-08  0.1459E-08  0.0000E+00  0.0000E+00  0.0000E+00  0.0000E+00  0.0000E+00  0.0000E+00  0.0000E+00  0.0000E+00  0.0000E+00  0.0000E+00  0.0000E+00  0.0000E+00  0.0000E+00  0.0000E+00  0.0000E+00  0.0000E+00  0.0000E+00  0.0000E+00  0.0000E+00  0.0000E+00  0.0000E+00  0.0000E+00  0.0000E+00  0.0000E+00  0.0000E+00  0.0000E+00  0.0000E+00  0.0000E+00  0.0000E+00  0.0000E+00  0.0000E+00  0.0000E+00  0.0000E+00  0.0000E+00  0.0000E+00  0.0000E+00  0.0000E+00  0.0000E+00  0.0000E+00  0.0000E+00  0.0000E+00  0.0000E+00
  0.0000E+00  0.0000E+00  0.0000E+00  0.0000E+00  0.0000E+00  0.0000E+00  0.0000E+00  0.0000E+00  0.0000E+00  0.0000E+00  0.0000E+00  0.0000E+00  0.0000E+00  0.0000E+00  0.0000E+00  0.0000E+00  0.0000E+00  0.0000E+00  0.0000E+00  0.0000E+00  0.4777E-08  0.4989E-08  0.5191E-08  0.9913E-08  0.1434E-07  0.1379E-07  0.1317E-07  0.1649E-07  0.1932E-07  0.1810E-07  0.1681E-07  0.1548E-07  0.1677E-07  0.1275E-07  0.1139E-07  0.1005E-07  0.8751E-08  0.4651E-08  0.0000E+00  0.0000E+00  0.0000E+00  0.0000E+00  0.0000E+00  0.0000E+00  0.0000E+00  0.0000E+00  0.0000E+00  0.0000E+00  0.0000E+00  0.0000E+00  0.0000E+00  0.0000E+00  0.0000E+00  0.0000E+00  0.0000E+00  0.0000E+00  0.0000E+00  0.0000E+00  0.0000E+00  0.0000E+00  0.0000E+00  0.0000E+00  0.0000E+00  0.0000E+00  0.0000E+00  0.0000E+00  0.0000E+00  0.0000E+00  0.0000E+00  0.0000E+00  0.0000E+00  0.0000E+00  0.0000E+00  0.0000E+00  0.0000E+00  0.0000E+00  0.0000E+00  0.0000E+00  0.0000E+00
  0.0000E+00  0.0000E+00  0.0000E+00  0.0000E+00  0.0000E+00  0.0000E+00  0.0000E+00  0.0000E+00  0.0000E+00  0.0000E+00  0.0000E+00  0.0000E+00  0.0000E+00  0.0000E+00  0.0000E+00  0.0000E+00  0.0000E+00  0.4738E-08  0.5006E-08  0.5268E-08  0.1556E-07  0.1629E-07  0.1698E-07  0.2743E-07  0.3255E-07  0.3144E-07  0.3018E-07  0.3332E-07  0.3588E-07  0.3374E-07  0.3518E-07  0.3437E-07  0.3142E-07  0.2842E-07  0.2408E-07  0.2129E-07  0.1677E-07  0.1113E-07  0.4923E-08  0.0000E+00  0.0000E+00  0.0000E+00  0.0000E+00  0.0000E+00  0.0000E+00  0.0000E+00  0.0000E+00  0.0000E+00  0.0000E+00  0.0000E+00  0.0000E+00  0.0000E+00  0.0000E+00  0.0000E+00  0.0000E+00  0.0000E+00  0.0000E+00  0.0000E+00  0.0000E+00  0.0000E+00  0.0000E+00  0.0000E+00  0.0000E+00  0.0000E+00  0.0000E+00  0.0000E+00  0.0000E+00  0.0000E+00  0.0000E+00  0.0000E+00  0.0000E+00  0.0000E+00  0.0000E+00  0.0000E+00  0.0000E+00  0.0000E+00  0.0000E+00  0.0000E+00  0.0000E+00
  0.0000E+00  0.0000E+00  0.0000E+00  0.0000E+00  0.0000E+00  0.0000E+00  0.0000E+00  0.0000E+00  0.0000E+00  0.0000E+00  0.0000E+00  0.0000E+00  0.0000E+00  0.0000E+00  0.0000E+00  0.4831E-08  0.5144E-08  0.1030E-07  0.1620E-07  0.1710E-07  0.2835E-07  0.3546E-07  0.3705E-07  0.4901E-07  0.5525E-07  0.5402E-07  0.6065E-07  0.6332E-07  0.6023E-07  0.6417E-07  0.6246E-07  0.6017E-07  0.5522E-07  0.5194E-07  0.4658E-07  0.3846E-07  0.2976E-07  0.2392E-07  0.1713E-07  0.8401E-08  0.0000E+00  0.0000E+00  0.0000E+00  0.0000E+00  0.0000E+00  0.0000E+00  0.0000E+00  0.0000E+00  0.0000E+00  0.0000E+00  0.0000E+00  0.0000E+00  0.0000E+00  0.0000E+00  0.0000E+00  0.0000E+00  0.0000E+00  0.0000E+00  0.0000E+00  0.0000E+00  0.0000E+00  0.0000E+00  0.0000E+00  0.0000E+00  0.0000E+00  0.0000E+00  0.0000E+00  0.0000E+00  0.0000E+00  0.0000E+00  0.0000E+00  0.0000E+00  0.0000E+00  0.0000E+00  0.0000E+00  0.0000E+00  0.0000E+00  0.0000E+00  0.0000E+00
  0.0000E+00  0.0000E+00  0.0000E+00  0.0000E+00  0.0000E+00  0.0000E+00  0.0000E+00  0.0000E+00  0.0000E+00  0.0000E+00  0.0000E+00  0.0000E+00  0.0000E+00  0.4832E-08  0.5185E-08  0.1547E-07  0.1653E-07  0.2252E-07  0.3492E-07  0.3699E-07  0.5001E-07  0.5875E-07  0.6153E-07  0.7535E-07  0.8705E-07  0.9025E-07  0.9732E-07  0.1031E-06  0.1043E-06  0.1020E-06  0.9870E-07  0.9460E-07  0.9140E-07  0.8551E-07  0.7703E-07  0.6849E-07  0.5713E-07  0.3900E-07  0.2758E-07  0.1809E-07  0.1042E-07  0.0000E+00  0.0000E+00  0.0000E+00  0.0000E+00  0.0000E+00  0.0000E+00  0.0000E+00  0.0000E+00  0.0000E+00  0.0000E+00  0.0000E+00  0.0000E+00  0.0000E+00  0.0000E+00  0.0000E+00  0.0000E+00  0.0000E+00  0.0000E+00  0.0000E+00  0.0000E+00  0.0000E+00  0.0000E+00  0.0000E+00  0.0000E+00  0.0000E+00  0.0000E+00  0.0000E+00  0.0000E+00  0.0000E+00  0.0000E+00  0.0000E+00  0.0000E+00  0.0000E+00  0.0000E+00  0.0000E+00  0.0000E+00  0.0000E+00  0.0000E+00
  0.0000E+00  0.0000E+00  0.0000E+00  0.0000E+00  0.0000E+00  0.0000E+00  0.0000E+00  0.0000E+00  0.0000E+00  0.0000E+00  0.0000E+00  0.4742E-08  0.5128E-08  0.1037E-07  0.1655E-07  0.2268E-07  0.3539E-07  0.3781E-07  0.5733E-07  0.6093E-07  0.7020E-07  0.9170E-07  0.9604E-07  0.1103E-06  0.1307E-06  0.1353E-06  0.1438E-06  0.1544E-06  0.1550E-06  0.1513E-06  0.1463E-06  0.1455E-06  0.1377E-06  0.1261E-06  0.1164E-06  0.1060E-06  0.9163E-07  0.6996E-07  0.5173E-07  0.2924E-07  0.1895E-07  0.1079E-07  0.1569E-08  0.0000E+00  0.0000E+00  0.0000E+00  0.0000E+00  0.0000E+00  0.0000E+00  0.0000E+00  0.0000E+00  0.0000E+00  0.0000E+00  0.0000E+00  0.0000E+00  0.0000E+00  0.0000E+00  0.0000E+00  0.0000E+00  0.0000E+00  0.0000E+00  0.0000E+00  0.0000E+00  0.0000E+00  0.0000E+00  0.0000E+00  0.0000E+00  0.0000E+00  0.0000E+00  0.0000E+00  0.0000E+00  0.0000E+00  0.0000E+00  0.0000E+00  0.0000E+00  0.0000E+00  0.0000E+00  0.0000E+00  0.0000E+00
  0.0000E+00  0.0000E+00  0.0000E+00  0.0000E+00  0.0000E+00  0.0000E+00  0.0000E+00  0.0000E+00  0.0000E+00  0.0000E+00  0.4973E-08  0.5398E-08  0.1623E-07  0.2239E-07  0.3514E-07  0.3784E-07  0.5769E-07  0.6184E-07  0.7777E-07  0.9459E-07  0.1004E-06  0.1368E-06  0.1485E-06  0.1656E-06  0.1894E-06  0.1961E-06  0.2067E-06  0.2195E-06  0.2200E-06  0.2151E-06  0.2083E-06  0.2061E-06  0.2012E-06  0.1853E-06  0.1713E-06  0.1562E-06  0.1381E-06  0.1127E-06  0.8653E-07  0.5692E-07  0.3716E-07  0.1968E-07  0.1106E-07  0.1599E-08  0.0000E+00  0.0000E+00  0.0000E+00  0.0000E+00  0.0000E+00  0.0000E+00  0.0000E+00  0.0000E+00  0.0000E+00  0.0000E+00  0.0000E+00  0.0000E+00  0.0000E+00  0.0000E+00  0.0000E+00  0.0000E+00  0.0000E+00  0.0000E+00  0.0000E+00  0.0000E+00  0.0000E+00  0.0000E+00  0.0000E+00  0.0000E+00  0.0000E+00  0.0000E+00  0.0000E+00  0.0000E+00  0.0000E+00  0.0000E+00  0.0000E+00  0.0000E+00  0.0000E+00  0.0000E+00  0.0000E+00
  0.0000E+00  0.0000E+00  0.0000E+00  0.0000E+00  0.0000E+00  0.0000E+00  0.0000E+00  0.0000E+00  0.4733E-08  0.5177E-08  0.1561E-07  0.1701E-07  0.3418E-07  0.3711E-07  0.5110E-07  0.6145E-07  0.7778E-07  0.9523E-07  0.1080E-06  0.1344E-06  0.1542E-06  0.1830E-06  0.2065E-06  0.2263E-06  0.2614E-06  0.2710E-06  0.2770E-06  0.2958E-06  0.3031E-06  0.2970E-06  0.2964E-06  0.2851E-06  0.2782E-06  0.2614E-06  0.2426E-06  0.2190E-06  0.1947E-06  0.1681E-06  0.1385E-06  0.9327E-07  0.6397E-07  0.3873E-07  0.2022E-07  0.1122E-07  0.1612E-08  0.0000E+00  0.0000E+00  0.0000E+00  0.0000E+00  0.0000E+00  0.0000E+00  0.0000E+00  0.0000E+00  0.0000E+00  0.0000E+00  0.0000E+00  0.0000E+00  0.0000E+00  0.0000E+00  0.0000E+00  0.0000E+00  0.0000E+00  0.0000E+00  0.0000E+00  0.0000E+00  0.0000E+00  0.0000E+00  0.0000E+00  0.0000E+00  0.0000E+00  0.0000E+00  0.0000E+00  0.0000E+00  0.0000E+00  0.0000E+00  0.0000E+00  0.0000E+00  0.0000E+00  0.0000E+00
  0.0000E+00  0.0000E+00  0.0000E+00  0.0000E+00  0.0000E+00  0.0000E+00  0.0000E+00  0.4868E-08  0.5346E-08  0.1616E-07  0.2251E-07  0.3565E-07  0.4403E-07  0.5976E-07  0.6489E-07  0.8894E-07  0.1013E-06  0.1342E-06  0.1499E-06  0.1854E-06  0.2121E-06  0.2447E-06  0.2816E-06  0.3008E-06  0.3402E-06  0.3627E-06  0.3724E-06  0.3959E-06  0.4067E-06  0.4016E-06  0.4009E-06  0.3961E-06  0.3785E-06  0.3648E-06  0.3399E-06  0.3084E-06  0.2788E-06  0.2449E-06  0.2034E-06  0.1537E-06  0.1097E-06  0.6922E-07  0.3992E-07  0.2260E-07  0.9521E-08  0.0000E+00  0.0000E+00  0.0000E+00  0.0000E+00  0.0000E+00  0.0000E+00  0.0000E+00  0.0000E+00  0.0000E+00  0.0000E+00  0.0000E+00  0.0000E+00  0.0000E+00  0.0000E+00  0.0000E+00  0.0000E+00  0.0000E+00  0.0000E+00  0.0000E+00  0.0000E+00  0.0000E+00  0.0000E+00  0.0000E+00  0.0000E+00  0.0000E+00  0.0000E+00  0.0000E+00  0.0000E+00  0.0000E+00  0.0000E+00  0.0000E+00  0.0000E+00  0.0000E+00  0.0000E+00
  0.0000E+00  0.0000E+00  0.0000E+00  0.0000E+00  0.0000E+00  0.0000E+00  0.4970E-08  0.1020E-07  0.1661E-07  0.2830E-07  0.3688E-07  0.5123E-07  0.6230E-07  0.7963E-07  0.9848E-07  0.1195E-06  0.1475E-06  0.1713E-06  0.2115E-06  0.2401E-06  0.2863E-06  0.3120E-06  0.3635E-06  0.3961E-06  0.4274E-06  0.4668E-06  0.4894E-06  0.5192E-06  0.5352E-06  0.5334E-06  0.5344E-06  0.5296E-06  0.5188E-06  0.4922E-06  0.4611E-06  0.4258E-06  0.3829E-06  0.3386E-06  0.2897E-06  0.2267E-06  0.1733E-06  0.1217E-06  0.7215E-07  0.3838E-07  0.2059E-07  0.9414E-08  0.0000E+00  0.0000E+00  0.0000E+00  0.0000E+00  0.0000E+00  0.0000E+00  0.0000E+00  0.0000E+00  0.0000E+00  0.0000E+00  0.0000E+00  0.0000E+00  0.0000E+00  0.0000E+00  0.0000E+00  0.0000E+00  0.0000E+00  0.0000E+00  0.0000E+00  0.0000E+00  0.0000E+00  0.0000E+00  0.0000E+00  0.0000E+00  0.0000E+00  0.0000E+00  0.0000E+00  0.0000E+00  0.0000E+00  0.0000E+00  0.0000E+00  0.0000E+00  0.0000E+00
  0.0000E+00  0.0000E+00  0.0000E+00  0.0000E+00  0.0000E+00  0.5035E-08  0.1037E-07  0.1693E-07  0.3429E-07  0.3785E-07  0.5857E-07  0.6441E-07  0.8896E-07  0.1025E-06  0.1369E-06  0.1547E-06  0.2006E-06  0.2236E-06  0.2769E-06  0.3052E-06  0.3574E-06  0.3998E-06  0.4484E-06  0.5017E-06  0.5398E-06  0.5989E-06  0.6226E-06  0.6590E-06  0.6939E-06  0.6976E-06  0.7036E-06  0.7012E-06  0.7302E-06  0.6964E-06  0.6554E-06  0.6166E-06  0.5570E-06  0.4983E-06  0.4369E-06  0.3417E-06  0.2597E-06  0.1856E-06  0.1304E-06  0.7662E-07  0.4056E-07  0.2034E-07  0.7442E-08  0.0000E+00  0.0000E+00  0.0000E+00  0.0000E+00  0.0000E+00  0.0000E+00  0.0000E+00  0.0000E+00  0.0000E+00  0.0000E+00  0.0000E+00  0.0000E+00  0.0000E+00  0.0000E+00  0.0000E+00  0.0000E+00  0.0000E+00  0.0000E+00  0.0000E+00  0.0000E+00  0.0000E+00  0.0000E+00  0.0000E+00  0.0000E+00  0.0000E+00  0.0000E+00  0.0000E+00  0.0000E+00  0.0000E+00  0.0000E+00  0.0000E+00  0.0000E+00
  0.0000E+00  0.0000E+00  0.0000E+00  0.0000E+00  0.5061E-08  0.1045E-07  0.1712E-07  0.3475E-07  0.3852E-07  0.5977E-07  0.6601E-07  0.9146E-07  0.1117E-06  0.1417E-06  0.1725E-06  0.2092E-06  0.2468E-06  0.2973E-06  0.3361E-06  0.3951E-06  0.4328E-06  0.5090E-06  0.5517E-06  0.6330E-06  0.6745E-06  0.7342E-06  0.7904E-06  0.8185E-06  0.9235E-06  0.9502E-06  0.9689E-06  0.1023E-05  0.1049E-05  0.1006E-05  0.1005E-05  0.9349E-06  0.8479E-06  0.7597E-06  0.6467E-06  0.5478E-06  0.3860E-06  0.2886E-06  0.2027E-06  0.1352E-06  0.8033E-07  0.3790E-07  0.1787E-07  0.3705E-08  0.0000E+00  0.0000E+00  0.0000E+00  0.0000E+00  0.0000E+00  0.0000E+00  0.0000E+00  0.0000E+00  0.0000E+00  0.0000E+00  0.0000E+00  0.0000E+00  0.0000E+00  0.0000E+00  0.0000E+00  0.0000E+00  0.0000E+00  0.0000E+00  0.0000E+00  0.0000E+00  0.0000E+00  0.0000E+00  0.0000E+00  0.0000E+00  0.0000E+00  0.0000E+00  0.0000E+00  0.0000E+00  0.0000E+00  0.0000E+00  0.0000E+00
  0.0000E+00  0.0000E+00  0.0000E+00  0.5049E-08  0.1045E-07  0.1718E-07  0.3493E-07  0.3888E-07  0.6048E-07  0.7258E-07  0.9321E-07  0.1143E-06  0.1454E-06  0.1775E-06  0.2220E-06  0.2635E-06  0.3094E-06  0.3598E-06  0.4149E-06  0.4816E-06  0.5395E-06  0.6167E-06  0.6825E-06  0.7547E-06  0.8331E-06  0.9046E-06  0.1026E-05  0.1085E-05  0.1265E-05  0.1308E-05  0.1335E-05  0.1483E-05  0.1512E-05  0.1460E-05  0.1387E-05  0.1345E-05  0.1265E-05  0.1116E-05  0.9761E-06  0.7912E-06  0.6230E-06  0.4245E-06  0.3192E-06  0.2157E-06  0.1417E-06  0.7814E-07  0.3695E-07  0.1513E-07  0.1824E-08  0.0000E+00  0.0000E+00  0.0000E+00  0.0000E+00  0.0000E+00  0.0000E+00  0.0000E+00  0.0000E+00  0.0000E+00  0.0000E+00  0.0000E+00  0.0000E+00  0.0000E+00  0.0000E+00  0.0000E+00  0.0000E+00  0.0000E+00  0.0000E+00  0.0000E+00  0.0000E+00  0.0000E+00  0.0000E+00  0.0000E+00  0.0000E+00  0.0000E+00  0.0000E+00  0.0000E+00  0.0000E+00  0.0000E+00  0.0000E+00
  0.0000E+00  0.0000E+00  0.4998E-08  0.1037E-07  0.1710E-07  0.3483E-07  0.3892E-07  0.6067E-07  0.7307E-07  0.9414E-07  0.1158E-06  0.1531E-06  0.1880E-06  0.2271E-06  0.2707E-06  0.3190E-06  0.3877E-06  0.4312E-06  0.5126E-06  0.5729E-06  0.6610E-06  0.7322E-06  0.8325E-06  0.9104E-06  0.1071E-05  0.1147E-05  0.1370E-05  0.1453E-05  0.1726E-05  0.1822E-05  0.1953E-05  0.2050E-05  0.2048E-05  0.2085E-05  0.1993E-05  0.1965E-05  0.1816E-05  0.1681E-05  0.1453E-05  0.1189E-05  0.9489E-06  0.7355E-06  0.4667E-06  0.3330E-06  0.2232E-06  0.1403E-06  0.7728E-07  0.3095E-07  0.1042E-07  0.0000E+00  0.0000E+00  0.0000E+00  0.0000E+00  0.0000E+00  0.0000E+00  0.0000E+00  0.0000E+00  0.0000E+00  0.0000E+00  0.0000E+00  0.0000E+00  0.0000E+00  0.0000E+00  0.0000E+00  0.0000E+00  0.0000E+00  0.0000E+00  0.0000E+00  0.0000E+00  0.0000E+00  0.0000E+00  0.0000E+00  0.0000E+00  0.0000E+00  0.0000E+00  0.0000E+00  0.0000E+00  0.0000E+00  0.0000E+00
  0.0000E+00  0.4909E-08  0.1021E-07  0.1688E-07  0.2915E-07  0.3864E-07  0.6035E-07  0.6750E-07  0.9425E-07  0.1164E-06  0.1542E-06  0.1900E-06  0.2303E-06  0.2812E-06  0.3258E-06  0.3972E-06  0.4503E-06  0.5296E-06  0.5946E-06  0.6971E-06  0.7774E-06  0.8870E-06  0.9798E-06  0.1150E-05  0.1331E-05  0.1504E-05  0.1764E-05  0.1963E-05  0.2315E-05  0.2454E-05  0.2644E-05  0.2830E-05  0.2829E-05  0.2894E-05  0.2850E-05  0.2747E-05  0.2546E-05  0.2385E-05  0.2072E-05  0.1775E-05  0.1434E-05  0.1091E-05  0.8353E-06  0.5024E-06  0.3514E-06  0.2277E-06  0.1335E-06  0.7005E-07  0.2717E-07  0.1216E-07  0.5240E-08  0.0000E+00  0.0000E+00  0.0000E+00  0.0000E+00  0.0000E+00  0.0000E+00  0.0000E+00  0.0000E+00  0.0000E+00  0.0000E+00  0.0000E+00  0.0000E+00  0.0000E+00  0.0000E+00  0.0000E+00  0.0000E+00  0.0000E+00  0.0000E+00  0.0000E+00  0.0000E+00  0.0000E+00  0.0000E+00  0.0000E+00  0.0000E+00  0.0000E+00  0.0000E+00  0.0000E+00  0.0000E+00
  0.4785E-08  0.5398E-08  0.1653E-07  0.2862E-07  0.3806E-07  0.5953E-07  0.6687E-07  0.9354E-07  0.1159E-06  0.1487E-06  0.1834E-06  0.2314E-06  0.2776E-06  0.3296E-06  0.4031E-06  0.4589E-06  0.5416E-06  0.6200E-06  0.7189E-06  0.8055E-06  0.9235E-06  0.1048E-05  0.1214E-05  0.1479E-05  0.1761E-05  0.2057E-05  0.2393E-05  0.2596E-05  0.3032E-05  0.3237E-05  0.3551E-05  0.3864E-05  0.3953E-05  0.4032E-05  0.3974E-05  0.3834E-05  0.3578E-05  0.3292E-05  0.2924E-05  0.2480E-05  0.2043E-05  0.1625E-05  0.1208E-05  0.9060E-06  0.5335E-06  0.3607E-06  0.2247E-06  0.1249E-06  0.6535E-07  0.2976E-07  0.1305E-07  0.5596E-08  0.0000E+00  0.0000E+00  0.0000E+00  0.0000E+00  0.0000E+00  0.0000E+00  0.0000E+00  0.0000E+00  0.0000E+00  0.0000E+00  0.0000E+00  0.0000E+00  0.0000E+00  0.0000E+00  0.0000E+00  0.0000E+00  0.0000E+00  0.0000E+00  0.0000E+00  0.0000E+00  0.0000E+00  0.0000E+00  0.0000E+00  0.0000E+00  0.0000E+00  0.0000E+00  0.0000E+00
  0.5242E-08  0.1607E-07  0.2297E-07  0.3717E-07  0.5266E-07  0.6566E-07  0.9200E-07  0.1086E-06  0.1472E-06  0.1821E-06  0.2303E-06  0.2772E-06  0.3303E-06  0.4050E-06  0.4565E-06  0.5482E-06  0.6210E-06  0.7333E-06  0.8255E-06  0.9503E-06  0.1084E-05  0.1262E-05  0.1610E-05  0.1861E-05  0.2279E-05  0.2659E-05  0.3089E-05  0.3449E-05  0.3976E-05  0.4420E-05  0.4733E-05  0.5202E-05  0.5424E-05  0.5446E-05  0.5379E-05  0.5203E-05  0.4839E-05  0.4467E-05  0.3982E-05  0.3437E-05  0.2877E-05  0.2324E-05  0.1817E-05  0.1287E-05  0.9647E-06  0.5519E-06  0.3548E-06  0.2184E-06  0.1296E-06  0.7289E-07  0.3962E-07  0.2026E-07  0.9631E-08  0.0000E+00  0.0000E+00  0.0000E+00  0.0000E+00  0.0000E+00  0.0000E+00  0.0000E+00  0.0000E+00  0.0000E+00  0.0000E+00  0.0000E+00  0.0000E+00  0.0000E+00  0.0000E+00  0.0000E+00  0.0000E+00  0.0000E+00  0.0000E+00  0.0000E+00  0.0000E+00  0.0000E+00  0.0000E+00  0.0000E+00  0.0000E+00  0.0000E+00  0.0000E+00
  0.1549E-07  0.1757E-07  0.3600E-07  0.4589E-07  0.6395E-07  0.8375E-07  0.1063E-06  0.1443E-06  0.1679E-06  0.2216E-06  0.2671E-06  0.3279E-06  0.3945E-06  0.4563E-06  0.5493E-06  0.6250E-06  0.7402E-06  0.8369E-06  0.9671E-06  0.1108E-05  0.1354E-05  0.1659E-05  0.2001E-05  0.2459E-05  0.2897E-05  0.3469E-05  0.3938E-05  0.4626E-05  0.5211E-05  0.5766E-05  0.6273E-05  0.6842E-05  0.7136E-05  0.7193E-05  0.7128E-05  0.6922E-05  0.6513E-05  0.6026E-05  0.5469E-05  0.4711E-05  0.4094E-05  0.3302E-05  0.2705E-05  0.2000E-05  0.1414E-05  0.9757E-06  0.5491E-06  0.3540E-06  0.2225E-06  0.1391E-06  0.9853E-07  0.6180E-07  0.2873E-07  0.1175E-07  0.0000E+00  0.0000E+00  0.0000E+00  0.0000E+00  0.0000E+00  0.0000E+00  0.0000E+00  0.0000E+00  0.0000E+00  0.0000E+00  0.0000E+00  0.0000E+00  0.0000E+00  0.0000E+00  0.0000E+00  0.0000E+00  0.0000E+00  0.0000E+00  0.0000E+00  0.0000E+00  0.0000E+00  0.0000E+00  0.0000E+00  0.0000E+00  0.0000E+00
  0.1687E-07  0.2936E-07  0.3930E-07  0.6174E-07  0.7544E-07  0.1032E-06  0.1290E-06  0.1639E-06  0.2166E-06  0.2552E-06  0.3163E-06  0.3750E-06  0.4516E-06  0.5356E-06  0.6156E-06  0.7314E-06  0.8294E-06  0.9731E-06  0.1107E-05  0.1310E-05  0.1683E-05  0.2044E-05  0.2533E-05  0.3158E-05  0.3731E-05  0.4364E-05  0.5015E-05  0.5961E-05  0.6774E-05  0.7579E-05  0.8320E-05  0.8835E-05  0.9223E-05  0.9331E-05  0.9285E-05  0.9014E-05  0.8611E-05  0.7996E-05  0.7303E-05  0.6489E-05  0.5550E-05  0.4714E-05  0.3734E-05  0.2959E-05  0.2157E-05  0.1490E-05  0.1038E-05  0.5667E-06  0.3596E-06  0.2523E-06  0.1797E-06  0.1177E-06  0.8093E-07  0.3828E-07  0.1902E-07  0.1711E-08  0.0000E+00  0.0000E+00  0.0000E+00  0.0000E+00  0.0000E+00  0.0000E+00  0.0000E+00  0.0000E+00  0.0000E+00  0.0000E+00  0.0000E+00  0.0000E+00  0.0000E+00  0.0000E+00  0.0000E+00  0.0000E+00  0.0000E+00  0.0000E+00  0.0000E+00  0.0000E+00  0.0000E+00  0.0000E+00  0.0000E+00
  0.2313E-07  0.3760E-07  0.5356E-07  0.6723E-07  0.9460E-07  0.1184E-06  0.1585E-06  0.1910E-06  0.2429E-06  0.3004E-06  0.3593E-06  0.4426E-06  0.5111E-06  0.6072E-06  0.7128E-06  0.8235E-06  0.9598E-06  0.1086E-05  0.1311E-05  0.1627E-05  0.2045E-05  0.2552E-05  0.3298E-05  0.4009E-05  0.4651E-05  0.5570E-05  0.6411E-05  0.7720E-05  0.8665E-05  0.9670E-05  0.1068E-04  0.1119E-04  0.1170E-04  0.1190E-04  0.1188E-04  0.1167E-04  0.1114E-04  0.1050E-04  0.9655E-05  0.8646E-05  0.7614E-05  0.6376E-05  0.5343E-05  0.4147E-05  0.3175E-05  0.2283E-05  0.1554E-05  0.1073E-05  0.5869E-06  0.4079E-06  0.2924E-06  0.2165E-06  0.1375E-06  0.9288E-07  0.4849E-07  0.1762E-07  0.0000E+00  0.0000E+00  0.0000E+00  0.0000E+00  0.0000E+00  0.0000E+00  0.0000E+00  0.0000E+00  0.0000E+00  0.0000E+00  0.0000E+00  0.0000E+00  0.0000E+00  0.0000E+00  0.0000E+00  0.0000E+00  0.0000E+00  0.0000E+00  0.0000E+00  0.0000E+00  0.0000E+00  0.0000E+00  0.0000E+00
  0.3568E-07  0.4579E-07  0.6409E-07  0.8440E-07  0.1079E-06  0.1404E-06  0.1775E-06  0.2342E-06  0.2774E-06  0.3426E-06  0.4149E-06  0.4902E-06  0.5930E-06  0.6816E-06  0.8018E-06  0.9234E-06  0.1074E-05  0.1241E-05  0.1588E-05  0.2025E-05  0.2609E-05  0.3381E-05  0.4055E-05  0.4928E-05  0.5880E-05  0.7097E-05  0.8158E-05  0.9743E-05  0.1094E-04  0.1218E-04  0.1340E-04  0.1418E-04  0.1475E-04  0.1502E-04  0.1511E-04  0.1479E-04  0.1434E-04  0.1359E-04  0.1264E-04  0.1150E-04  0.1019E-04  0.8811E-05  0.7252E-05  0.5911E-05  0.4513E-05  0.3349E-05  0.2403E-05  0.1609E-05  0.1109E-05  0.7567E-06  0.4812E-06  0.3341E-06  0.2372E-06  0.1569E-06  0.9644E-07  0.5286E-07  0.2373E-07  0.0000E+00  0.0000E+00  0.0000E+00  0.0000E+00  0.0000E+00  0.0000E+00  0.0000E+00  0.0000E+00  0.0000E+00  0.0000E+00  0.0000E+00  0.0000E+00  0.0000E+00  0.0000E+00  0.0000E+00  0.0000E+00  0.0000E+00  0.0000E+00  0.0000E+00  0.0000E+00  0.0000E+00  0.0000E+00
  0.3846E-07  0.5496E-07  0.6920E-07  0.9758E-07  0.1226E-06  0.1646E-06  0.2114E-06  0.2594E-06  0.3230E-06  0.3857E-06  0.4671E-06  0.5488E-06  0.6530E-06  0.7693E-06  0.8834E-06  0.1043E-05  0.1197E-05  0.1495E-05  0.1920E-05  0.2487E-05  0.3256E-05  0.4112E-05  0.5043E-05  0.6084E-05  0.7350E-05  0.8812E-05  0.1059E-04  0.1224E-04  0.1382E-04  0.1515E-04  0.1661E-04  0.1762E-04  0.1837E-04  0.1880E-04  0.1899E-04  0.1873E-04  0.1825E-04  0.1753E-04  0.1637E-04  0.1515E-04  0.1351E-04  0.1180E-04  0.1001E-04  0.8124E-05  0.6483E-05  0.4839E-05  0.3650E-05  0.2507E-05  0.1790E-05  0.1185E-05  0.8359E-06  0.5974E-06  0.3714E-06  0.2484E-06  0.1630E-06  0.1029E-06  0.5724E-07  0.2193E-07  0.0000E+00  0.0000E+00  0.0000E+00  0.0000E+00  0.0000E+00  0.0000E+00  0.0000E+00  0.0000E+00  0.0000E+00  0.0000E+00  0.0000E+00  0.0000E+00  0.0000E+00  0.0000E+00  0.0000E+00  0.0000E+00  0.0000E+00  0.0000E+00  0.0000E+00  0.0000E+00  0.0000E+00
  0.4643E-07  0.6513E-07  0.8601E-07  0.1103E-06  0.1506E-06  0.1826E-06  0.2414E-06  0.2929E-06  0.3555E-06  0.4319E-06  0.5121E-06  0.6214E-06  0.7248E-06  0.8543E-06  0.9905E-06  0.1144E-05  0.1383E-05  0.1726E-05  0.2271E-05  0.3079E-05  0.4003E-05  0.4969E-05  0.6184E-05  0.7536E-05  0.9220E-05  0.1093E-04  0.1309E-04  0.1519E-04  0.1711E-04  0.1865E-04  0.2041E-04  0.2168E-04  0.2264E-04  0.2330E-04  0.2356E-04  0.2351E-04  0.2305E-04  0.2217E-04  0.2109E-04  0.1947E-04  0.1773E-04  0.1561E-04  0.1340E-04  0.1115E-04  0.8884E-05  0.6972E-05  0.5127E-05  0.3819E-05  0.2671E-05  0.1872E-05  0.1401E-05  0.8883E-06  0.6556E-06  0.3775E-06  0.2540E-06  0.1609E-06  0.9783E-07  0.5463E-07  0.2000E-07  0.0000E+00  0.0000E+00  0.0000E+00  0.0000E+00  0.0000E+00  0.0000E+00  0.0000E+00  0.0000E+00  0.0000E+00  0.0000E+00  0.0000E+00  0.0000E+00  0.0000E+00  0.0000E+00  0.0000E+00  0.0000E+00  0.0000E+00  0.0000E+00  0.0000E+00  0.0000E+00
  0.5521E-07  0.6973E-07  0.1034E-06  0.1242E-06  0.1670E-06  0.2152E-06  0.2648E-06  0.3367E-06  0.3961E-06  0.4811E-06  0.5673E-06  0.6771E-06  0.8003E-06  0.9308E-06  0.1093E-05  0.1259E-05  0.1572E-05  0.2097E-05  0.2814E-05  0.3756E-05  0.4872E-05  0.6131E-05  0.7573E-05  0.9201E-05  0.1134E-04  0.1360E-04  0.1611E-04  0.1853E-04  0.2084E-04  0.2294E-04  0.2484E-04  0.2641E-04  0.2769E-04  0.2846E-04  0.2905E-04  0.2909E-04  0.2872E-04  0.2793E-04  0.2659E-04  0.2499E-04  0.2277E-04  0.2037E-04  0.1767E-04  0.1485E-04  0.1218E-04  0.9492E-05  0.7380E-05  0.5475E-05  0.3899E-05  0.2841E-05  0.1939E-05  0.1426E-05  0.9044E-06  0.6557E-06  0.3683E-06  0.2448E-06  0.1525E-06  0.9301E-07  0.4636E-07  0.1533E-07  0.0000E+00  0.0000E+00  0.0000E+00  0.0000E+00  0.0000E+00  0.0000E+00  0.0000E+00  0.0000E+00  0.0000E+00  0.0000E+00  0.0000E+00  0.0000E+00  0.0000E+00  0.0000E+00  0.0000E+00  0.0000E+00  0.0000E+00  0.0000E+00  0.0000E+00
  0.6479E-07  0.8004E-07  0.1103E-06  0.1443E-06  0.1837E-06  0.2432E-06  0.2961E-06  0.3662E-06  0.4389E-06  0.5221E-06  0.6347E-06  0.7431E-06  0.8783E-06  0.1011E-05  0.1184E-05  0.1378E-05  0.1842E-05  0.2504E-05  0.3412E-05  0.4615E-05  0.5960E-05  0.7299E-05  0.9185E-05  0.1133E-04  0.1396E-04  0.1662E-04  0.1964E-04  0.2233E-04  0.2516E-04  0.2769E-04  0.2988E-04  0.3189E-04  0.3347E-04  0.3469E-04  0.3542E-04  0.3568E-04  0.3546E-04  0.3472E-04  0.3338E-04  0.3139E-04  0.2908E-04  0.2610E-04  0.2306E-04  0.1958E-04  0.1634E-04  0.1304E-04  0.1020E-04  0.7639E-05  0.5594E-05  0.3949E-05  0.2916E-05  0.1962E-05  0.1388E-05  0.8775E-06  0.5863E-06  0.3437E-06  0.2241E-06  0.1389E-06  0.8107E-07  0.3940E-07  0.1055E-07  0.0000E+00  0.0000E+00  0.0000E+00  0.0000E+00  0.0000E+00  0.0000E+00  0.0000E+00  0.0000E+00  0.0000E+00  0.0000E+00  0.0000E+00  0.0000E+00  0.0000E+00  0.0000E+00  0.0000E+00  0.0000E+00  0.0000E+00  0.0000E+00
  0.6878E-07  0.9597E-07  0.1230E-06  0.1658E-06  0.2075E-06  0.2644E-06  0.3289E-06  0.3900E-06  0.4836E-06  0.5722E-06  0.6845E-06  0.8112E-06  0.9384E-06  0.1102E-05  0.1288E-05  0.1603E-05  0.2151E-05  0.2970E-05  0.4155E-05  0.5520E-05  0.7031E-05  0.8801E-05  0.1103E-04  0.1380E-04  0.1702E-04  0.2013E-04  0.2370E-04  0.2680E-04  0.3008E-04  0.3312E-04  0.3583E-04  0.3830E-04  0.4031E-04  0.4187E-04  0.4295E-04  0.4340E-04  0.4347E-04  0.4266E-04  0.4130E-04  0.3919E-04  0.3640E-04  0.3315E-04  0.2927E-04  0.2541E-04  0.2121E-04  0.1737E-04  0.1365E-04  0.1045E-04  0.7791E-05  0.5597E-05  0.4003E-05  0.2805E-05  0.1861E-05  0.1283E-05  0.8123E-06  0.4698E-06  0.3109E-06  0.1981E-06  0.1217E-06  0.6522E-07  0.2635E-07  0.7391E-08  0.0000E+00  0.0000E+00  0.0000E+00  0.0000E+00  0.0000E+00  0.0000E+00  0.0000E+00  0.0000E+00  0.0000E+00  0.0000E+00  0.0000E+00  0.0000E+00  0.0000E+00  0.0000E+00  0.0000E+00  0.0000E+00  0.0000E+00
  0.7820E-07  0.1079E-06  0.1416E-06  0.1807E-06  0.2325E-06  0.2858E-06  0.3566E-06  0.4278E-06  0.5196E-06  0.6235E-06  0.7342E-06  0.8617E-06  0.1016E-05  0.1193E-05  0.1380E-05  0.1846E-05  0.2511E-05  0.3468E-05  0.4921E-05  0.6539E-05  0.8250E-05  0.1060E-04  0.1334E-04  0.1669E-04  0.2034E-04  0.2428E-04  0.2824E-04  0.3214E-04  0.3576E-04  0.3938E-04  0.4266E-04  0.4560E-04  0.4820E-04  0.5015E-04  0.5160E-04  0.5251E-04  0.5255E-04  0.5204E-04  0.5051E-04  0.4820E-04  0.4512E-04  0.4127E-04  0.3696E-04  0.3208E-04  0.2733E-04  0.2255E-04  0.1797E-04  0.1399E-04  0.1036E-04  0.7579E-05  0.5394E-05  0.3770E-05  0.2588E-05  0.1651E-05  0.1079E-05  0.7212E-06  0.4077E-06  0.2655E-06  0.1654E-06  0.9767E-07  0.4993E-07  0.1997E-07  0.2427E-08  0.0000E+00  0.0000E+00  0.0000E+00  0.0000E+00  0.0000E+00  0.0000E+00  0.0000E+00  0.0000E+00  0.0000E+00  0.0000E+00  0.0000E+00  0.0000E+00  0.0000E+00  0.0000E+00  0.0000E+00  0.0000E+00
  0.8812E-07  0.1137E-06  0.1545E-06  0.1958E-06  0.2525E-06  0.3085E-06  0.3824E-06  0.4664E-06  0.5554E-06  0.6655E-06  0.7848E-06  0.9299E-06  0.1083E-05  0.1271E-05  0.1482E-05  0.2099E-05  0.3000E-05  0.4250E-05  0.5874E-05  0.7702E-05  0.9830E-05  0.1267E-04  0.1587E-04  0.2014E-04  0.2436E-04  0.2879E-04  0.3355E-04  0.3813E-04  0.4228E-04  0.4658E-04  0.5042E-04  0.5409E-04  0.5715E-04  0.5971E-04  0.6162E-04  0.6275E-04  0.6330E-04  0.6264E-04  0.6122E-04  0.5861E-04  0.5525E-04  0.5078E-04  0.4564E-04  0.4016E-04  0.3437E-04  0.2857E-04  0.2317E-04  0.1801E-04  0.1362E-04  0.9852E-05  0.7104E-05  0.4913E-05  0.3307E-05  0.2244E-05  0.1440E-05  0.8954E-06  0.5521E-06  0.3434E-06  0.2154E-06  0.1333E-06  0.7189E-07  0.3452E-07  0.1070E-07  0.0000E+00  0.0000E+00  0.0000E+00  0.0000E+00  0.0000E+00  0.0000E+00  0.0000E+00  0.0000E+00  0.0000E+00  0.0000E+00  0.0000E+00  0.0000E+00  0.0000E+00  0.0000E+00  0.0000E+00  0.0000E+00
  0.9737E-07  0.1301E-06  0.1739E-06  0.2121E-06  0.2707E-06  0.3376E-06  0.4078E-06  0.4963E-06  0.5917E-06  0.7092E-06  0.8329E-06  0.9858E-06  0.1159E-05  0.1337E-05  0.1559E-05  0.2321E-05  0.3455E-05  0.4935E-05  0.6857E-05  0.9107E-05  0.1148E-04  0.1489E-04  0.1887E-04  0.2376E-04  0.2887E-04  0.3407E-04  0.3947E-04  0.4481E-04  0.4985E-04  0.5469E-04  0.5949E-04  0.6361E-04  0.6740E-04  0.7048E-04  0.7305E-04  0.7454E-04  0.7517E-04  0.7476E-04  0.7302E-04  0.7034E-04  0.6626E-04  0.6144E-04  0.5548E-04  0.4911E-04  0.4229E-04  0.3555E-04  0.2894E-04  0.2284E-04  0.1726E-04  0.1266E-04  0.8998E-05  0.6244E-05  0.4288E-05  0.2787E-05  0.1762E-05  0.1168E-05  0.7468E-06  0.4233E-06  0.2762E-06  0.1708E-06  0.1002E-06  0.5373E-07  0.2104E-07  0.4908E-08  0.0000E+00  0.0000E+00  0.0000E+00  0.0000E+00  0.0000E+00  0.0000E+00  0.0000E+00  0.0000E+00  0.0000E+00  0.0000E+00  0.0000E+00  0.0000E+00  0.0000E+00  0.0000E+00  0.0000E+00
  0.1079E-06  0.1358E-06  0.1816E-06  0.2342E-06  0.2886E-06  0.3587E-06  0.4337E-06  0.5276E-06  0.6259E-06  0.7490E-06  0.8809E-06  0.1031E-05  0.1212E-05  0.1419E-05  0.1755E-05  0.2609E-05  0.4036E-05  0.5903E-05  0.8061E-05  0.1048E-04  0.1363E-04  0.1772E-04  0.2227E-04  0.2826E-04  0.3389E-04  0.4008E-04  0.4610E-04  0.5236E-04  0.5819E-04  0.6396E-04  0.6952E-04  0.7450E-04  0.7878E-04  0.8263E-04  0.8544E-04  0.8759E-04  0.8843E-04  0.8805E-04  0.8639E-04  0.8319E-04  0.7898E-04  0.7315E-04  0.6659E-04  0.5921E-04  0.5118E-04  0.4329E-04  0.3546E-04  0.2813E-04  0.2141E-04  0.1567E-04  0.1120E-04  0.7791E-05  0.5239E-05  0.3475E-05  0.2233E-05  0.1439E-05  0.8803E-06  0.5077E-06  0.3359E-06  0.2132E-06  0.1310E-06  0.7286E-07  0.3514E-07  0.1341E-07  0.0000E+00  0.0000E+00  0.0000E+00  0.0000E+00  0.0000E+00  0.0000E+00  0.0000E+00  0.0000E+00  0.0000E+00  0.0000E+00  0.0000E+00  0.0000E+00  0.0000E+00  0.0000E+00  0.0000E+00
  0.1122E-06  0.1528E-06  0.1943E-06  0.2435E-06  0.3070E-06  0.3811E-06  0.4579E-06  0.5557E-06  0.6600E-06  0.7792E-06  0.9244E-06  0.1081E-05  0.1261E-05  0.1476E-05  0.2018E-05  0.2930E-05  0.4495E-05  0.6770E-05  0.9191E-05  0.1204E-04  0.1603E-04  0.2075E-04  0.2667E-04  0.3316E-04  0.3986E-04  0.4687E-04  0.5364E-04  0.6079E-04  0.6774E-04  0.7439E-04  0.8079E-04  0.8660E-04  0.9181E-04  0.9605E-04  0.9974E-04  0.1020E-03  0.1032E-03  0.1028E-03  0.1010E-03  0.9747E-04  0.9225E-04  0.8586E-04  0.7823E-04  0.6957E-04  0.6063E-04  0.5139E-04  0.4250E-04  0.3390E-04  0.2600E-04  0.1924E-04  0.1371E-04  0.9509E-05  0.6378E-05  0.4243E-05  0.2711E-05  0.1726E-05  0.1058E-05  0.6327E-06  0.3969E-06  0.2541E-06  0.1587E-06  0.9482E-07  0.4809E-07  0.2084E-07  0.4856E-08  0.0000E+00  0.0000E+00  0.0000E+00  0.0000E+00  0.0000E+00  0.0000E+00  0.0000E+00  0.0000E+00  0.0000E+00  0.0000E+00  0.0000E+00  0.0000E+00  0.0000E+00  0.0000E+00
  0.1211E-06  0.1582E-06  0.2011E-06  0.2649E-06  0.3240E-06  0.3945E-06  0.4740E-06  0.5752E-06  0.6904E-06  0.8065E-06  0.9567E-06  0.1129E-05  0.1326E-05  0.1536E-05  0.2307E-05  0.3170E-05  0.5204E-05  0.7862E-05  0.1071E-04  0.1408E-04  0.1878E-04  0.2434E-04  0.3156E-04  0.3870E-04  0.4629E-04  0.5446E-04  0.6242E-04  0.7032E-04  0.7843E-04  0.8597E-04  0.9337E-04  0.1002E-03  0.1062E-03  0.1117E-03  0.1156E-03  0.1184E-03  0.1194E-03  0.1191E-03  0.1166E-03  0.1125E-03  0.1065E-03  0.9905E-04  0.9023E-04  0.8060E-04  0.7015E-04  0.5978E-04  0.4940E-04  0.3962E-04  0.3054E-04  0.2273E-04  0.1638E-04  0.1152E-04  0.7835E-05  0.5175E-05  0.3186E-05  0.2084E-05  0.1298E-05  0.8174E-06  0.4850E-06  0.2977E-06  0.1900E-06  0.1147E-06  0.6128E-07  0.2919E-07  0.1050E-07  0.0000E+00  0.0000E+00  0.0000E+00  0.0000E+00  0.0000E+00  0.0000E+00  0.0000E+00  0.0000E+00  0.0000E+00  0.0000E+00  0.0000E+00  0.0000E+00  0.0000E+00  0.0000E+00
  0.1247E-06  0.1682E-06  0.2137E-06  0.2730E-06  0.3339E-06  0.4129E-06  0.5031E-06  0.5926E-06  0.7111E-06  0.8386E-06  0.9933E-06  0.1162E-05  0.1364E-05  0.1580E-05  0.2542E-05  0.3870E-05  0.5882E-05  0.9102E-05  0.1235E-04  0.1615E-04  0.2176E-04  0.2828E-04  0.3668E-04  0.4497E-04  0.5368E-04  0.6288E-04  0.7210E-04  0.8113E-04  0.9040E-04  0.9940E-04  0.1078E-03  0.1157E-03  0.1223E-03  0.1282E-03  0.1326E-03  0.1353E-03  0.1363E-03  0.1351E-03  0.1323E-03  0.1271E-03  0.1202E-03  0.1115E-03  0.1016E-03  0.9061E-04  0.7907E-04  0.6730E-04  0.5593E-04  0.4506E-04  0.3499E-04  0.2617E-04  0.1890E-04  0.1338E-04  0.9315E-05  0.6363E-05  0.4139E-05  0.2705E-05  0.1591E-05  0.9778E-06  0.5980E-06  0.3888E-06  0.2302E-06  0.1338E-06  0.7537E-07  0.3881E-07  0.1440E-07  0.2369E-08  0.0000E+00  0.0000E+00  0.0000E+00  0.0000E+00  0.0000E+00  0.0000E+00  0.0000E+00  0.0000E+00  0.0000E+00  0.0000E+00  0.0000E+00  0.0000E+00  0.0000E+00
  0.1339E-06  0.1792E-06  0.2250E-06  0.2859E-06  0.3485E-06  0.4234E-06  0.5158E-06  0.6147E-06  0.7288E-06  0.8684E-06  0.1017E-05  0.1198E-05  0.1396E-05  0.1617E-05  0.2804E-05  0.4538E-05  0.6769E-05  0.1040E-04  0.1418E-04  0.1864E-04  0.2518E-04  0.3289E-04  0.4276E-04  0.5202E-04  0.6188E-04  0.7241E-04  0.8303E-04  0.9338E-04  0.1039E-03  0.1140E-03  0.1236E-03  0.1320E-03  0.1395E-03  0.1453E-03  0.1496E-03  0.1522E-03  0.1527E-03  0.1511E-03  0.1470E-03  0.1411E-03  0.1330E-03  0.1230E-03  0.1119E-03  0.9954E-04  0.8675E-04  0.7388E-04  0.6122E-04  0.4933E-04  0.3847E-04  0.2898E-04  0.2134E-04  0.1535E-04  0.1076E-04  0.7481E-05  0.5128E-05  0.3469E-05  0.2269E-05  0.1305E-05  0.7467E-06  0.4842E-06  0.3084E-06  0.1837E-06  0.9211E-07  0.4748E-07  0.2143E-07  0.5008E-08  0.0000E+00  0.0000E+00  0.0000E+00  0.0000E+00  0.0000E+00  0.0000E+00  0.0000E+00  0.0000E+00  0.0000E+00  0.0000E+00  0.0000E+00  0.0000E+00  0.0000E+00
  0.1420E-06  0.1831E-06  0.2299E-06  0.2920E-06  0.3559E-06  0.4323E-06  0.5265E-06  0.6272E-06  0.7508E-06  0.8927E-06  0.1037E-05  0.1220E-05  0.1409E-05  0.1651E-05  0.3095E-05  0.5028E-05  0.7521E-05  0.1184E-04  0.1609E-04  0.2153E-04  0.2904E-04  0.3804E-04  0.4917E-04  0.6007E-04  0.7142E-04  0.8299E-04  0.9502E-04  0.1069E-03  0.1187E-03  0.1298E-03  0.1400E-03  0.1493E-03  0.1568E-03  0.1631E-03  0.1670E-03  0.1692E-03  0.1689E-03  0.1662E-03  0.1612E-03  0.1539E-03  0.1442E-03  0.1331E-03  0.1203E-03  0.1068E-03  0.9260E-04  0.7850E-04  0.6514E-04  0.5243E-04  0.4095E-04  0.3105E-04  0.2289E-04  0.1666E-04  0.1220E-04  0.8855E-05  0.6116E-05  0.4291E-05  0.2999E-05  0.1920E-05  0.1257E-05  0.6139E-06  0.4010E-06  0.2458E-06  0.1296E-06  0.5669E-07  0.2621E-07  0.1038E-07  0.0000E+00  0.0000E+00  0.0000E+00  0.0000E+00  0.0000E+00  0.0000E+00  0.0000E+00  0.0000E+00  0.0000E+00  0.0000E+00  0.0000E+00  0.0000E+00  0.0000E+00
  0.1445E-06  0.1916E-06  0.2393E-06  0.2969E-06  0.3692E-06  0.4458E-06  0.5347E-06  0.6368E-06  0.7620E-06  0.9055E-06  0.1051E-05  0.1236E-05  0.1432E-05  0.1694E-05  0.3374E-05  0.5765E-05  0.8901E-05  0.1358E-04  0.1860E-04  0.2526E-04  0.3391E-04  0.4439E-04  0.5671E-04  0.6898E-04  0.8170E-04  0.9462E-04  0.1082E-03  0.1216E-03  0.1344E-03  0.1466E-03  0.1578E-03  0.1673E-03  0.1752E-03  0.1808E-03  0.1846E-03  0.1856E-03  0.1844E-03  0.1803E-03  0.1738E-03  0.1647E-03  0.1538E-03  0.1409E-03  0.1268E-03  0.1117E-03  0.9656E-04  0.8156E-04  0.6721E-04  0.5393E-04  0.4215E-04  0.3211E-04  0.2403E-04  0.1788E-04  0.1310E-04  0.9621E-05  0.7333E-05  0.5183E-05  0.3735E-05  0.2691E-05  0.1653E-05  0.1235E-05  0.5108E-06  0.3287E-06  0.1896E-06  0.1041E-06  0.4030E-07  0.1369E-07  0.0000E+00  0.0000E+00  0.0000E+00  0.0000E+00  0.0000E+00  0.0000E+00  0.0000E+00  0.0000E+00  0.0000E+00  0.0000E+00  0.0000E+00  0.0000E+00  0.0000E+00
  0.1463E-06  0.1940E-06  0.2423E-06  0.3005E-06  0.3735E-06  0.4509E-06  0.5474E-06  0.6435E-06  0.7695E-06  0.9048E-06  0.1060E-05  0.1255E-05  0.1462E-05  0.1726E-05  0.3664E-05  0.6374E-05  0.1026E-04  0.1548E-04  0.2116E-04  0.2911E-04  0.3927E-04  0.5172E-04  0.6513E-04  0.7877E-04  0.9323E-04  0.1078E-03  0.1228E-03  0.1375E-03  0.1517E-03  0.1647E-03  0.1763E-03  0.1860E-03  0.1936E-03  0.1988E-03  0.2012E-03  0.2013E-03  0.1982E-03  0.1927E-03  0.1846E-03  0.1739E-03  0.1612E-03  0.1467E-03  0.1311E-03  0.1150E-03  0.9868E-04  0.8283E-04  0.6799E-04  0.5446E-04  0.4253E-04  0.3242E-04  0.2434E-04  0.1829E-04  0.1384E-04  0.1058E-04  0.7840E-05  0.6176E-05  0.4845E-05  0.3414E-05  0.2442E-05  0.1782E-05  0.1164E-05  0.4325E-06  0.2779E-06  0.1534E-06  0.7646E-07  0.2400E-07  0.2405E-08  0.0000E+00  0.0000E+00  0.0000E+00  0.0000E+00  0.0000E+00  0.0000E+00  0.0000E+00  0.0000E+00  0.0000E+00  0.0000E+00  0.0000E+00  0.0000E+00
  0.1527E-06  0.1956E-06  0.2443E-06  0.3027E-06  0.3689E-06  0.4540E-06  0.5507E-06  0.6541E-06  0.7734E-06  0.9088E-06  0.1071E-05  0.1261E-05  0.1482E-05  0.1738E-05  0.3861E-05  0.7212E-05  0.1179E-04  0.1759E-04  0.2413E-04  0.3379E-04  0.4545E-04  0.5946E-04  0.7474E-04  0.8986E-04  0.1059E-03  0.1224E-03  0.1390E-03  0.1552E-03  0.1702E-03  0.1841E-03  0.1956E-03  0.2052E-03  0.2119E-03  0.2159E-03  0.2170E-03  0.2151E-03  0.2103E-03  0.2029E-03  0.1926E-03  0.1802E-03  0.1657E-03  0.1497E-03  0.1329E-03  0.1156E-03  0.9863E-04  0.8248E-04  0.6753E-04  0.5407E-04  0.4238E-04  0.3252E-04  0.2465E-04  0.1881E-04  0.1437E-04  0.1111E-04  0.8806E-05  0.7027E-05  0.5435E-05  0.4346E-05  0.3422E-05  0.2284E-05  0.1794E-05  0.1062E-05  0.3671E-06  0.2309E-06  0.1237E-06  0.5845E-07  0.1428E-07  0.0000E+00  0.0000E+00  0.0000E+00  0.0000E+00  0.0000E+00  0.0000E+00  0.0000E+00  0.0000E+00  0.0000E+00  0.0000E+00  0.0000E+00  0.0000E+00
  0.1534E-06  0.1964E-06  0.2453E-06  0.3037E-06  0.3699E-06  0.4549E-06  0.5436E-06  0.6547E-06  0.7734E-06  0.9141E-06  0.1079E-05  0.1271E-05  0.1491E-05  0.1744E-05  0.4138E-05  0.8035E-05  0.1324E-04  0.1987E-04  0.2801E-04  0.3887E-04  0.5231E-04  0.6858E-04  0.8510E-04  0.1022E-03  0.1201E-03  0.1387E-03  0.1569E-03  0.1742E-03  0.1903E-03  0.2038E-03  0.2154E-03  0.2236E-03  0.2293E-03  0.2314E-03  0.2304E-03  0.2264E-03  0.2196E-03  0.2097E-03  0.1977E-03  0.1831E-03  0.1671E-03  0.1497E-03  0.1317E-03  0.1138E-03  0.9656E-04  0.8044E-04  0.6574E-04  0.5272E-04  0.4153E-04  0.3232E-04  0.2495E-04  0.1944E-04  0.1521E-04  0.1195E-04  0.9590E-05  0.7656E-05  0.6313E-05  0.5018E-05  0.4129E-05  0.3344E-05  0.2129E-05  0.1660E-05  0.9909E-06  0.4696E-06  0.1892E-06  0.1043E-06  0.4549E-07  0.9400E-08  0.0000E+00  0.0000E+00  0.0000E+00  0.0000E+00  0.0000E+00  0.0000E+00  0.0000E+00  0.0000E+00  0.0000E+00  0.0000E+00  0.0000E+00
  0.1534E-06  0.1963E-06  0.2451E-06  0.3093E-06  0.3693E-06  0.4538E-06  0.5420E-06  0.6522E-06  0.7636E-06  0.9144E-06  0.1071E-05  0.1271E-05  0.1477E-05  0.2287E-05  0.4407E-05  0.8784E-05  0.1514E-04  0.2288E-04  0.3232E-04  0.4478E-04  0.6029E-04  0.7850E-04  0.9734E-04  0.1165E-03  0.1364E-03  0.1569E-03  0.1767E-03  0.1950E-03  0.2110E-03  0.2243E-03  0.2342E-03  0.2412E-03  0.2442E-03  0.2441E-03  0.2405E-03  0.2341E-03  0.2246E-03  0.2127E-03  0.1982E-03  0.1821E-03  0.1643E-03  0.1458E-03  0.1272E-03  0.1091E-03  0.9201E-04  0.7642E-04  0.6251E-04  0.5037E-04  0.4018E-04  0.3185E-04  0.2523E-04  0.2015E-04  0.1618E-04  0.1307E-04  0.1072E-04  0.8756E-05  0.7186E-05  0.5895E-05  0.4869E-05  0.3911E-05  0.3172E-05  0.2017E-05  0.1491E-05  0.8792E-06  0.4218E-06  0.1678E-06  0.8204E-07  0.3026E-07  0.9306E-08  0.0000E+00  0.0000E+00  0.0000E+00  0.0000E+00  0.0000E+00  0.0000E+00  0.0000E+00  0.0000E+00  0.0000E+00  0.0000E+00
  0.1528E-06  0.1888E-06  0.2439E-06  0.2944E-06  0.3671E-06  0.4428E-06  0.5380E-06  0.6329E-06  0.7626E-06  0.9023E-06  0.1066E-05  0.1249E-05  0.1472E-05  0.2612E-05  0.4925E-05  0.1001E-04  0.1737E-04  0.2609E-04  0.3714E-04  0.5189E-04  0.6963E-04  0.9014E-04  0.1108E-03  0.1330E-03  0.1548E-03  0.1775E-03  0.1981E-03  0.2168E-03  0.2320E-03  0.2439E-03  0.2518E-03  0.2558E-03  0.2563E-03  0.2530E-03  0.2468E-03  0.2378E-03  0.2259E-03  0.2117E-03  0.1952E-03  0.1771E-03  0.1581E-03  0.1389E-03  0.1201E-03  0.1024E-03  0.8609E-04  0.7145E-04  0.5871E-04  0.4766E-04  0.3854E-04  0.3110E-04  0.2522E-04  0.2068E-04  0.1718E-04  0.1436E-04  0.1199E-04  0.9937E-05  0.8364E-05  0.7018E-05  0.5734E-05  0.4659E-05  0.3690E-05  0.2961E-05  0.1935E-05  0.1349E-05  0.7374E-06  0.3511E-06  0.1309E-06  0.6411E-07  0.2979E-07  0.0000E+00  0.0000E+00  0.0000E+00  0.0000E+00  0.0000E+00  0.0000E+00  0.0000E+00  0.0000E+00  0.0000E+00  0.0000E+00
  0.1515E-06  0.1872E-06  0.2416E-06  0.2915E-06  0.3632E-06  0.4379E-06  0.5315E-06  0.6266E-06  0.7554E-06  0.8908E-06  0.1051E-05  0.1240E-05  0.1469E-05  0.2873E-05  0.5433E-05  0.1100E-04  0.1960E-04  0.2984E-04  0.4324E-04  0.6010E-04  0.8049E-04  0.1036E-03  0.1271E-03  0.1516E-03  0.1763E-03  0.1997E-03  0.2212E-03  0.2386E-03  0.2524E-03  0.2613E-03  0.2663E-03  0.2671E-03  0.2642E-03  0.2579E-03  0.2489E-03  0.2371E-03  0.2230E-03  0.2063E-03  0.1880E-03  0.1686E-03  0.1488E-03  0.1296E-03  0.1112E-03  0.9459E-04  0.7956E-04  0.6636E-04  0.5496E-04  0.4511E-04  0.3710E-04  0.3061E-04  0.2532E-04  0.2127E-04  0.1809E-04  0.1546E-04  0.1334E-04  0.1132E-04  0.9635E-05  0.8251E-05  0.6831E-05  0.5648E-05  0.4417E-05  0.3535E-05  0.2733E-05  0.1813E-05  0.1202E-05  0.6049E-06  0.2770E-06  0.1102E-06  0.5274E-07  0.1961E-07  0.0000E+00  0.0000E+00  0.0000E+00  0.0000E+00  0.0000E+00  0.0000E+00  0.0000E+00  0.0000E+00  0.0000E+00
  0.1438E-06  0.1848E-06  0.2384E-06  0.2874E-06  0.3578E-06  0.4311E-06  0.5161E-06  0.6157E-06  0.7301E-06  0.8711E-06  0.1030E-05  0.1211E-05  0.1445E-05  0.3175E-05  0.6675E-05  0.1252E-04  0.2286E-04  0.3480E-04  0.5090E-04  0.7012E-04  0.9343E-04  0.1194E-03  0.1459E-03  0.1732E-03  0.2000E-03  0.2243E-03  0.2442E-03  0.2600E-03  0.2701E-03  0.2757E-03  0.2765E-03  0.2736E-03  0.2672E-03  0.2583E-03  0.2463E-03  0.2322E-03  0.2154E-03  0.1968E-03  0.1770E-03  0.1570E-03  0.1374E-03  0.1189E-03  0.1019E-03  0.8651E-04  0.7387E-04  0.6302E-04  0.5308E-04  0.4422E-04  0.3666E-04  0.3061E-04  0.2576E-04  0.2210E-04  0.1911E-04  0.1662E-04  0.1446E-04  0.1267E-04  0.1114E-04  0.9521E-05  0.8091E-05  0.6531E-05  0.5540E-05  0.4134E-05  0.3330E-05  0.2492E-05  0.1622E-05  0.1002E-05  0.4914E-06  0.2213E-06  0.9774E-07  0.4146E-07  0.1909E-07  0.0000E+00  0.0000E+00  0.0000E+00  0.0000E+00  0.0000E+00  0.0000E+00  0.0000E+00  0.0000E+00
  0.1414E-06  0.1816E-06  0.2280E-06  0.2821E-06  0.3442E-06  0.4161E-06  0.4981E-06  0.5871E-06  0.7142E-06  0.8508E-06  0.9980E-06  0.1195E-05  0.1403E-05  0.3570E-05  0.7570E-05  0.1421E-04  0.2667E-04  0.4145E-04  0.6013E-04  0.8266E-04  0.1090E-03  0.1386E-03  0.1676E-03  0.1982E-03  0.2259E-03  0.2493E-03  0.2671E-03  0.2784E-03  0.2843E-03  0.2847E-03  0.2814E-03  0.2746E-03  0.2655E-03  0.2538E-03  0.2395E-03  0.2225E-03  0.2037E-03  0.1834E-03  0.1631E-03  0.1438E-03  0.1255E-03  0.1087E-03  0.9331E-04  0.8168E-04  0.7268E-04  0.6454E-04  0.5565E-04  0.4639E-04  0.3804E-04  0.3160E-04  0.2688E-04  0.2328E-04  0.2035E-04  0.1782E-04  0.1575E-04  0.1394E-04  0.1230E-04  0.1081E-04  0.9381E-05  0.7788E-05  0.6486E-05  0.5220E-05  0.3851E-05  0.3021E-05  0.2201E-05  0.1393E-05  0.8068E-06  0.4079E-06  0.1507E-06  0.7506E-07  0.3043E-07  0.9340E-08  0.0000E+00  0.0000E+00  0.0000E+00  0.0000E+00  0.0000E+00  0.0000E+00  0.0000E+00
  0.1385E-06  0.1717E-06  0.2230E-06  0.2692E-06  0.3363E-06  0.3990E-06  0.4804E-06  0.5802E-06  0.6960E-06  0.8271E-06  0.9812E-06  0.1159E-05  0.1383E-05  0.4061E-05  0.9048E-05  0.1745E-04  0.3111E-04  0.4905E-04  0.7157E-04  0.9786E-04  0.1283E-03  0.1607E-03  0.1943E-03  0.2256E-03  0.2533E-03  0.2735E-03  0.2864E-03  0.2920E-03  0.2919E-03  0.2875E-03  0.2803E-03  0.2707E-03  0.2592E-03  0.2449E-03  0.2280E-03  0.2086E-03  0.1877E-03  0.1668E-03  0.1477E-03  0.1308E-03  0.1156E-03  0.1014E-03  0.9035E-04  0.8429E-04  0.8114E-04  0.7643E-04  0.6657E-04  0.5398E-04  0.4235E-04  0.3398E-04  0.2843E-04  0.2464E-04  0.2173E-04  0.1933E-04  0.1723E-04  0.1528E-04  0.1351E-04  0.1191E-04  0.1045E-04  0.9134E-05  0.7429E-05  0.6285E-05  0.4891E-05  0.3520E-05  0.2698E-05  0.1935E-05  0.1149E-05  0.6688E-06  0.3178E-06  0.1113E-06  0.6239E-07  0.1977E-07  0.0000E+00  0.0000E+00  0.0000E+00  0.0000E+00  0.0000E+00  0.0000E+00  0.0000E+00
  0.1291E-06  0.1674E-06  0.2108E-06  0.2621E-06  0.3202E-06  0.3904E-06  0.4749E-06  0.5695E-06  0.6831E-06  0.8042E-06  0.9604E-06  0.1125E-05  0.1345E-05  0.4428E-05  0.1056E-04  0.2092E-04  0.3726E-04  0.5894E-04  0.8551E-04  0.1170E-03  0.1519E-03  0.1886E-03  0.2247E-03  0.2560E-03  0.2801E-03  0.2943E-03  0.2993E-03  0.2979E-03  0.2918E-03  0.2837E-03  0.2737E-03  0.2623E-03  0.2482E-03  0.2316E-03  0.2117E-03  0.1902E-03  0.1684E-03  0.1486E-03  0.1323E-03  0.1205E-03  0.1106E-03  0.1017E-03  0.9786E-04  0.1017E-03  0.1078E-03  0.1048E-03  0.9037E-04  0.6984E-04  0.5147E-04  0.3862E-04  0.3110E-04  0.2631E-04  0.2350E-04  0.2104E-04  0.1877E-04  0.1671E-04  0.1481E-04  0.1305E-04  0.1147E-04  0.1004E-04  0.8737E-05  0.7033E-05  0.5825E-05  0.4541E-05  0.3200E-05  0.2349E-05  0.1574E-05  0.9217E-06  0.5003E-06  0.2346E-06  0.8692E-07  0.4112E-07  0.9594E-08  0.0000E+00  0.0000E+00  0.0000E+00  0.0000E+00  0.0000E+00  0.0000E+00
  0.1205E-06  0.1626E-06  0.2047E-06  0.2542E-06  0.3129E-06  0.3794E-06  0.4666E-06  0.5515E-06  0.6618E-06  0.7785E-06  0.9268E-06  0.1089E-05  0.1311E-05  0.5280E-05  0.1267E-04  0.2601E-04  0.4626E-04  0.7218E-04  0.1040E-03  0.1409E-03  0.1812E-03  0.2218E-03  0.2588E-03  0.2864E-03  0.3025E-03  0.3066E-03  0.3028E-03  0.2944E-03  0.2845E-03  0.2744E-03  0.2632E-03  0.2498E-03  0.2332E-03  0.2131E-03  0.1910E-03  0.1685E-03  0.1470E-03  0.1302E-03  0.1197E-03  0.1157E-03  0.1132E-03  0.1143E-03  0.1229E-03  0.1408E-03  0.1556E-03  0.1505E-03  0.1250E-03  0.9230E-04  0.6443E-04  0.4570E-04  0.3499E-04  0.2907E-04  0.2547E-04  0.2282E-04  0.2042E-04  0.1818E-04  0.1612E-04  0.1425E-04  0.1253E-04  0.1097E-04  0.9571E-05  0.8235E-05  0.6549E-05  0.5341E-05  0.4048E-05  0.2891E-05  0.1983E-05  0.1287E-05  0.7077E-06  0.3571E-06  0.1580E-06  0.6356E-07  0.2978E-07  0.0000E+00  0.0000E+00  0.0000E+00  0.0000E+00  0.0000E+00  0.0000E+00
  0.1166E-06  0.1461E-06  0.1925E-06  0.2419E-06  0.2955E-06  0.3658E-06  0.4447E-06  0.5264E-06  0.6379E-06  0.7535E-06  0.8887E-06  0.1052E-05  0.1242E-05  0.5852E-05  0.1555E-04  0.3304E-04  0.5823E-04  0.9022E-04  0.1286E-03  0.1727E-03  0.2186E-03  0.2612E-03  0.2944E-03  0.3118E-03  0.3149E-03  0.3069E-03  0.2949E-03  0.2829E-03  0.2725E-03  0.2623E-03  0.2497E-03  0.2333E-03  0.2130E-03  0.1900E-03  0.1666E-03  0.1446E-03  0.1259E-03  0.1137E-03  0.1111E-03  0.1161E-03  0.1268E-03  0.1429E-03  0.1687E-03  0.1977E-03  0.2121E-03  0.1973E-03  0.1605E-03  0.1173E-03  0.8110E-04  0.5576E-04  0.4057E-04  0.3226E-04  0.2780E-04  0.2468E-04  0.2207E-04  0.1968E-04  0.1748E-04  0.1546E-04  0.1362E-04  0.1194E-04  0.1041E-04  0.8999E-05  0.7620E-05  0.6071E-05  0.4822E-05  0.3582E-05  0.2462E-05  0.1628E-05  0.1021E-05  0.5602E-06  0.2670E-06  0.1019E-06  0.4149E-07  0.9701E-08  0.0000E+00  0.0000E+00  0.0000E+00  0.0000E+00  0.0000E+00
  0.1016E-06  0.1408E-06  0.1764E-06  0.2266E-06  0.2852E-06  0.3539E-06  0.4301E-06  0.5162E-06  0.6094E-06  0.7236E-06  0.8488E-06  0.1014E-05  0.1787E-05  0.7728E-05  0.2057E-04  0.4361E-04  0.7537E-04  0.1154E-03  0.1636E-03  0.2148E-03  0.2649E-03  0.3028E-03  0.3231E-03  0.3236E-03  0.3104E-03  0.2929E-03  0.2780E-03  0.2673E-03  0.2591E-03  0.2483E-03  0.2326E-03  0.2118E-03  0.1876E-03  0.1630E-03  0.1403E-03  0.1209E-03  0.1066E-03  0.1010E-03  0.1073E-03  0.1241E-03  0.1510E-03  0.1874E-03  0.2258E-03  0.2494E-03  0.2499E-03  0.2281E-03  0.1892E-03  0.1432E-03  0.9989E-04  0.6722E-04  0.4682E-04  0.3594E-04  0.3005E-04  0.2651E-04  0.2373E-04  0.2119E-04  0.1883E-04  0.1669E-04  0.1471E-04  0.1291E-04  0.1127E-04  0.9775E-05  0.8392E-05  0.6969E-05  0.5526E-05  0.4276E-05  0.3024E-05  0.2029E-05  0.1289E-05  0.7468E-06  0.4062E-06  0.1910E-06  0.6366E-07  0.2020E-07  0.0000E+00  0.0000E+00  0.0000E+00  0.0000E+00  0.0000E+00
  0.9749E-07  0.1318E-06  0.1749E-06  0.2242E-06  0.2812E-06  0.3461E-06  0.4136E-06  0.4970E-06  0.5872E-06  0.7055E-06  0.8253E-06  0.9861E-06  0.2261E-05  0.9938E-05  0.2775E-04  0.5898E-04  0.1023E-03  0.1548E-03  0.2125E-03  0.2672E-03  0.3116E-03  0.3345E-03  0.3319E-03  0.3123E-03  0.2879E-03  0.2691E-03  0.2590E-03  0.2531E-03  0.2457E-03  0.2312E-03  0.2098E-03  0.1840E-03  0.1578E-03  0.1342E-03  0.1147E-03  0.9960E-04  0.9097E-04  0.9353E-04  0.1099E-03  0.1416E-03  0.1883E-03  0.2374E-03  0.2657E-03  0.2704E-03  0.2614E-03  0.2430E-03  0.2103E-03  0.1636E-03  0.1146E-03  0.7596E-04  0.5197E-04  0.3898E-04  0.3241E-04  0.2832E-04  0.2540E-04  0.2270E-04  0.2021E-04  0.1791E-04  0.1581E-04  0.1388E-04  0.1212E-04  0.1051E-04  0.9033E-05  0.7681E-05  0.6319E-05  0.4863E-05  0.3619E-05  0.2520E-05  0.1608E-05  0.1022E-05  0.5639E-06  0.2474E-06  0.1061E-06  0.3141E-07  0.9655E-08  0.0000E+00  0.0000E+00  0.0000E+00  0.0000E+00
  0.9320E-07  0.1292E-06  0.1656E-06  0.2156E-06  0.2647E-06  0.3341E-06  0.3994E-06  0.4858E-06  0.5708E-06  0.6732E-06  0.7872E-06  0.9284E-06  0.4804E-05  0.1533E-04  0.4105E-04  0.8547E-04  0.1466E-03  0.2165E-03  0.2826E-03  0.3304E-03  0.3513E-03  0.3397E-03  0.3105E-03  0.2785E-03  0.2559E-03  0.2461E-03  0.2443E-03  0.2408E-03  0.2290E-03  0.2074E-03  0.1794E-03  0.1511E-03  0.1264E-03  0.1069E-03  0.9226E-04  0.8257E-04  0.8084E-04  0.9324E-04  0.1239E-03  0.1757E-03  0.2311E-03  0.2630E-03  0.2698E-03  0.2656E-03  0.2574E-03  0.2419E-03  0.2103E-03  0.1639E-03  0.1147E-03  0.7681E-04  0.5352E-04  0.4100E-04  0.3422E-04  0.3014E-04  0.2703E-04  0.2417E-04  0.2153E-04  0.1911E-04  0.1687E-04  0.1483E-04  0.1297E-04  0.1128E-04  0.9716E-05  0.8313E-05  0.6915E-05  0.5555E-05  0.4168E-05  0.2971E-05  0.2024E-05  0.1232E-05  0.7302E-06  0.3658E-06  0.1800E-06  0.5290E-07  0.1994E-07  0.0000E+00  0.0000E+00  0.0000E+00  0.0000E+00
  0.8890E-07  0.1188E-06  0.1592E-06  0.2065E-06  0.2543E-06  0.3156E-06  0.3851E-06  0.4485E-06  0.5445E-06  0.6418E-06  0.7678E-06  0.1417E-05  0.6734E-05  0.2233E-04  0.5894E-04  0.1226E-03  0.2104E-03  0.3047E-03  0.3766E-03  0.3996E-03  0.3796E-03  0.3318E-03  0.2817E-03  0.2457E-03  0.2323E-03  0.2319E-03  0.2336E-03  0.2247E-03  0.2032E-03  0.1737E-03  0.1431E-03  0.1169E-03  0.9764E-04  0.8430E-04  0.7563E-04  0.7112E-04  0.7713E-04  0.1031E-03  0.1558E-03  0.2146E-03  0.2465E-03  0.2543E-03  0.2511E-03  0.2426E-03  0.2284E-03  0.2059E-03  0.1739E-03  0.1341E-03  0.9760E-04  0.6939E-04  0.5162E-04  0.4152E-04  0.3564E-04  0.3173E-04  0.2856E-04  0.2557E-04  0.2281E-04  0.2025E-04  0.1791E-04  0.1577E-04  0.1380E-04  0.1201E-04  0.1036E-04  0.8862E-05  0.7485E-05  0.6098E-05  0.4797E-05  0.3457E-05  0.2426E-05  0.1575E-05  0.9263E-06  0.5285E-06  0.2585E-06  0.1046E-06  0.3073E-07  0.9459E-08  0.0000E+00  0.0000E+00  0.0000E+00
  0.7784E-07  0.1124E-06  0.1520E-06  0.1978E-06  0.2439E-06  0.2973E-06  0.3713E-06  0.4403E-06  0.5333E-06  0.6266E-06  0.7328E-06  0.1696E-05  0.7819E-05  0.2850E-04  0.7538E-04  0.1589E-03  0.2755E-03  0.3959E-03  0.4735E-03  0.4786E-03  0.4288E-03  0.3613E-03  0.3065E-03  0.2738E-03  0.2575E-03  0.2452E-03  0.2271E-03  0.1977E-03  0.1653E-03  0.1332E-03  0.1064E-03  0.8726E-04  0.7514E-04  0.6786E-04  0.6421E-04  0.6466E-04  0.8114E-04  0.1309E-03  0.1902E-03  0.2195E-03  0.2257E-03  0.2194E-03  0.2049E-03  0.1850E-03  0.1628E-03  0.1402E-03  0.1181E-03  0.9552E-04  0.7504E-04  0.5926E-04  0.4861E-04  0.4149E-04  0.3677E-04  0.3324E-04  0.2996E-04  0.2689E-04  0.2401E-04  0.2135E-04  0.1891E-04  0.1665E-04  0.1459E-04  0.1271E-04  0.1097E-04  0.9395E-05  0.7997E-05  0.6601E-05  0.5265E-05  0.3947E-05  0.2791E-05  0.1924E-05  0.1193E-05  0.6859E-06  0.3462E-06  0.1507E-06  0.4153E-07  0.1936E-07  0.0000E+00  0.0000E+00  0.0000E+00
  0.7789E-07  0.1064E-06  0.1449E-06  0.1839E-06  0.2408E-06  0.2931E-06  0.3639E-06  0.4260E-06  0.4966E-06  0.6002E-06  0.7032E-06  0.1827E-05  0.8066E-05  0.2935E-04  0.7950E-04  0.1715E-03  0.2990E-03  0.4308E-03  0.5149E-03  0.5275E-03  0.4936E-03  0.4552E-03  0.4288E-03  0.4110E-03  0.3868E-03  0.3430E-03  0.2792E-03  0.2087E-03  0.1457E-03  0.1007E-03  0.7587E-04  0.6467E-04  0.5907E-04  0.5671E-04  0.5688E-04  0.6317E-04  0.9977E-04  0.1541E-03  0.1779E-03  0.1784E-03  0.1661E-03  0.1478E-03  0.1281E-03  0.1127E-03  0.9958E-04  0.8854E-04  0.7852E-04  0.6911E-04  0.6020E-04  0.5275E-04  0.4662E-04  0.4184E-04  0.3806E-04  0.3455E-04  0.3124E-04  0.2810E-04  0.2514E-04  0.2237E-04  0.1983E-04  0.1749E-04  0.1533E-04  0.1337E-04  0.1155E-04  0.9924E-05  0.8467E-05  0.7027E-05  0.5678E-05  0.4374E-05  0.3200E-05  0.2263E-05  0.1430E-05  0.8375E-06  0.4414E-06  0.2010E-06  0.6790E-07  0.2015E-07  0.0000E+00  0.0000E+00  0.0000E+00
  0.7319E-07  0.1011E-06  0.1443E-06  0.1827E-06  0.2211E-06  0.2763E-06  0.3346E-06  0.4130E-06  0.4889E-06  0.5746E-06  0.6835E-06  0.1686E-05  0.6622E-05  0.2379E-04  0.6659E-04  0.1424E-03  0.2483E-03  0.3584E-03  0.4347E-03  0.4658E-03  0.4774E-03  0.4947E-03  0.5181E-03  0.5325E-03  0.5227E-03  0.4838E-03  0.4223E-03  0.3468E-03  0.2653E-03  0.1829E-03  0.1088E-03  0.6099E-04  0.4912E-04  0.5026E-04  0.5348E-04  0.6862E-04  0.1036E-03  0.1153E-03  0.1103E-03  0.1005E-03  0.9130E-04  0.8418E-04  0.7859E-04  0.7416E-04  0.7046E-04  0.6679E-04  0.6313E-04  0.5896E-04  0.5414E-04  0.5038E-04  0.4658E-04  0.4282E-04  0.3916E-04  0.3568E-04  0.3232E-04  0.2915E-04  0.2614E-04  0.2331E-04  0.2068E-04  0.1825E-04  0.1602E-04  0.1398E-04  0.1209E-04  0.1041E-04  0.8874E-05  0.7433E-05  0.6092E-05  0.4746E-05  0.3577E-05  0.2572E-05  0.1737E-05  0.1058E-05  0.5565E-06  0.2828E-06  0.1109E-06  0.3066E-07  0.9465E-08  0.0000E+00  0.0000E+00
  0.6951E-07  0.9706E-07  0.1288E-06  0.1712E-06  0.2127E-06  0.2742E-06  0.3305E-06  0.3951E-06  0.4758E-06  0.5532E-06  0.6643E-06  0.1195E-05  0.4059E-05  0.1494E-04  0.4090E-04  0.8627E-04  0.1488E-03  0.2145E-03  0.2646E-03  0.3015E-03  0.3415E-03  0.3905E-03  0.4345E-03  0.4557E-03  0.4456E-03  0.4133E-03  0.3744E-03  0.3357E-03  0.2999E-03  0.2611E-03  0.2152E-03  0.1580E-03  0.9443E-04  0.5143E-04  0.5634E-04  0.5630E-04  0.5967E-04  0.6245E-04  0.6445E-04  0.6574E-04  0.6658E-04  0.6666E-04  0.6638E-04  0.6596E-04  0.6493E-04  0.6319E-04  0.6078E-04  0.5780E-04  0.5443E-04  0.5085E-04  0.4725E-04  0.4363E-04  0.4007E-04  0.3658E-04  0.3328E-04  0.3007E-04  0.2703E-04  0.2412E-04  0.2143E-04  0.1895E-04  0.1664E-04  0.1454E-04  0.1259E-04  0.1085E-04  0.9268E-05  0.7802E-05  0.6405E-05  0.5081E-05  0.3931E-05  0.2892E-05  0.1984E-05  0.1254E-05  0.7260E-06  0.3703E-06  0.1415E-06  0.5519E-07  0.9791E-08  0.0000E+00  0.0000E+00
  0.6106E-07  0.9334E-07  0.1245E-06  0.1699E-06  0.2126E-06  0.2596E-06  0.3167E-06  0.3801E-06  0.4661E-06  0.5424E-06  0.6449E-06  0.7772E-06  0.2414E-05  0.7277E-05  0.1828E-04  0.3838E-04  0.6341E-04  0.9019E-04  0.1174E-03  0.1487E-03  0.1934E-03  0.2470E-03  0.2875E-03  0.2939E-03  0.2687E-03  0.2302E-03  0.1930E-03  0.1602E-03  0.1307E-03  0.1025E-03  0.7794E-04  0.6022E-04  0.5987E-04  0.5491E-04  0.4864E-04  0.5190E-04  0.5574E-04  0.5921E-04  0.6224E-04  0.6462E-04  0.6629E-04  0.6719E-04  0.6731E-04  0.6670E-04  0.6541E-04  0.6347E-04  0.6097E-04  0.5800E-04  0.5470E-04  0.5126E-04  0.4774E-04  0.4423E-04  0.4072E-04  0.3731E-04  0.3398E-04  0.3081E-04  0.2774E-04  0.2484E-04  0.2209E-04  0.1953E-04  0.1720E-04  0.1502E-04  0.1303E-04  0.1124E-04  0.9621E-05  0.8114E-05  0.6705E-05  0.5375E-05  0.4178E-05  0.3124E-05  0.2266E-05  0.1491E-05  0.8857E-06  0.4566E-06  0.1877E-06  0.7176E-07  0.1971E-07  0.0000E+00  0.0000E+00
  0.6438E-07  0.9414E-07  0.1205E-06  0.1509E-06  0.2025E-06  0.2510E-06  0.3173E-06  0.3751E-06  0.4530E-06  0.5355E-06  0.6232E-06  0.7574E-06  0.1197E-05  0.2469E-05  0.6150E-05  0.1197E-04  0.1914E-04  0.2901E-04  0.4363E-04  0.6923E-04  0.1083E-03  0.1510E-03  0.1776E-03  0.1753E-03  0.1503E-03  0.1203E-03  0.9222E-04  0.7488E-04  0.6512E-04  0.7019E-04  0.1009E-03  0.1366E-03  0.9004E-04  0.5160E-04  0.4885E-04  0.5192E-04  0.5613E-04  0.5989E-04  0.6307E-04  0.6553E-04  0.6717E-04  0.6798E-04  0.6797E-04  0.6720E-04  0.6575E-04  0.6368E-04  0.6110E-04  0.5813E-04  0.5488E-04  0.5149E-04  0.4805E-04  0.4460E-04  0.4118E-04  0.3781E-04  0.3454E-04  0.3135E-04  0.2830E-04  0.2538E-04  0.2263E-04  0.2004E-04  0.1765E-04  0.1542E-04  0.1340E-04  0.1157E-04  0.9894E-05  0.8398E-05  0.6955E-05  0.5610E-05  0.4463E-05  0.3382E-05  0.2478E-05  0.1679E-05  0.1086E-05  0.5862E-06  0.2422E-06  0.9936E-07  0.2025E-07  0.0000E+00  0.0000E+00
  0.6066E-07  0.8256E-07  0.1187E-06  0.1528E-06  0.2047E-06  0.2467E-06  0.3068E-06  0.3713E-06  0.4379E-06  0.5259E-06  0.6253E-06  0.7644E-06  0.9119E-06  0.1122E-05  0.1682E-05  0.2628E-05  0.4628E-05  0.8135E-05  0.1595E-04  0.3386E-04  0.5944E-04  0.8406E-04  0.9578E-04  0.8913E-04  0.7318E-04  0.6172E-04  0.5882E-04  0.7652E-04  0.1201E-03  0.1807E-03  0.1953E-03  0.1223E-03  0.6986E-04  0.4986E-04  0.5056E-04  0.5283E-04  0.5675E-04  0.6051E-04  0.6364E-04  0.6606E-04  0.6765E-04  0.6838E-04  0.6827E-04  0.6740E-04  0.6584E-04  0.6370E-04  0.6107E-04  0.5809E-04  0.5489E-04  0.5155E-04  0.4816E-04  0.4478E-04  0.4141E-04  0.3811E-04  0.3488E-04  0.3172E-04  0.2870E-04  0.2579E-04  0.2302E-04  0.2043E-04  0.1802E-04  0.1577E-04  0.1372E-04  0.1187E-04  0.1016E-04  0.8582E-05  0.7149E-05  0.5827E-05  0.4648E-05  0.3556E-05  0.2694E-05  0.1906E-05  0.1228E-05  0.6723E-06  0.3234E-06  0.1276E-06  0.2074E-07  0.9403E-08  0.0000E+00
  0.6475E-07  0.8530E-07  0.1163E-06  0.1508E-06  0.1876E-06  0.2455E-06  0.2955E-06  0.3644E-06  0.4437E-06  0.5256E-06  0.6223E-06  0.7502E-06  0.9302E-06  0.1128E-05  0.1379E-05  0.1722E-05  0.2392E-05  0.4279E-05  0.9223E-05  0.1809E-04  0.2993E-04  0.3936E-04  0.4519E-04  0.4737E-04  0.5555E-04  0.7756E-04  0.1237E-03  0.1895E-03  0.2394E-03  0.2205E-03  0.1431E-03  0.9114E-04  0.6176E-04  0.4980E-04  0.5214E-04  0.5381E-04  0.5711E-04  0.6079E-04  0.6386E-04  0.6619E-04  0.6771E-04  0.6837E-04  0.6820E-04  0.6726E-04  0.6563E-04  0.6344E-04  0.6081E-04  0.5785E-04  0.5467E-04  0.5137E-04  0.4803E-04  0.4471E-04  0.4143E-04  0.3819E-04  0.3500E-04  0.3190E-04  0.2891E-04  0.2604E-04  0.2329E-04  0.2072E-04  0.1830E-04  0.1603E-04  0.1396E-04  0.1206E-04  0.1038E-04  0.8761E-05  0.7341E-05  0.6000E-05  0.4758E-05  0.3747E-05  0.2849E-05  0.2028E-05  0.1375E-05  0.8274E-06  0.4063E-06  0.1456E-06  0.4543E-07  0.9604E-08  0.0000E+00
  0.5794E-07  0.8537E-07  0.1103E-06  0.1515E-06  0.1869E-06  0.2399E-06  0.3024E-06  0.3606E-06  0.4345E-06  0.5240E-06  0.6345E-06  0.7549E-06  0.9265E-06  0.1136E-05  0.1405E-05  0.1747E-05  0.2190E-05  0.3052E-05  0.5193E-05  0.1092E-04  0.1982E-04  0.3181E-04  0.4808E-04  0.7675E-04  0.1216E-03  0.1835E-03  0.2455E-03  0.2683E-03  0.2266E-03  0.1543E-03  0.1108E-03  0.8044E-04  0.5449E-04  0.5073E-04  0.5351E-04  0.5480E-04  0.5747E-04  0.6089E-04  0.6384E-04  0.6605E-04  0.6745E-04  0.6803E-04  0.6777E-04  0.6677E-04  0.6511E-04  0.6290E-04  0.6027E-04  0.5734E-04  0.5419E-04  0.5095E-04  0.4768E-04  0.4442E-04  0.4121E-04  0.3805E-04  0.3495E-04  0.3191E-04  0.2896E-04  0.2613E-04  0.2344E-04  0.2086E-04  0.1846E-04  0.1621E-04  0.1412E-04  0.1222E-04  0.1047E-04  0.8906E-05  0.7466E-05  0.6124E-05  0.4957E-05  0.3899E-05  0.2977E-05  0.2202E-05  0.1542E-05  0.9381E-06  0.4811E-06  0.2101E-06  0.7071E-07  0.9778E-08  0.0000E+00
  0.6346E-07  0.8968E-07  0.1105E-06  0.1466E-06  0.1877E-06  0.2365E-06  0.2937E-06  0.3650E-06  0.4449E-06  0.5171E-06  0.6395E-06  0.7801E-06  0.9519E-06  0.1167E-05  0.1448E-05  0.1799E-05  0.2234E-05  0.3669E-05  0.8531E-05  0.2021E-04  0.3989E-04  0.7069E-04  0.1148E-03  0.1731E-03  0.2355E-03  0.2784E-03  0.2748E-03  0.2225E-03  0.1614E-03  0.1260E-03  0.9946E-04  0.6789E-04  0.5138E-04  0.5257E-04  0.5520E-04  0.5591E-04  0.5786E-04  0.6080E-04  0.6357E-04  0.6562E-04  0.6688E-04  0.6734E-04  0.6701E-04  0.6595E-04  0.6426E-04  0.6206E-04  0.5945E-04  0.5655E-04  0.5347E-04  0.5029E-04  0.4708E-04  0.4391E-04  0.4077E-04  0.3770E-04  0.3468E-04  0.3172E-04  0.2884E-04  0.2607E-04  0.2342E-04  0.2091E-04  0.1851E-04  0.1627E-04  0.1422E-04  0.1232E-04  0.1060E-04  0.8969E-05  0.7529E-05  0.6183E-05  0.5045E-05  0.3995E-05  0.3112E-05  0.2311E-05  0.1658E-05  0.1026E-05  0.5908E-06  0.2463E-06  0.7216E-07  0.9924E-08  0.0000E+00
  0.6271E-07  0.8436E-07  0.1172E-06  0.1489E-06  0.1854E-06  0.2411E-06  0.3031E-06  0.3585E-06  0.4402E-06  0.5408E-06  0.6457E-06  0.7991E-06  0.9748E-06  0.1209E-05  0.1502E-05  0.1858E-05  0.3373E-05  0.9197E-05  0.2311E-04  0.5156E-04  0.9758E-04  0.1579E-03  0.2214E-03  0.2721E-03  0.2908E-03  0.2658E-03  0.2118E-03  0.1626E-03  0.1381E-03  0.1178E-03  0.8711E-04  0.5941E-04  0.5189E-04  0.5498E-04  0.5690E-04  0.5713E-04  0.5838E-04  0.6074E-04  0.6316E-04  0.6500E-04  0.6607E-04  0.6637E-04  0.6594E-04  0.6484E-04  0.6314E-04  0.6094E-04  0.5836E-04  0.5551E-04  0.5248E-04  0.4939E-04  0.4627E-04  0.4317E-04  0.4012E-04  0.3715E-04  0.3422E-04  0.3135E-04  0.2856E-04  0.2586E-04  0.2328E-04  0.2082E-04  0.1847E-04  0.1627E-04  0.1424E-04  0.1231E-04  0.1055E-04  0.8990E-05  0.7550E-05  0.6227E-05  0.5079E-05  0.4080E-05  0.3163E-05  0.2408E-05  0.1756E-05  0.1154E-05  0.6537E-06  0.3081E-06  0.8853E-07  0.1004E-07  0.0000E+00
  0.6755E-07  0.9037E-07  0.1138E-06  0.1514E-06  0.1899E-06  0.2351E-06  0.2990E-06  0.3721E-06  0.4430E-06  0.5406E-06  0.6635E-06  0.8181E-06  0.1018E-05  0.1266E-05  0.1566E-05  0.2237E-05  0.5611E-05  0.1854E-04  0.4704E-04  0.1006E-03  0.1770E-03  0.2548E-03  0.3016E-03  0.2981E-03  0.2523E-03  0.1928E-03  0.1543E-03  0.1447E-03  0.1358E-03  0.1120E-03  0.7771E-04  0.5793E-04  0.5495E-04  0.5792E-04  0.5904E-04  0.5878E-04  0.5927E-04  0.6090E-04  0.6282E-04  0.6431E-04  0.6513E-04  0.6523E-04  0.6466E-04  0.6346E-04  0.6174E-04  0.5956E-04  0.5702E-04  0.5422E-04  0.5128E-04  0.4825E-04  0.4522E-04  0.4223E-04  0.3929E-04  0.3641E-04  0.3359E-04  0.3083E-04  0.2813E-04  0.2552E-04  0.2301E-04  0.2061E-04  0.1831E-04  0.1618E-04  0.1416E-04  0.1229E-04  0.1057E-04  0.9025E-05  0.7545E-05  0.6235E-05  0.5107E-05  0.4136E-05  0.3223E-05  0.2498E-05  0.1831E-05  0.1233E-05  0.7341E-06  0.3308E-06  0.1042E-06  0.2425E-07  0.0000E+00
  0.6820E-07  0.9265E-07  0.1212E-06  0.1492E-06  0.1952E-06  0.2466E-06  0.3001E-06  0.3692E-06  0.4538E-06  0.5482E-06  0.6855E-06  0.8469E-06  0.1059E-05  0.1320E-05  0.1631E-05  0.2878E-05  0.1038E-04  0.3129E-04  0.7486E-04  0.1489E-03  0.2426E-03  0.3143E-03  0.3198E-03  0.2597E-03  0.1826E-03  0.1346E-03  0.1291E-03  0.1409E-03  0.1375E-03  0.1093E-03  0.7925E-04  0.6402E-04  0.6090E-04  0.6174E-04  0.6164E-04  0.6092E-04  0.6081E-04  0.6158E-04  0.6273E-04  0.6371E-04  0.6416E-04  0.6400E-04  0.6322E-04  0.6192E-04  0.6013E-04  0.5794E-04  0.5544E-04  0.5271E-04  0.4985E-04  0.4692E-04  0.4399E-04  0.4110E-04  0.3827E-04  0.3551E-04  0.3281E-04  0.3015E-04  0.2755E-04  0.2504E-04  0.2262E-04  0.2029E-04  0.1807E-04  0.1595E-04  0.1398E-04  0.1214E-04  0.1047E-04  0.8943E-05  0.7537E-05  0.6243E-05  0.5078E-05  0.4119E-05  0.3272E-05  0.2541E-05  0.1872E-05  0.1292E-05  0.8135E-06  0.4141E-06  0.1510E-06  0.2457E-07  0.0000E+00
  0.7340E-07  0.9522E-07  0.1242E-06  0.1583E-06  0.1988E-06  0.2484E-06  0.3098E-06  0.3782E-06  0.4532E-06  0.5642E-06  0.7080E-06  0.8911E-06  0.1106E-05  0.1378E-05  0.1705E-05  0.3698E-05  0.1470E-04  0.4273E-04  0.9513E-04  0.1770E-03  0.2710E-03  0.3283E-03  0.3058E-03  0.2223E-03  0.1425E-03  0.1097E-03  0.1157E-03  0.1310E-03  0.1295E-03  0.1097E-03  0.8829E-04  0.7504E-04  0.6997E-04  0.6750E-04  0.6557E-04  0.6402E-04  0.6314E-04  0.6296E-04  0.6317E-04  0.6337E-04  0.6329E-04  0.6274E-04  0.6172E-04  0.6024E-04  0.5836E-04  0.5616E-04  0.5368E-04  0.5101E-04  0.4823E-04  0.4541E-04  0.4257E-04  0.3980E-04  0.3709E-04  0.3445E-04  0.3187E-04  0.2934E-04  0.2685E-04  0.2444E-04  0.2210E-04  0.1985E-04  0.1775E-04  0.1569E-04  0.1377E-04  0.1198E-04  0.1036E-04  0.8857E-05  0.7451E-05  0.6167E-05  0.5088E-05  0.4111E-05  0.3256E-05  0.2564E-05  0.1902E-05  0.1336E-05  0.8772E-06  0.4530E-06  0.1686E-06  0.2482E-07  0.0000E+00
  0.7785E-07  0.1015E-06  0.1276E-06  0.1645E-06  0.2057E-06  0.2534E-06  0.3116E-06  0.3829E-06  0.4750E-06  0.5921E-06  0.7351E-06  0.9221E-06  0.1148E-05  0.1439E-05  0.1779E-05  0.6663E-05  0.1970E-04  0.4900E-04  0.9951E-04  0.1764E-03  0.2623E-03  0.3153E-03  0.2966E-03  0.2205E-03  0.1442E-03  0.1065E-03  0.1047E-03  0.1128E-03  0.1133E-03  0.1042E-03  0.9290E-04  0.8422E-04  0.7833E-04  0.7394E-04  0.7054E-04  0.6796E-04  0.6619E-04  0.6498E-04  0.6416E-04  0.6345E-04  0.6263E-04  0.6157E-04  0.6021E-04  0.5850E-04  0.5649E-04  0.5422E-04  0.5176E-04  0.4915E-04  0.4646E-04  0.4374E-04  0.4103E-04  0.3837E-04  0.3577E-04  0.3326E-04  0.3081E-04  0.2840E-04  0.2604E-04  0.2373E-04  0.2151E-04  0.1936E-04  0.1729E-04  0.1530E-04  0.1346E-04  0.1173E-04  0.1013E-04  0.8663E-05  0.7315E-05  0.6118E-05  0.5063E-05  0.4078E-05  0.3245E-05  0.2548E-05  0.1927E-05  0.1390E-05  0.8781E-06  0.4761E-06  0.1865E-06  0.3910E-07  0.0000E+00
  0.8370E-07  0.1085E-06  0.1357E-06  0.1721E-06  0.2119E-06  0.2634E-06  0.3241E-06  0.4016E-06  0.4951E-06  0.6099E-06  0.7697E-06  0.9583E-06  0.1204E-05  0.1492E-05  0.1849E-05  0.8127E-05  0.2269E-04  0.5053E-04  0.9399E-04  0.1568E-03  0.2306E-03  0.2851E-03  0.2905E-03  0.2416E-03  0.1716E-03  0.1213E-03  0.1016E-03  0.9717E-04  0.9656E-04  0.9420E-04  0.9007E-04  0.8577E-04  0.8201E-04  0.7828E-04  0.7476E-04  0.7172E-04  0.6919E-04  0.6716E-04  0.6540E-04  0.6379E-04  0.6218E-04  0.6050E-04  0.5868E-04  0.5670E-04  0.5453E-04  0.5220E-04  0.4973E-04  0.4717E-04  0.4457E-04  0.4195E-04  0.3935E-04  0.3681E-04  0.3434E-04  0.3195E-04  0.2964E-04  0.2737E-04  0.2514E-04  0.2294E-04  0.2081E-04  0.1874E-04  0.1679E-04  0.1491E-04  0.1312E-04  0.1148E-04  0.9931E-05  0.8486E-05  0.7165E-05  0.5994E-05  0.4952E-05  0.4049E-05  0.3236E-05  0.2525E-05  0.1912E-05  0.1353E-05  0.8893E-06  0.4884E-06  0.2033E-06  0.3965E-07  0.0000E+00
  0.8855E-07  0.1145E-06  0.1429E-06  0.1768E-06  0.2158E-06  0.2816E-06  0.3467E-06  0.4209E-06  0.5210E-06  0.6447E-06  0.8020E-06  0.1005E-05  0.1258E-05  0.1558E-05  0.4328E-05  0.1181E-04  0.2583E-04  0.4950E-04  0.8543E-04  0.1345E-03  0.1927E-03  0.2447E-03  0.2698E-03  0.2532E-03  0.2037E-03  0.1485E-03  0.1109E-03  0.9377E-04  0.8776E-04  0.8576E-04  0.8477E-04  0.8361E-04  0.8156E-04  0.7895E-04  0.7643E-04  0.7380E-04  0.7119E-04  0.6870E-04  0.6632E-04  0.6402E-04  0.6175E-04  0.5949E-04  0.5718E-04  0.5485E-04  0.5249E-04  0.5007E-04  0.4759E-04  0.4508E-04  0.4256E-04  0.4005E-04  0.3758E-04  0.3516E-04  0.3282E-04  0.3056E-04  0.2838E-04  0.2624E-04  0.2414E-04  0.2206E-04  0.2004E-04  0.1808E-04  0.1620E-04  0.1441E-04  0.1270E-04  0.1110E-04  0.9610E-05  0.8224E-05  0.6978E-05  0.5870E-05  0.4877E-05  0.3975E-05  0.3214E-05  0.2501E-05  0.1902E-05  0.1352E-05  0.9303E-06  0.5082E-06  0.2372E-06  0.5476E-07  0.0000E+00
  0.9275E-07  0.1210E-06  0.1508E-06  0.1940E-06  0.2402E-06  0.2935E-06  0.3618E-06  0.4453E-06  0.5422E-06  0.6740E-06  0.8384E-06  0.1050E-05  0.1305E-05  0.1616E-05  0.5384E-05  0.1367E-04  0.2729E-04  0.4790E-04  0.7776E-04  0.1169E-03  0.1625E-03  0.2071E-03  0.2388E-03  0.2442E-03  0.2191E-03  0.1747E-03  0.1306E-03  0.1022E-03  0.8861E-04  0.8319E-04  0.8112E-04  0.8025E-04  0.7932E-04  0.7796E-04  0.7589E-04  0.7359E-04  0.7139E-04  0.6897E-04  0.6641E-04  0.6375E-04  0.6106E-04  0.5838E-04  0.5569E-04  0.5302E-04  0.5042E-04  0.4789E-04  0.4539E-04  0.4292E-04  0.4047E-04  0.3805E-04  0.3570E-04  0.3342E-04  0.3121E-04  0.2908E-04  0.2704E-04  0.2504E-04  0.2307E-04  0.2112E-04  0.1920E-04  0.1735E-04  0.1559E-04  0.1391E-04  0.1230E-04  0.1075E-04  0.9305E-05  0.8008E-05  0.6786E-05  0.5697E-05  0.4708E-05  0.3893E-05  0.3141E-05  0.2449E-05  0.1894E-05  0.1356E-05  0.9357E-06  0.5427E-06  0.2443E-06  0.5540E-07  0.0000E+00
  0.9797E-07  0.1298E-06  0.1647E-06  0.2078E-06  0.2558E-06  0.3109E-06  0.3783E-06  0.4657E-06  0.5687E-06  0.6954E-06  0.8841E-06  0.1088E-05  0.1353E-05  0.3540E-05  0.8280E-05  0.1673E-04  0.2834E-04  0.4648E-04  0.7128E-04  0.1040E-03  0.1413E-03  0.1794E-03  0.2103E-03  0.2251E-03  0.2187E-03  0.1905E-03  0.1518E-03  0.1177E-03  0.9624E-04  0.8520E-04  0.8012E-04  0.7763E-04  0.7641E-04  0.7527E-04  0.7392E-04  0.7234E-04  0.7012E-04  0.6768E-04  0.6531E-04  0.6267E-04  0.5985E-04  0.5694E-04  0.5401E-04  0.5112E-04  0.4835E-04  0.4567E-04  0.4313E-04  0.4069E-04  0.3832E-04  0.3603E-04  0.3381E-04  0.3165E-04  0.2957E-04  0.2757E-04  0.2564E-04  0.2377E-04  0.2195E-04  0.2012E-04  0.1834E-04  0.1661E-04  0.1493E-04  0.1333E-04  0.1178E-04  0.1032E-04  0.8943E-05  0.7679E-05  0.6533E-05  0.5533E-05  0.4633E-05  0.3760E-05  0.3056E-05  0.2419E-05  0.1871E-05  0.1357E-05  0.9277E-06  0.5353E-06  0.2458E-06  0.7076E-07  0.0000E+00
  0.1095E-06  0.1387E-06  0.1757E-06  0.2176E-06  0.2717E-06  0.3315E-06  0.3999E-06  0.4888E-06  0.5980E-06  0.7287E-06  0.9120E-06  0.1126E-05  0.1392E-05  0.4563E-05  0.1006E-04  0.1807E-04  0.2916E-04  0.4454E-04  0.6630E-04  0.9412E-04  0.1252E-03  0.1577E-03  0.1870E-03  0.2058E-03  0.2094E-03  0.1954E-03  0.1677E-03  0.1352E-03  0.1083E-03  0.9137E-04  0.8204E-04  0.7701E-04  0.7424E-04  0.7246E-04  0.7109E-04  0.6959E-04  0.6781E-04  0.6569E-04  0.6328E-04  0.6061E-04  0.5792E-04  0.5505E-04  0.5208E-04  0.4910E-04  0.4619E-04  0.4344E-04  0.4083E-04  0.3841E-04  0.3614E-04  0.3396E-04  0.3185E-04  0.2983E-04  0.2789E-04  0.2602E-04  0.2422E-04  0.2248E-04  0.2077E-04  0.1910E-04  0.1744E-04  0.1582E-04  0.1424E-04  0.1276E-04  0.1130E-04  0.9886E-05  0.8583E-05  0.7382E-05  0.6258E-05  0.5279E-05  0.4418E-05  0.3661E-05  0.2965E-05  0.2359E-05  0.1797E-05  0.1325E-05  0.9161E-06  0.5361E-06  0.2616E-06  0.7126E-07  0.0000E+00
  0.1169E-06  0.1489E-06  0.1849E-06  0.2312E-06  0.2865E-06  0.3502E-06  0.4230E-06  0.5127E-06  0.6210E-06  0.7681E-06  0.9444E-06  0.1161E-05  0.2909E-05  0.6075E-05  0.1171E-04  0.1870E-04  0.2889E-04  0.4363E-04  0.6176E-04  0.8589E-04  0.1121E-03  0.1405E-03  0.1666E-03  0.1872E-03  0.1966E-03  0.1926E-03  0.1755E-03  0.1494E-03  0.1221E-03  0.1008E-03  0.8677E-04  0.7842E-04  0.7344E-04  0.7033E-04  0.6814E-04  0.6638E-04  0.6463E-04  0.6270E-04  0.6050E-04  0.5800E-04  0.5533E-04  0.5260E-04  0.4976E-04  0.4684E-04  0.4396E-04  0.4117E-04  0.3856E-04  0.3615E-04  0.3392E-04  0.3185E-04  0.2988E-04  0.2799E-04  0.2618E-04  0.2444E-04  0.2278E-04  0.2117E-04  0.1959E-04  0.1804E-04  0.1649E-04  0.1500E-04  0.1353E-04  0.1210E-04  0.1071E-04  0.9415E-05  0.8162E-05  0.7042E-05  0.6016E-05  0.5103E-05  0.4277E-05  0.3511E-05  0.2817E-05  0.2253E-05  0.1732E-05  0.1289E-05  0.8957E-06  0.5193E-06  0.2522E-06  0.7151E-07  0.1413E-07
  0.1220E-06  0.1565E-06  0.1960E-06  0.2419E-06  0.3010E-06  0.3676E-06  0.4453E-06  0.5332E-06  0.6417E-06  0.7990E-06  0.9701E-06  0.1189E-05  0.3426E-05  0.7367E-05  0.1280E-04  0.1935E-04  0.2896E-04  0.4171E-04  0.5885E-04  0.7864E-04  0.1015E-03  0.1256E-03  0.1494E-03  0.1695E-03  0.1821E-03  0.1845E-03  0.1761E-03  0.1578E-03  0.1341E-03  0.1111E-03  0.9356E-04  0.8172E-04  0.7413E-04  0.6920E-04  0.6586E-04  0.6336E-04  0.6128E-04  0.5925E-04  0.5717E-04  0.5485E-04  0.5235E-04  0.4974E-04  0.4705E-04  0.4433E-04  0.4158E-04  0.3889E-04  0.3632E-04  0.3395E-04  0.3176E-04  0.2975E-04  0.2790E-04  0.2615E-04  0.2448E-04  0.2288E-04  0.2134E-04  0.1986E-04  0.1841E-04  0.1699E-04  0.1557E-04  0.1416E-04  0.1279E-04  0.1143E-04  0.1014E-04  0.8921E-05  0.7775E-05  0.6697E-05  0.5720E-05  0.4830E-05  0.4043E-05  0.3348E-05  0.2744E-05  0.2180E-05  0.1657E-05  0.1260E-05  0.8566E-06  0.5224E-06  0.2260E-06  0.6224E-07  0.1429E-07
  0.1277E-06  0.1652E-06  0.2068E-06  0.2532E-06  0.3130E-06  0.3843E-06  0.4635E-06  0.5545E-06  0.6647E-06  0.8141E-06  0.9901E-06  0.2077E-05  0.4360E-05  0.8325E-05  0.1304E-04  0.1964E-04  0.2844E-04  0.3996E-04  0.5489E-04  0.7239E-04  0.9230E-04  0.1132E-03  0.1344E-03  0.1533E-03  0.1669E-03  0.1734E-03  0.1712E-03  0.1599E-03  0.1417E-03  0.1205E-03  0.1009E-03  0.8634E-04  0.7610E-04  0.6914E-04  0.6433E-04  0.6084E-04  0.5811E-04  0.5582E-04  0.5368E-04  0.5144E-04  0.4912E-04  0.4664E-04  0.4410E-04  0.4153E-04  0.3900E-04  0.3649E-04  0.3406E-04  0.3178E-04  0.2966E-04  0.2773E-04  0.2597E-04  0.2435E-04  0.2280E-04  0.2132E-04  0.1990E-04  0.1854E-04  0.1721E-04  0.1591E-04  0.1461E-04  0.1330E-04  0.1201E-04  0.1075E-04  0.9558E-05  0.8441E-05  0.7362E-05  0.6344E-05  0.5439E-05  0.4614E-05  0.3892E-05  0.3234E-05  0.2600E-05  0.2061E-05  0.1601E-05  0.1181E-05  0.7964E-06  0.4938E-06  0.2102E-06  0.7662E-07  0.1440E-07
  0.1315E-06  0.1707E-06  0.2144E-06  0.2641E-06  0.3240E-06  0.3963E-06  0.4831E-06  0.5748E-06  0.6858E-06  0.8342E-06  0.1144E-05  0.2617E-05  0.5088E-05  0.8741E-05  0.1351E-04  0.1945E-04  0.2760E-04  0.3841E-04  0.5103E-04  0.6711E-04  0.8413E-04  0.1023E-03  0.1213E-03  0.1384E-03  0.1522E-03  0.1609E-03  0.1625E-03  0.1569E-03  0.1442E-03  0.1268E-03  0.1081E-03  0.9125E-04  0.7892E-04  0.6994E-04  0.6352E-04  0.5879E-04  0.5538E-04  0.5256E-04  0.5019E-04  0.4794E-04  0.4566E-04  0.4335E-04  0.4097E-04  0.3859E-04  0.3627E-04  0.3397E-04  0.3173E-04  0.2959E-04  0.2761E-04  0.2579E-04  0.2410E-04  0.2256E-04  0.2113E-04  0.1977E-04  0.1847E-04  0.1723E-04  0.1602E-04  0.1483E-04  0.1363E-04  0.1243E-04  0.1122E-04  0.1009E-04  0.8952E-05  0.7911E-05  0.6932E-05  0.6005E-05  0.5153E-05  0.4349E-05  0.3633E-05  0.3003E-05  0.2452E-05  0.1954E-05  0.1488E-05  0.1100E-05  0.7685E-06  0.4424E-06  0.2089E-06  0.6246E-07  0.1445E-07
  0.1383E-06  0.1761E-06  0.2227E-06  0.2757E-06  0.3359E-06  0.4067E-06  0.4901E-06  0.5909E-06  0.6996E-06  0.8432E-06  0.1520E-05  0.3037E-05  0.5662E-05  0.9103E-05  0.1322E-04  0.1924E-04  0.2660E-04  0.3613E-04  0.4819E-04  0.6157E-04  0.7671E-04  0.9264E-04  0.1094E-03  0.1249E-03  0.1385E-03  0.1479E-03  0.1522E-03  0.1500E-03  0.1422E-03  0.1290E-03  0.1128E-03  0.9615E-04  0.8185E-04  0.7120E-04  0.6326E-04  0.5741E-04  0.5296E-04  0.4965E-04  0.4687E-04  0.4451E-04  0.4227E-04  0.4004E-04  0.3787E-04  0.3567E-04  0.3351E-04  0.3140E-04  0.2937E-04  0.2741E-04  0.2558E-04  0.2387E-04  0.2230E-04  0.2085E-04  0.1951E-04  0.1826E-04  0.1708E-04  0.1595E-04  0.1485E-04  0.1375E-04  0.1267E-04  0.1156E-04  0.1047E-04  0.9405E-05  0.8374E-05  0.7442E-05  0.6517E-05  0.5627E-05  0.4828E-05  0.4095E-05  0.3462E-05  0.2863E-05  0.2283E-05  0.1826E-05  0.1433E-05  0.1045E-05  0.7074E-06  0.4202E-06  0.2071E-06  0.6237E-07  0.1446E-07
  0.1440E-06  0.1822E-06  0.2287E-06  0.2853E-06  0.3459E-06  0.4169E-06  0.5009E-06  0.5946E-06  0.7018E-06  0.8368E-06  0.1724E-05  0.3342E-05  0.5996E-05  0.8992E-05  0.1312E-04  0.1841E-04  0.2540E-04  0.3397E-04  0.4458E-04  0.5651E-04  0.6988E-04  0.8386E-04  0.9825E-04  0.1125E-03  0.1252E-03  0.1350E-03  0.1406E-03  0.1413E-03  0.1365E-03  0.1274E-03  0.1143E-03  0.9931E-04  0.8463E-04  0.7239E-04  0.6326E-04  0.5628E-04  0.5101E-04  0.4694E-04  0.4384E-04  0.4120E-04  0.3895E-04  0.3684E-04  0.3476E-04  0.3274E-04  0.3074E-04  0.2884E-04  0.2701E-04  0.2523E-04  0.2355E-04  0.2199E-04  0.2053E-04  0.1919E-04  0.1796E-04  0.1682E-04  0.1574E-04  0.1471E-04  0.1370E-04  0.1268E-04  0.1168E-04  0.1070E-04  0.9688E-05  0.8724E-05  0.7821E-05  0.6897E-05  0.6036E-05  0.5230E-05  0.4531E-05  0.3836E-05  0.3196E-05  0.2650E-05  0.2171E-05  0.1717E-05  0.1324E-05  0.9329E-06  0.6267E-06  0.3330E-06  0.1651E-06  0.6204E-07  0.1441E-07
  0.1508E-06  0.1885E-06  0.2326E-06  0.2883E-06  0.3537E-06  0.4253E-06  0.5079E-06  0.6005E-06  0.7046E-06  0.1050E-05  0.2096E-05  0.3690E-05  0.6017E-05  0.9103E-05  0.1275E-04  0.1783E-04  0.2403E-04  0.3206E-04  0.4096E-04  0.5209E-04  0.6358E-04  0.7580E-04  0.8874E-04  0.1014E-03  0.1130E-03  0.1223E-03  0.1284E-03  0.1310E-03  0.1288E-03  0.1224E-03  0.1125E-03  0.9985E-04  0.8619E-04  0.7342E-04  0.6301E-04  0.5524E-04  0.4920E-04  0.4457E-04  0.4095E-04  0.3818E-04  0.3581E-04  0.3372E-04  0.3177E-04  0.2993E-04  0.2810E-04  0.2637E-04  0.2471E-04  0.2311E-04  0.2159E-04  0.2016E-04  0.1883E-04  0.1760E-04  0.1648E-04  0.1542E-04  0.1443E-04  0.1350E-04  0.1257E-04  0.1167E-04  0.1076E-04  0.9857E-05  0.8957E-05  0.8079E-05  0.7231E-05  0.6428E-05  0.5675E-05  0.4932E-05  0.4216E-05  0.3588E-05  0.3008E-05  0.2472E-05  0.1982E-05  0.1572E-05  0.1197E-05  0.8892E-06  0.5627E-06  0.3115E-06  0.1178E-06  0.6149E-07  0.1432E-07
  0.1536E-06  0.1921E-06  0.2403E-06  0.2920E-06  0.3532E-06  0.4235E-06  0.5069E-06  0.5977E-06  0.7002E-06  0.1138E-05  0.2224E-05  0.3860E-05  0.6087E-05  0.8671E-05  0.1238E-04  0.1694E-04  0.2278E-04  0.2958E-04  0.3815E-04  0.4732E-04  0.5765E-04  0.6864E-04  0.7971E-04  0.9091E-04  0.1014E-03  0.1101E-03  0.1166E-03  0.1199E-03  0.1195E-03  0.1156E-03  0.1079E-03  0.9774E-04  0.8587E-04  0.7358E-04  0.6266E-04  0.5390E-04  0.4738E-04  0.4227E-04  0.3835E-04  0.3524E-04  0.3279E-04  0.3073E-04  0.2888E-04  0.2716E-04  0.2555E-04  0.2396E-04  0.2247E-04  0.2105E-04  0.1969E-04  0.1841E-04  0.1721E-04  0.1609E-04  0.1505E-04  0.1408E-04  0.1316E-04  0.1231E-04  0.1150E-04  0.1068E-04  0.9882E-05  0.9062E-05  0.8237E-05  0.7440E-05  0.6666E-05  0.5948E-05  0.5211E-05  0.4545E-05  0.3921E-05  0.3315E-05  0.2769E-05  0.2284E-05  0.1854E-05  0.1471E-05  0.1122E-05  0.7636E-06  0.5318E-06  0.2884E-06  0.1159E-06  0.3183E-07  0.1417E-07
  0.1548E-06  0.1976E-06  0.2455E-06  0.2965E-06  0.3549E-06  0.4238E-06  0.5013E-06  0.5910E-06  0.6889E-06  0.1284E-05  0.2215E-05  0.3896E-05  0.5839E-05  0.8412E-05  0.1176E-04  0.1592E-04  0.2122E-04  0.2750E-04  0.3475E-04  0.4299E-04  0.5208E-04  0.6171E-04  0.7138E-04  0.8116E-04  0.9026E-04  0.9851E-04  0.1048E-03  0.1086E-03  0.1094E-03  0.1071E-03  0.1015E-03  0.9329E-04  0.8331E-04  0.7232E-04  0.6161E-04  0.5244E-04  0.4528E-04  0.3991E-04  0.3577E-04  0.3253E-04  0.2994E-04  0.2787E-04  0.2613E-04  0.2453E-04  0.2303E-04  0.2164E-04  0.2031E-04  0.1907E-04  0.1786E-04  0.1671E-04  0.1562E-04  0.1462E-04  0.1368E-04  0.1280E-04  0.1199E-04  0.1121E-04  0.1048E-04  0.9743E-05  0.9022E-05  0.8292E-05  0.7550E-05  0.6812E-05  0.6119E-05  0.5465E-05  0.4833E-05  0.4233E-05  0.3624E-05  0.3077E-05  0.2567E-05  0.2127E-05  0.1689E-05  0.1322E-05  0.1001E-05  0.7074E-06  0.4542E-06  0.2435E-06  0.9981E-07  0.3134E-07  0.0000E+00
  0.1555E-06  0.1955E-06  0.2440E-06  0.2963E-06  0.3564E-06  0.4233E-06  0.4969E-06  0.5835E-06  0.7425E-06  0.1354E-05  0.2292E-05  0.3774E-05  0.5769E-05  0.7980E-05  0.1105E-04  0.1486E-04  0.1947E-04  0.2526E-04  0.3144E-04  0.3910E-04  0.4688E-04  0.5525E-04  0.6369E-04  0.7220E-04  0.8048E-04  0.8790E-04  0.9376E-04  0.9750E-04  0.9879E-04  0.9768E-04  0.9381E-04  0.8732E-04  0.7893E-04  0.6950E-04  0.5964E-04  0.5055E-04  0.4310E-04  0.3739E-04  0.3314E-04  0.2986E-04  0.2728E-04  0.2520E-04  0.2351E-04  0.2205E-04  0.2070E-04  0.1945E-04  0.1827E-04  0.1717E-04  0.1611E-04  0.1509E-04  0.1412E-04  0.1321E-04  0.1240E-04  0.1162E-04  0.1088E-04  0.1019E-04  0.9522E-05  0.8875E-05  0.8214E-05  0.7562E-05  0.6883E-05  0.6220E-05  0.5599E-05  0.4995E-05  0.4427E-05  0.3863E-05  0.3342E-05  0.2835E-05  0.2355E-05  0.1928E-05  0.1555E-05  0.1227E-05  0.9291E-06  0.6356E-06  0.3791E-06  0.2079E-06  0.8249E-07  0.3074E-07  0.0000E+00
  0.1571E-06  0.1962E-06  0.2422E-06  0.2900E-06  0.3475E-06  0.4087E-06  0.4813E-06  0.5644E-06  0.7890E-06  0.1341E-05  0.2281E-05  0.3732E-05  0.5310E-05  0.7570E-05  0.1028E-04  0.1375E-04  0.1803E-04  0.2285E-04  0.2883E-04  0.3502E-04  0.4195E-04  0.4924E-04  0.5659E-04  0.6395E-04  0.7116E-04  0.7771E-04  0.8307E-04  0.8665E-04  0.8839E-04  0.8803E-04  0.8521E-04  0.8023E-04  0.7336E-04  0.6522E-04  0.5658E-04  0.4810E-04  0.4064E-04  0.3482E-04  0.3044E-04  0.2721E-04  0.2470E-04  0.2270E-04  0.2105E-04  0.1969E-04  0.1850E-04  0.1737E-04  0.1635E-04  0.1537E-04  0.1445E-04  0.1355E-04  0.1270E-04  0.1193E-04  0.1118E-04  0.1048E-04  0.9816E-05  0.9191E-05  0.8604E-05  0.8026E-05  0.7460E-05  0.6865E-05  0.6264E-05  0.5668E-05  0.5081E-05  0.4546E-05  0.4019E-05  0.3538E-05  0.3069E-05  0.2588E-05  0.2145E-05  0.1782E-05  0.1411E-05  0.1085E-05  0.7997E-06  0.5357E-06  0.3287E-06  0.1874E-06  0.6589E-07  0.3005E-07  0.0000E+00
  0.1595E-06  0.1978E-06  0.2411E-06  0.2862E-06  0.3424E-06  0.4013E-06  0.4724E-06  0.5462E-06  0.7755E-06  0.1392E-05  0.2239E-05  0.3444E-05  0.5136E-05  0.7028E-05  0.9600E-05  0.1259E-04  0.1643E-04  0.2084E-04  0.2580E-04  0.3133E-04  0.3738E-04  0.4372E-04  0.5005E-04  0.5658E-04  0.6277E-04  0.6851E-04  0.7311E-04  0.7641E-04  0.7825E-04  0.7827E-04  0.7632E-04  0.7246E-04  0.6693E-04  0.6010E-04  0.5256E-04  0.4499E-04  0.3789E-04  0.3211E-04  0.2775E-04  0.2452E-04  0.2210E-04  0.2028E-04  0.1876E-04  0.1749E-04  0.1641E-04  0.1544E-04  0.1454E-04  0.1367E-04  0.1288E-04  0.1214E-04  0.1139E-04  0.1069E-04  0.1002E-04  0.9397E-05  0.8827E-05  0.8264E-05  0.7745E-05  0.7221E-05  0.6715E-05  0.6191E-05  0.5677E-05  0.5123E-05  0.4609E-05  0.4119E-05  0.3646E-05  0.3221E-05  0.2781E-05  0.2362E-05  0.1953E-05  0.1597E-05  0.1269E-05  0.9845E-06  0.7163E-06  0.4530E-06  0.2568E-06  0.1372E-06  0.6412E-07  0.1510E-07  0.0000E+00
