DSAA
          79         109
    318.3670    342.0670
   7336.5760   7369.2760
  0.0000E+00  0.1634E-02
  0.0000E+00  0.0000E+00  0.0000E+00  0.0000E+00  0.0000E+00  0.0000E+00  0.0000E+00  0.0000E+00  0.0000E+00  0.0000E+00  0.0000E+00  0.0000E+00  0.0000E+00  0.0000E+00  0.0000E+00  0.0000E+00  0.0000E+00  0.0000E+00  0.0000E+00  0.0000E+00  0.0000E+00  0.0000E+00  0.0000E+00  0.0000E+00  0.0000E+00  0.0000E+00  0.0000E+00  0.0000E+00  0.0000E+00  0.0000E+00  0.0000E+00  0.0000E+00  0.0000E+00  0.0000E+00  0.0000E+00  0.0000E+00  0.0000E+00  0.0000E+00  0.0000E+00  0.0000E+00  0.0000E+00  0.0000E+00  0.0000E+00  0.0000E+00  0.0000E+00  0.0000E+00  0.0000E+00  0.0000E+00  0.0000E+00  0.0000E+00  0.0000E+00  0.0000E+00  0.0000E+00  0.0000E+00  0.0000E+00  0.0000E+00  0.0000E+00  0.0000E+00  0.0000E+00  0.0000E+00  0.0000E+00  0.0000E+00  0.0000E+00  0.0000E+00  0.0000E+00  0.0000E+00  0.0000E+00  0.0000E+00  0.0000E+00  0.0000E+00  0.0000E+00  0.0000E+00  0.0000E+00  0.0000E+00  0.0000E+00  0.0000E+00  0.0000E+00  0.0000E+00  0.0000E+00
  0.0000E+00  0.0000E+00  0.0000E+00  0.0000E+00  0.0000E+00  0.0000E+00  0.0000E+00  0.0000E+00  0.0000E+00  0.0000E+00  0.0000E+00  0.0000E+00  0.0000E+00  0.0000E+00  0.0000E+00  0.0000E+00  0.0000E+00  0.0000E+00  0.0000E+00  0.0000E+00  0.0000E+00  0.0000E+00  0.0000E+00  0.0000E+00  0.0000E+00  0.0000E+00  0.0000E+00  0.0000E+00  0.0000E+00  0.0000E+00  0.0000E+00  0.0000E+00  0.0000E+00  0.0000E+00  0.0000E+00  0.0000E+00  0.0000E+00  0.0000E+00  0.0000E+00  0.0000E+00  0.0000E+00  0.0000E+00  0.0000E+00  0.0000E+00  0.0000E+00  0.0000E+00  0.0000E+00  0.0000E+00  0.0000E+00  0.0000E+00  0.0000E+00  0.0000E+00  0.0000E+00  0.0000E+00  0.0000E+00  0.0000E+00  0.0000E+00  0.0000E+00  0.0000E+00  0.0000E+00  0.0000E+00  0.0000E+00  0.0000E+00  0.0000E+00  0.0000E+00  0.0000E+00  0.0000E+00  0.0000E+00  0.0000E+00  0.0000E+00  0.0000E+00  0.0000E+00  0.0000E+00  0.0000E+00  0.0000E+00  0.0000E+00  0.0000E+00  0.0000E+00  0.0000E+00
  0.0000E+00  0.0000E+00  0.0000E+00  0.0000E+00  0.0000E+00  0.0000E+00  0.0000E+00  0.0000E+00  0.0000E+00  0.0000E+00  0.0000E+00  0.0000E+00  0.0000E+00  0.0000E+00  0.0000E+00  0.0000E+00  0.0000E+00  0.0000E+00  0.0000E+00  0.0000E+00  0.0000E+00  0.0000E+00  0.0000E+00  0.0000E+00  0.0000E+00  0.0000E+00  0.0000E+00  0.0000E+00  0.0000E+00  0.0000E+00  0.0000E+00  0.0000E+00  0.0000E+00  0.0000E+00  0.0000E+00  0.0000E+00  0.0000E+00  0.0000E+00  0.0000E+00  0.0000E+00  0.0000E+00  0.0000E+00  0.0000E+00  0.0000E+00  0.0000E+00  0.0000E+00  0.0000E+00  0.0000E+00  0.0000E+00  0.0000E+00  0.0000E+00  0.0000E+00  0.0000E+00  0.0000E+00  0.0000E+00  0.0000E+00  0.0000E+00  0.0000E+00  0.0000E+00  0.0000E+00  0.0000E+00  0.0000E+00  0.0000E+00  0.0000E+00  0.0000E+00  0.0000E+00  0.0000E+00  0.0000E+00  0.0000E+00  0.0000E+00  0.0000E+00  0.0000E+00  0.0000E+00  0.0000E+00  0.0000E+00  0.0000E+00  0.0000E+00  0.0000E+00  0.0000E+00
  0.0000E+00  0.0000E+00  0.0000E+00  0.0000E+00  0.0000E+00  0.0000E+00  0.0000E+00  0.0000E+00  0.0000E+00  0.0000E+00  0.0000E+00  0.0000E+00  0.0000E+00  0.0000E+00  0.0000E+00  0.0000E+00  0.0000E+00  0.0000E+00  0.0000E+00  0.0000E+00  0.0000E+00  0.0000E+00  0.0000E+00  0.0000E+00  0.0000E+00  0.0000E+00  0.0000E+00  0.0000E+00  0.0000E+00  0.0000E+00  0.0000E+00  0.0000E+00  0.0000E+00  0.0000E+00  0.0000E+00  0.0000E+00  0.0000E+00  0.0000E+00  0.0000E+00  0.0000E+00  0.0000E+00  0.0000E+00  0.0000E+00  0.0000E+00  0.0000E+00  0.0000E+00  0.0000E+00  0.0000E+00  0.0000E+00  0.0000E+00  0.0000E+00  0.0000E+00  0.0000E+00  0.0000E+00  0.0000E+00  0.0000E+00  0.0000E+00  0.0000E+00  0.0000E+00  0.0000E+00  0.0000E+00  0.0000E+00  0.0000E+00  0.0000E+00  0.0000E+00  0.0000E+00  0.0000E+00  0.0000E+00  0.0000E+00  0.0000E+00  0.0000E+00  0.0000E+00  0.0000E+00  0.0000E+00  0.0000E+00  0.0000E+00  0.0000E+00  0.0000E+00  0.0000E+00
  0.0000E+00  0.0000E+00  0.0000E+00  0.0000E+00  0.0000E+00  0.0000E+00  0.0000E+00  0.0000E+00  0.0000E+00  0.0000E+00  0.0000E+00  0.0000E+00  0.0000E+00  0.0000E+00  0.0000E+00  0.0000E+00  0.0000E+00  0.0000E+00  0.0000E+00  0.0000E+00  0.0000E+00  0.0000E+00  0.0000E+00  0.0000E+00  0.0000E+00  0.0000E+00  0.0000E+00  0.0000E+00  0.0000E+00  0.0000E+00  0.0000E+00  0.0000E+00  0.0000E+00  0.0000E+00  0.0000E+00  0.0000E+00  0.0000E+00  0.0000E+00  0.0000E+00  0.0000E+00  0.0000E+00  0.0000E+00  0.0000E+00  0.0000E+00  0.0000E+00  0.0000E+00  0.0000E+00  0.0000E+00  0.0000E+00  0.0000E+00  0.0000E+00  0.0000E+00  0.0000E+00  0.0000E+00  0.0000E+00  0.0000E+00  0.0000E+00  0.0000E+00  0.0000E+00  0.0000E+00  0.0000E+00  0.0000E+00  0.0000E+00  0.0000E+00  0.0000E+00  0.0000E+00  0.0000E+00  0.0000E+00  0.0000E+00  0.0000E+00  0.0000E+00  0.0000E+00  0.0000E+00  0.0000E+00  0.0000E+00  0.0000E+00  0.0000E+00  0.0000E+00  0.0000E+00
  0.0000E+00  0.0000E+00  0.0000E+00  0.0000E+00  0.0000E+00  0.0000E+00  0.0000E+00  0.0000E+00  0.0000E+00  0.0000E+00  0.0000E+00  0.0000E+00  0.0000E+00  0.0000E+00  0.0000E+00  0.0000E+00  0.0000E+00  0.0000E+00  0.0000E+00  0.0000E+00  0.0000E+00  0.0000E+00  0.0000E+00  0.0000E+00  0.0000E+00  0.0000E+00  0.0000E+00  0.0000E+00  0.0000E+00  0.0000E+00  0.0000E+00  0.0000E+00  0.0000E+00  0.0000E+00  0.0000E+00  0.0000E+00  0.0000E+00  0.0000E+00  0.0000E+00  0.0000E+00  0.0000E+00  0.0000E+00  0.0000E+00  0.0000E+00  0.0000E+00  0.0000E+00  0.0000E+00  0.0000E+00  0.0000E+00  0.0000E+00  0.0000E+00  0.0000E+00  0.0000E+00  0.0000E+00  0.0000E+00  0.0000E+00  0.0000E+00  0.0000E+00  0.0000E+00  0.0000E+00  0.0000E+00  0.0000E+00  0.0000E+00  0.0000E+00  0.0000E+00  0.0000E+00  0.0000E+00  0.0000E+00  0.0000E+00  0.0000E+00  0.0000E+00  0.0000E+00  0.0000E+00  0.0000E+00  0.0000E+00  0.0000E+00  0.0000E+00  0.0000E+00  0.0000E+00
  0.0000E+00  0.0000E+00  0.0000E+00  0.0000E+00  0.0000E+00  0.0000E+00  0.0000E+00  0.0000E+00  0.0000E+00  0.0000E+00  0.0000E+00  0.0000E+00  0.0000E+00  0.0000E+00  0.0000E+00  0.0000E+00  0.0000E+00  0.0000E+00  0.0000E+00  0.0000E+00  0.0000E+00  0.0000E+00  0.0000E+00  0.0000E+00  0.0000E+00  0.0000E+00  0.0000E+00  0.0000E+00  0.0000E+00  0.0000E+00  0.0000E+00  0.0000E+00  0.0000E+00  0.0000E+00  0.0000E+00  0.0000E+00  0.0000E+00  0.0000E+00  0.0000E+00  0.0000E+00  0.0000E+00  0.0000E+00  0.0000E+00  0.0000E+00  0.0000E+00  0.0000E+00  0.0000E+00  0.0000E+00  0.0000E+00  0.0000E+00  0.0000E+00  0.0000E+00  0.0000E+00  0.0000E+00  0.0000E+00  0.0000E+00  0.0000E+00  0.0000E+00  0.0000E+00  0.0000E+00  0.0000E+00  0.0000E+00  0.0000E+00  0.0000E+00  0.0000E+00  0.0000E+00  0.0000E+00  0.0000E+00  0.0000E+00  0.0000E+00  0.0000E+00  0.0000E+00  0.0000E+00  0.0000E+00  0.0000E+00  0.0000E+00  0.0000E+00  0.0000E+00  0.0000E+00
  0.0000E+00  0.0000E+00  0.0000E+00  0.0000E+00  0.0000E+00  0.0000E+00  0.0000E+00  0.0000E+00  0.0000E+00  0.0000E+00  0.0000E+00  0.0000E+00  0.0000E+00  0.0000E+00  0.0000E+00  0.0000E+00  0.0000E+00  0.0000E+00  0.0000E+00  0.0000E+00  0.0000E+00  0.0000E+00  0.0000E+00  0.0000E+00  0.0000E+00  0.0000E+00  0.0000E+00  0.0000E+00  0.0000E+00  0.0000E+00  0.0000E+00  0.0000E+00  0.0000E+00  0.0000E+00  0.0000E+00  0.0000E+00  0.0000E+00  0.0000E+00  0.0000E+00  0.0000E+00  0.0000E+00  0.0000E+00  0.0000E+00  0.0000E+00  0.0000E+00  0.0000E+00  0.0000E+00  0.0000E+00  0.0000E+00  0.0000E+00  0.0000E+00  0.0000E+00  0.0000E+00  0.0000E+00  0.0000E+00  0.0000E+00  0.0000E+00  0.0000E+00  0.0000E+00  0.0000E+00  0.0000E+00  0.0000E+00  0.0000E+00  0.0000E+00  0.0000E+00  0.0000E+00  0.0000E+00  0.0000E+00  0.0000E+00  0.0000E+00  0.0000E+00  0.0000E+00  0.0000E+00  0.0000E+00  0.0000E+00  0.0000E+00  0.0000E+00  0.0000E+00  0.0000E+00
  0.0000E+00  0.0000E+00  0.0000E+00  0.0000E+00  0.0000E+00  0.0000E+00  0.0000E+00  0.0000E+00  0.0000E+00  0.0000E+00  0.0000E+00  0.0000E+00  0.0000E+00  0.0000E+00  0.0000E+00  0.0000E+00  0.0000E+00  0.0000E+00  0.0000E+00  0.0000E+00  0.0000E+00  0.0000E+00  0.0000E+00  0.0000E+00  0.0000E+00  0.0000E+00  0.0000E+00  0.0000E+00  0.0000E+00  0.0000E+00  0.0000E+00  0.0000E+00  0.0000E+00  0.0000E+00  0.0000E+00  0.0000E+00  0.0000E+00  0.0000E+00  0.0000E+00  0.0000E+00  0.0000E+00  0.0000E+00  0.0000E+00  0.0000E+00  0.0000E+00  0.0000E+00  0.0000E+00  0.0000E+00  0.0000E+00  0.0000E+00  0.0000E+00  0.0000E+00  0.0000E+00  0.0000E+00  0.0000E+00  0.0000E+00  0.0000E+00  0.0000E+00  0.0000E+00  0.0000E+00  0.0000E+00  0.0000E+00  0.0000E+00  0.0000E+00  0.0000E+00  0.0000E+00  0.0000E+00  0.0000E+00  0.0000E+00  0.0000E+00  0.0000E+00  0.0000E+00  0.0000E+00  0.0000E+00  0.0000E+00  0.0000E+00  0.0000E+00  0.0000E+00  0.0000E+00
  0.0000E+00  0.0000E+00  0.0000E+00  0.0000E+00  0.0000E+00  0.0000E+00  0.0000E+00  0.0000E+00  0.0000E+00  0.0000E+00  0.0000E+00  0.0000E+00  0.0000E+00  0.0000E+00  0.0000E+00  0.0000E+00  0.0000E+00  0.0000E+00  0.0000E+00  0.0000E+00  0.0000E+00  0.0000E+00  0.0000E+00  0.0000E+00  0.0000E+00  0.0000E+00  0.0000E+00  0.0000E+00  0.0000E+00  0.0000E+00  0.0000E+00  0.0000E+00  0.0000E+00  0.0000E+00  0.0000E+00  0.0000E+00  0.0000E+00  0.0000E+00  0.0000E+00  0.0000E+00  0.0000E+00  0.0000E+00  0.0000E+00  0.0000E+00  0.0000E+00  0.0000E+00  0.0000E+00  0.0000E+00  0.0000E+00  0.0000E+00  0.0000E+00  0.0000E+00  0.0000E+00  0.0000E+00  0.0000E+00  0.0000E+00  0.0000E+00  0.0000E+00  0.0000E+00  0.0000E+00  0.0000E+00  0.0000E+00  0.0000E+00  0.0000E+00  0.0000E+00  0.0000E+00  0.0000E+00  0.0000E+00  0.0000E+00  0.0000E+00  0.0000E+00  0.0000E+00  0.0000E+00  0.0000E+00  0.0000E+00  0.0000E+00  0.0000E+00  0.0000E+00  0.0000E+00
  0.0000E+00  0.0000E+00  0.0000E+00  0.0000E+00  0.0000E+00  0.0000E+00  0.0000E+00  0.0000E+00  0.0000E+00  0.0000E+00  0.0000E+00  0.0000E+00  0.0000E+00  0.0000E+00  0.0000E+00  0.0000E+00  0.0000E+00  0.0000E+00  0.0000E+00  0.0000E+00  0.0000E+00  0.0000E+00  0.0000E+00  0.0000E+00  0.0000E+00  0.0000E+00  0.0000E+00  0.0000E+00  0.0000E+00  0.0000E+00  0.0000E+00  0.0000E+00  0.0000E+00  0.0000E+00  0.0000E+00  0.0000E+00  0.0000E+00  0.0000E+00  0.0000E+00  0.0000E+00  0.0000E+00  0.0000E+00  0.0000E+00  0.0000E+00  0.0000E+00  0.0000E+00  0.0000E+00  0.0000E+00  0.0000E+00  0.0000E+00  0.0000E+00  0.0000E+00  0.0000E+00  0.0000E+00  0.0000E+00  0.0000E+00  0.0000E+00  0.0000E+00  0.0000E+00  0.0000E+00  0.0000E+00  0.0000E+00  0.0000E+00  0.0000E+00  0.0000E+00  0.0000E+00  0.0000E+00  0.0000E+00  0.0000E+00  0.0000E+00  0.0000E+00  0.0000E+00  0.0000E+00  0.0000E+00  0.0000E+00  0.0000E+00  0.0000E+00  0.0000E+00  0.0000E+00
  0.0000E+00  0.0000E+00  0.0000E+00  0.0000E+00  0.0000E+00  0.0000E+00  0.0000E+00  0.0000E+00  0.0000E+00  0.0000E+00  0.0000E+00  0.0000E+00  0.0000E+00  0.0000E+00  0.0000E+00  0.0000E+00  0.0000E+00  0.0000E+00  0.0000E+00  0.0000E+00  0.0000E+00  0.0000E+00  0.0000E+00  0.0000E+00  0.0000E+00  0.0000E+00  0.0000E+00  0.0000E+00  0.0000E+00  0.0000E+00  0.0000E+00  0.0000E+00  0.0000E+00  0.0000E+00  0.0000E+00  0.0000E+00  0.0000E+00  0.0000E+00  0.0000E+00  0.0000E+00  0.0000E+00  0.0000E+00  0.0000E+00  0.0000E+00  0.0000E+00  0.0000E+00  0.0000E+00  0.0000E+00  0.0000E+00  0.0000E+00  0.0000E+00  0.0000E+00  0.0000E+00  0.0000E+00  0.0000E+00  0.0000E+00  0.0000E+00  0.0000E+00  0.0000E+00  0.0000E+00  0.0000E+00  0.0000E+00  0.0000E+00  0.0000E+00  0.0000E+00  0.0000E+00  0.0000E+00  0.0000E+00  0.0000E+00  0.0000E+00  0.0000E+00  0.0000E+00  0.0000E+00  0.0000E+00  0.0000E+00  0.0000E+00  0.0000E+00  0.0000E+00  0.0000E+00
  0.0000E+00  0.0000E+00  0.0000E+00  0.0000E+00  0.0000E+00  0.0000E+00  0.0000E+00  0.0000E+00  0.0000E+00  0.0000E+00  0.0000E+00  0.0000E+00  0.0000E+00  0.0000E+00  0.0000E+00  0.0000E+00  0.0000E+00  0.0000E+00  0.0000E+00  0.0000E+00  0.0000E+00  0.0000E+00  0.0000E+00  0.0000E+00  0.0000E+00  0.0000E+00  0.0000E+00  0.0000E+00  0.0000E+00  0.0000E+00  0.0000E+00  0.0000E+00  0.0000E+00  0.0000E+00  0.0000E+00  0.0000E+00  0.0000E+00  0.0000E+00  0.0000E+00  0.0000E+00  0.0000E+00  0.0000E+00  0.0000E+00  0.0000E+00  0.0000E+00  0.0000E+00  0.0000E+00  0.0000E+00  0.0000E+00  0.0000E+00  0.0000E+00  0.0000E+00  0.0000E+00  0.0000E+00  0.0000E+00  0.0000E+00  0.0000E+00  0.0000E+00  0.0000E+00  0.0000E+00  0.0000E+00  0.0000E+00  0.0000E+00  0.0000E+00  0.0000E+00  0.0000E+00  0.0000E+00  0.0000E+00  0.0000E+00  0.0000E+00  0.0000E+00  0.0000E+00  0.0000E+00  0.0000E+00  0.0000E+00  0.0000E+00  0.0000E+00  0.0000E+00  0.0000E+00
  0.0000E+00  0.0000E+00  0.0000E+00  0.0000E+00  0.0000E+00  0.0000E+00  0.0000E+00  0.0000E+00  0.0000E+00  0.0000E+00  0.0000E+00  0.0000E+00  0.0000E+00  0.0000E+00  0.0000E+00  0.0000E+00  0.0000E+00  0.0000E+00  0.0000E+00  0.0000E+00  0.0000E+00  0.0000E+00  0.0000E+00  0.0000E+00  0.0000E+00  0.0000E+00  0.0000E+00  0.0000E+00  0.0000E+00  0.0000E+00  0.0000E+00  0.0000E+00  0.0000E+00  0.0000E+00  0.0000E+00  0.0000E+00  0.0000E+00  0.0000E+00  0.0000E+00  0.0000E+00  0.0000E+00  0.0000E+00  0.0000E+00  0.0000E+00  0.0000E+00  0.0000E+00  0.0000E+00  0.0000E+00  0.0000E+00  0.0000E+00  0.0000E+00  0.0000E+00  0.0000E+00  0.0000E+00  0.0000E+00  0.0000E+00  0.0000E+00  0.0000E+00  0.0000E+00  0.0000E+00  0.0000E+00  0.0000E+00  0.0000E+00  0.0000E+00  0.0000E+00  0.0000E+00  0.0000E+00  0.0000E+00  0.0000E+00  0.0000E+00  0.0000E+00  0.0000E+00  0.0000E+00  0.0000E+00  0.0000E+00  0.0000E+00  0.0000E+00  0.0000E+00  0.0000E+00
  0.0000E+00  0.0000E+00  0.0000E+00  0.0000E+00  0.0000E+00  0.0000E+00  0.0000E+00  0.0000E+00  0.0000E+00  0.0000E+00  0.0000E+00  0.0000E+00  0.0000E+00  0.0000E+00  0.0000E+00  0.0000E+00  0.0000E+00  0.0000E+00  0.0000E+00  0.0000E+00  0.0000E+00  0.0000E+00  0.0000E+00  0.0000E+00  0.0000E+00  0.0000E+00  0.0000E+00  0.0000E+00  0.0000E+00  0.0000E+00  0.0000E+00  0.0000E+00  0.0000E+00  0.0000E+00  0.0000E+00  0.0000E+00  0.0000E+00  0.0000E+00  0.0000E+00  0.0000E+00  0.0000E+00  0.0000E+00  0.0000E+00  0.0000E+00  0.0000E+00  0.0000E+00  0.0000E+00  0.0000E+00  0.0000E+00  0.0000E+00  0.0000E+00  0.0000E+00  0.0000E+00  0.0000E+00  0.0000E+00  0.0000E+00  0.0000E+00  0.0000E+00  0.0000E+00  0.0000E+00  0.0000E+00  0.0000E+00  0.0000E+00  0.0000E+00  0.0000E+00  0.0000E+00  0.0000E+00  0.0000E+00  0.0000E+00  0.0000E+00  0.0000E+00  0.0000E+00  0.0000E+00  0.0000E+00  0.0000E+00  0.0000E+00  0.0000E+00  0.0000E+00  0.0000E+00
  0.0000E+00  0.0000E+00  0.0000E+00  0.0000E+00  0.0000E+00  0.0000E+00  0.0000E+00  0.0000E+00  0.0000E+00  0.0000E+00  0.0000E+00  0.0000E+00  0.0000E+00  0.0000E+00  0.0000E+00  0.0000E+00  0.0000E+00  0.0000E+00  0.0000E+00  0.0000E+00  0.0000E+00  0.0000E+00  0.0000E+00  0.0000E+00  0.0000E+00  0.0000E+00  0.0000E+00  0.0000E+00  0.0000E+00  0.0000E+00  0.0000E+00  0.0000E+00  0.0000E+00  0.0000E+00  0.0000E+00  0.0000E+00  0.0000E+00  0.0000E+00  0.0000E+00  0.0000E+00  0.0000E+00  0.0000E+00  0.0000E+00  0.0000E+00  0.0000E+00  0.0000E+00  0.0000E+00  0.0000E+00  0.0000E+00  0.0000E+00  0.0000E+00  0.0000E+00  0.0000E+00  0.0000E+00  0.0000E+00  0.0000E+00  0.0000E+00  0.0000E+00  0.0000E+00  0.0000E+00  0.0000E+00  0.0000E+00  0.0000E+00  0.0000E+00  0.0000E+00  0.0000E+00  0.0000E+00  0.0000E+00  0.0000E+00  0.0000E+00  0.0000E+00  0.0000E+00  0.0000E+00  0.0000E+00  0.0000E+00  0.0000E+00  0.0000E+00  0.0000E+00  0.0000E+00
  0.0000E+00  0.0000E+00  0.0000E+00  0.0000E+00  0.0000E+00  0.0000E+00  0.0000E+00  0.0000E+00  0.0000E+00  0.0000E+00  0.0000E+00  0.0000E+00  0.0000E+00  0.0000E+00  0.0000E+00  0.0000E+00  0.0000E+00  0.0000E+00  0.0000E+00  0.0000E+00  0.0000E+00  0.0000E+00  0.0000E+00  0.0000E+00  0.0000E+00  0.0000E+00  0.0000E+00  0.0000E+00  0.0000E+00  0.0000E+00  0.0000E+00  0.0000E+00  0.0000E+00  0.0000E+00  0.0000E+00  0.0000E+00  0.0000E+00  0.0000E+00  0.0000E+00  0.0000E+00  0.0000E+00  0.0000E+00  0.0000E+00  0.0000E+00  0.0000E+00  0.0000E+00  0.0000E+00  0.0000E+00  0.0000E+00  0.0000E+00  0.0000E+00  0.0000E+00  0.0000E+00  0.0000E+00  0.0000E+00  0.0000E+00  0.0000E+00  0.0000E+00  0.0000E+00  0.0000E+00  0.0000E+00  0.0000E+00  0.0000E+00  0.0000E+00  0.0000E+00  0.0000E+00  0.0000E+00  0.0000E+00  0.0000E+00  0.0000E+00  0.0000E+00  0.0000E+00  0.0000E+00  0.0000E+00  0.0000E+00  0.0000E+00  0.0000E+00  0.0000E+00  0.0000E+00
  0.0000E+00  0.0000E+00  0.0000E+00  0.0000E+00  0.0000E+00  0.0000E+00  0.0000E+00  0.0000E+00  0.0000E+00  0.0000E+00  0.0000E+00  0.0000E+00  0.0000E+00  0.0000E+00  0.0000E+00  0.0000E+00  0.0000E+00  0.0000E+00  0.0000E+00  0.0000E+00  0.0000E+00  0.0000E+00  0.0000E+00  0.0000E+00  0.0000E+00  0.0000E+00  0.0000E+00  0.0000E+00  0.0000E+00  0.0000E+00  0.0000E+00  0.0000E+00  0.0000E+00  0.0000E+00  0.0000E+00  0.0000E+00  0.0000E+00  0.0000E+00  0.0000E+00  0.0000E+00  0.0000E+00  0.0000E+00  0.0000E+00  0.0000E+00  0.0000E+00  0.0000E+00  0.0000E+00  0.0000E+00  0.0000E+00  0.0000E+00  0.0000E+00  0.0000E+00  0.0000E+00  0.0000E+00  0.0000E+00  0.0000E+00  0.0000E+00  0.0000E+00  0.0000E+00  0.0000E+00  0.0000E+00  0.0000E+00  0.0000E+00  0.0000E+00  0.0000E+00  0.0000E+00  0.0000E+00  0.0000E+00  0.0000E+00  0.0000E+00  0.0000E+00  0.0000E+00  0.0000E+00  0.0000E+00  0.0000E+00  0.0000E+00  0.0000E+00  0.0000E+00  0.0000E+00
  0.0000E+00  0.0000E+00  0.0000E+00  0.0000E+00  0.0000E+00  0.0000E+00  0.0000E+00  0.0000E+00  0.0000E+00  0.0000E+00  0.0000E+00  0.0000E+00  0.0000E+00  0.0000E+00  0.0000E+00  0.0000E+00  0.0000E+00  0.0000E+00  0.0000E+00  0.0000E+00  0.0000E+00  0.0000E+00  0.0000E+00  0.0000E+00  0.0000E+00  0.0000E+00  0.0000E+00  0.0000E+00  0.0000E+00  0.0000E+00  0.0000E+00  0.0000E+00  0.0000E+00  0.0000E+00  0.0000E+00  0.0000E+00  0.0000E+00  0.0000E+00  0.0000E+00  0.0000E+00  0.0000E+00  0.0000E+00  0.0000E+00  0.0000E+00  0.0000E+00  0.0000E+00  0.0000E+00  0.0000E+00  0.0000E+00  0.0000E+00  0.0000E+00  0.0000E+00  0.0000E+00  0.0000E+00  0.0000E+00  0.0000E+00  0.0000E+00  0.0000E+00  0.0000E+00  0.0000E+00  0.0000E+00  0.0000E+00  0.0000E+00  0.0000E+00  0.0000E+00  0.0000E+00  0.0000E+00  0.0000E+00  0.0000E+00  0.0000E+00  0.0000E+00  0.0000E+00  0.0000E+00  0.0000E+00  0.0000E+00  0.0000E+00  0.0000E+00  0.0000E+00  0.0000E+00
  0.0000E+00  0.0000E+00  0.0000E+00  0.0000E+00  0.0000E+00  0.0000E+00  0.0000E+00  0.0000E+00  0.0000E+00  0.0000E+00  0.0000E+00  0.0000E+00  0.0000E+00  0.0000E+00  0.0000E+00  0.0000E+00  0.0000E+00  0.0000E+00  0.0000E+00  0.0000E+00  0.0000E+00  0.0000E+00  0.0000E+00  0.0000E+00  0.0000E+00  0.0000E+00  0.0000E+00  0.0000E+00  0.0000E+00  0.0000E+00  0.0000E+00  0.0000E+00  0.0000E+00  0.0000E+00  0.0000E+00  0.0000E+00  0.0000E+00  0.0000E+00  0.0000E+00  0.0000E+00  0.0000E+00  0.0000E+00  0.0000E+00  0.0000E+00  0.0000E+00  0.0000E+00  0.0000E+00  0.0000E+00  0.0000E+00  0.0000E+00  0.0000E+00  0.0000E+00  0.0000E+00  0.0000E+00  0.0000E+00  0.0000E+00  0.0000E+00  0.0000E+00  0.0000E+00  0.0000E+00  0.0000E+00  0.0000E+00  0.0000E+00  0.0000E+00  0.0000E+00  0.0000E+00  0.0000E+00  0.0000E+00  0.0000E+00  0.0000E+00  0.0000E+00  0.0000E+00  0.0000E+00  0.0000E+00  0.0000E+00  0.0000E+00  0.0000E+00  0.0000E+00  0.0000E+00
  0.0000E+00  0.0000E+00  0.0000E+00  0.0000E+00  0.0000E+00  0.0000E+00  0.0000E+00  0.0000E+00  0.0000E+00  0.0000E+00  0.0000E+00  0.0000E+00  0.0000E+00  0.0000E+00  0.0000E+00  0.0000E+00  0.0000E+00  0.0000E+00  0.0000E+00  0.0000E+00  0.0000E+00  0.0000E+00  0.0000E+00  0.0000E+00  0.0000E+00  0.0000E+00  0.0000E+00  0.0000E+00  0.0000E+00  0.0000E+00  0.0000E+00  0.0000E+00  0.0000E+00  0.0000E+00  0.0000E+00  0.0000E+00  0.0000E+00  0.0000E+00  0.0000E+00  0.0000E+00  0.0000E+00  0.0000E+00  0.0000E+00  0.0000E+00  0.0000E+00  0.0000E+00  0.0000E+00  0.0000E+00  0.0000E+00  0.0000E+00  0.0000E+00  0.0000E+00  0.0000E+00  0.0000E+00  0.0000E+00  0.0000E+00  0.0000E+00  0.0000E+00  0.0000E+00  0.0000E+00  0.0000E+00  0.0000E+00  0.0000E+00  0.0000E+00  0.0000E+00  0.0000E+00  0.0000E+00  0.0000E+00  0.0000E+00  0.0000E+00  0.0000E+00  0.0000E+00  0.0000E+00  0.0000E+00  0.0000E+00  0.0000E+00  0.0000E+00  0.0000E+00  0.0000E+00
  0.0000E+00  0.0000E+00  0.0000E+00  0.0000E+00  0.0000E+00  0.0000E+00  0.0000E+00  0.0000E+00  0.0000E+00  0.0000E+00  0.0000E+00  0.0000E+00  0.0000E+00  0.0000E+00  0.0000E+00  0.0000E+00  0.0000E+00  0.0000E+00  0.0000E+00  0.0000E+00  0.0000E+00  0.0000E+00  0.0000E+00  0.0000E+00  0.0000E+00  0.0000E+00  0.0000E+00  0.0000E+00  0.0000E+00  0.0000E+00  0.0000E+00  0.0000E+00  0.0000E+00  0.0000E+00  0.0000E+00  0.0000E+00  0.0000E+00  0.0000E+00  0.0000E+00  0.0000E+00  0.0000E+00  0.0000E+00  0.0000E+00  0.0000E+00  0.0000E+00  0.0000E+00  0.0000E+00  0.0000E+00  0.0000E+00  0.0000E+00  0.0000E+00  0.0000E+00  0.0000E+00  0.0000E+00  0.0000E+00  0.0000E+00  0.0000E+00  0.0000E+00  0.0000E+00  0.0000E+00  0.0000E+00  0.0000E+00  0.0000E+00  0.0000E+00  0.0000E+00  0.0000E+00  0.0000E+00  0.0000E+00  0.0000E+00  0.0000E+00  0.0000E+00  0.0000E+00  0.0000E+00  0.0000E+00  0.0000E+00  0.0000E+00  0.0000E+00  0.0000E+00  0.0000E+00
  0.0000E+00  0.0000E+00  0.0000E+00  0.0000E+00  0.0000E+00  0.0000E+00  0.0000E+00  0.0000E+00  0.0000E+00  0.0000E+00  0.0000E+00  0.0000E+00  0.0000E+00  0.0000E+00  0.0000E+00  0.0000E+00  0.0000E+00  0.0000E+00  0.0000E+00  0.0000E+00  0.0000E+00  0.0000E+00  0.0000E+00  0.0000E+00  0.0000E+00  0.0000E+00  0.0000E+00  0.0000E+00  0.0000E+00  0.0000E+00  0.0000E+00  0.0000E+00  0.0000E+00  0.0000E+00  0.0000E+00  0.0000E+00  0.0000E+00  0.0000E+00  0.0000E+00  0.0000E+00  0.0000E+00  0.0000E+00  0.0000E+00  0.0000E+00  0.0000E+00  0.0000E+00  0.0000E+00  0.0000E+00  0.0000E+00  0.0000E+00  0.0000E+00  0.0000E+00  0.0000E+00  0.0000E+00  0.0000E+00  0.0000E+00  0.0000E+00  0.0000E+00  0.0000E+00  0.0000E+00  0.0000E+00  0.0000E+00  0.0000E+00  0.0000E+00  0.0000E+00  0.0000E+00  0.0000E+00  0.0000E+00  0.0000E+00  0.0000E+00  0.0000E+00  0.0000E+00  0.0000E+00  0.0000E+00  0.0000E+00  0.0000E+00  0.0000E+00  0.0000E+00  0.0000E+00
  0.0000E+00  0.0000E+00  0.0000E+00  0.0000E+00  0.0000E+00  0.0000E+00  0.0000E+00  0.0000E+00  0.0000E+00  0.0000E+00  0.0000E+00  0.0000E+00  0.0000E+00  0.0000E+00  0.0000E+00  0.0000E+00  0.0000E+00  0.0000E+00  0.0000E+00  0.0000E+00  0.0000E+00  0.0000E+00  0.0000E+00  0.0000E+00  0.0000E+00  0.0000E+00  0.0000E+00  0.0000E+00  0.0000E+00  0.0000E+00  0.0000E+00  0.0000E+00  0.0000E+00  0.0000E+00  0.0000E+00  0.0000E+00  0.0000E+00  0.0000E+00  0.0000E+00  0.0000E+00  0.0000E+00  0.0000E+00  0.0000E+00  0.0000E+00  0.0000E+00  0.0000E+00  0.0000E+00  0.0000E+00  0.0000E+00  0.0000E+00  0.0000E+00  0.0000E+00  0.0000E+00  0.0000E+00  0.0000E+00  0.0000E+00  0.0000E+00  0.0000E+00  0.0000E+00  0.0000E+00  0.0000E+00  0.0000E+00  0.0000E+00  0.0000E+00  0.0000E+00  0.0000E+00  0.0000E+00  0.0000E+00  0.0000E+00  0.0000E+00  0.0000E+00  0.0000E+00  0.0000E+00  0.0000E+00  0.0000E+00  0.0000E+00  0.0000E+00  0.0000E+00  0.0000E+00
  0.0000E+00  0.0000E+00  0.0000E+00  0.0000E+00  0.0000E+00  0.0000E+00  0.0000E+00  0.0000E+00  0.0000E+00  0.0000E+00  0.0000E+00  0.0000E+00  0.0000E+00  0.0000E+00  0.0000E+00  0.0000E+00  0.0000E+00  0.0000E+00  0.0000E+00  0.0000E+00  0.0000E+00  0.0000E+00  0.0000E+00  0.0000E+00  0.0000E+00  0.0000E+00  0.0000E+00  0.0000E+00  0.0000E+00  0.0000E+00  0.0000E+00  0.0000E+00  0.0000E+00  0.0000E+00  0.0000E+00  0.0000E+00  0.0000E+00  0.0000E+00  0.0000E+00  0.0000E+00  0.0000E+00  0.0000E+00  0.0000E+00  0.0000E+00  0.0000E+00  0.0000E+00  0.0000E+00  0.0000E+00  0.0000E+00  0.0000E+00  0.0000E+00  0.0000E+00  0.0000E+00  0.0000E+00  0.0000E+00  0.0000E+00  0.0000E+00  0.0000E+00  0.0000E+00  0.0000E+00  0.0000E+00  0.0000E+00  0.0000E+00  0.0000E+00  0.0000E+00  0.0000E+00  0.0000E+00  0.0000E+00  0.0000E+00  0.0000E+00  0.0000E+00  0.0000E+00  0.0000E+00  0.0000E+00  0.0000E+00  0.0000E+00  0.0000E+00  0.0000E+00  0.0000E+00
  0.0000E+00  0.0000E+00  0.0000E+00  0.0000E+00  0.0000E+00  0.0000E+00  0.0000E+00  0.0000E+00  0.0000E+00  0.0000E+00  0.0000E+00  0.0000E+00  0.0000E+00  0.0000E+00  0.0000E+00  0.0000E+00  0.0000E+00  0.0000E+00  0.0000E+00  0.0000E+00  0.0000E+00  0.0000E+00  0.0000E+00  0.0000E+00  0.0000E+00  0.0000E+00  0.0000E+00  0.0000E+00  0.0000E+00  0.0000E+00  0.0000E+00  0.0000E+00  0.0000E+00  0.0000E+00  0.0000E+00  0.0000E+00  0.0000E+00  0.0000E+00  0.0000E+00  0.0000E+00  0.0000E+00  0.0000E+00  0.0000E+00  0.0000E+00  0.0000E+00  0.0000E+00  0.0000E+00  0.0000E+00  0.0000E+00  0.0000E+00  0.0000E+00  0.0000E+00  0.0000E+00  0.0000E+00  0.0000E+00  0.0000E+00  0.0000E+00  0.0000E+00  0.0000E+00  0.0000E+00  0.0000E+00  0.0000E+00  0.0000E+00  0.0000E+00  0.0000E+00  0.0000E+00  0.0000E+00  0.0000E+00  0.0000E+00  0.0000E+00  0.0000E+00  0.0000E+00  0.0000E+00  0.0000E+00  0.0000E+00  0.0000E+00  0.0000E+00  0.0000E+00  0.0000E+00
  0.0000E+00  0.0000E+00  0.0000E+00  0.0000E+00  0.0000E+00  0.0000E+00  0.0000E+00  0.0000E+00  0.0000E+00  0.0000E+00  0.0000E+00  0.0000E+00  0.0000E+00  0.0000E+00  0.0000E+00  0.0000E+00  0.0000E+00  0.0000E+00  0.0000E+00  0.0000E+00  0.0000E+00  0.0000E+00  0.0000E+00  0.0000E+00  0.0000E+00  0.0000E+00  0.0000E+00  0.0000E+00  0.0000E+00  0.0000E+00  0.0000E+00  0.0000E+00  0.0000E+00  0.0000E+00  0.0000E+00  0.0000E+00  0.0000E+00  0.0000E+00  0.0000E+00  0.0000E+00  0.0000E+00  0.0000E+00  0.0000E+00  0.0000E+00  0.0000E+00  0.0000E+00  0.0000E+00  0.0000E+00  0.0000E+00  0.0000E+00  0.0000E+00  0.0000E+00  0.0000E+00  0.0000E+00  0.0000E+00  0.0000E+00  0.0000E+00  0.0000E+00  0.0000E+00  0.0000E+00  0.0000E+00  0.0000E+00  0.0000E+00  0.0000E+00  0.0000E+00  0.0000E+00  0.0000E+00  0.0000E+00  0.0000E+00  0.0000E+00  0.0000E+00  0.0000E+00  0.0000E+00  0.0000E+00  0.0000E+00  0.0000E+00  0.0000E+00  0.0000E+00  0.0000E+00
  0.0000E+00  0.0000E+00  0.0000E+00  0.0000E+00  0.0000E+00  0.0000E+00  0.0000E+00  0.0000E+00  0.0000E+00  0.0000E+00  0.0000E+00  0.0000E+00  0.0000E+00  0.0000E+00  0.0000E+00  0.0000E+00  0.0000E+00  0.0000E+00  0.0000E+00  0.0000E+00  0.0000E+00  0.0000E+00  0.0000E+00  0.0000E+00  0.0000E+00  0.0000E+00  0.0000E+00  0.0000E+00  0.0000E+00  0.0000E+00  0.0000E+00  0.0000E+00  0.0000E+00  0.0000E+00  0.0000E+00  0.0000E+00  0.0000E+00  0.0000E+00  0.0000E+00  0.0000E+00  0.0000E+00  0.0000E+00  0.0000E+00  0.0000E+00  0.0000E+00  0.0000E+00  0.0000E+00  0.0000E+00  0.0000E+00  0.0000E+00  0.0000E+00  0.0000E+00  0.0000E+00  0.0000E+00  0.0000E+00  0.0000E+00  0.0000E+00  0.0000E+00  0.0000E+00  0.0000E+00  0.0000E+00  0.0000E+00  0.0000E+00  0.0000E+00  0.0000E+00  0.0000E+00  0.0000E+00  0.0000E+00  0.0000E+00  0.0000E+00  0.0000E+00  0.0000E+00  0.0000E+00  0.0000E+00  0.0000E+00  0.0000E+00  0.0000E+00  0.0000E+00  0.0000E+00
  0.0000E+00  0.0000E+00  0.0000E+00  0.0000E+00  0.0000E+00  0.0000E+00  0.0000E+00  0.0000E+00  0.0000E+00  0.0000E+00  0.0000E+00  0.0000E+00  0.0000E+00  0.0000E+00  0.0000E+00  0.0000E+00  0.0000E+00  0.0000E+00  0.0000E+00  0.0000E+00  0.0000E+00  0.0000E+00  0.0000E+00  0.0000E+00  0.0000E+00  0.0000E+00  0.0000E+00  0.0000E+00  0.0000E+00  0.0000E+00  0.0000E+00  0.0000E+00  0.0000E+00  0.0000E+00  0.0000E+00  0.0000E+00  0.0000E+00  0.0000E+00  0.0000E+00  0.0000E+00  0.0000E+00  0.0000E+00  0.0000E+00  0.0000E+00  0.0000E+00  0.0000E+00  0.0000E+00  0.0000E+00  0.0000E+00  0.0000E+00  0.0000E+00  0.0000E+00  0.0000E+00  0.0000E+00  0.0000E+00  0.0000E+00  0.0000E+00  0.0000E+00  0.0000E+00  0.0000E+00  0.0000E+00  0.0000E+00  0.0000E+00  0.0000E+00  0.0000E+00  0.0000E+00  0.0000E+00  0.0000E+00  0.0000E+00  0.0000E+00  0.0000E+00  0.0000E+00  0.0000E+00  0.0000E+00  0.0000E+00  0.0000E+00  0.0000E+00  0.0000E+00  0.0000E+00
  0.0000E+00  0.0000E+00  0.0000E+00  0.0000E+00  0.0000E+00  0.0000E+00  0.0000E+00  0.0000E+00  0.0000E+00  0.0000E+00  0.0000E+00  0.0000E+00  0.0000E+00  0.0000E+00  0.0000E+00  0.0000E+00  0.0000E+00  0.0000E+00  0.0000E+00  0.0000E+00  0.0000E+00  0.0000E+00  0.0000E+00  0.0000E+00  0.0000E+00  0.0000E+00  0.0000E+00  0.0000E+00  0.0000E+00  0.0000E+00  0.0000E+00  0.0000E+00  0.0000E+00  0.0000E+00  0.0000E+00  0.0000E+00  0.0000E+00  0.0000E+00  0.0000E+00  0.0000E+00  0.0000E+00  0.0000E+00  0.0000E+00  0.0000E+00  0.0000E+00  0.0000E+00  0.0000E+00  0.0000E+00  0.0000E+00  0.0000E+00  0.0000E+00  0.0000E+00  0.0000E+00  0.0000E+00  0.0000E+00  0.0000E+00  0.0000E+00  0.0000E+00  0.0000E+00  0.0000E+00  0.0000E+00  0.0000E+00  0.0000E+00  0.0000E+00  0.0000E+00  0.0000E+00  0.0000E+00  0.0000E+00  0.0000E+00  0.0000E+00  0.0000E+00  0.0000E+00  0.0000E+00  0.0000E+00  0.0000E+00  0.0000E+00  0.0000E+00  0.0000E+00  0.0000E+00
  0.0000E+00  0.0000E+00  0.0000E+00  0.0000E+00  0.0000E+00  0.0000E+00  0.0000E+00  0.0000E+00  0.0000E+00  0.0000E+00  0.0000E+00  0.0000E+00  0.0000E+00  0.0000E+00  0.0000E+00  0.0000E+00  0.0000E+00  0.0000E+00  0.0000E+00  0.0000E+00  0.0000E+00  0.0000E+00  0.0000E+00  0.0000E+00  0.0000E+00  0.0000E+00  0.0000E+00  0.0000E+00  0.0000E+00  0.0000E+00  0.0000E+00  0.0000E+00  0.0000E+00  0.0000E+00  0.0000E+00  0.0000E+00  0.0000E+00  0.0000E+00  0.0000E+00  0.0000E+00  0.0000E+00  0.0000E+00  0.0000E+00  0.0000E+00  0.0000E+00  0.0000E+00  0.0000E+00  0.0000E+00  0.0000E+00  0.0000E+00  0.0000E+00  0.0000E+00  0.0000E+00  0.0000E+00  0.0000E+00  0.0000E+00  0.0000E+00  0.0000E+00  0.0000E+00  0.0000E+00  0.0000E+00  0.0000E+00  0.0000E+00  0.0000E+00  0.0000E+00  0.0000E+00  0.0000E+00  0.0000E+00  0.0000E+00  0.0000E+00  0.0000E+00  0.0000E+00  0.0000E+00  0.0000E+00  0.0000E+00  0.0000E+00  0.0000E+00  0.0000E+00  0.0000E+00
  0.0000E+00  0.0000E+00  0.0000E+00  0.0000E+00  0.0000E+00  0.0000E+00  0.0000E+00  0.0000E+00  0.0000E+00  0.0000E+00  0.0000E+00  0.0000E+00  0.0000E+00  0.0000E+00  0.0000E+00  0.0000E+00  0.0000E+00  0.0000E+00  0.0000E+00  0.0000E+00  0.0000E+00  0.0000E+00  0.0000E+00  0.0000E+00  0.0000E+00  0.0000E+00  0.0000E+00  0.0000E+00  0.0000E+00  0.0000E+00  0.0000E+00  0.0000E+00  0.0000E+00  0.0000E+00  0.0000E+00  0.0000E+00  0.0000E+00  0.0000E+00  0.0000E+00  0.0000E+00  0.0000E+00  0.0000E+00  0.0000E+00  0.0000E+00  0.0000E+00  0.0000E+00  0.0000E+00  0.0000E+00  0.0000E+00  0.0000E+00  0.0000E+00  0.0000E+00  0.0000E+00  0.0000E+00  0.0000E+00  0.0000E+00  0.0000E+00  0.0000E+00  0.0000E+00  0.0000E+00  0.0000E+00  0.0000E+00  0.0000E+00  0.0000E+00  0.0000E+00  0.0000E+00  0.0000E+00  0.0000E+00  0.0000E+00  0.0000E+00  0.0000E+00  0.0000E+00  0.0000E+00  0.0000E+00  0.0000E+00  0.0000E+00  0.0000E+00  0.0000E+00  0.0000E+00
  0.0000E+00  0.0000E+00  0.0000E+00  0.0000E+00  0.0000E+00  0.0000E+00  0.0000E+00  0.0000E+00  0.0000E+00  0.0000E+00  0.0000E+00  0.0000E+00  0.0000E+00  0.0000E+00  0.0000E+00  0.0000E+00  0.0000E+00  0.0000E+00  0.0000E+00  0.0000E+00  0.0000E+00  0.0000E+00  0.0000E+00  0.0000E+00  0.0000E+00  0.0000E+00  0.0000E+00  0.0000E+00  0.0000E+00  0.0000E+00  0.0000E+00  0.0000E+00  0.0000E+00  0.0000E+00  0.0000E+00  0.0000E+00  0.0000E+00  0.0000E+00  0.0000E+00  0.0000E+00  0.0000E+00  0.0000E+00  0.0000E+00  0.0000E+00  0.0000E+00  0.0000E+00  0.0000E+00  0.0000E+00  0.0000E+00  0.0000E+00  0.0000E+00  0.0000E+00  0.0000E+00  0.0000E+00  0.0000E+00  0.0000E+00  0.0000E+00  0.0000E+00  0.0000E+00  0.0000E+00  0.0000E+00  0.0000E+00  0.0000E+00  0.0000E+00  0.0000E+00  0.0000E+00  0.0000E+00  0.0000E+00  0.0000E+00  0.0000E+00  0.0000E+00  0.0000E+00  0.0000E+00  0.0000E+00  0.0000E+00  0.0000E+00  0.0000E+00  0.0000E+00  0.0000E+00
  0.0000E+00  0.0000E+00  0.0000E+00  0.0000E+00  0.0000E+00  0.0000E+00  0.0000E+00  0.0000E+00  0.0000E+00  0.0000E+00  0.0000E+00  0.0000E+00  0.0000E+00  0.0000E+00  0.0000E+00  0.0000E+00  0.0000E+00  0.0000E+00  0.0000E+00  0.0000E+00  0.0000E+00  0.0000E+00  0.0000E+00  0.0000E+00  0.0000E+00  0.0000E+00  0.0000E+00  0.0000E+00  0.0000E+00  0.0000E+00  0.0000E+00  0.0000E+00  0.0000E+00  0.0000E+00  0.0000E+00  0.0000E+00  0.0000E+00  0.0000E+00  0.0000E+00  0.0000E+00  0.0000E+00  0.0000E+00  0.0000E+00  0.0000E+00  0.0000E+00  0.0000E+00  0.0000E+00  0.0000E+00  0.0000E+00  0.0000E+00  0.0000E+00  0.0000E+00  0.0000E+00  0.0000E+00  0.0000E+00  0.0000E+00  0.0000E+00  0.0000E+00  0.0000E+00  0.0000E+00  0.0000E+00  0.0000E+00  0.0000E+00  0.0000E+00  0.0000E+00  0.0000E+00  0.0000E+00  0.0000E+00  0.0000E+00  0.0000E+00  0.0000E+00  0.0000E+00  0.0000E+00  0.0000E+00  0.0000E+00  0.0000E+00  0.0000E+00  0.0000E+00  0.0000E+00
  0.0000E+00  0.0000E+00  0.0000E+00  0.0000E+00  0.0000E+00  0.0000E+00  0.0000E+00  0.0000E+00  0.0000E+00  0.0000E+00  0.0000E+00  0.0000E+00  0.0000E+00  0.0000E+00  0.0000E+00  0.0000E+00  0.0000E+00  0.0000E+00  0.0000E+00  0.0000E+00  0.0000E+00  0.0000E+00  0.0000E+00  0.0000E+00  0.0000E+00  0.0000E+00  0.0000E+00  0.0000E+00  0.0000E+00  0.0000E+00  0.0000E+00  0.0000E+00  0.0000E+00  0.0000E+00  0.0000E+00  0.0000E+00  0.0000E+00  0.0000E+00  0.0000E+00  0.0000E+00  0.0000E+00  0.0000E+00  0.0000E+00  0.0000E+00  0.0000E+00  0.0000E+00  0.0000E+00  0.0000E+00  0.0000E+00  0.0000E+00  0.0000E+00  0.0000E+00  0.0000E+00  0.0000E+00  0.0000E+00  0.0000E+00  0.0000E+00  0.0000E+00  0.0000E+00  0.0000E+00  0.0000E+00  0.0000E+00  0.0000E+00  0.0000E+00  0.0000E+00  0.0000E+00  0.0000E+00  0.0000E+00  0.0000E+00  0.0000E+00  0.0000E+00  0.0000E+00  0.0000E+00  0.0000E+00  0.0000E+00  0.1889E-08  0.5794E-08  0.9874E-08  0.1219E-07
  0.0000E+00  0.0000E+00  0.0000E+00  0.0000E+00  0.0000E+00  0.0000E+00  0.6525E-08  0.2712E-07  0.5685E-07  0.8136E-07  0.1165E-06  0.1458E-06  0.1878E-06  0.2140E-06  0.2170E-06  0.2195E-06  0.2216E-06  0.2232E-06  0.2243E-06  0.2249E-06  0.2250E-06  0.2267E-06  0.2259E-06  0.2245E-06  0.2226E-06  0.2182E-06  0.2089E-06  0.1857E-06  0.1538E-06  0.1197E-06  0.8314E-07  0.4399E-07  0.1968E-08  0.0000E+00  0.0000E+00  0.0000E+00  0.0000E+00  0.0000E+00  0.0000E+00  0.0000E+00  0.0000E+00  0.0000E+00  0.0000E+00  0.0000E+00  0.0000E+00  0.0000E+00  0.0000E+00  0.0000E+00  0.0000E+00  0.0000E+00  0.0000E+00  0.0000E+00  0.0000E+00  0.0000E+00  0.0000E+00  0.0000E+00  0.0000E+00  0.0000E+00  0.0000E+00  0.0000E+00  0.0000E+00  0.0000E+00  0.0000E+00  0.0000E+00  0.0000E+00  0.0000E+00  0.0000E+00  0.0000E+00  0.0000E+00  0.0000E+00  0.0000E+00  0.0000E+00  0.4192E-08  0.8673E-08  0.1341E-07  0.1837E-07  0.2350E-07  0.2878E-07  0.3201E-07
  0.0000E+00  0.2013E-07  0.4201E-07  0.6578E-07  0.9163E-07  0.1197E-06  0.1503E-06  0.1837E-06  0.2200E-06  0.2275E-06  0.2327E-06  0.2375E-06  0.2419E-06  0.2479E-06  0.2514E-06  0.2543E-06  0.2568E-06  0.2587E-06  0.2600E-06  0.2630E-06  0.2632E-06  0.2628E-06  0.2618E-06  0.2602E-06  0.2581E-06  0.2554E-06  0.2522E-06  0.2484E-06  0.2420E-06  0.2373E-06  0.2322E-06  0.2266E-06  0.2077E-06  0.1671E-06  0.1214E-06  0.8354E-07  0.3381E-07  0.0000E+00  0.0000E+00  0.0000E+00  0.0000E+00  0.0000E+00  0.0000E+00  0.0000E+00  0.0000E+00  0.0000E+00  0.0000E+00  0.0000E+00  0.0000E+00  0.0000E+00  0.0000E+00  0.0000E+00  0.0000E+00  0.0000E+00  0.0000E+00  0.0000E+00  0.0000E+00  0.0000E+00  0.0000E+00  0.0000E+00  0.0000E+00  0.0000E+00  0.0000E+00  0.0000E+00  0.0000E+00  0.0000E+00  0.0000E+00  0.0000E+00  0.0000E+00  0.6928E-08  0.1204E-07  0.1752E-07  0.2332E-07  0.2940E-07  0.3571E-07  0.4220E-07  0.4634E-07  0.5303E-07  0.5974E-07
  0.8438E-07  0.1125E-06  0.1340E-06  0.1669E-06  0.2028E-06  0.2330E-06  0.2404E-06  0.2475E-06  0.2543E-06  0.2628E-06  0.2689E-06  0.2745E-06  0.2818E-06  0.2864E-06  0.2905E-06  0.2940E-06  0.2969E-06  0.3015E-06  0.3031E-06  0.3041E-06  0.3043E-06  0.3039E-06  0.3028E-06  0.3011E-06  0.2986E-06  0.2955E-06  0.2918E-06  0.2875E-06  0.2825E-06  0.2771E-06  0.2688E-06  0.2624E-06  0.2556E-06  0.2483E-06  0.2408E-06  0.2308E-06  0.2097E-06  0.1600E-06  0.1124E-06  0.6407E-07  0.1967E-08  0.0000E+00  0.0000E+00  0.0000E+00  0.0000E+00  0.0000E+00  0.0000E+00  0.0000E+00  0.0000E+00  0.0000E+00  0.0000E+00  0.0000E+00  0.0000E+00  0.0000E+00  0.0000E+00  0.0000E+00  0.0000E+00  0.0000E+00  0.0000E+00  0.0000E+00  0.0000E+00  0.0000E+00  0.0000E+00  0.0000E+00  0.0000E+00  0.0000E+00  0.7555E-08  0.1326E-07  0.1949E-07  0.2876E-07  0.3595E-07  0.4350E-07  0.5136E-07  0.5945E-07  0.6771E-07  0.7605E-07  0.8442E-07  0.1062E-06  0.1093E-06
  0.1708E-06  0.1976E-06  0.2374E-06  0.2485E-06  0.2575E-06  0.2684E-06  0.2769E-06  0.2852E-06  0.2953E-06  0.3028E-06  0.3098E-06  0.3164E-06  0.3247E-06  0.3301E-06  0.3349E-06  0.3390E-06  0.3449E-06  0.3476E-06  0.3495E-06  0.3507E-06  0.3511E-06  0.3507E-06  0.3494E-06  0.3474E-06  0.3446E-06  0.3411E-06  0.3368E-06  0.3318E-06  0.3262E-06  0.3199E-06  0.3130E-06  0.3055E-06  0.2951E-06  0.2868E-06  0.2780E-06  0.2690E-06  0.2573E-06  0.2478E-06  0.2381E-06  0.2196E-06  0.1690E-06  0.1126E-06  0.5427E-07  0.0000E+00  0.0000E+00  0.0000E+00  0.0000E+00  0.0000E+00  0.0000E+00  0.0000E+00  0.0000E+00  0.0000E+00  0.0000E+00  0.0000E+00  0.0000E+00  0.0000E+00  0.0000E+00  0.0000E+00  0.0000E+00  0.0000E+00  0.0000E+00  0.0000E+00  0.0000E+00  0.5396E-08  0.1427E-07  0.2122E-07  0.3163E-07  0.3997E-07  0.4887E-07  0.5826E-07  0.7121E-07  0.8141E-07  0.9183E-07  0.1101E-06  0.1258E-06  0.1303E-06  0.1539E-06  0.1581E-06  0.1616E-06
  0.2514E-06  0.2622E-06  0.2728E-06  0.2855E-06  0.2959E-06  0.3083E-06  0.3182E-06  0.3278E-06  0.3393E-06  0.3480E-06  0.3562E-06  0.3663E-06  0.3733E-06  0.3796E-06  0.3852E-06  0.3927E-06  0.3967E-06  0.3999E-06  0.4022E-06  0.4036E-06  0.4041E-06  0.4037E-06  0.4024E-06  0.4001E-06  0.3969E-06  0.3929E-06  0.3880E-06  0.3822E-06  0.3757E-06  0.3685E-06  0.3605E-06  0.3519E-06  0.3427E-06  0.3305E-06  0.3204E-06  0.3099E-06  0.2990E-06  0.2856E-06  0.2743E-06  0.2606E-06  0.2493E-06  0.2379E-06  0.2113E-06  0.1514E-06  0.8422E-07  0.1277E-07  0.0000E+00  0.0000E+00  0.0000E+00  0.0000E+00  0.0000E+00  0.0000E+00  0.0000E+00  0.0000E+00  0.0000E+00  0.0000E+00  0.0000E+00  0.0000E+00  0.0000E+00  0.0000E+00  0.2873E-08  0.1204E-07  0.2246E-07  0.3094E-07  0.4339E-07  0.5370E-07  0.6477E-07  0.8003E-07  0.9247E-07  0.1089E-06  0.1398E-06  0.1471E-06  0.1650E-06  0.1830E-06  0.1893E-06  0.2149E-06  0.2204E-06  0.2247E-06  0.2371E-06
  0.2880E-06  0.3005E-06  0.3128E-06  0.3272E-06  0.3392E-06  0.3533E-06  0.3648E-06  0.3759E-06  0.3890E-06  0.3991E-06  0.4086E-06  0.4201E-06  0.4283E-06  0.4357E-06  0.4422E-06  0.4507E-06  0.4555E-06  0.4592E-06  0.4620E-06  0.4637E-06  0.4643E-06  0.4669E-06  0.4655E-06  0.4630E-06  0.4594E-06  0.4548E-06  0.4491E-06  0.4425E-06  0.4350E-06  0.4237E-06  0.4146E-06  0.4047E-06  0.3941E-06  0.3829E-06  0.3684E-06  0.3563E-06  0.3438E-06  0.3284E-06  0.3154E-06  0.3023E-06  0.2867E-06  0.2735E-06  0.2581E-06  0.2452E-06  0.2302E-06  0.1832E-06  0.1179E-06  0.3580E-07  0.1584E-07  0.1935E-07  0.1971E-07  0.2651E-07  0.2674E-07  0.2684E-07  0.2678E-07  0.2658E-07  0.2624E-07  0.2253E-07  0.1895E-07  0.1690E-07  0.2889E-07  0.4247E-07  0.5398E-07  0.7016E-07  0.8398E-07  0.1027E-06  0.1224E-06  0.1587E-06  0.1691E-06  0.2041E-06  0.2148E-06  0.2358E-06  0.2566E-06  0.2649E-06  0.2926E-06  0.2993E-06  0.3044E-06  0.3175E-06  0.3297E-06
  0.3269E-06  0.3434E-06  0.3576E-06  0.3740E-06  0.3879E-06  0.4039E-06  0.4172E-06  0.4299E-06  0.4448E-06  0.4566E-06  0.4676E-06  0.4807E-06  0.4902E-06  0.4988E-06  0.5094E-06  0.5161E-06  0.5217E-06  0.5261E-06  0.5294E-06  0.5347E-06  0.5356E-06  0.5353E-06  0.5337E-06  0.5309E-06  0.5268E-06  0.5216E-06  0.5152E-06  0.5077E-06  0.4991E-06  0.4894E-06  0.4789E-06  0.4643E-06  0.4522E-06  0.4393E-06  0.4258E-06  0.4088E-06  0.3944E-06  0.3796E-06  0.3619E-06  0.3468E-06  0.3289E-06  0.3196E-06  0.3109E-06  0.2974E-06  0.2867E-06  0.2776E-06  0.2694E-06  0.2306E-06  0.1581E-06  0.7794E-07  0.5594E-07  0.6480E-07  0.6573E-07  0.6629E-07  0.7048E-07  0.7442E-07  0.7379E-07  0.6872E-07  0.6507E-07  0.6788E-07  0.6973E-07  0.8533E-07  0.1064E-06  0.1294E-06  0.1750E-06  0.1895E-06  0.2316E-06  0.2470E-06  0.2870E-06  0.3016E-06  0.3263E-06  0.3502E-06  0.3607E-06  0.3906E-06  0.3984E-06  0.4042E-06  0.4176E-06  0.4298E-06  0.4311E-06
  0.3729E-06  0.3916E-06  0.4079E-06  0.4265E-06  0.4425E-06  0.4607E-06  0.4760E-06  0.4907E-06  0.5077E-06  0.5213E-06  0.5340E-06  0.5490E-06  0.5600E-06  0.5700E-06  0.5821E-06  0.5899E-06  0.5965E-06  0.6017E-06  0.6091E-06  0.6117E-06  0.6129E-06  0.6126E-06  0.6109E-06  0.6078E-06  0.6033E-06  0.5973E-06  0.5900E-06  0.5814E-06  0.5716E-06  0.5606E-06  0.5485E-06  0.5353E-06  0.5179E-06  0.5031E-06  0.4876E-06  0.4714E-06  0.4517E-06  0.4347E-06  0.4233E-06  0.4094E-06  0.3991E-06  0.3835E-06  0.3746E-06  0.3603E-06  0.3530E-06  0.3442E-06  0.3387E-06  0.3279E-06  0.3177E-06  0.2882E-06  0.2140E-06  0.1192E-06  0.1377E-06  0.1562E-06  0.1582E-06  0.1591E-06  0.1590E-06  0.1596E-06  0.1624E-06  0.1678E-06  0.1761E-06  0.1875E-06  0.2054E-06  0.2400E-06  0.2764E-06  0.3256E-06  0.3472E-06  0.3931E-06  0.4125E-06  0.4413E-06  0.4686E-06  0.4815E-06  0.5136E-06  0.5223E-06  0.5285E-06  0.5419E-06  0.5536E-06  0.5536E-06  0.5517E-06
  0.4242E-06  0.4454E-06  0.4641E-06  0.4852E-06  0.5035E-06  0.5214E-06  0.5418E-06  0.5588E-06  0.5781E-06  0.5937E-06  0.6085E-06  0.6255E-06  0.6383E-06  0.6499E-06  0.6637E-06  0.6729E-06  0.6806E-06  0.6867E-06  0.6952E-06  0.6983E-06  0.6999E-06  0.6997E-06  0.6979E-06  0.6945E-06  0.6894E-06  0.6827E-06  0.6744E-06  0.6647E-06  0.6534E-06  0.6409E-06  0.6270E-06  0.6119E-06  0.5958E-06  0.5751E-06  0.5573E-06  0.5387E-06  0.5257E-06  0.5097E-06  0.4975E-06  0.4828E-06  0.4721E-06  0.4593E-06  0.4506E-06  0.4401E-06  0.4336E-06  0.4258E-06  0.4174E-06  0.4165E-06  0.4376E-06  0.4266E-06  0.4155E-06  0.4049E-06  0.3113E-06  0.2334E-06  0.2370E-06  0.2388E-06  0.2410E-06  0.2452E-06  0.2518E-06  0.2614E-06  0.2743E-06  0.2977E-06  0.3420E-06  0.3875E-06  0.4312E-06  0.4745E-06  0.5142E-06  0.5522E-06  0.5858E-06  0.6168E-06  0.6322E-06  0.6664E-06  0.6758E-06  0.6818E-06  0.6947E-06  0.7052E-06  0.7033E-06  0.6989E-06  0.7099E-06
  0.4813E-06  0.5053E-06  0.5267E-06  0.5506E-06  0.5716E-06  0.5922E-06  0.6153E-06  0.6348E-06  0.6568E-06  0.6748E-06  0.6918E-06  0.7112E-06  0.7260E-06  0.7395E-06  0.7554E-06  0.7660E-06  0.7750E-06  0.7863E-06  0.7920E-06  0.7959E-06  0.7978E-06  0.7979E-06  0.7960E-06  0.8192E-06  0.8138E-06  0.8064E-06  0.7971E-06  0.7858E-06  0.7726E-06  0.7315E-06  0.7156E-06  0.6984E-06  0.6799E-06  0.6632E-06  0.6450E-06  0.6310E-06  0.6172E-06  0.6002E-06  0.5876E-06  0.5759E-06  0.5580E-06  0.5484E-06  0.5371E-06  0.5303E-06  0.5315E-06  0.5481E-06  0.5392E-06  0.5603E-06  0.5542E-06  0.5454E-06  0.5692E-06  0.5633E-06  0.5541E-06  0.4887E-06  0.3627E-06  0.3446E-06  0.3514E-06  0.3603E-06  0.3721E-06  0.3871E-06  0.4153E-06  0.4714E-06  0.5283E-06  0.5823E-06  0.6348E-06  0.6825E-06  0.7272E-06  0.7660E-06  0.8011E-06  0.8190E-06  0.8550E-06  0.8647E-06  0.8700E-06  0.8815E-06  0.8900E-06  0.8851E-06  0.8772E-06  0.8847E-06  0.8725E-06
  0.5449E-06  0.5693E-06  0.5965E-06  0.6206E-06  0.6476E-06  0.6711E-06  0.6973E-06  0.7197E-06  0.7447E-06  0.7655E-06  0.7851E-06  0.8072E-06  0.8244E-06  0.8439E-06  0.8581E-06  0.8706E-06  0.8812E-06  0.9175E-06  0.9255E-06  0.9313E-06  0.9348E-06  0.9359E-06  0.9347E-06  0.9312E-06  0.9527E-06  0.9444E-06  0.9063E-06  0.8936E-06  0.8787E-06  0.8617E-06  0.8429E-06  0.8224E-06  0.8064E-06  0.7899E-06  0.7732E-06  0.7307E-06  0.7159E-06  0.7019E-06  0.6888E-06  0.6772E-06  0.6634E-06  0.6550E-06  0.6495E-06  0.6684E-06  0.6719E-06  0.6818E-06  0.7064E-06  0.7015E-06  0.6993E-06  0.7274E-06  0.7230E-06  0.7196E-06  0.7120E-06  0.7024E-06  0.6950E-06  0.5863E-06  0.4981E-06  0.5134E-06  0.5316E-06  0.5646E-06  0.6342E-06  0.7050E-06  0.7717E-06  0.8352E-06  0.8923E-06  0.9446E-06  0.9763E-06  0.1029E-05  0.1049E-05  0.1086E-05  0.1096E-05  0.1099E-05  0.1119E-05  0.1114E-05  0.1105E-05  0.1092E-05  0.1095E-05  0.1077E-05  0.1057E-05
  0.6154E-06  0.6431E-06  0.6738E-06  0.7014E-06  0.7319E-06  0.7588E-06  0.7885E-06  0.8141E-06  0.8425E-06  0.8664E-06  0.8889E-06  0.9142E-06  0.9340E-06  0.9788E-06  0.9972E-06  0.1013E-05  0.1055E-05  0.1068E-05  0.1079E-05  0.1087E-05  0.1092E-05  0.1095E-05  0.1094E-05  0.1091E-05  0.1085E-05  0.1075E-05  0.1063E-05  0.1048E-05  0.1031E-05  0.1011E-05  0.9942E-06  0.9765E-06  0.9579E-06  0.9388E-06  0.8935E-06  0.8760E-06  0.8591E-06  0.8430E-06  0.8019E-06  0.7907E-06  0.7906E-06  0.8031E-06  0.8209E-06  0.8314E-06  0.8422E-06  0.8589E-06  0.8751E-06  0.8756E-06  0.9128E-06  0.9141E-06  0.9138E-06  0.9139E-06  0.9086E-06  0.9028E-06  0.9009E-06  0.8989E-06  0.8664E-06  0.7134E-06  0.7516E-06  0.8193E-06  0.9236E-06  0.1005E-05  0.1082E-05  0.1150E-05  0.1211E-05  0.1249E-05  0.1306E-05  0.1329E-05  0.1367E-05  0.1376E-05  0.1377E-05  0.1393E-05  0.1383E-05  0.1368E-05  0.1349E-05  0.1345E-05  0.1320E-05  0.1292E-05  0.1262E-05
  0.6934E-06  0.7249E-06  0.7596E-06  0.7910E-06  0.8254E-06  0.8561E-06  0.8898E-06  0.9191E-06  0.9474E-06  0.9787E-06  0.1005E-05  0.1057E-05  0.1082E-05  0.1134E-05  0.1157E-05  0.1178E-05  0.1225E-05  0.1242E-05  0.1256E-05  0.1267E-05  0.1275E-05  0.1278E-05  0.1279E-05  0.1275E-05  0.1268E-05  0.1258E-05  0.1244E-05  0.1226E-05  0.1205E-05  0.1188E-05  0.1171E-05  0.1151E-05  0.1101E-05  0.1080E-05  0.1060E-05  0.1043E-05  0.1024E-05  0.9793E-06  0.9696E-06  0.9689E-06  0.9850E-06  0.9823E-06  0.9968E-06  0.1028E-05  0.1048E-05  0.1074E-05  0.1082E-05  0.1128E-05  0.1137E-05  0.1145E-05  0.1153E-05  0.1155E-05  0.1155E-05  0.1174E-05  0.1180E-05  0.1168E-05  0.1176E-05  0.1201E-05  0.1100E-05  0.1192E-05  0.1292E-05  0.1384E-05  0.1465E-05  0.1536E-05  0.1581E-05  0.1644E-05  0.1668E-05  0.1695E-05  0.1713E-05  0.1710E-05  0.1721E-05  0.1705E-05  0.1682E-05  0.1655E-05  0.1642E-05  0.1607E-05  0.1570E-05  0.1530E-05  0.1504E-05
  0.7762E-06  0.8151E-06  0.8507E-06  0.8898E-06  0.9250E-06  0.9637E-06  0.9978E-06  0.1035E-05  0.1068E-05  0.1127E-05  0.1187E-05  0.1221E-05  0.1252E-05  0.1312E-05  0.1341E-05  0.1371E-05  0.1425E-05  0.1450E-05  0.1468E-05  0.1484E-05  0.1496E-05  0.1502E-05  0.1503E-05  0.1500E-05  0.1492E-05  0.1480E-05  0.1463E-05  0.1445E-05  0.1428E-05  0.1405E-05  0.1349E-05  0.1326E-05  0.1299E-05  0.1274E-05  0.1250E-05  0.1226E-05  0.1177E-05  0.1168E-05  0.1176E-05  0.1191E-05  0.1189E-05  0.1223E-05  0.1262E-05  0.1248E-05  0.1300E-05  0.1317E-05  0.1370E-05  0.1393E-05  0.1412E-05  0.1428E-05  0.1444E-05  0.1490E-05  0.1501E-05  0.1513E-05  0.1528E-05  0.1525E-05  0.1537E-05  0.1613E-05  0.1740E-05  0.1757E-05  0.1752E-05  0.1848E-05  0.1931E-05  0.1984E-05  0.2051E-05  0.2077E-05  0.2103E-05  0.2118E-05  0.2109E-05  0.2113E-05  0.2088E-05  0.2055E-05  0.2017E-05  0.1994E-05  0.1947E-05  0.1897E-05  0.1843E-05  0.1806E-05  0.1751E-05
  0.8707E-06  0.9144E-06  0.9548E-06  0.9987E-06  0.1039E-05  0.1082E-05  0.1121E-05  0.1187E-05  0.1255E-05  0.1297E-05  0.1369E-05  0.1412E-05  0.1485E-05  0.1526E-05  0.1565E-05  0.1602E-05  0.1664E-05  0.1696E-05  0.1719E-05  0.1746E-05  0.1759E-05  0.1769E-05  0.1774E-05  0.1771E-05  0.1762E-05  0.1747E-05  0.1733E-05  0.1715E-05  0.1693E-05  0.1633E-05  0.1607E-05  0.1571E-05  0.1537E-05  0.1508E-05  0.1446E-05  0.1417E-05  0.1395E-05  0.1415E-05  0.1417E-05  0.1444E-05  0.1479E-05  0.1506E-05  0.1515E-05  0.1575E-05  0.1606E-05  0.1648E-05  0.1685E-05  0.1723E-05  0.1755E-05  0.1820E-05  0.1850E-05  0.1875E-05  0.1901E-05  0.1926E-05  0.1953E-05  0.1991E-05  0.2042E-05  0.2192E-05  0.2300E-05  0.2429E-05  0.2505E-05  0.2409E-05  0.2470E-05  0.2543E-05  0.2570E-05  0.2593E-05  0.2602E-05  0.2587E-05  0.2582E-05  0.2546E-05  0.2501E-05  0.2449E-05  0.2412E-05  0.2348E-05  0.2283E-05  0.2215E-05  0.2163E-05  0.2093E-05  0.2021E-05
  0.9746E-06  0.1020E-05  0.1069E-05  0.1119E-05  0.1164E-05  0.1236E-05  0.1311E-05  0.1363E-05  0.1444E-05  0.1499E-05  0.1585E-05  0.1639E-05  0.1724E-05  0.1775E-05  0.1827E-05  0.1872E-05  0.1947E-05  0.1984E-05  0.2016E-05  0.2044E-05  0.2061E-05  0.2077E-05  0.2081E-05  0.2081E-05  0.2070E-05  0.2062E-05  0.2046E-05  0.1992E-05  0.1967E-05  0.1933E-05  0.1905E-05  0.1866E-05  0.1830E-05  0.1764E-05  0.1727E-05  0.1687E-05  0.1708E-05  0.1687E-05  0.1722E-05  0.1761E-05  0.1767E-05  0.1827E-05  0.1899E-05  0.1943E-05  0.2000E-05  0.2053E-05  0.2082E-05  0.2137E-05  0.2222E-05  0.2268E-05  0.2316E-05  0.2360E-05  0.2402E-05  0.2440E-05  0.2492E-05  0.2595E-05  0.2731E-05  0.2864E-05  0.3012E-05  0.3106E-05  0.3211E-05  0.3260E-05  0.3125E-05  0.3153E-05  0.3174E-05  0.3176E-05  0.3150E-05  0.3135E-05  0.3084E-05  0.3023E-05  0.2964E-05  0.2898E-05  0.2818E-05  0.2735E-05  0.2648E-05  0.2576E-05  0.2488E-05  0.2398E-05  0.2309E-05
  0.1088E-05  0.1139E-05  0.1195E-05  0.1246E-05  0.1326E-05  0.1414E-05  0.1503E-05  0.1598E-05  0.1666E-05  0.1763E-05  0.1832E-05  0.1904E-05  0.2002E-05  0.2067E-05  0.2127E-05  0.2184E-05  0.2269E-05  0.2317E-05  0.2356E-05  0.2399E-05  0.2434E-05  0.2448E-05  0.2455E-05  0.2452E-05  0.2447E-05  0.2401E-05  0.2383E-05  0.2358E-05  0.2332E-05  0.2297E-05  0.2258E-05  0.2188E-05  0.2147E-05  0.2105E-05  0.2039E-05  0.2054E-05  0.2058E-05  0.2072E-05  0.2099E-05  0.2122E-05  0.2193E-05  0.2257E-05  0.2299E-05  0.2383E-05  0.2473E-05  0.2516E-05  0.2613E-05  0.2703E-05  0.2750E-05  0.2827E-05  0.2897E-05  0.2968E-05  0.3027E-05  0.3093E-05  0.3212E-05  0.3374E-05  0.3537E-05  0.3710E-05  0.3822E-05  0.3938E-05  0.3996E-05  0.4055E-05  0.4059E-05  0.3861E-05  0.3856E-05  0.3818E-05  0.3788E-05  0.3719E-05  0.3628E-05  0.3550E-05  0.3464E-05  0.3362E-05  0.3254E-05  0.3145E-05  0.3051E-05  0.2939E-05  0.2828E-05  0.2718E-05  0.2610E-05
  0.1208E-05  0.1270E-05  0.1328E-05  0.1447E-05  0.1545E-05  0.1620E-05  0.1727E-05  0.1837E-05  0.1919E-05  0.2038E-05  0.2122E-05  0.2239E-05  0.2322E-05  0.2399E-05  0.2475E-05  0.2543E-05  0.2663E-05  0.2718E-05  0.2777E-05  0.2828E-05  0.2857E-05  0.2876E-05  0.2885E-05  0.2854E-05  0.2849E-05  0.2836E-05  0.2814E-05  0.2788E-05  0.2751E-05  0.2708E-05  0.2632E-05  0.2584E-05  0.2533E-05  0.2482E-05  0.2450E-05  0.2465E-05  0.2496E-05  0.2544E-05  0.2539E-05  0.2611E-05  0.2676E-05  0.2760E-05  0.2854E-05  0.2958E-05  0.3023E-05  0.3138E-05  0.3253E-05  0.3325E-05  0.3434E-05  0.3514E-05  0.3609E-05  0.3695E-05  0.3785E-05  0.3926E-05  0.4112E-05  0.4311E-05  0.4515E-05  0.4649E-05  0.4781E-05  0.4844E-05  0.4905E-05  0.4905E-05  0.4892E-05  0.4853E-05  0.4584E-05  0.4537E-05  0.4447E-05  0.4339E-05  0.4230E-05  0.4120E-05  0.3992E-05  0.3859E-05  0.3728E-05  0.3595E-05  0.3457E-05  0.3320E-05  0.3185E-05  0.3052E-05  0.2939E-05
  0.1343E-05  0.1438E-05  0.1540E-05  0.1649E-05  0.1765E-05  0.1886E-05  0.1981E-05  0.2112E-05  0.2245E-05  0.2349E-05  0.2451E-05  0.2588E-05  0.2688E-05  0.2805E-05  0.2893E-05  0.3001E-05  0.3077E-05  0.3181E-05  0.3265E-05  0.3314E-05  0.3350E-05  0.3338E-05  0.3356E-05  0.3363E-05  0.3357E-05  0.3341E-05  0.3314E-05  0.3277E-05  0.3201E-05  0.3151E-05  0.3095E-05  0.3039E-05  0.2976E-05  0.2930E-05  0.2949E-05  0.2971E-05  0.2983E-05  0.3008E-05  0.3083E-05  0.3172E-05  0.3266E-05  0.3357E-05  0.3498E-05  0.3585E-05  0.3725E-05  0.3842E-05  0.3982E-05  0.4114E-05  0.4228E-05  0.4357E-05  0.4451E-05  0.4576E-05  0.4746E-05  0.4962E-05  0.5194E-05  0.5435E-05  0.5599E-05  0.5750E-05  0.5823E-05  0.5887E-05  0.5881E-05  0.5855E-05  0.5799E-05  0.5705E-05  0.5612E-05  0.5282E-05  0.5152E-05  0.5010E-05  0.4869E-05  0.4711E-05  0.4547E-05  0.4385E-05  0.4223E-05  0.4051E-05  0.3880E-05  0.3716E-05  0.3557E-05  0.3417E-05  0.3258E-05
  0.1519E-05  0.1630E-05  0.1749E-05  0.1877E-05  0.2012E-05  0.2157E-05  0.2305E-05  0.2425E-05  0.2582E-05  0.2706E-05  0.2830E-05  0.3010E-05  0.3141E-05  0.3268E-05  0.3390E-05  0.3506E-05  0.3600E-05  0.3710E-05  0.3783E-05  0.3843E-05  0.3888E-05  0.3924E-05  0.3947E-05  0.3954E-05  0.3961E-05  0.3927E-05  0.3893E-05  0.3813E-05  0.3759E-05  0.3701E-05  0.3632E-05  0.3562E-05  0.3510E-05  0.3503E-05  0.3530E-05  0.3532E-05  0.3578E-05  0.3627E-05  0.3708E-05  0.3844E-05  0.3949E-05  0.4077E-05  0.4216E-05  0.4384E-05  0.4531E-05  0.4706E-05  0.4875E-05  0.5029E-05  0.5197E-05  0.5337E-05  0.5505E-05  0.5720E-05  0.5956E-05  0.6233E-05  0.6498E-05  0.6717E-05  0.6892E-05  0.6976E-05  0.7042E-05  0.7026E-05  0.6985E-05  0.6902E-05  0.6773E-05  0.6646E-05  0.6472E-05  0.6288E-05  0.5915E-05  0.5723E-05  0.5529E-05  0.5329E-05  0.5142E-05  0.4934E-05  0.4728E-05  0.4516E-05  0.4314E-05  0.4139E-05  0.3953E-05  0.3767E-05  0.3585E-05
  0.1745E-05  0.1876E-05  0.2018E-05  0.2173E-05  0.2333E-05  0.2466E-05  0.2640E-05  0.2784E-05  0.2968E-05  0.3137E-05  0.3296E-05  0.3495E-05  0.3666E-05  0.3808E-05  0.3969E-05  0.4096E-05  0.4224E-05  0.4341E-05  0.4430E-05  0.4502E-05  0.4563E-05  0.4607E-05  0.4647E-05  0.4655E-05  0.4646E-05  0.4607E-05  0.4529E-05  0.4476E-05  0.4409E-05  0.4332E-05  0.4220E-05  0.4170E-05  0.4173E-05  0.4188E-05  0.4178E-05  0.4233E-05  0.4278E-05  0.4362E-05  0.4487E-05  0.4621E-05  0.4766E-05  0.4926E-05  0.5120E-05  0.5300E-05  0.5512E-05  0.5712E-05  0.5953E-05  0.6185E-05  0.6379E-05  0.6589E-05  0.6815E-05  0.7115E-05  0.7437E-05  0.7729E-05  0.7988E-05  0.8192E-05  0.8294E-05  0.8362E-05  0.8346E-05  0.8290E-05  0.8190E-05  0.8036E-05  0.7879E-05  0.7666E-05  0.7432E-05  0.7190E-05  0.6924E-05  0.6484E-05  0.6217E-05  0.5986E-05  0.5738E-05  0.5491E-05  0.5241E-05  0.5003E-05  0.4787E-05  0.4560E-05  0.4338E-05  0.4125E-05  0.3917E-05
  0.1969E-05  0.2122E-05  0.2290E-05  0.2466E-05  0.2653E-05  0.2849E-05  0.3017E-05  0.3227E-05  0.3427E-05  0.3630E-05  0.3875E-05  0.4070E-05  0.4262E-05  0.4461E-05  0.4626E-05  0.4793E-05  0.4948E-05  0.5073E-05  0.5181E-05  0.5271E-05  0.5344E-05  0.5409E-05  0.5456E-05  0.5465E-05  0.5413E-05  0.5356E-05  0.5306E-05  0.5238E-05  0.5156E-05  0.5024E-05  0.4922E-05  0.4945E-05  0.4907E-05  0.4935E-05  0.4961E-05  0.5043E-05  0.5098E-05  0.5225E-05  0.5386E-05  0.5543E-05  0.5721E-05  0.5908E-05  0.6180E-05  0.6454E-05  0.6698E-05  0.6981E-05  0.7306E-05  0.7557E-05  0.7827E-05  0.8107E-05  0.8414E-05  0.8754E-05  0.9128E-05  0.9432E-05  0.9631E-05  0.9774E-05  0.9856E-05  0.9837E-05  0.9766E-05  0.9645E-05  0.9458E-05  0.9264E-05  0.9007E-05  0.8726E-05  0.8448E-05  0.8135E-05  0.7803E-05  0.7450E-05  0.7004E-05  0.6672E-05  0.6359E-05  0.6053E-05  0.5772E-05  0.5515E-05  0.5251E-05  0.4986E-05  0.4729E-05  0.4487E-05  0.4255E-05
  0.2255E-05  0.2436E-05  0.2631E-05  0.2838E-05  0.3024E-05  0.3254E-05  0.3474E-05  0.3744E-05  0.3983E-05  0.4214E-05  0.4489E-05  0.4737E-05  0.4967E-05  0.5191E-05  0.5391E-05  0.5604E-05  0.5775E-05  0.5925E-05  0.6054E-05  0.6165E-05  0.6264E-05  0.6338E-05  0.6331E-05  0.6344E-05  0.6328E-05  0.6260E-05  0.6197E-05  0.6073E-05  0.5977E-05  0.5863E-05  0.5846E-05  0.5797E-05  0.5809E-05  0.5856E-05  0.5872E-05  0.5955E-05  0.6098E-05  0.6226E-05  0.6405E-05  0.6616E-05  0.6879E-05  0.7178E-05  0.7483E-05  0.7784E-05  0.8138E-05  0.8466E-05  0.8800E-05  0.9128E-05  0.9461E-05  0.9860E-05  0.1023E-04  0.1061E-04  0.1097E-04  0.1123E-04  0.1138E-04  0.1146E-04  0.1146E-04  0.1138E-04  0.1124E-04  0.1103E-04  0.1079E-04  0.1050E-04  0.1017E-04  0.9849E-05  0.9487E-05  0.9104E-05  0.8715E-05  0.8345E-05  0.7897E-05  0.7400E-05  0.7027E-05  0.6681E-05  0.6354E-05  0.6023E-05  0.5711E-05  0.5404E-05  0.5115E-05  0.4847E-05  0.4589E-05
  0.2540E-05  0.2752E-05  0.2979E-05  0.3222E-05  0.3439E-05  0.3729E-05  0.4005E-05  0.4324E-05  0.4597E-05  0.4888E-05  0.5226E-05  0.5494E-05  0.5783E-05  0.6037E-05  0.6291E-05  0.6528E-05  0.6732E-05  0.6912E-05  0.7070E-05  0.7215E-05  0.7329E-05  0.7398E-05  0.7396E-05  0.7404E-05  0.7380E-05  0.7299E-05  0.7178E-05  0.7076E-05  0.6957E-05  0.6845E-05  0.6862E-05  0.6836E-05  0.6865E-05  0.6883E-05  0.6984E-05  0.7104E-05  0.7227E-05  0.7387E-05  0.7690E-05  0.7935E-05  0.8290E-05  0.8586E-05  0.8937E-05  0.9353E-05  0.9715E-05  0.1012E-04  0.1048E-04  0.1091E-04  0.1138E-04  0.1183E-04  0.1227E-04  0.1267E-04  0.1299E-04  0.1317E-04  0.1327E-04  0.1325E-04  0.1316E-04  0.1300E-04  0.1275E-04  0.1248E-04  0.1213E-04  0.1175E-04  0.1137E-04  0.1095E-04  0.1051E-04  0.1006E-04  0.9635E-05  0.9195E-05  0.8758E-05  0.8242E-05  0.7711E-05  0.7334E-05  0.6951E-05  0.6576E-05  0.6207E-05  0.5838E-05  0.5515E-05  0.5209E-05  0.4926E-05
  0.2895E-05  0.3143E-05  0.3370E-05  0.3654E-05  0.3988E-05  0.4301E-05  0.4660E-05  0.4992E-05  0.5333E-05  0.5711E-05  0.6049E-05  0.6384E-05  0.6713E-05  0.7030E-05  0.7331E-05  0.7598E-05  0.7840E-05  0.8055E-05  0.8255E-05  0.8425E-05  0.8499E-05  0.8580E-05  0.8622E-05  0.8625E-05  0.8591E-05  0.8454E-05  0.8355E-05  0.8228E-05  0.8038E-05  0.8061E-05  0.8057E-05  0.8050E-05  0.8065E-05  0.8145E-05  0.8249E-05  0.8359E-05  0.8624E-05  0.8901E-05  0.9119E-05  0.9471E-05  0.9791E-05  0.1018E-04  0.1064E-04  0.1106E-04  0.1153E-04  0.1197E-04  0.1248E-04  0.1299E-04  0.1354E-04  0.1407E-04  0.1452E-04  0.1489E-04  0.1512E-04  0.1524E-04  0.1523E-04  0.1513E-04  0.1493E-04  0.1465E-04  0.1433E-04  0.1393E-04  0.1350E-04  0.1306E-04  0.1256E-04  0.1206E-04  0.1154E-04  0.1104E-04  0.1053E-04  0.1003E-04  0.9532E-05  0.9033E-05  0.8501E-05  0.7975E-05  0.7557E-05  0.7129E-05  0.6710E-05  0.6337E-05  0.5933E-05  0.5568E-05  0.5254E-05
  0.3257E-05  0.3546E-05  0.3857E-05  0.4192E-05  0.4573E-05  0.4944E-05  0.5368E-05  0.5762E-05  0.6154E-05  0.6612E-05  0.7014E-05  0.7413E-05  0.7789E-05  0.8177E-05  0.8519E-05  0.8835E-05  0.9120E-05  0.9390E-05  0.9576E-05  0.9755E-05  0.9890E-05  0.9980E-05  0.1002E-04  0.1002E-04  0.9902E-05  0.9816E-05  0.9693E-05  0.9550E-05  0.9394E-05  0.9470E-05  0.9416E-05  0.9446E-05  0.9500E-05  0.9539E-05  0.9787E-05  0.9977E-05  0.1018E-04  0.1043E-04  0.1078E-04  0.1112E-04  0.1154E-04  0.1201E-04  0.1252E-04  0.1305E-04  0.1357E-04  0.1416E-04  0.1475E-04  0.1538E-04  0.1595E-04  0.1650E-04  0.1690E-04  0.1723E-04  0.1739E-04  0.1739E-04  0.1729E-04  0.1706E-04  0.1675E-04  0.1637E-04  0.1592E-04  0.1542E-04  0.1491E-04  0.1435E-04  0.1377E-04  0.1318E-04  0.1260E-04  0.1201E-04  0.1143E-04  0.1086E-04  0.1031E-04  0.9786E-05  0.9230E-05  0.8666E-05  0.8110E-05  0.7668E-05  0.7241E-05  0.6797E-05  0.6386E-05  0.5994E-05  0.5613E-05
  0.3704E-05  0.3999E-05  0.4409E-05  0.4840E-05  0.5255E-05  0.5729E-05  0.6180E-05  0.6647E-05  0.7113E-05  0.7635E-05  0.8125E-05  0.8583E-05  0.9043E-05  0.9485E-05  0.9888E-05  0.1026E-04  0.1056E-04  0.1088E-04  0.1113E-04  0.1134E-04  0.1149E-04  0.1159E-04  0.1158E-04  0.1157E-04  0.1148E-04  0.1138E-04  0.1119E-04  0.1102E-04  0.1106E-04  0.1103E-04  0.1103E-04  0.1107E-04  0.1120E-04  0.1133E-04  0.1149E-04  0.1164E-04  0.1191E-04  0.1225E-04  0.1259E-04  0.1302E-04  0.1353E-04  0.1408E-04  0.1464E-04  0.1526E-04  0.1594E-04  0.1661E-04  0.1732E-04  0.1799E-04  0.1862E-04  0.1910E-04  0.1949E-04  0.1967E-04  0.1972E-04  0.1958E-04  0.1938E-04  0.1901E-04  0.1862E-04  0.1808E-04  0.1752E-04  0.1695E-04  0.1631E-04  0.1565E-04  0.1497E-04  0.1431E-04  0.1364E-04  0.1297E-04  0.1233E-04  0.1171E-04  0.1109E-04  0.1051E-04  0.9939E-05  0.9319E-05  0.8721E-05  0.8179E-05  0.7690E-05  0.7264E-05  0.6828E-05  0.6404E-05  0.5992E-05
  0.4165E-05  0.4605E-05  0.5040E-05  0.5546E-05  0.6024E-05  0.6580E-05  0.7114E-05  0.7653E-05  0.8220E-05  0.8780E-05  0.9393E-05  0.9947E-05  0.1049E-04  0.1099E-04  0.1141E-04  0.1186E-04  0.1228E-04  0.1263E-04  0.1294E-04  0.1316E-04  0.1332E-04  0.1337E-04  0.1341E-04  0.1339E-04  0.1328E-04  0.1311E-04  0.1295E-04  0.1275E-04  0.1290E-04  0.1287E-04  0.1293E-04  0.1299E-04  0.1308E-04  0.1320E-04  0.1332E-04  0.1357E-04  0.1385E-04  0.1422E-04  0.1465E-04  0.1517E-04  0.1576E-04  0.1637E-04  0.1706E-04  0.1778E-04  0.1858E-04  0.1939E-04  0.2014E-04  0.2086E-04  0.2143E-04  0.2191E-04  0.2212E-04  0.2222E-04  0.2209E-04  0.2189E-04  0.2149E-04  0.2105E-04  0.2046E-04  0.1983E-04  0.1916E-04  0.1844E-04  0.1770E-04  0.1693E-04  0.1618E-04  0.1542E-04  0.1467E-04  0.1394E-04  0.1324E-04  0.1253E-04  0.1186E-04  0.1122E-04  0.1058E-04  0.9961E-05  0.9329E-05  0.8707E-05  0.8174E-05  0.7682E-05  0.7216E-05  0.6787E-05  0.6380E-05
  0.4717E-05  0.5246E-05  0.5795E-05  0.6338E-05  0.6903E-05  0.7556E-05  0.8185E-05  0.8836E-05  0.9475E-05  0.1015E-04  0.1079E-04  0.1146E-04  0.1208E-04  0.1267E-04  0.1323E-04  0.1376E-04  0.1424E-04  0.1464E-04  0.1498E-04  0.1519E-04  0.1538E-04  0.1549E-04  0.1552E-04  0.1546E-04  0.1532E-04  0.1518E-04  0.1500E-04  0.1503E-04  0.1506E-04  0.1510E-04  0.1505E-04  0.1509E-04  0.1516E-04  0.1524E-04  0.1546E-04  0.1569E-04  0.1603E-04  0.1641E-04  0.1697E-04  0.1757E-04  0.1822E-04  0.1896E-04  0.1976E-04  0.2065E-04  0.2152E-04  0.2240E-04  0.2318E-04  0.2389E-04  0.2445E-04  0.2473E-04  0.2488E-04  0.2477E-04  0.2457E-04  0.2415E-04  0.2367E-04  0.2302E-04  0.2233E-04  0.2157E-04  0.2077E-04  0.1992E-04  0.1907E-04  0.1822E-04  0.1737E-04  0.1652E-04  0.1569E-04  0.1490E-04  0.1410E-04  0.1335E-04  0.1262E-04  0.1190E-04  0.1123E-04  0.1058E-04  0.9909E-05  0.9261E-05  0.8636E-05  0.8112E-05  0.7611E-05  0.7154E-05  0.6704E-05
  0.5421E-05  0.5974E-05  0.6618E-05  0.7243E-05  0.7978E-05  0.8687E-05  0.9414E-05  0.1016E-04  0.1095E-04  0.1171E-04  0.1248E-04  0.1324E-04  0.1396E-04  0.1465E-04  0.1532E-04  0.1593E-04  0.1646E-04  0.1692E-04  0.1724E-04  0.1753E-04  0.1773E-04  0.1785E-04  0.1784E-04  0.1779E-04  0.1770E-04  0.1754E-04  0.1728E-04  0.1756E-04  0.1751E-04  0.1745E-04  0.1743E-04  0.1741E-04  0.1748E-04  0.1761E-04  0.1774E-04  0.1806E-04  0.1840E-04  0.1894E-04  0.1949E-04  0.2019E-04  0.2098E-04  0.2183E-04  0.2286E-04  0.2382E-04  0.2478E-04  0.2564E-04  0.2645E-04  0.2709E-04  0.2748E-04  0.2766E-04  0.2762E-04  0.2739E-04  0.2699E-04  0.2646E-04  0.2579E-04  0.2500E-04  0.2420E-04  0.2329E-04  0.2237E-04  0.2140E-04  0.2045E-04  0.1949E-04  0.1854E-04  0.1761E-04  0.1672E-04  0.1582E-04  0.1497E-04  0.1415E-04  0.1334E-04  0.1258E-04  0.1185E-04  0.1115E-04  0.1048E-04  0.9800E-05  0.9137E-05  0.8510E-05  0.7999E-05  0.7496E-05  0.7039E-05
  0.6194E-05  0.6831E-05  0.7595E-05  0.8332E-05  0.9176E-05  0.1001E-04  0.1088E-04  0.1180E-04  0.1273E-04  0.1365E-04  0.1457E-04  0.1544E-04  0.1627E-04  0.1709E-04  0.1783E-04  0.1850E-04  0.1910E-04  0.1947E-04  0.1989E-04  0.2020E-04  0.2045E-04  0.2053E-04  0.2058E-04  0.2051E-04  0.2033E-04  0.2017E-04  0.2022E-04  0.2022E-04  0.2014E-04  0.2008E-04  0.1999E-04  0.1998E-04  0.2005E-04  0.2014E-04  0.2038E-04  0.2066E-04  0.2115E-04  0.2166E-04  0.2233E-04  0.2309E-04  0.2407E-04  0.2512E-04  0.2618E-04  0.2726E-04  0.2826E-04  0.2912E-04  0.2985E-04  0.3037E-04  0.3062E-04  0.3064E-04  0.3043E-04  0.3002E-04  0.2945E-04  0.2875E-04  0.2790E-04  0.2702E-04  0.2602E-04  0.2500E-04  0.2394E-04  0.2289E-04  0.2180E-04  0.2074E-04  0.1970E-04  0.1870E-04  0.1770E-04  0.1675E-04  0.1583E-04  0.1492E-04  0.1406E-04  0.1325E-04  0.1246E-04  0.1172E-04  0.1102E-04  0.1031E-04  0.9604E-05  0.8968E-05  0.8359E-05  0.7850E-05  0.7366E-05
  0.7069E-05  0.7882E-05  0.8701E-05  0.9621E-05  0.1068E-04  0.1170E-04  0.1279E-04  0.1389E-04  0.1498E-04  0.1608E-04  0.1712E-04  0.1813E-04  0.1914E-04  0.2007E-04  0.2089E-04  0.2152E-04  0.2217E-04  0.2274E-04  0.2312E-04  0.2339E-04  0.2357E-04  0.2363E-04  0.2362E-04  0.2350E-04  0.2335E-04  0.2310E-04  0.2327E-04  0.2317E-04  0.2304E-04  0.2291E-04  0.2281E-04  0.2275E-04  0.2281E-04  0.2297E-04  0.2316E-04  0.2357E-04  0.2403E-04  0.2469E-04  0.2545E-04  0.2643E-04  0.2748E-04  0.2864E-04  0.2977E-04  0.3091E-04  0.3193E-04  0.3276E-04  0.3336E-04  0.3372E-04  0.3378E-04  0.3363E-04  0.3322E-04  0.3261E-04  0.3189E-04  0.3098E-04  0.3000E-04  0.2895E-04  0.2781E-04  0.2667E-04  0.2548E-04  0.2431E-04  0.2311E-04  0.2195E-04  0.2085E-04  0.1974E-04  0.1868E-04  0.1766E-04  0.1664E-04  0.1570E-04  0.1478E-04  0.1389E-04  0.1306E-04  0.1228E-04  0.1152E-04  0.1078E-04  0.1010E-04  0.9382E-05  0.8757E-05  0.8192E-05  0.7637E-05
  0.8050E-05  0.9100E-05  0.1019E-04  0.1132E-04  0.1255E-04  0.1379E-04  0.1503E-04  0.1631E-04  0.1757E-04  0.1885E-04  0.2008E-04  0.2129E-04  0.2242E-04  0.2337E-04  0.2433E-04  0.2519E-04  0.2589E-04  0.2645E-04  0.2684E-04  0.2712E-04  0.2727E-04  0.2734E-04  0.2718E-04  0.2696E-04  0.2665E-04  0.2636E-04  0.2656E-04  0.2636E-04  0.2617E-04  0.2603E-04  0.2587E-04  0.2583E-04  0.2580E-04  0.2595E-04  0.2627E-04  0.2665E-04  0.2723E-04  0.2799E-04  0.2892E-04  0.3000E-04  0.3124E-04  0.3248E-04  0.3371E-04  0.3480E-04  0.3576E-04  0.3646E-04  0.3694E-04  0.3705E-04  0.3696E-04  0.3656E-04  0.3597E-04  0.3518E-04  0.3424E-04  0.3320E-04  0.3206E-04  0.3083E-04  0.2958E-04  0.2829E-04  0.2700E-04  0.2569E-04  0.2442E-04  0.2318E-04  0.2195E-04  0.2078E-04  0.1965E-04  0.1855E-04  0.1747E-04  0.1645E-04  0.1546E-04  0.1454E-04  0.1366E-04  0.1282E-04  0.1202E-04  0.1129E-04  0.1052E-04  0.9811E-05  0.9155E-05  0.8483E-05  0.7927E-05
  0.9536E-05  0.1074E-04  0.1198E-04  0.1330E-04  0.1475E-04  0.1617E-04  0.1764E-04  0.1911E-04  0.2062E-04  0.2206E-04  0.2351E-04  0.2493E-04  0.2614E-04  0.2735E-04  0.2842E-04  0.2931E-04  0.3009E-04  0.3065E-04  0.3108E-04  0.3137E-04  0.3142E-04  0.3137E-04  0.3117E-04  0.3080E-04  0.3037E-04  0.3033E-04  0.3008E-04  0.2984E-04  0.2958E-04  0.2933E-04  0.2917E-04  0.2902E-04  0.2907E-04  0.2920E-04  0.2954E-04  0.3003E-04  0.3071E-04  0.3160E-04  0.3268E-04  0.3395E-04  0.3525E-04  0.3658E-04  0.3778E-04  0.3889E-04  0.3971E-04  0.4029E-04  0.4051E-04  0.4049E-04  0.4010E-04  0.3954E-04  0.3873E-04  0.3774E-04  0.3663E-04  0.3541E-04  0.3408E-04  0.3272E-04  0.3134E-04  0.2991E-04  0.2849E-04  0.2705E-04  0.2570E-04  0.2433E-04  0.2304E-04  0.2180E-04  0.2059E-04  0.1941E-04  0.1828E-04  0.1720E-04  0.1615E-04  0.1517E-04  0.1423E-04  0.1335E-04  0.1253E-04  0.1170E-04  0.1095E-04  0.1022E-04  0.9483E-05  0.8853E-05  0.8227E-05
  0.1120E-04  0.1258E-04  0.1405E-04  0.1567E-04  0.1728E-04  0.1898E-04  0.2068E-04  0.2241E-04  0.2414E-04  0.2592E-04  0.2753E-04  0.2918E-04  0.3069E-04  0.3199E-04  0.3314E-04  0.3409E-04  0.3489E-04  0.3543E-04  0.3587E-04  0.3605E-04  0.3612E-04  0.3596E-04  0.3558E-04  0.3508E-04  0.3448E-04  0.3446E-04  0.3410E-04  0.3361E-04  0.3319E-04  0.3290E-04  0.3264E-04  0.3255E-04  0.3253E-04  0.3273E-04  0.3306E-04  0.3368E-04  0.3445E-04  0.3553E-04  0.3681E-04  0.3817E-04  0.3953E-04  0.4089E-04  0.4205E-04  0.4306E-04  0.4372E-04  0.4407E-04  0.4408E-04  0.4378E-04  0.4318E-04  0.4240E-04  0.4136E-04  0.4022E-04  0.3889E-04  0.3750E-04  0.3605E-04  0.3455E-04  0.3300E-04  0.3147E-04  0.2995E-04  0.2846E-04  0.2698E-04  0.2553E-04  0.2417E-04  0.2282E-04  0.2150E-04  0.2025E-04  0.1907E-04  0.1791E-04  0.1682E-04  0.1578E-04  0.1481E-04  0.1389E-04  0.1298E-04  0.1216E-04  0.1139E-04  0.1060E-04  0.9864E-05  0.9170E-05  0.8541E-05
  0.1315E-04  0.1477E-04  0.1648E-04  0.1832E-04  0.2029E-04  0.2225E-04  0.2430E-04  0.2638E-04  0.2845E-04  0.3044E-04  0.3240E-04  0.3421E-04  0.3582E-04  0.3728E-04  0.3849E-04  0.3956E-04  0.4038E-04  0.4093E-04  0.4128E-04  0.4147E-04  0.4140E-04  0.4093E-04  0.4045E-04  0.3974E-04  0.3935E-04  0.3898E-04  0.3836E-04  0.3779E-04  0.3713E-04  0.3668E-04  0.3640E-04  0.3620E-04  0.3627E-04  0.3644E-04  0.3693E-04  0.3759E-04  0.3859E-04  0.3982E-04  0.4124E-04  0.4267E-04  0.4411E-04  0.4540E-04  0.4651E-04  0.4731E-04  0.4778E-04  0.4784E-04  0.4760E-04  0.4703E-04  0.4623E-04  0.4517E-04  0.4399E-04  0.4260E-04  0.4113E-04  0.3957E-04  0.3793E-04  0.3630E-04  0.3465E-04  0.3302E-04  0.3138E-04  0.2982E-04  0.2824E-04  0.2674E-04  0.2528E-04  0.2388E-04  0.2251E-04  0.2118E-04  0.1984E-04  0.1863E-04  0.1747E-04  0.1639E-04  0.1538E-04  0.1440E-04  0.1349E-04  0.1261E-04  0.1177E-04  0.1098E-04  0.1020E-04  0.9506E-05  0.8831E-05
  0.1540E-04  0.1731E-04  0.1934E-04  0.2148E-04  0.2378E-04  0.2611E-04  0.2860E-04  0.3109E-04  0.3345E-04  0.3579E-04  0.3799E-04  0.4000E-04  0.4183E-04  0.4336E-04  0.4474E-04  0.4587E-04  0.4652E-04  0.4709E-04  0.4742E-04  0.4736E-04  0.4697E-04  0.4651E-04  0.4581E-04  0.4483E-04  0.4443E-04  0.4377E-04  0.4302E-04  0.4218E-04  0.4144E-04  0.4082E-04  0.4043E-04  0.4028E-04  0.4022E-04  0.4052E-04  0.4101E-04  0.4189E-04  0.4304E-04  0.4446E-04  0.4594E-04  0.4746E-04  0.4884E-04  0.5009E-04  0.5101E-04  0.5161E-04  0.5178E-04  0.5159E-04  0.5105E-04  0.5021E-04  0.4914E-04  0.4790E-04  0.4648E-04  0.4493E-04  0.4329E-04  0.4155E-04  0.3985E-04  0.3805E-04  0.3633E-04  0.3456E-04  0.3282E-04  0.3118E-04  0.2951E-04  0.2793E-04  0.2640E-04  0.2490E-04  0.2350E-04  0.2215E-04  0.2073E-04  0.1935E-04  0.1813E-04  0.1700E-04  0.1592E-04  0.1491E-04  0.1394E-04  0.1302E-04  0.1216E-04  0.1134E-04  0.1056E-04  0.9800E-05  0.9068E-05
  0.1803E-04  0.2034E-04  0.2290E-04  0.2545E-04  0.2818E-04  0.3112E-04  0.3403E-04  0.3681E-04  0.3954E-04  0.4228E-04  0.4465E-04  0.4670E-04  0.4873E-04  0.5051E-04  0.5196E-04  0.5297E-04  0.5368E-04  0.5416E-04  0.5421E-04  0.5402E-04  0.5339E-04  0.5262E-04  0.5167E-04  0.5061E-04  0.4999E-04  0.4900E-04  0.4800E-04  0.4706E-04  0.4612E-04  0.4543E-04  0.4492E-04  0.4469E-04  0.4469E-04  0.4499E-04  0.4563E-04  0.4662E-04  0.4796E-04  0.4939E-04  0.5096E-04  0.5242E-04  0.5372E-04  0.5482E-04  0.5553E-04  0.5585E-04  0.5573E-04  0.5526E-04  0.5442E-04  0.5336E-04  0.5203E-04  0.5058E-04  0.4895E-04  0.4722E-04  0.4542E-04  0.4355E-04  0.4171E-04  0.3981E-04  0.3796E-04  0.3612E-04  0.3431E-04  0.3254E-04  0.3083E-04  0.2914E-04  0.2752E-04  0.2598E-04  0.2450E-04  0.2308E-04  0.2168E-04  0.2022E-04  0.1882E-04  0.1763E-04  0.1648E-04  0.1539E-04  0.1438E-04  0.1343E-04  0.1252E-04  0.1170E-04  0.1088E-04  0.1006E-04  0.9351E-05
  0.2126E-04  0.2400E-04  0.2685E-04  0.3018E-04  0.3357E-04  0.3692E-04  0.4038E-04  0.4365E-04  0.4705E-04  0.5003E-04  0.5280E-04  0.5531E-04  0.5749E-04  0.5921E-04  0.6021E-04  0.6114E-04  0.6185E-04  0.6204E-04  0.6191E-04  0.6130E-04  0.6049E-04  0.5946E-04  0.5799E-04  0.5713E-04  0.5592E-04  0.5483E-04  0.5356E-04  0.5236E-04  0.5138E-04  0.5044E-04  0.4984E-04  0.4951E-04  0.4957E-04  0.4989E-04  0.5071E-04  0.5189E-04  0.5333E-04  0.5483E-04  0.5636E-04  0.5769E-04  0.5882E-04  0.5964E-04  0.6006E-04  0.6002E-04  0.5964E-04  0.5884E-04  0.5776E-04  0.5642E-04  0.5488E-04  0.5319E-04  0.5139E-04  0.4949E-04  0.4755E-04  0.4557E-04  0.4357E-04  0.4161E-04  0.3963E-04  0.3771E-04  0.3580E-04  0.3395E-04  0.3217E-04  0.3038E-04  0.2874E-04  0.2710E-04  0.2551E-04  0.2404E-04  0.2262E-04  0.2115E-04  0.1964E-04  0.1824E-04  0.1704E-04  0.1592E-04  0.1483E-04  0.1382E-04  0.1295E-04  0.1203E-04  0.1116E-04  0.1037E-04  0.9642E-05
  0.2490E-04  0.2821E-04  0.3188E-04  0.3573E-04  0.3963E-04  0.4379E-04  0.4782E-04  0.5184E-04  0.5566E-04  0.5915E-04  0.6243E-04  0.6525E-04  0.6775E-04  0.6964E-04  0.7095E-04  0.7168E-04  0.7169E-04  0.7120E-04  0.7058E-04  0.6980E-04  0.6866E-04  0.6704E-04  0.6548E-04  0.6417E-04  0.6280E-04  0.6128E-04  0.5973E-04  0.5827E-04  0.5701E-04  0.5601E-04  0.5527E-04  0.5485E-04  0.5483E-04  0.5533E-04  0.5627E-04  0.5756E-04  0.5901E-04  0.6056E-04  0.6194E-04  0.6318E-04  0.6408E-04  0.6455E-04  0.6463E-04  0.6421E-04  0.6351E-04  0.6239E-04  0.6102E-04  0.5946E-04  0.5769E-04  0.5581E-04  0.5379E-04  0.5179E-04  0.4967E-04  0.4761E-04  0.4548E-04  0.4344E-04  0.4136E-04  0.3937E-04  0.3736E-04  0.3541E-04  0.3356E-04  0.3172E-04  0.2998E-04  0.2826E-04  0.2663E-04  0.2508E-04  0.2357E-04  0.2214E-04  0.2058E-04  0.1899E-04  0.1762E-04  0.1641E-04  0.1534E-04  0.1430E-04  0.1327E-04  0.1231E-04  0.1153E-04  0.1067E-04  0.9840E-05
  0.2923E-04  0.3337E-04  0.3765E-04  0.4234E-04  0.4720E-04  0.5200E-04  0.5690E-04  0.6163E-04  0.6616E-04  0.7029E-04  0.7413E-04  0.7744E-04  0.8009E-04  0.8218E-04  0.8334E-04  0.8413E-04  0.8415E-04  0.8340E-04  0.8200E-04  0.7957E-04  0.7782E-04  0.7590E-04  0.7415E-04  0.7228E-04  0.7036E-04  0.6845E-04  0.6648E-04  0.6467E-04  0.6317E-04  0.6193E-04  0.6115E-04  0.6070E-04  0.6084E-04  0.6155E-04  0.6266E-04  0.6407E-04  0.6551E-04  0.6715E-04  0.6845E-04  0.6944E-04  0.6990E-04  0.6988E-04  0.6918E-04  0.6847E-04  0.6742E-04  0.6595E-04  0.6437E-04  0.6252E-04  0.6053E-04  0.5844E-04  0.5633E-04  0.5416E-04  0.5196E-04  0.4975E-04  0.4752E-04  0.4535E-04  0.4319E-04  0.4110E-04  0.3903E-04  0.3698E-04  0.3507E-04  0.3315E-04  0.3129E-04  0.2952E-04  0.2781E-04  0.2615E-04  0.2460E-04  0.2311E-04  0.2168E-04  0.2003E-04  0.1828E-04  0.1694E-04  0.1580E-04  0.1468E-04  0.1365E-04  0.1271E-04  0.1179E-04  0.1088E-04  0.1007E-04
  0.3442E-04  0.3946E-04  0.4479E-04  0.5037E-04  0.5610E-04  0.6214E-04  0.6798E-04  0.7358E-04  0.7902E-04  0.8405E-04  0.8850E-04  0.9219E-04  0.9521E-04  0.9719E-04  0.9838E-04  0.9887E-04  0.9839E-04  0.9720E-04  0.9527E-04  0.9279E-04  0.8996E-04  0.8663E-04  0.8336E-04  0.8093E-04  0.7853E-04  0.7609E-04  0.7372E-04  0.7157E-04  0.6982E-04  0.6837E-04  0.6747E-04  0.6712E-04  0.6740E-04  0.6821E-04  0.6944E-04  0.7081E-04  0.7236E-04  0.7384E-04  0.7507E-04  0.7579E-04  0.7616E-04  0.7616E-04  0.7543E-04  0.7432E-04  0.7270E-04  0.7081E-04  0.6871E-04  0.6633E-04  0.6380E-04  0.6127E-04  0.5897E-04  0.5659E-04  0.5432E-04  0.5198E-04  0.4974E-04  0.4742E-04  0.4520E-04  0.4300E-04  0.4085E-04  0.3876E-04  0.3670E-04  0.3468E-04  0.3275E-04  0.3091E-04  0.2908E-04  0.2733E-04  0.2572E-04  0.2414E-04  0.2262E-04  0.2109E-04  0.1933E-04  0.1759E-04  0.1621E-04  0.1507E-04  0.1403E-04  0.1303E-04  0.1202E-04  0.1112E-04  0.1028E-04
  0.4085E-04  0.4692E-04  0.5338E-04  0.6011E-04  0.6720E-04  0.7443E-04  0.8154E-04  0.8832E-04  0.9482E-04  0.1007E-03  0.1058E-03  0.1101E-03  0.1130E-03  0.1151E-03  0.1162E-03  0.1160E-03  0.1150E-03  0.1133E-03  0.1106E-03  0.1073E-03  0.1037E-03  0.9952E-04  0.9601E-04  0.9207E-04  0.8793E-04  0.8413E-04  0.8130E-04  0.7888E-04  0.7684E-04  0.7531E-04  0.7430E-04  0.7407E-04  0.7446E-04  0.7538E-04  0.7661E-04  0.7807E-04  0.7958E-04  0.8093E-04  0.8196E-04  0.8270E-04  0.8307E-04  0.8244E-04  0.8145E-04  0.7999E-04  0.7818E-04  0.7616E-04  0.7382E-04  0.7132E-04  0.6856E-04  0.6576E-04  0.6278E-04  0.5981E-04  0.5727E-04  0.5500E-04  0.5256E-04  0.4996E-04  0.4740E-04  0.4512E-04  0.4288E-04  0.4070E-04  0.3849E-04  0.3644E-04  0.3439E-04  0.3241E-04  0.3049E-04  0.2867E-04  0.2696E-04  0.2526E-04  0.2364E-04  0.2217E-04  0.2052E-04  0.1851E-04  0.1678E-04  0.1548E-04  0.1437E-04  0.1328E-04  0.1236E-04  0.1138E-04  0.1047E-04
  0.4865E-04  0.5598E-04  0.6377E-04  0.7207E-04  0.8068E-04  0.8930E-04  0.9782E-04  0.1059E-03  0.1135E-03  0.1203E-03  0.1261E-03  0.1307E-03  0.1337E-03  0.1357E-03  0.1365E-03  0.1359E-03  0.1343E-03  0.1318E-03  0.1283E-03  0.1244E-03  0.1193E-03  0.1149E-03  0.1101E-03  0.1050E-03  0.1002E-03  0.9533E-04  0.9114E-04  0.8704E-04  0.8417E-04  0.8268E-04  0.8172E-04  0.8165E-04  0.8203E-04  0.8302E-04  0.8432E-04  0.8579E-04  0.8728E-04  0.8864E-04  0.9003E-04  0.9050E-04  0.9026E-04  0.8931E-04  0.8810E-04  0.8645E-04  0.8443E-04  0.8217E-04  0.7965E-04  0.7695E-04  0.7411E-04  0.7124E-04  0.6836E-04  0.6553E-04  0.6270E-04  0.6007E-04  0.5744E-04  0.5478E-04  0.5206E-04  0.4939E-04  0.4642E-04  0.4328E-04  0.4057E-04  0.3841E-04  0.3620E-04  0.3405E-04  0.3209E-04  0.3014E-04  0.2830E-04  0.2649E-04  0.2479E-04  0.2322E-04  0.2158E-04  0.1981E-04  0.1769E-04  0.1599E-04  0.1472E-04  0.1363E-04  0.1258E-04  0.1162E-04  0.1075E-04
  0.5791E-04  0.6673E-04  0.7620E-04  0.8625E-04  0.9646E-04  0.1067E-03  0.1167E-03  0.1263E-03  0.1350E-03  0.1427E-03  0.1491E-03  0.1537E-03  0.1572E-03  0.1592E-03  0.1596E-03  0.1593E-03  0.1586E-03  0.1580E-03  0.1567E-03  0.1534E-03  0.1494E-03  0.1436E-03  0.1365E-03  0.1297E-03  0.1219E-03  0.1151E-03  0.1065E-03  0.1003E-03  0.9638E-04  0.9327E-04  0.9139E-04  0.9069E-04  0.9074E-04  0.9135E-04  0.9257E-04  0.9431E-04  0.9609E-04  0.9784E-04  0.9882E-04  0.9885E-04  0.9817E-04  0.9716E-04  0.9574E-04  0.9399E-04  0.9191E-04  0.8949E-04  0.8709E-04  0.8436E-04  0.8140E-04  0.7815E-04  0.7502E-04  0.7176E-04  0.6851E-04  0.6539E-04  0.6255E-04  0.5958E-04  0.5659E-04  0.5355E-04  0.5051E-04  0.4758E-04  0.4473E-04  0.4151E-04  0.3826E-04  0.3601E-04  0.3389E-04  0.3178E-04  0.2977E-04  0.2788E-04  0.2606E-04  0.2435E-04  0.2271E-04  0.2096E-04  0.1895E-04  0.1682E-04  0.1515E-04  0.1390E-04  0.1282E-04  0.1191E-04  0.1106E-04
  0.6882E-04  0.7926E-04  0.9072E-04  0.1025E-03  0.1145E-03  0.1266E-03  0.1383E-03  0.1493E-03  0.1592E-03  0.1676E-03  0.1745E-03  0.1797E-03  0.1834E-03  0.1853E-03  0.1863E-03  0.1893E-03  0.1981E-03  0.2116E-03  0.2272E-03  0.2363E-03  0.2381E-03  0.2359E-03  0.2335E-03  0.2307E-03  0.2269E-03  0.2225E-03  0.2174E-03  0.2087E-03  0.1988E-03  0.1855E-03  0.1645E-03  0.1384E-03  0.1125E-03  0.1019E-03  0.1048E-03  0.1048E-03  0.1065E-03  0.1080E-03  0.1085E-03  0.1082E-03  0.1075E-03  0.1064E-03  0.1051E-03  0.1033E-03  0.1015E-03  0.9923E-04  0.9672E-04  0.9395E-04  0.9083E-04  0.8749E-04  0.8392E-04  0.8018E-04  0.7636E-04  0.7272E-04  0.6921E-04  0.6577E-04  0.6233E-04  0.5879E-04  0.5536E-04  0.5187E-04  0.4858E-04  0.4537E-04  0.4239E-04  0.3890E-04  0.3590E-04  0.3365E-04  0.3147E-04  0.2947E-04  0.2746E-04  0.2563E-04  0.2387E-04  0.2212E-04  0.2026E-04  0.1815E-04  0.1595E-04  0.1425E-04  0.1314E-04  0.1222E-04  0.1127E-04
  0.8115E-04  0.9368E-04  0.1070E-03  0.1208E-03  0.1349E-03  0.1488E-03  0.1621E-03  0.1743E-03  0.1853E-03  0.1947E-03  0.2021E-03  0.2078E-03  0.2116E-03  0.2141E-03  0.2185E-03  0.2312E-03  0.2629E-03  0.3172E-03  0.3846E-03  0.4406E-03  0.4737E-03  0.4887E-03  0.5040E-03  0.5259E-03  0.5520E-03  0.5795E-03  0.6073E-03  0.6292E-03  0.6350E-03  0.6139E-03  0.5354E-03  0.3733E-03  0.1812E-03  0.1256E-03  0.1203E-03  0.1185E-03  0.1188E-03  0.1195E-03  0.1198E-03  0.1196E-03  0.1192E-03  0.1185E-03  0.1171E-03  0.1158E-03  0.1139E-03  0.1116E-03  0.1092E-03  0.1064E-03  0.1032E-03  0.9977E-04  0.9582E-04  0.9162E-04  0.8715E-04  0.8258E-04  0.7806E-04  0.7387E-04  0.6973E-04  0.6553E-04  0.6136E-04  0.5726E-04  0.5328E-04  0.4963E-04  0.4604E-04  0.4275E-04  0.3939E-04  0.3612E-04  0.3346E-04  0.3124E-04  0.2909E-04  0.2703E-04  0.2520E-04  0.2339E-04  0.2145E-04  0.1942E-04  0.1727E-04  0.1511E-04  0.1358E-04  0.1246E-04  0.1150E-04
  0.9518E-04  0.1098E-03  0.1252E-03  0.1410E-03  0.1571E-03  0.1728E-03  0.1876E-03  0.2012E-03  0.2131E-03  0.2229E-03  0.2311E-03  0.2373E-03  0.2413E-03  0.2451E-03  0.2538E-03  0.2831E-03  0.3529E-03  0.4770E-03  0.6360E-03  0.7732E-03  0.8424E-03  0.8580E-03  0.8650E-03  0.8788E-03  0.8929E-03  0.8882E-03  0.8529E-03  0.7708E-03  0.6312E-03  0.4472E-03  0.2821E-03  0.1970E-03  0.2058E-03  0.2819E-03  0.1753E-03  0.1349E-03  0.1377E-03  0.1366E-03  0.1358E-03  0.1353E-03  0.1348E-03  0.1341E-03  0.1331E-03  0.1317E-03  0.1300E-03  0.1278E-03  0.1254E-03  0.1226E-03  0.1193E-03  0.1155E-03  0.1112E-03  0.1065E-03  0.1013E-03  0.9581E-04  0.9007E-04  0.8449E-04  0.7928E-04  0.7406E-04  0.6898E-04  0.6393E-04  0.5916E-04  0.5474E-04  0.5054E-04  0.4663E-04  0.4310E-04  0.3957E-04  0.3627E-04  0.3335E-04  0.3095E-04  0.2874E-04  0.2671E-04  0.2474E-04  0.2280E-04  0.2077E-04  0.1866E-04  0.1657E-04  0.1439E-04  0.1272E-04  0.1175E-04
  0.1105E-03  0.1272E-03  0.1448E-03  0.1628E-03  0.1808E-03  0.1979E-03  0.2141E-03  0.2287E-03  0.2414E-03  0.2520E-03  0.2605E-03  0.2669E-03  0.2716E-03  0.2765E-03  0.2901E-03  0.3338E-03  0.4402E-03  0.6319E-03  0.8788E-03  0.1083E-02  0.1151E-02  0.1097E-02  0.1002E-02  0.9123E-03  0.8229E-03  0.7167E-03  0.5913E-03  0.4630E-03  0.3616E-03  0.3024E-03  0.2596E-03  0.2806E-03  0.6179E-03  0.3671E-03  0.2648E-03  0.1563E-03  0.1614E-03  0.1630E-03  0.1607E-03  0.1587E-03  0.1573E-03  0.1563E-03  0.1551E-03  0.1535E-03  0.1513E-03  0.1486E-03  0.1460E-03  0.1429E-03  0.1393E-03  0.1351E-03  0.1304E-03  0.1251E-03  0.1191E-03  0.1125E-03  0.1055E-03  0.9830E-04  0.9147E-04  0.8479E-04  0.7836E-04  0.7216E-04  0.6636E-04  0.6091E-04  0.5590E-04  0.5129E-04  0.4722E-04  0.4335E-04  0.3966E-04  0.3628E-04  0.3331E-04  0.3069E-04  0.2843E-04  0.2631E-04  0.2426E-04  0.2230E-04  0.2010E-04  0.1790E-04  0.1587E-04  0.1362E-04  0.1200E-04
  0.1272E-03  0.1461E-03  0.1657E-03  0.1856E-03  0.2051E-03  0.2237E-03  0.2409E-03  0.2561E-03  0.2692E-03  0.2803E-03  0.2893E-03  0.2960E-03  0.3008E-03  0.3061E-03  0.3213E-03  0.3704E-03  0.4901E-03  0.7078E-03  0.9869E-03  0.1205E-02  0.1240E-02  0.1094E-02  0.8829E-03  0.7000E-03  0.5655E-03  0.4737E-03  0.4197E-03  0.3925E-03  0.3712E-03  0.3256E-03  0.3400E-03  0.7254E-03  0.5852E-03  0.4776E-03  0.3634E-03  0.1995E-03  0.1896E-03  0.1966E-03  0.1966E-03  0.1935E-03  0.1909E-03  0.1894E-03  0.1878E-03  0.1856E-03  0.1823E-03  0.1783E-03  0.1737E-03  0.1689E-03  0.1634E-03  0.1587E-03  0.1533E-03  0.1472E-03  0.1403E-03  0.1327E-03  0.1243E-03  0.1156E-03  0.1068E-03  0.9819E-04  0.9001E-04  0.8226E-04  0.7493E-04  0.6837E-04  0.6226E-04  0.5689E-04  0.5196E-04  0.4753E-04  0.4350E-04  0.3970E-04  0.3631E-04  0.3323E-04  0.3046E-04  0.2820E-04  0.2602E-04  0.2386E-04  0.2170E-04  0.1940E-04  0.1731E-04  0.1513E-04  0.1292E-04
  0.1449E-03  0.1659E-03  0.1874E-03  0.2088E-03  0.2295E-03  0.2490E-03  0.2667E-03  0.2821E-03  0.2956E-03  0.3068E-03  0.3156E-03  0.3225E-03  0.3271E-03  0.3321E-03  0.3452E-03  0.3874E-03  0.4935E-03  0.6852E-03  0.9372E-03  0.1139E-02  0.1173E-02  0.1023E-02  0.7965E-03  0.6088E-03  0.5036E-03  0.4717E-03  0.4649E-03  0.4469E-03  0.3937E-03  0.4055E-03  0.7371E-03  0.8520E-03  0.6408E-03  0.5850E-03  0.4718E-03  0.2737E-03  0.2303E-03  0.2374E-03  0.2411E-03  0.2392E-03  0.2370E-03  0.2362E-03  0.2356E-03  0.2333E-03  0.2283E-03  0.2215E-03  0.2136E-03  0.2053E-03  0.1975E-03  0.1898E-03  0.1823E-03  0.1746E-03  0.1666E-03  0.1577E-03  0.1480E-03  0.1373E-03  0.1266E-03  0.1156E-03  0.1054E-03  0.9562E-04  0.8651E-04  0.7827E-04  0.7105E-04  0.6449E-04  0.5866E-04  0.5349E-04  0.4880E-04  0.4453E-04  0.4056E-04  0.3708E-04  0.3391E-04  0.3115E-04  0.2870E-04  0.2641E-04  0.2391E-04  0.2145E-04  0.1902E-04  0.1668E-04  0.1438E-04
  0.1637E-03  0.1864E-03  0.2093E-03  0.2317E-03  0.2531E-03  0.2729E-03  0.2905E-03  0.3060E-03  0.3192E-03  0.3298E-03  0.3384E-03  0.3448E-03  0.3489E-03  0.3523E-03  0.3610E-03  0.3898E-03  0.4656E-03  0.6093E-03  0.8103E-03  0.9973E-03  0.1078E-02  0.1016E-02  0.8632E-03  0.7123E-03  0.6197E-03  0.5798E-03  0.5413E-03  0.4829E-03  0.4925E-03  0.7684E-03  0.1054E-02  0.8305E-03  0.7822E-03  0.7134E-03  0.5921E-03  0.3709E-03  0.2881E-03  0.2857E-03  0.2892E-03  0.2886E-03  0.2869E-03  0.2882E-03  0.2918E-03  0.2930E-03  0.2896E-03  0.2815E-03  0.2701E-03  0.2575E-03  0.2450E-03  0.2334E-03  0.2223E-03  0.2124E-03  0.2020E-03  0.1909E-03  0.1787E-03  0.1660E-03  0.1526E-03  0.1392E-03  0.1259E-03  0.1137E-03  0.1023E-03  0.9213E-04  0.8297E-04  0.7474E-04  0.6760E-04  0.6130E-04  0.5587E-04  0.5112E-04  0.4657E-04  0.4248E-04  0.3867E-04  0.3519E-04  0.3209E-04  0.2923E-04  0.2639E-04  0.2352E-04  0.2085E-04  0.1822E-04  0.1575E-04
  0.1828E-03  0.2068E-03  0.2307E-03  0.2535E-03  0.2750E-03  0.2944E-03  0.3115E-03  0.3264E-03  0.3385E-03  0.3487E-03  0.3564E-03  0.3617E-03  0.3649E-03  0.3663E-03  0.3694E-03  0.3843E-03  0.4290E-03  0.5272E-03  0.6778E-03  0.8505E-03  0.9894E-03  0.1037E-02  0.9845E-03  0.8787E-03  0.7737E-03  0.6845E-03  0.6063E-03  0.6040E-03  0.8239E-03  0.1179E-02  0.1090E-02  0.9647E-03  0.9192E-03  0.8377E-03  0.7012E-03  0.4672E-03  0.3505E-03  0.3343E-03  0.3344E-03  0.3308E-03  0.3270E-03  0.3292E-03  0.3372E-03  0.3462E-03  0.3508E-03  0.3483E-03  0.3387E-03  0.3239E-03  0.3071E-03  0.2907E-03  0.2757E-03  0.2616E-03  0.2477E-03  0.2334E-03  0.2184E-03  0.2029E-03  0.1867E-03  0.1700E-03  0.1542E-03  0.1386E-03  0.1242E-03  0.1113E-03  0.9983E-04  0.8950E-04  0.8043E-04  0.7261E-04  0.6577E-04  0.5973E-04  0.5396E-04  0.4866E-04  0.4391E-04  0.3961E-04  0.3575E-04  0.3250E-04  0.2920E-04  0.2592E-04  0.2280E-04  0.1998E-04  0.1725E-04
  0.2014E-03  0.2263E-03  0.2503E-03  0.2729E-03  0.2938E-03  0.3124E-03  0.3287E-03  0.3422E-03  0.3534E-03  0.3622E-03  0.3684E-03  0.3723E-03  0.3740E-03  0.3736E-03  0.3723E-03  0.3760E-03  0.3993E-03  0.4603E-03  0.5721E-03  0.7264E-03  0.8912E-03  0.1019E-02  0.1066E-02  0.1024E-02  0.9241E-03  0.8101E-03  0.7615E-03  0.9043E-03  0.1227E-02  0.1289E-02  0.1087E-02  0.1066E-02  0.9700E-03  0.8968E-03  0.7582E-03  0.5319E-03  0.3983E-03  0.3698E-03  0.3655E-03  0.3564E-03  0.3483E-03  0.3482E-03  0.3579E-03  0.3733E-03  0.3882E-03  0.3963E-03  0.3944E-03  0.3841E-03  0.3688E-03  0.3516E-03  0.3344E-03  0.3173E-03  0.3000E-03  0.2825E-03  0.2646E-03  0.2466E-03  0.2274E-03  0.2078E-03  0.1879E-03  0.1689E-03  0.1511E-03  0.1348E-03  0.1203E-03  0.1075E-03  0.9632E-04  0.8677E-04  0.7824E-04  0.7030E-04  0.6292E-04  0.5631E-04  0.5025E-04  0.4495E-04  0.4015E-04  0.3587E-04  0.3192E-04  0.2821E-04  0.2474E-04  0.2153E-04  0.1869E-04
  0.2192E-03  0.2441E-03  0.2677E-03  0.2894E-03  0.3091E-03  0.3264E-03  0.3412E-03  0.3533E-03  0.3630E-03  0.3700E-03  0.3745E-03  0.3763E-03  0.3761E-03  0.3738E-03  0.3707E-03  0.3705E-03  0.3829E-03  0.4235E-03  0.5057E-03  0.6367E-03  0.8051E-03  0.9781E-03  0.1103E-02  0.1145E-02  0.1100E-02  0.1031E-02  0.1066E-02  0.1275E-02  0.1382E-02  0.1181E-02  0.1079E-02  0.1047E-02  0.9338E-03  0.8865E-03  0.7647E-03  0.5622E-03  0.4245E-03  0.3859E-03  0.3757E-03  0.3630E-03  0.3521E-03  0.3490E-03  0.3559E-03  0.3713E-03  0.3908E-03  0.4072E-03  0.4158E-03  0.4158E-03  0.4089E-03  0.3979E-03  0.3839E-03  0.3677E-03  0.3501E-03  0.3313E-03  0.3125E-03  0.2919E-03  0.2705E-03  0.2485E-03  0.2260E-03  0.2036E-03  0.1820E-03  0.1622E-03  0.1451E-03  0.1294E-03  0.1155E-03  0.1031E-03  0.9179E-04  0.8155E-04  0.7230E-04  0.6396E-04  0.5664E-04  0.5012E-04  0.4438E-04  0.3968E-04  0.3511E-04  0.3088E-04  0.2699E-04  0.2339E-04  0.2028E-04
  0.2351E-03  0.2592E-03  0.2818E-03  0.3022E-03  0.3203E-03  0.3359E-03  0.3489E-03  0.3594E-03  0.3685E-03  0.3749E-03  0.3787E-03  0.3804E-03  0.3805E-03  0.3797E-03  0.3785E-03  0.3795E-03  0.3910E-03  0.4249E-03  0.4974E-03  0.6147E-03  0.7753E-03  0.9588E-03  0.1124E-02  0.1228E-02  0.1266E-02  0.1298E-02  0.1411E-02  0.1480E-02  0.1287E-02  0.1071E-02  0.1050E-02  0.9727E-03  0.8769E-03  0.8510E-03  0.7502E-03  0.5738E-03  0.4358E-03  0.3846E-03  0.3691E-03  0.3549E-03  0.3435E-03  0.3384E-03  0.3410E-03  0.3524E-03  0.3709E-03  0.3902E-03  0.4060E-03  0.4165E-03  0.4209E-03  0.4196E-03  0.4128E-03  0.4022E-03  0.3882E-03  0.3716E-03  0.3538E-03  0.3336E-03  0.3118E-03  0.2888E-03  0.2645E-03  0.2397E-03  0.2155E-03  0.1927E-03  0.1717E-03  0.1528E-03  0.1356E-03  0.1199E-03  0.1056E-03  0.9285E-04  0.8151E-04  0.7191E-04  0.6321E-04  0.5555E-04  0.4885E-04  0.4301E-04  0.3785E-04  0.3310E-04  0.2877E-04  0.2500E-04  0.2151E-04
  0.2477E-03  0.2714E-03  0.2930E-03  0.3125E-03  0.3299E-03  0.3450E-03  0.3576E-03  0.3679E-03  0.3765E-03  0.3830E-03  0.3879E-03  0.3922E-03  0.3963E-03  0.4021E-03  0.4126E-03  0.4292E-03  0.4571E-03  0.4996E-03  0.5647E-03  0.6574E-03  0.7775E-03  0.9163E-03  0.1053E-02  0.1184E-02  0.1316E-02  0.1476E-02  0.1577E-02  0.1431E-02  0.1139E-02  0.1040E-02  0.1039E-02  0.9301E-03  0.8596E-03  0.8356E-03  0.7439E-03  0.5860E-03  0.4436E-03  0.3768E-03  0.3515E-03  0.3386E-03  0.3292E-03  0.3244E-03  0.3244E-03  0.3319E-03  0.3469E-03  0.3647E-03  0.3836E-03  0.4001E-03  0.4121E-03  0.4188E-03  0.4203E-03  0.4179E-03  0.4104E-03  0.3992E-03  0.3846E-03  0.3679E-03  0.3478E-03  0.3251E-03  0.3006E-03  0.2745E-03  0.2485E-03  0.2224E-03  0.1980E-03  0.1754E-03  0.1545E-03  0.1354E-03  0.1182E-03  0.1035E-03  0.9028E-04  0.7867E-04  0.6868E-04  0.6002E-04  0.5252E-04  0.4604E-04  0.4034E-04  0.3514E-04  0.3066E-04  0.2671E-04  0.2297E-04
  0.2582E-03  0.2812E-03  0.3025E-03  0.3219E-03  0.3399E-03  0.3553E-03  0.3690E-03  0.3814E-03  0.3925E-03  0.4056E-03  0.4219E-03  0.4420E-03  0.4629E-03  0.4846E-03  0.5038E-03  0.5200E-03  0.5364E-03  0.5555E-03  0.5822E-03  0.6313E-03  0.7006E-03  0.7910E-03  0.9167E-03  0.1092E-02  0.1334E-02  0.1559E-02  0.1562E-02  0.1307E-02  0.1105E-02  0.1101E-02  0.1076E-02  0.9561E-03  0.9009E-03  0.8660E-03  0.7698E-03  0.6073E-03  0.4491E-03  0.3665E-03  0.3336E-03  0.3232E-03  0.3151E-03  0.3110E-03  0.3107E-03  0.3156E-03  0.3267E-03  0.3423E-03  0.3605E-03  0.3783E-03  0.3943E-03  0.4078E-03  0.4163E-03  0.4200E-03  0.4198E-03  0.4142E-03  0.4045E-03  0.3909E-03  0.3745E-03  0.3539E-03  0.3306E-03  0.3048E-03  0.2776E-03  0.2492E-03  0.2212E-03  0.1947E-03  0.1702E-03  0.1480E-03  0.1288E-03  0.1118E-03  0.9702E-04  0.8426E-04  0.7320E-04  0.6379E-04  0.5563E-04  0.4860E-04  0.4282E-04  0.3732E-04  0.3234E-04  0.2789E-04  0.2393E-04
  0.2663E-03  0.2900E-03  0.3128E-03  0.3344E-03  0.3554E-03  0.3771E-03  0.4010E-03  0.4257E-03  0.4504E-03  0.4741E-03  0.4954E-03  0.5144E-03  0.5290E-03  0.5387E-03  0.5429E-03  0.5416E-03  0.5372E-03  0.5327E-03  0.5371E-03  0.5592E-03  0.6015E-03  0.6836E-03  0.8284E-03  0.1066E-02  0.1354E-02  0.1513E-02  0.1408E-02  0.1203E-02  0.1149E-02  0.1196E-02  0.1150E-02  0.1045E-02  0.1000E-02  0.9436E-03  0.8272E-03  0.6556E-03  0.4816E-03  0.3766E-03  0.3337E-03  0.3181E-03  0.3106E-03  0.3053E-03  0.3045E-03  0.3077E-03  0.3159E-03  0.3290E-03  0.3450E-03  0.3616E-03  0.3788E-03  0.3944E-03  0.4064E-03  0.4144E-03  0.4180E-03  0.4179E-03  0.4132E-03  0.4038E-03  0.3902E-03  0.3733E-03  0.3521E-03  0.3273E-03  0.2994E-03  0.2698E-03  0.2388E-03  0.2089E-03  0.1816E-03  0.1573E-03  0.1363E-03  0.1178E-03  0.1019E-03  0.8836E-04  0.7665E-04  0.6667E-04  0.5809E-04  0.5104E-04  0.4456E-04  0.3883E-04  0.3353E-04  0.2889E-04  0.2475E-04
  0.2765E-03  0.3060E-03  0.3377E-03  0.3692E-03  0.4005E-03  0.4299E-03  0.4572E-03  0.4817E-03  0.5024E-03  0.5187E-03  0.5310E-03  0.5374E-03  0.5389E-03  0.5350E-03  0.5263E-03  0.5127E-03  0.4970E-03  0.4818E-03  0.4763E-03  0.4847E-03  0.5248E-03  0.6261E-03  0.8213E-03  0.1107E-02  0.1351E-02  0.1384E-02  0.1245E-02  0.1164E-02  0.1238E-02  0.1326E-02  0.1291E-02  0.1199E-02  0.1133E-02  0.1044E-02  0.9222E-03  0.7540E-03  0.5676E-03  0.4361E-03  0.3682E-03  0.3380E-03  0.3257E-03  0.3172E-03  0.3130E-03  0.3120E-03  0.3168E-03  0.3267E-03  0.3392E-03  0.3534E-03  0.3690E-03  0.3828E-03  0.3957E-03  0.4055E-03  0.4127E-03  0.4152E-03  0.4145E-03  0.4088E-03  0.3985E-03  0.3837E-03  0.3651E-03  0.3413E-03  0.3134E-03  0.2818E-03  0.2496E-03  0.2178E-03  0.1888E-03  0.1630E-03  0.1410E-03  0.1217E-03  0.1051E-03  0.9101E-04  0.7899E-04  0.6866E-04  0.6023E-04  0.5257E-04  0.4593E-04  0.3997E-04  0.3450E-04  0.2972E-04  0.2542E-04
  0.3012E-03  0.3367E-03  0.3721E-03  0.4053E-03  0.4355E-03  0.4621E-03  0.4842E-03  0.5012E-03  0.5135E-03  0.5210E-03  0.5231E-03  0.5202E-03  0.5129E-03  0.5015E-03  0.4858E-03  0.4668E-03  0.4478E-03  0.4287E-03  0.4180E-03  0.4283E-03  0.4810E-03  0.6140E-03  0.8616E-03  0.1153E-02  0.1322E-02  0.1283E-02  0.1188E-02  0.1215E-02  0.1358E-02  0.1477E-02  0.1466E-02  0.1380E-02  0.1273E-02  0.1157E-02  0.1041E-02  0.8955E-03  0.7121E-03  0.5551E-03  0.4557E-03  0.4024E-03  0.3735E-03  0.3558E-03  0.3445E-03  0.3388E-03  0.3369E-03  0.3407E-03  0.3479E-03  0.3572E-03  0.3685E-03  0.3803E-03  0.3909E-03  0.4008E-03  0.4077E-03  0.4123E-03  0.4127E-03  0.4089E-03  0.4014E-03  0.3887E-03  0.3707E-03  0.3480E-03  0.3195E-03  0.2872E-03  0.2545E-03  0.2219E-03  0.1922E-03  0.1659E-03  0.1429E-03  0.1237E-03  0.1068E-03  0.9244E-04  0.8023E-04  0.6986E-04  0.6132E-04  0.5359E-04  0.4689E-04  0.4082E-04  0.3528E-04  0.3033E-04  0.2589E-04
  0.3182E-03  0.3532E-03  0.3861E-03  0.4157E-03  0.4415E-03  0.4624E-03  0.4782E-03  0.4889E-03  0.4946E-03  0.4957E-03  0.4920E-03  0.4844E-03  0.4734E-03  0.4586E-03  0.4409E-03  0.4221E-03  0.4020E-03  0.3841E-03  0.3768E-03  0.3920E-03  0.4597E-03  0.6241E-03  0.8886E-03  0.1157E-02  0.1287E-02  0.1275E-02  0.1263E-02  0.1350E-02  0.1498E-02  0.1601E-02  0.1594E-02  0.1504E-02  0.1383E-02  0.1272E-02  0.1185E-02  0.1074E-02  0.9082E-03  0.7329E-03  0.6016E-03  0.5201E-03  0.4694E-03  0.4359E-03  0.4098E-03  0.3920E-03  0.3800E-03  0.3749E-03  0.3751E-03  0.3779E-03  0.3829E-03  0.3895E-03  0.3965E-03  0.4033E-03  0.4090E-03  0.4123E-03  0.4125E-03  0.4095E-03  0.4018E-03  0.3901E-03  0.3723E-03  0.3486E-03  0.3202E-03  0.2879E-03  0.2546E-03  0.2226E-03  0.1927E-03  0.1666E-03  0.1437E-03  0.1238E-03  0.1073E-03  0.9292E-04  0.8069E-04  0.7033E-04  0.6144E-04  0.5414E-04  0.4743E-04  0.4134E-04  0.3577E-04  0.3075E-04  0.2637E-04
  0.3208E-03  0.3518E-03  0.3801E-03  0.4052E-03  0.4259E-03  0.4416E-03  0.4529E-03  0.4593E-03  0.4615E-03  0.4590E-03  0.4534E-03  0.4442E-03  0.4317E-03  0.4181E-03  0.4027E-03  0.3850E-03  0.3681E-03  0.3563E-03  0.3534E-03  0.3800E-03  0.4561E-03  0.6217E-03  0.8658E-03  0.1106E-02  0.1249E-02  0.1312E-02  0.1373E-02  0.1466E-02  0.1575E-02  0.1634E-02  0.1613E-02  0.1535E-02  0.1436E-02  0.1365E-02  0.1322E-02  0.1255E-02  0.1115E-02  0.9346E-03  0.7774E-03  0.6684E-03  0.5971E-03  0.5475E-03  0.5090E-03  0.4764E-03  0.4511E-03  0.4341E-03  0.4242E-03  0.4183E-03  0.4153E-03  0.4148E-03  0.4155E-03  0.4171E-03  0.4189E-03  0.4190E-03  0.4174E-03  0.4123E-03  0.4040E-03  0.3904E-03  0.3719E-03  0.3470E-03  0.3177E-03  0.2861E-03  0.2530E-03  0.2209E-03  0.1914E-03  0.1656E-03  0.1431E-03  0.1236E-03  0.1070E-03  0.9267E-04  0.8056E-04  0.7025E-04  0.6150E-04  0.5429E-04  0.4766E-04  0.4160E-04  0.3603E-04  0.3101E-04  0.2661E-04
  0.3125E-03  0.3389E-03  0.3628E-03  0.3830E-03  0.3994E-03  0.4123E-03  0.4205E-03  0.4254E-03  0.4258E-03  0.4237E-03  0.4179E-03  0.4094E-03  0.3995E-03  0.3875E-03  0.3750E-03  0.3635E-03  0.3534E-03  0.3506E-03  0.3605E-03  0.3930E-03  0.4752E-03  0.6192E-03  0.8233E-03  0.1024E-02  0.1177E-02  0.1286E-02  0.1374E-02  0.1456E-02  0.1521E-02  0.1545E-02  0.1526E-02  0.1478E-02  0.1421E-02  0.1393E-02  0.1390E-02  0.1364E-02  0.1263E-02  0.1097E-02  0.9275E-03  0.8007E-03  0.7168E-03  0.6575E-03  0.6127E-03  0.5732E-03  0.5391E-03  0.5104E-03  0.4897E-03  0.4745E-03  0.4629E-03  0.4544E-03  0.4485E-03  0.4432E-03  0.4391E-03  0.4350E-03  0.4288E-03  0.4208E-03  0.4090E-03  0.3933E-03  0.3716E-03  0.3454E-03  0.3154E-03  0.2831E-03  0.2508E-03  0.2191E-03  0.1895E-03  0.1634E-03  0.1415E-03  0.1224E-03  0.1058E-03  0.9204E-04  0.7995E-04  0.6978E-04  0.6110E-04  0.5371E-04  0.4754E-04  0.4156E-04  0.3599E-04  0.3102E-04  0.2647E-04
  0.2987E-03  0.3212E-03  0.3414E-03  0.3585E-03  0.3726E-03  0.3833E-03  0.3902E-03  0.3945E-03  0.3958E-03  0.3939E-03  0.3898E-03  0.3846E-03  0.3780E-03  0.3719E-03  0.3677E-03  0.3647E-03  0.3682E-03  0.3789E-03  0.4037E-03  0.4467E-03  0.5246E-03  0.6382E-03  0.7829E-03  0.9287E-03  0.1052E-02  0.1149E-02  0.1222E-02  0.1285E-02  0.1329E-02  0.1352E-02  0.1354E-02  0.1342E-02  0.1331E-02  0.1339E-02  0.1371E-02  0.1385E-02  0.1329E-02  0.1194E-02  0.1030E-02  0.8952E-03  0.8026E-03  0.7400E-03  0.6940E-03  0.6542E-03  0.6173E-03  0.5847E-03  0.5579E-03  0.5357E-03  0.5173E-03  0.5024E-03  0.4892E-03  0.4780E-03  0.4675E-03  0.4579E-03  0.4472E-03  0.4347E-03  0.4191E-03  0.3988E-03  0.3741E-03  0.3456E-03  0.3140E-03  0.2816E-03  0.2486E-03  0.2169E-03  0.1880E-03  0.1618E-03  0.1393E-03  0.1207E-03  0.1046E-03  0.9056E-04  0.7902E-04  0.6899E-04  0.6047E-04  0.5327E-04  0.4724E-04  0.4134E-04  0.3585E-04  0.3087E-04  0.2637E-04
  0.2834E-03  0.3029E-03  0.3201E-03  0.3354E-03  0.3479E-03  0.3575E-03  0.3650E-03  0.3701E-03  0.3724E-03  0.3738E-03  0.3744E-03  0.3739E-03  0.3760E-03  0.3795E-03  0.3865E-03  0.3994E-03  0.4164E-03  0.4421E-03  0.4754E-03  0.5172E-03  0.5739E-03  0.6441E-03  0.7226E-03  0.8044E-03  0.8764E-03  0.9316E-03  0.9797E-03  0.1026E-02  0.1068E-02  0.1108E-02  0.1135E-02  0.1162E-02  0.1188E-02  0.1230E-02  0.1291E-02  0.1342E-02  0.1332E-02  0.1238E-02  0.1093E-02  0.9540E-03  0.8532E-03  0.7879E-03  0.7414E-03  0.7049E-03  0.6711E-03  0.6398E-03  0.6119E-03  0.5883E-03  0.5670E-03  0.5474E-03  0.5298E-03  0.5138E-03  0.4986E-03  0.4843E-03  0.4693E-03  0.4516E-03  0.4315E-03  0.4071E-03  0.3795E-03  0.3481E-03  0.3151E-03  0.2811E-03  0.2479E-03  0.2158E-03  0.1862E-03  0.1603E-03  0.1376E-03  0.1185E-03  0.1030E-03  0.8941E-04  0.7756E-04  0.6798E-04  0.5965E-04  0.5256E-04  0.4635E-04  0.4082E-04  0.3542E-04  0.3047E-04  0.2606E-04
  0.2683E-03  0.2857E-03  0.3018E-03  0.3160E-03  0.3280E-03  0.3389E-03  0.3477E-03  0.3548E-03  0.3622E-03  0.3689E-03  0.3764E-03  0.3860E-03  0.3966E-03  0.4117E-03  0.4286E-03  0.4500E-03  0.4729E-03  0.5000E-03  0.5253E-03  0.5489E-03  0.5760E-03  0.6001E-03  0.6253E-03  0.6511E-03  0.6776E-03  0.7078E-03  0.7406E-03  0.7846E-03  0.8296E-03  0.8797E-03  0.9294E-03  0.9792E-03  0.1034E-02  0.1097E-02  0.1179E-02  0.1258E-02  0.1289E-02  0.1239E-02  0.1120E-02  0.9853E-03  0.8766E-03  0.8055E-03  0.7585E-03  0.7242E-03  0.6958E-03  0.6686E-03  0.6436E-03  0.6211E-03  0.6007E-03  0.5808E-03  0.5623E-03  0.5441E-03  0.5261E-03  0.5083E-03  0.4894E-03  0.4682E-03  0.4442E-03  0.4170E-03  0.3859E-03  0.3527E-03  0.3176E-03  0.2824E-03  0.2478E-03  0.2152E-03  0.1854E-03  0.1586E-03  0.1361E-03  0.1168E-03  0.1008E-03  0.8779E-04  0.7636E-04  0.6645E-04  0.5864E-04  0.5160E-04  0.4548E-04  0.3977E-04  0.3475E-04  0.3001E-04  0.2562E-04
  0.2552E-03  0.2719E-03  0.2868E-03  0.3019E-03  0.3160E-03  0.3286E-03  0.3416E-03  0.3545E-03  0.3668E-03  0.3815E-03  0.3960E-03  0.4134E-03  0.4321E-03  0.4510E-03  0.4704E-03  0.4897E-03  0.5063E-03  0.5206E-03  0.5300E-03  0.5332E-03  0.5323E-03  0.5290E-03  0.5245E-03  0.5221E-03  0.5292E-03  0.5414E-03  0.5688E-03  0.6064E-03  0.6517E-03  0.7056E-03  0.7625E-03  0.8245E-03  0.8902E-03  0.9668E-03  0.1055E-02  0.1141E-02  0.1194E-02  0.1182E-02  0.1106E-02  0.9936E-03  0.8871E-03  0.8077E-03  0.7548E-03  0.7191E-03  0.6938E-03  0.6718E-03  0.6512E-03  0.6324E-03  0.6150E-03  0.5979E-03  0.5801E-03  0.5620E-03  0.5438E-03  0.5247E-03  0.5038E-03  0.4801E-03  0.4538E-03  0.4246E-03  0.3919E-03  0.3568E-03  0.3206E-03  0.2838E-03  0.2484E-03  0.2153E-03  0.1845E-03  0.1577E-03  0.1344E-03  0.1151E-03  0.9896E-04  0.8567E-04  0.7489E-04  0.6517E-04  0.5698E-04  0.5019E-04  0.4434E-04  0.3880E-04  0.3369E-04  0.2924E-04  0.2504E-04
  0.2448E-03  0.2613E-03  0.2783E-03  0.2952E-03  0.3122E-03  0.3300E-03  0.3477E-03  0.3661E-03  0.3851E-03  0.4037E-03  0.4237E-03  0.4421E-03  0.4613E-03  0.4773E-03  0.4908E-03  0.5009E-03  0.5050E-03  0.5046E-03  0.4983E-03  0.4856E-03  0.4711E-03  0.4542E-03  0.4361E-03  0.4260E-03  0.4246E-03  0.4326E-03  0.4528E-03  0.4849E-03  0.5285E-03  0.5787E-03  0.6355E-03  0.6979E-03  0.7681E-03  0.8463E-03  0.9339E-03  0.1022E-02  0.1085E-02  0.1101E-02  0.1058E-02  0.9746E-03  0.8793E-03  0.7975E-03  0.7379E-03  0.7001E-03  0.6734E-03  0.6545E-03  0.6383E-03  0.6240E-03  0.6107E-03  0.5970E-03  0.5820E-03  0.5662E-03  0.5490E-03  0.5303E-03  0.5093E-03  0.4854E-03  0.4579E-03  0.4276E-03  0.3943E-03  0.3583E-03  0.3216E-03  0.2845E-03  0.2489E-03  0.2149E-03  0.1844E-03  0.1568E-03  0.1333E-03  0.1132E-03  0.9674E-04  0.8379E-04  0.7279E-04  0.6354E-04  0.5544E-04  0.4862E-04  0.4265E-04  0.3760E-04  0.3266E-04  0.2814E-04  0.2432E-04
  0.2378E-03  0.2561E-03  0.2752E-03  0.2955E-03  0.3172E-03  0.3383E-03  0.3609E-03  0.3825E-03  0.4042E-03  0.4245E-03  0.4433E-03  0.4592E-03  0.4726E-03  0.4809E-03  0.4849E-03  0.4839E-03  0.4766E-03  0.4653E-03  0.4475E-03  0.4270E-03  0.4054E-03  0.3819E-03  0.3665E-03  0.3536E-03  0.3531E-03  0.3586E-03  0.3754E-03  0.4020E-03  0.4398E-03  0.4864E-03  0.5382E-03  0.5964E-03  0.6624E-03  0.7370E-03  0.8223E-03  0.9077E-03  0.9755E-03  0.1007E-02  0.9915E-03  0.9326E-03  0.8546E-03  0.7766E-03  0.7141E-03  0.6708E-03  0.6427E-03  0.6232E-03  0.6108E-03  0.5999E-03  0.5907E-03  0.5809E-03  0.5697E-03  0.5566E-03  0.5418E-03  0.5249E-03  0.5048E-03  0.4815E-03  0.4546E-03  0.4245E-03  0.3916E-03  0.3562E-03  0.3198E-03  0.2834E-03  0.2474E-03  0.2140E-03  0.1830E-03  0.1559E-03  0.1319E-03  0.1120E-03  0.9517E-04  0.8158E-04  0.7098E-04  0.6166E-04  0.5340E-04  0.4700E-04  0.4110E-04  0.3594E-04  0.3149E-04  0.2712E-04  0.2318E-04
  0.2342E-03  0.2538E-03  0.2759E-03  0.2991E-03  0.3235E-03  0.3484E-03  0.3721E-03  0.3955E-03  0.4154E-03  0.4339E-03  0.4474E-03  0.4578E-03  0.4632E-03  0.4630E-03  0.4581E-03  0.4479E-03  0.4324E-03  0.4136E-03  0.3921E-03  0.3683E-03  0.3428E-03  0.3240E-03  0.3087E-03  0.3010E-03  0.2997E-03  0.3062E-03  0.3182E-03  0.3433E-03  0.3752E-03  0.4152E-03  0.4611E-03  0.5123E-03  0.5732E-03  0.6441E-03  0.7207E-03  0.8019E-03  0.8699E-03  0.9096E-03  0.9118E-03  0.8762E-03  0.8127E-03  0.7452E-03  0.6837E-03  0.6364E-03  0.6050E-03  0.5858E-03  0.5725E-03  0.5649E-03  0.5590E-03  0.5531E-03  0.5454E-03  0.5358E-03  0.5236E-03  0.5087E-03  0.4908E-03  0.4688E-03  0.4436E-03  0.4150E-03  0.3837E-03  0.3498E-03  0.3142E-03  0.2789E-03  0.2439E-03  0.2108E-03  0.1808E-03  0.1536E-03  0.1301E-03  0.1101E-03  0.9321E-04  0.7986E-04  0.6867E-04  0.5966E-04  0.5167E-04  0.4477E-04  0.3941E-04  0.3449E-04  0.2988E-04  0.2597E-04  0.2229E-04
  0.2305E-03  0.2526E-03  0.2753E-03  0.3006E-03  0.3258E-03  0.3513E-03  0.3746E-03  0.3962E-03  0.4133E-03  0.4272E-03  0.4356E-03  0.4392E-03  0.4378E-03  0.4308E-03  0.4198E-03  0.4041E-03  0.3847E-03  0.3632E-03  0.3392E-03  0.3144E-03  0.2935E-03  0.2761E-03  0.2651E-03  0.2592E-03  0.2603E-03  0.2640E-03  0.2776E-03  0.3003E-03  0.3275E-03  0.3604E-03  0.3991E-03  0.4442E-03  0.4972E-03  0.5595E-03  0.6300E-03  0.7039E-03  0.7690E-03  0.8119E-03  0.8235E-03  0.8050E-03  0.7589E-03  0.7012E-03  0.6447E-03  0.5984E-03  0.5649E-03  0.5435E-03  0.5311E-03  0.5230E-03  0.5204E-03  0.5172E-03  0.5126E-03  0.5057E-03  0.4968E-03  0.4845E-03  0.4685E-03  0.4492E-03  0.4261E-03  0.3996E-03  0.3703E-03  0.3384E-03  0.3050E-03  0.2711E-03  0.2379E-03  0.2060E-03  0.1770E-03  0.1504E-03  0.1275E-03  0.1076E-03  0.9124E-04  0.7742E-04  0.6655E-04  0.5736E-04  0.4965E-04  0.4304E-04  0.3743E-04  0.3283E-04  0.2854E-04  0.2447E-04  0.2126E-04
  0.2263E-03  0.2482E-03  0.2720E-03  0.2962E-03  0.3212E-03  0.3446E-03  0.3663E-03  0.3839E-03  0.3977E-03  0.4067E-03  0.4103E-03  0.4089E-03  0.4017E-03  0.3909E-03  0.3757E-03  0.3579E-03  0.3382E-03  0.3151E-03  0.2903E-03  0.2708E-03  0.2517E-03  0.2393E-03  0.2301E-03  0.2268E-03  0.2276E-03  0.2348E-03  0.2465E-03  0.2654E-03  0.2892E-03  0.3149E-03  0.3479E-03  0.3865E-03  0.4328E-03  0.4876E-03  0.5477E-03  0.6128E-03  0.6717E-03  0.7144E-03  0.7322E-03  0.7228E-03  0.6917E-03  0.6461E-03  0.5984E-03  0.5547E-03  0.5224E-03  0.5002E-03  0.4868E-03  0.4805E-03  0.4769E-03  0.4761E-03  0.4741E-03  0.4704E-03  0.4635E-03  0.4537E-03  0.4405E-03  0.4237E-03  0.4029E-03  0.3790E-03  0.3522E-03  0.3229E-03  0.2919E-03  0.2604E-03  0.2294E-03  0.1993E-03  0.1713E-03  0.1463E-03  0.1238E-03  0.1048E-03  0.8847E-04  0.7518E-04  0.6404E-04  0.5518E-04  0.4762E-04  0.4086E-04  0.3563E-04  0.3079E-04  0.2692E-04  0.2329E-04  0.1979E-04
  0.2197E-03  0.2403E-03  0.2629E-03  0.2850E-03  0.3080E-03  0.3284E-03  0.3470E-03  0.3611E-03  0.3713E-03  0.3769E-03  0.3767E-03  0.3718E-03  0.3627E-03  0.3490E-03  0.3336E-03  0.3145E-03  0.2950E-03  0.2714E-03  0.2521E-03  0.2332E-03  0.2198E-03  0.2090E-03  0.2022E-03  0.1998E-03  0.2018E-03  0.2090E-03  0.2207E-03  0.2364E-03  0.2563E-03  0.2786E-03  0.3052E-03  0.3388E-03  0.3776E-03  0.4226E-03  0.4754E-03  0.5299E-03  0.5788E-03  0.6177E-03  0.6376E-03  0.6360E-03  0.6142E-03  0.5810E-03  0.5425E-03  0.5066E-03  0.4767E-03  0.4555E-03  0.4420E-03  0.4362E-03  0.4341E-03  0.4334E-03  0.4331E-03  0.4311E-03  0.4269E-03  0.4193E-03  0.4084E-03  0.3940E-03  0.3760E-03  0.3548E-03  0.3307E-03  0.3042E-03  0.2762E-03  0.2473E-03  0.2184E-03  0.1907E-03  0.1642E-03  0.1406E-03  0.1193E-03  0.1009E-03  0.8547E-04  0.7220E-04  0.6159E-04  0.5266E-04  0.4527E-04  0.3888E-04  0.3365E-04  0.2917E-04  0.2518E-04  0.2174E-04  0.1874E-04
