DSAA
          79         109
    318.3670    342.0670
   7336.5760   7369.2760
  0.0000E+00  0.3227E-02
  0.0000E+00  0.0000E+00  0.0000E+00  0.0000E+00  0.0000E+00  0.0000E+00  0.0000E+00  0.0000E+00  0.0000E+00  0.0000E+00  0.0000E+00  0.0000E+00  0.0000E+00  0.0000E+00  0.0000E+00  0.0000E+00  0.0000E+00  0.0000E+00  0.0000E+00  0.0000E+00  0.0000E+00  0.0000E+00  0.0000E+00  0.0000E+00  0.0000E+00  0.0000E+00  0.0000E+00  0.0000E+00  0.0000E+00  0.0000E+00  0.0000E+00  0.0000E+00  0.0000E+00  0.0000E+00  0.0000E+00  0.0000E+00  0.0000E+00  0.0000E+00  0.0000E+00  0.0000E+00  0.0000E+00  0.0000E+00  0.0000E+00  0.0000E+00  0.0000E+00  0.0000E+00  0.0000E+00  0.0000E+00  0.0000E+00  0.0000E+00  0.0000E+00  0.0000E+00  0.0000E+00  0.0000E+00  0.0000E+00  0.0000E+00  0.0000E+00  0.0000E+00  0.0000E+00  0.0000E+00  0.0000E+00  0.0000E+00  0.0000E+00  0.0000E+00  0.0000E+00  0.0000E+00  0.0000E+00  0.0000E+00  0.0000E+00  0.0000E+00  0.0000E+00  0.0000E+00  0.0000E+00  0.0000E+00  0.0000E+00  0.0000E+00  0.0000E+00  0.0000E+00  0.0000E+00
  0.0000E+00  0.0000E+00  0.0000E+00  0.0000E+00  0.0000E+00  0.0000E+00  0.0000E+00  0.0000E+00  0.0000E+00  0.0000E+00  0.0000E+00  0.0000E+00  0.0000E+00  0.0000E+00  0.0000E+00  0.0000E+00  0.0000E+00  0.0000E+00  0.0000E+00  0.0000E+00  0.0000E+00  0.0000E+00  0.0000E+00  0.0000E+00  0.0000E+00  0.0000E+00  0.0000E+00  0.0000E+00  0.0000E+00  0.0000E+00  0.0000E+00  0.0000E+00  0.0000E+00  0.0000E+00  0.0000E+00  0.0000E+00  0.0000E+00  0.0000E+00  0.0000E+00  0.0000E+00  0.0000E+00  0.0000E+00  0.0000E+00  0.0000E+00  0.0000E+00  0.0000E+00  0.0000E+00  0.0000E+00  0.0000E+00  0.0000E+00  0.0000E+00  0.0000E+00  0.0000E+00  0.0000E+00  0.0000E+00  0.0000E+00  0.0000E+00  0.0000E+00  0.0000E+00  0.0000E+00  0.0000E+00  0.0000E+00  0.0000E+00  0.0000E+00  0.0000E+00  0.0000E+00  0.0000E+00  0.0000E+00  0.0000E+00  0.0000E+00  0.0000E+00  0.0000E+00  0.0000E+00  0.0000E+00  0.0000E+00  0.0000E+00  0.0000E+00  0.0000E+00  0.0000E+00
  0.0000E+00  0.0000E+00  0.0000E+00  0.0000E+00  0.0000E+00  0.0000E+00  0.0000E+00  0.0000E+00  0.0000E+00  0.0000E+00  0.0000E+00  0.0000E+00  0.0000E+00  0.0000E+00  0.0000E+00  0.0000E+00  0.0000E+00  0.0000E+00  0.0000E+00  0.0000E+00  0.0000E+00  0.0000E+00  0.0000E+00  0.0000E+00  0.0000E+00  0.0000E+00  0.0000E+00  0.0000E+00  0.0000E+00  0.0000E+00  0.0000E+00  0.0000E+00  0.0000E+00  0.0000E+00  0.0000E+00  0.0000E+00  0.0000E+00  0.0000E+00  0.0000E+00  0.0000E+00  0.0000E+00  0.0000E+00  0.0000E+00  0.0000E+00  0.0000E+00  0.0000E+00  0.0000E+00  0.0000E+00  0.0000E+00  0.0000E+00  0.0000E+00  0.0000E+00  0.0000E+00  0.0000E+00  0.0000E+00  0.0000E+00  0.0000E+00  0.0000E+00  0.0000E+00  0.0000E+00  0.0000E+00  0.0000E+00  0.0000E+00  0.0000E+00  0.0000E+00  0.0000E+00  0.0000E+00  0.0000E+00  0.0000E+00  0.0000E+00  0.0000E+00  0.0000E+00  0.0000E+00  0.0000E+00  0.0000E+00  0.0000E+00  0.0000E+00  0.0000E+00  0.0000E+00
  0.0000E+00  0.0000E+00  0.0000E+00  0.0000E+00  0.0000E+00  0.0000E+00  0.0000E+00  0.0000E+00  0.0000E+00  0.0000E+00  0.0000E+00  0.0000E+00  0.0000E+00  0.0000E+00  0.0000E+00  0.0000E+00  0.0000E+00  0.0000E+00  0.0000E+00  0.0000E+00  0.0000E+00  0.0000E+00  0.0000E+00  0.0000E+00  0.0000E+00  0.0000E+00  0.0000E+00  0.0000E+00  0.0000E+00  0.0000E+00  0.0000E+00  0.0000E+00  0.0000E+00  0.0000E+00  0.0000E+00  0.0000E+00  0.0000E+00  0.0000E+00  0.0000E+00  0.0000E+00  0.0000E+00  0.0000E+00  0.0000E+00  0.0000E+00  0.0000E+00  0.0000E+00  0.0000E+00  0.0000E+00  0.0000E+00  0.0000E+00  0.0000E+00  0.0000E+00  0.0000E+00  0.0000E+00  0.0000E+00  0.0000E+00  0.0000E+00  0.0000E+00  0.0000E+00  0.0000E+00  0.0000E+00  0.0000E+00  0.0000E+00  0.0000E+00  0.0000E+00  0.0000E+00  0.0000E+00  0.0000E+00  0.0000E+00  0.0000E+00  0.0000E+00  0.0000E+00  0.0000E+00  0.0000E+00  0.0000E+00  0.0000E+00  0.0000E+00  0.0000E+00  0.0000E+00
  0.0000E+00  0.0000E+00  0.0000E+00  0.0000E+00  0.0000E+00  0.0000E+00  0.0000E+00  0.0000E+00  0.0000E+00  0.0000E+00  0.0000E+00  0.0000E+00  0.0000E+00  0.0000E+00  0.0000E+00  0.0000E+00  0.0000E+00  0.0000E+00  0.0000E+00  0.0000E+00  0.0000E+00  0.0000E+00  0.0000E+00  0.0000E+00  0.0000E+00  0.0000E+00  0.0000E+00  0.0000E+00  0.0000E+00  0.0000E+00  0.0000E+00  0.0000E+00  0.0000E+00  0.0000E+00  0.0000E+00  0.0000E+00  0.0000E+00  0.0000E+00  0.0000E+00  0.0000E+00  0.0000E+00  0.0000E+00  0.0000E+00  0.0000E+00  0.0000E+00  0.0000E+00  0.0000E+00  0.0000E+00  0.0000E+00  0.0000E+00  0.0000E+00  0.0000E+00  0.0000E+00  0.0000E+00  0.0000E+00  0.0000E+00  0.0000E+00  0.0000E+00  0.0000E+00  0.0000E+00  0.0000E+00  0.0000E+00  0.0000E+00  0.0000E+00  0.0000E+00  0.0000E+00  0.0000E+00  0.0000E+00  0.0000E+00  0.0000E+00  0.0000E+00  0.0000E+00  0.0000E+00  0.0000E+00  0.0000E+00  0.0000E+00  0.0000E+00  0.0000E+00  0.0000E+00
  0.0000E+00  0.0000E+00  0.0000E+00  0.0000E+00  0.0000E+00  0.0000E+00  0.0000E+00  0.0000E+00  0.0000E+00  0.0000E+00  0.0000E+00  0.0000E+00  0.0000E+00  0.0000E+00  0.0000E+00  0.0000E+00  0.0000E+00  0.0000E+00  0.0000E+00  0.0000E+00  0.0000E+00  0.0000E+00  0.0000E+00  0.0000E+00  0.0000E+00  0.0000E+00  0.0000E+00  0.0000E+00  0.0000E+00  0.0000E+00  0.0000E+00  0.0000E+00  0.0000E+00  0.0000E+00  0.0000E+00  0.0000E+00  0.0000E+00  0.0000E+00  0.0000E+00  0.0000E+00  0.0000E+00  0.0000E+00  0.0000E+00  0.0000E+00  0.0000E+00  0.0000E+00  0.0000E+00  0.0000E+00  0.0000E+00  0.0000E+00  0.0000E+00  0.0000E+00  0.0000E+00  0.0000E+00  0.0000E+00  0.0000E+00  0.0000E+00  0.0000E+00  0.0000E+00  0.0000E+00  0.0000E+00  0.0000E+00  0.0000E+00  0.0000E+00  0.0000E+00  0.0000E+00  0.0000E+00  0.0000E+00  0.0000E+00  0.0000E+00  0.0000E+00  0.0000E+00  0.0000E+00  0.0000E+00  0.0000E+00  0.0000E+00  0.0000E+00  0.0000E+00  0.0000E+00
  0.0000E+00  0.0000E+00  0.0000E+00  0.0000E+00  0.0000E+00  0.0000E+00  0.0000E+00  0.0000E+00  0.0000E+00  0.0000E+00  0.0000E+00  0.0000E+00  0.0000E+00  0.0000E+00  0.0000E+00  0.0000E+00  0.0000E+00  0.0000E+00  0.0000E+00  0.0000E+00  0.0000E+00  0.0000E+00  0.0000E+00  0.0000E+00  0.0000E+00  0.0000E+00  0.0000E+00  0.0000E+00  0.0000E+00  0.0000E+00  0.0000E+00  0.0000E+00  0.0000E+00  0.0000E+00  0.0000E+00  0.0000E+00  0.0000E+00  0.0000E+00  0.0000E+00  0.0000E+00  0.0000E+00  0.0000E+00  0.0000E+00  0.0000E+00  0.0000E+00  0.0000E+00  0.0000E+00  0.0000E+00  0.0000E+00  0.0000E+00  0.0000E+00  0.0000E+00  0.0000E+00  0.0000E+00  0.0000E+00  0.0000E+00  0.0000E+00  0.0000E+00  0.0000E+00  0.0000E+00  0.0000E+00  0.0000E+00  0.0000E+00  0.0000E+00  0.0000E+00  0.0000E+00  0.0000E+00  0.0000E+00  0.0000E+00  0.0000E+00  0.0000E+00  0.0000E+00  0.0000E+00  0.0000E+00  0.0000E+00  0.0000E+00  0.0000E+00  0.0000E+00  0.0000E+00
  0.0000E+00  0.0000E+00  0.0000E+00  0.0000E+00  0.0000E+00  0.0000E+00  0.0000E+00  0.0000E+00  0.0000E+00  0.0000E+00  0.0000E+00  0.0000E+00  0.0000E+00  0.0000E+00  0.0000E+00  0.0000E+00  0.0000E+00  0.0000E+00  0.0000E+00  0.0000E+00  0.0000E+00  0.0000E+00  0.0000E+00  0.0000E+00  0.0000E+00  0.0000E+00  0.0000E+00  0.0000E+00  0.0000E+00  0.0000E+00  0.0000E+00  0.0000E+00  0.0000E+00  0.0000E+00  0.0000E+00  0.0000E+00  0.0000E+00  0.0000E+00  0.0000E+00  0.0000E+00  0.0000E+00  0.0000E+00  0.0000E+00  0.0000E+00  0.0000E+00  0.0000E+00  0.0000E+00  0.0000E+00  0.0000E+00  0.0000E+00  0.0000E+00  0.0000E+00  0.0000E+00  0.0000E+00  0.0000E+00  0.0000E+00  0.0000E+00  0.0000E+00  0.0000E+00  0.0000E+00  0.0000E+00  0.0000E+00  0.0000E+00  0.0000E+00  0.0000E+00  0.0000E+00  0.0000E+00  0.0000E+00  0.0000E+00  0.0000E+00  0.0000E+00  0.0000E+00  0.0000E+00  0.0000E+00  0.0000E+00  0.0000E+00  0.0000E+00  0.0000E+00  0.0000E+00
  0.0000E+00  0.0000E+00  0.0000E+00  0.0000E+00  0.0000E+00  0.0000E+00  0.0000E+00  0.0000E+00  0.0000E+00  0.0000E+00  0.0000E+00  0.0000E+00  0.0000E+00  0.0000E+00  0.0000E+00  0.0000E+00  0.0000E+00  0.0000E+00  0.0000E+00  0.0000E+00  0.0000E+00  0.0000E+00  0.0000E+00  0.0000E+00  0.0000E+00  0.0000E+00  0.0000E+00  0.0000E+00  0.0000E+00  0.0000E+00  0.0000E+00  0.0000E+00  0.0000E+00  0.0000E+00  0.0000E+00  0.0000E+00  0.0000E+00  0.0000E+00  0.0000E+00  0.0000E+00  0.0000E+00  0.0000E+00  0.0000E+00  0.0000E+00  0.0000E+00  0.0000E+00  0.0000E+00  0.0000E+00  0.0000E+00  0.0000E+00  0.0000E+00  0.0000E+00  0.0000E+00  0.0000E+00  0.0000E+00  0.0000E+00  0.0000E+00  0.0000E+00  0.0000E+00  0.0000E+00  0.0000E+00  0.0000E+00  0.0000E+00  0.0000E+00  0.0000E+00  0.0000E+00  0.0000E+00  0.0000E+00  0.0000E+00  0.0000E+00  0.0000E+00  0.0000E+00  0.0000E+00  0.0000E+00  0.0000E+00  0.0000E+00  0.0000E+00  0.0000E+00  0.0000E+00
  0.0000E+00  0.0000E+00  0.0000E+00  0.0000E+00  0.0000E+00  0.0000E+00  0.0000E+00  0.0000E+00  0.0000E+00  0.0000E+00  0.0000E+00  0.0000E+00  0.0000E+00  0.0000E+00  0.0000E+00  0.0000E+00  0.0000E+00  0.0000E+00  0.0000E+00  0.0000E+00  0.0000E+00  0.0000E+00  0.0000E+00  0.0000E+00  0.0000E+00  0.0000E+00  0.0000E+00  0.0000E+00  0.0000E+00  0.0000E+00  0.0000E+00  0.0000E+00  0.0000E+00  0.0000E+00  0.0000E+00  0.0000E+00  0.0000E+00  0.0000E+00  0.0000E+00  0.0000E+00  0.0000E+00  0.0000E+00  0.0000E+00  0.0000E+00  0.0000E+00  0.0000E+00  0.0000E+00  0.0000E+00  0.0000E+00  0.0000E+00  0.0000E+00  0.0000E+00  0.0000E+00  0.0000E+00  0.0000E+00  0.0000E+00  0.0000E+00  0.0000E+00  0.0000E+00  0.0000E+00  0.0000E+00  0.0000E+00  0.0000E+00  0.0000E+00  0.0000E+00  0.0000E+00  0.0000E+00  0.0000E+00  0.0000E+00  0.0000E+00  0.0000E+00  0.0000E+00  0.0000E+00  0.0000E+00  0.0000E+00  0.0000E+00  0.0000E+00  0.0000E+00  0.0000E+00
  0.0000E+00  0.0000E+00  0.0000E+00  0.0000E+00  0.0000E+00  0.0000E+00  0.0000E+00  0.0000E+00  0.0000E+00  0.0000E+00  0.0000E+00  0.0000E+00  0.0000E+00  0.0000E+00  0.0000E+00  0.0000E+00  0.0000E+00  0.0000E+00  0.0000E+00  0.0000E+00  0.0000E+00  0.0000E+00  0.0000E+00  0.0000E+00  0.0000E+00  0.0000E+00  0.0000E+00  0.0000E+00  0.0000E+00  0.0000E+00  0.0000E+00  0.0000E+00  0.0000E+00  0.0000E+00  0.0000E+00  0.0000E+00  0.0000E+00  0.0000E+00  0.0000E+00  0.0000E+00  0.0000E+00  0.0000E+00  0.0000E+00  0.0000E+00  0.0000E+00  0.0000E+00  0.0000E+00  0.0000E+00  0.0000E+00  0.0000E+00  0.0000E+00  0.0000E+00  0.0000E+00  0.0000E+00  0.0000E+00  0.0000E+00  0.0000E+00  0.0000E+00  0.0000E+00  0.0000E+00  0.0000E+00  0.0000E+00  0.0000E+00  0.0000E+00  0.0000E+00  0.0000E+00  0.0000E+00  0.0000E+00  0.0000E+00  0.0000E+00  0.0000E+00  0.0000E+00  0.0000E+00  0.0000E+00  0.0000E+00  0.0000E+00  0.0000E+00  0.0000E+00  0.0000E+00
  0.0000E+00  0.0000E+00  0.0000E+00  0.0000E+00  0.0000E+00  0.0000E+00  0.0000E+00  0.0000E+00  0.0000E+00  0.0000E+00  0.0000E+00  0.0000E+00  0.0000E+00  0.0000E+00  0.0000E+00  0.0000E+00  0.0000E+00  0.0000E+00  0.0000E+00  0.0000E+00  0.0000E+00  0.0000E+00  0.0000E+00  0.0000E+00  0.0000E+00  0.0000E+00  0.0000E+00  0.0000E+00  0.0000E+00  0.0000E+00  0.0000E+00  0.0000E+00  0.0000E+00  0.0000E+00  0.0000E+00  0.0000E+00  0.0000E+00  0.0000E+00  0.0000E+00  0.0000E+00  0.0000E+00  0.0000E+00  0.0000E+00  0.0000E+00  0.0000E+00  0.0000E+00  0.0000E+00  0.0000E+00  0.0000E+00  0.0000E+00  0.0000E+00  0.0000E+00  0.0000E+00  0.0000E+00  0.0000E+00  0.0000E+00  0.0000E+00  0.0000E+00  0.0000E+00  0.0000E+00  0.0000E+00  0.0000E+00  0.0000E+00  0.0000E+00  0.0000E+00  0.0000E+00  0.0000E+00  0.0000E+00  0.0000E+00  0.0000E+00  0.0000E+00  0.0000E+00  0.0000E+00  0.0000E+00  0.0000E+00  0.0000E+00  0.0000E+00  0.0000E+00  0.0000E+00
  0.0000E+00  0.0000E+00  0.0000E+00  0.0000E+00  0.0000E+00  0.0000E+00  0.0000E+00  0.0000E+00  0.0000E+00  0.0000E+00  0.0000E+00  0.0000E+00  0.0000E+00  0.0000E+00  0.0000E+00  0.0000E+00  0.0000E+00  0.0000E+00  0.0000E+00  0.0000E+00  0.0000E+00  0.0000E+00  0.0000E+00  0.0000E+00  0.0000E+00  0.0000E+00  0.0000E+00  0.0000E+00  0.0000E+00  0.0000E+00  0.0000E+00  0.0000E+00  0.0000E+00  0.0000E+00  0.0000E+00  0.0000E+00  0.0000E+00  0.0000E+00  0.0000E+00  0.0000E+00  0.0000E+00  0.0000E+00  0.0000E+00  0.0000E+00  0.0000E+00  0.0000E+00  0.0000E+00  0.0000E+00  0.0000E+00  0.0000E+00  0.0000E+00  0.0000E+00  0.0000E+00  0.0000E+00  0.0000E+00  0.0000E+00  0.0000E+00  0.0000E+00  0.0000E+00  0.0000E+00  0.0000E+00  0.0000E+00  0.0000E+00  0.0000E+00  0.0000E+00  0.0000E+00  0.0000E+00  0.0000E+00  0.0000E+00  0.0000E+00  0.0000E+00  0.0000E+00  0.0000E+00  0.0000E+00  0.0000E+00  0.0000E+00  0.0000E+00  0.0000E+00  0.0000E+00
  0.0000E+00  0.0000E+00  0.0000E+00  0.0000E+00  0.0000E+00  0.0000E+00  0.0000E+00  0.0000E+00  0.0000E+00  0.0000E+00  0.0000E+00  0.0000E+00  0.0000E+00  0.0000E+00  0.0000E+00  0.0000E+00  0.0000E+00  0.0000E+00  0.0000E+00  0.0000E+00  0.0000E+00  0.0000E+00  0.0000E+00  0.0000E+00  0.0000E+00  0.0000E+00  0.0000E+00  0.0000E+00  0.0000E+00  0.0000E+00  0.0000E+00  0.0000E+00  0.0000E+00  0.0000E+00  0.0000E+00  0.0000E+00  0.0000E+00  0.0000E+00  0.0000E+00  0.0000E+00  0.0000E+00  0.0000E+00  0.0000E+00  0.0000E+00  0.0000E+00  0.0000E+00  0.0000E+00  0.0000E+00  0.0000E+00  0.0000E+00  0.0000E+00  0.0000E+00  0.0000E+00  0.0000E+00  0.0000E+00  0.0000E+00  0.0000E+00  0.0000E+00  0.0000E+00  0.0000E+00  0.0000E+00  0.0000E+00  0.0000E+00  0.0000E+00  0.0000E+00  0.0000E+00  0.0000E+00  0.0000E+00  0.0000E+00  0.0000E+00  0.0000E+00  0.0000E+00  0.0000E+00  0.0000E+00  0.0000E+00  0.0000E+00  0.0000E+00  0.0000E+00  0.0000E+00
  0.0000E+00  0.0000E+00  0.0000E+00  0.0000E+00  0.0000E+00  0.0000E+00  0.0000E+00  0.0000E+00  0.0000E+00  0.0000E+00  0.0000E+00  0.0000E+00  0.0000E+00  0.0000E+00  0.0000E+00  0.0000E+00  0.0000E+00  0.0000E+00  0.0000E+00  0.0000E+00  0.0000E+00  0.0000E+00  0.0000E+00  0.0000E+00  0.0000E+00  0.0000E+00  0.0000E+00  0.0000E+00  0.0000E+00  0.0000E+00  0.0000E+00  0.0000E+00  0.0000E+00  0.0000E+00  0.0000E+00  0.0000E+00  0.0000E+00  0.0000E+00  0.0000E+00  0.0000E+00  0.0000E+00  0.0000E+00  0.0000E+00  0.0000E+00  0.0000E+00  0.0000E+00  0.0000E+00  0.0000E+00  0.0000E+00  0.0000E+00  0.0000E+00  0.0000E+00  0.0000E+00  0.0000E+00  0.0000E+00  0.0000E+00  0.0000E+00  0.0000E+00  0.0000E+00  0.0000E+00  0.0000E+00  0.0000E+00  0.0000E+00  0.0000E+00  0.0000E+00  0.0000E+00  0.0000E+00  0.0000E+00  0.0000E+00  0.0000E+00  0.0000E+00  0.0000E+00  0.0000E+00  0.0000E+00  0.0000E+00  0.0000E+00  0.0000E+00  0.0000E+00  0.0000E+00
  0.0000E+00  0.0000E+00  0.0000E+00  0.0000E+00  0.0000E+00  0.0000E+00  0.0000E+00  0.0000E+00  0.0000E+00  0.0000E+00  0.0000E+00  0.0000E+00  0.0000E+00  0.0000E+00  0.0000E+00  0.0000E+00  0.0000E+00  0.0000E+00  0.0000E+00  0.0000E+00  0.0000E+00  0.0000E+00  0.0000E+00  0.0000E+00  0.0000E+00  0.0000E+00  0.0000E+00  0.0000E+00  0.0000E+00  0.0000E+00  0.0000E+00  0.0000E+00  0.0000E+00  0.0000E+00  0.0000E+00  0.0000E+00  0.0000E+00  0.0000E+00  0.0000E+00  0.0000E+00  0.0000E+00  0.0000E+00  0.0000E+00  0.0000E+00  0.0000E+00  0.0000E+00  0.0000E+00  0.0000E+00  0.0000E+00  0.0000E+00  0.0000E+00  0.0000E+00  0.0000E+00  0.0000E+00  0.0000E+00  0.0000E+00  0.0000E+00  0.0000E+00  0.0000E+00  0.0000E+00  0.0000E+00  0.0000E+00  0.0000E+00  0.0000E+00  0.0000E+00  0.0000E+00  0.0000E+00  0.0000E+00  0.0000E+00  0.0000E+00  0.0000E+00  0.0000E+00  0.0000E+00  0.0000E+00  0.0000E+00  0.0000E+00  0.0000E+00  0.0000E+00  0.0000E+00
  0.0000E+00  0.0000E+00  0.0000E+00  0.0000E+00  0.0000E+00  0.0000E+00  0.0000E+00  0.0000E+00  0.0000E+00  0.0000E+00  0.0000E+00  0.0000E+00  0.0000E+00  0.0000E+00  0.0000E+00  0.0000E+00  0.0000E+00  0.0000E+00  0.0000E+00  0.0000E+00  0.0000E+00  0.0000E+00  0.0000E+00  0.0000E+00  0.0000E+00  0.0000E+00  0.0000E+00  0.0000E+00  0.0000E+00  0.0000E+00  0.0000E+00  0.0000E+00  0.0000E+00  0.0000E+00  0.0000E+00  0.0000E+00  0.0000E+00  0.0000E+00  0.0000E+00  0.0000E+00  0.0000E+00  0.0000E+00  0.0000E+00  0.0000E+00  0.0000E+00  0.0000E+00  0.0000E+00  0.0000E+00  0.0000E+00  0.0000E+00  0.0000E+00  0.0000E+00  0.0000E+00  0.0000E+00  0.0000E+00  0.0000E+00  0.0000E+00  0.0000E+00  0.0000E+00  0.0000E+00  0.0000E+00  0.0000E+00  0.0000E+00  0.0000E+00  0.0000E+00  0.0000E+00  0.0000E+00  0.0000E+00  0.0000E+00  0.0000E+00  0.0000E+00  0.0000E+00  0.0000E+00  0.0000E+00  0.0000E+00  0.0000E+00  0.0000E+00  0.0000E+00  0.0000E+00
  0.0000E+00  0.0000E+00  0.0000E+00  0.0000E+00  0.0000E+00  0.0000E+00  0.0000E+00  0.0000E+00  0.0000E+00  0.0000E+00  0.0000E+00  0.0000E+00  0.0000E+00  0.0000E+00  0.0000E+00  0.0000E+00  0.0000E+00  0.0000E+00  0.0000E+00  0.0000E+00  0.0000E+00  0.0000E+00  0.0000E+00  0.0000E+00  0.0000E+00  0.0000E+00  0.0000E+00  0.0000E+00  0.0000E+00  0.0000E+00  0.0000E+00  0.0000E+00  0.0000E+00  0.0000E+00  0.0000E+00  0.0000E+00  0.0000E+00  0.0000E+00  0.0000E+00  0.0000E+00  0.0000E+00  0.0000E+00  0.0000E+00  0.0000E+00  0.0000E+00  0.0000E+00  0.0000E+00  0.0000E+00  0.0000E+00  0.0000E+00  0.0000E+00  0.0000E+00  0.0000E+00  0.0000E+00  0.0000E+00  0.0000E+00  0.0000E+00  0.0000E+00  0.0000E+00  0.0000E+00  0.0000E+00  0.0000E+00  0.0000E+00  0.0000E+00  0.0000E+00  0.0000E+00  0.0000E+00  0.0000E+00  0.0000E+00  0.0000E+00  0.0000E+00  0.0000E+00  0.0000E+00  0.0000E+00  0.0000E+00  0.0000E+00  0.0000E+00  0.0000E+00  0.0000E+00
  0.0000E+00  0.0000E+00  0.0000E+00  0.0000E+00  0.0000E+00  0.0000E+00  0.0000E+00  0.0000E+00  0.0000E+00  0.0000E+00  0.0000E+00  0.0000E+00  0.0000E+00  0.0000E+00  0.0000E+00  0.0000E+00  0.0000E+00  0.0000E+00  0.0000E+00  0.0000E+00  0.0000E+00  0.0000E+00  0.0000E+00  0.0000E+00  0.0000E+00  0.0000E+00  0.0000E+00  0.0000E+00  0.0000E+00  0.0000E+00  0.0000E+00  0.0000E+00  0.0000E+00  0.0000E+00  0.0000E+00  0.0000E+00  0.0000E+00  0.0000E+00  0.0000E+00  0.0000E+00  0.0000E+00  0.0000E+00  0.0000E+00  0.0000E+00  0.0000E+00  0.0000E+00  0.0000E+00  0.0000E+00  0.0000E+00  0.0000E+00  0.0000E+00  0.0000E+00  0.0000E+00  0.0000E+00  0.0000E+00  0.0000E+00  0.0000E+00  0.0000E+00  0.0000E+00  0.0000E+00  0.0000E+00  0.0000E+00  0.0000E+00  0.0000E+00  0.0000E+00  0.0000E+00  0.0000E+00  0.0000E+00  0.0000E+00  0.0000E+00  0.0000E+00  0.0000E+00  0.0000E+00  0.0000E+00  0.0000E+00  0.0000E+00  0.0000E+00  0.0000E+00  0.0000E+00
  0.0000E+00  0.0000E+00  0.0000E+00  0.0000E+00  0.0000E+00  0.0000E+00  0.0000E+00  0.0000E+00  0.0000E+00  0.0000E+00  0.0000E+00  0.0000E+00  0.0000E+00  0.0000E+00  0.0000E+00  0.0000E+00  0.0000E+00  0.0000E+00  0.0000E+00  0.0000E+00  0.0000E+00  0.0000E+00  0.0000E+00  0.0000E+00  0.0000E+00  0.0000E+00  0.0000E+00  0.0000E+00  0.0000E+00  0.0000E+00  0.0000E+00  0.0000E+00  0.0000E+00  0.0000E+00  0.0000E+00  0.0000E+00  0.0000E+00  0.0000E+00  0.0000E+00  0.0000E+00  0.0000E+00  0.0000E+00  0.0000E+00  0.0000E+00  0.0000E+00  0.0000E+00  0.0000E+00  0.0000E+00  0.0000E+00  0.0000E+00  0.0000E+00  0.0000E+00  0.0000E+00  0.0000E+00  0.0000E+00  0.0000E+00  0.0000E+00  0.0000E+00  0.0000E+00  0.0000E+00  0.0000E+00  0.0000E+00  0.0000E+00  0.0000E+00  0.0000E+00  0.0000E+00  0.0000E+00  0.0000E+00  0.0000E+00  0.0000E+00  0.0000E+00  0.0000E+00  0.0000E+00  0.0000E+00  0.0000E+00  0.0000E+00  0.0000E+00  0.0000E+00  0.0000E+00
  0.0000E+00  0.0000E+00  0.0000E+00  0.0000E+00  0.0000E+00  0.0000E+00  0.0000E+00  0.0000E+00  0.0000E+00  0.0000E+00  0.0000E+00  0.0000E+00  0.0000E+00  0.0000E+00  0.0000E+00  0.0000E+00  0.0000E+00  0.0000E+00  0.0000E+00  0.0000E+00  0.0000E+00  0.0000E+00  0.0000E+00  0.0000E+00  0.0000E+00  0.0000E+00  0.0000E+00  0.0000E+00  0.0000E+00  0.0000E+00  0.0000E+00  0.0000E+00  0.0000E+00  0.0000E+00  0.0000E+00  0.0000E+00  0.0000E+00  0.0000E+00  0.0000E+00  0.0000E+00  0.0000E+00  0.0000E+00  0.0000E+00  0.0000E+00  0.0000E+00  0.0000E+00  0.0000E+00  0.0000E+00  0.0000E+00  0.0000E+00  0.0000E+00  0.0000E+00  0.0000E+00  0.0000E+00  0.0000E+00  0.0000E+00  0.0000E+00  0.0000E+00  0.0000E+00  0.0000E+00  0.0000E+00  0.0000E+00  0.0000E+00  0.0000E+00  0.0000E+00  0.0000E+00  0.0000E+00  0.0000E+00  0.0000E+00  0.0000E+00  0.0000E+00  0.0000E+00  0.0000E+00  0.0000E+00  0.0000E+00  0.0000E+00  0.0000E+00  0.0000E+00  0.0000E+00
  0.0000E+00  0.0000E+00  0.0000E+00  0.0000E+00  0.0000E+00  0.0000E+00  0.0000E+00  0.0000E+00  0.0000E+00  0.0000E+00  0.0000E+00  0.0000E+00  0.0000E+00  0.0000E+00  0.0000E+00  0.0000E+00  0.0000E+00  0.0000E+00  0.0000E+00  0.0000E+00  0.0000E+00  0.0000E+00  0.0000E+00  0.0000E+00  0.0000E+00  0.0000E+00  0.0000E+00  0.0000E+00  0.0000E+00  0.0000E+00  0.0000E+00  0.0000E+00  0.0000E+00  0.0000E+00  0.0000E+00  0.0000E+00  0.0000E+00  0.0000E+00  0.0000E+00  0.0000E+00  0.0000E+00  0.0000E+00  0.0000E+00  0.0000E+00  0.0000E+00  0.0000E+00  0.0000E+00  0.0000E+00  0.0000E+00  0.0000E+00  0.0000E+00  0.0000E+00  0.0000E+00  0.0000E+00  0.0000E+00  0.0000E+00  0.0000E+00  0.0000E+00  0.0000E+00  0.0000E+00  0.0000E+00  0.0000E+00  0.0000E+00  0.0000E+00  0.0000E+00  0.0000E+00  0.0000E+00  0.0000E+00  0.0000E+00  0.0000E+00  0.0000E+00  0.0000E+00  0.0000E+00  0.0000E+00  0.0000E+00  0.0000E+00  0.0000E+00  0.0000E+00  0.0000E+00
  0.0000E+00  0.0000E+00  0.0000E+00  0.0000E+00  0.0000E+00  0.0000E+00  0.0000E+00  0.0000E+00  0.0000E+00  0.0000E+00  0.0000E+00  0.0000E+00  0.0000E+00  0.0000E+00  0.0000E+00  0.0000E+00  0.0000E+00  0.0000E+00  0.0000E+00  0.0000E+00  0.0000E+00  0.0000E+00  0.0000E+00  0.0000E+00  0.0000E+00  0.0000E+00  0.0000E+00  0.0000E+00  0.0000E+00  0.0000E+00  0.0000E+00  0.0000E+00  0.0000E+00  0.0000E+00  0.0000E+00  0.0000E+00  0.0000E+00  0.0000E+00  0.0000E+00  0.0000E+00  0.0000E+00  0.0000E+00  0.0000E+00  0.0000E+00  0.0000E+00  0.0000E+00  0.0000E+00  0.3485E-08  0.3537E-08  0.3577E-08  0.3605E-08  0.2419E-08  0.1215E-08  0.0000E+00  0.0000E+00  0.0000E+00  0.0000E+00  0.0000E+00  0.0000E+00  0.0000E+00  0.0000E+00  0.0000E+00  0.0000E+00  0.0000E+00  0.0000E+00  0.0000E+00  0.0000E+00  0.0000E+00  0.0000E+00  0.0000E+00  0.0000E+00  0.0000E+00  0.0000E+00  0.0000E+00  0.0000E+00  0.0000E+00  0.0000E+00  0.0000E+00  0.0000E+00
  0.0000E+00  0.0000E+00  0.0000E+00  0.0000E+00  0.0000E+00  0.0000E+00  0.0000E+00  0.0000E+00  0.0000E+00  0.0000E+00  0.0000E+00  0.0000E+00  0.0000E+00  0.0000E+00  0.0000E+00  0.0000E+00  0.0000E+00  0.0000E+00  0.0000E+00  0.0000E+00  0.0000E+00  0.0000E+00  0.0000E+00  0.0000E+00  0.0000E+00  0.0000E+00  0.0000E+00  0.0000E+00  0.0000E+00  0.0000E+00  0.0000E+00  0.0000E+00  0.0000E+00  0.0000E+00  0.0000E+00  0.0000E+00  0.0000E+00  0.0000E+00  0.0000E+00  0.0000E+00  0.0000E+00  0.2510E-08  0.3857E-08  0.3980E-08  0.6607E-08  0.8024E-08  0.8180E-08  0.8304E-08  0.8398E-08  0.8463E-08  0.9761E-08  0.7147E-08  0.4315E-08  0.1469E-08  0.0000E+00  0.0000E+00  0.0000E+00  0.0000E+00  0.0000E+00  0.0000E+00  0.0000E+00  0.0000E+00  0.0000E+00  0.0000E+00  0.0000E+00  0.0000E+00  0.0000E+00  0.0000E+00  0.0000E+00  0.0000E+00  0.0000E+00  0.0000E+00  0.0000E+00  0.0000E+00  0.0000E+00  0.0000E+00  0.0000E+00  0.0000E+00  0.0000E+00
  0.0000E+00  0.0000E+00  0.0000E+00  0.0000E+00  0.0000E+00  0.0000E+00  0.0000E+00  0.0000E+00  0.0000E+00  0.0000E+00  0.0000E+00  0.0000E+00  0.0000E+00  0.0000E+00  0.0000E+00  0.0000E+00  0.0000E+00  0.0000E+00  0.0000E+00  0.0000E+00  0.0000E+00  0.0000E+00  0.0000E+00  0.0000E+00  0.0000E+00  0.0000E+00  0.0000E+00  0.0000E+00  0.0000E+00  0.0000E+00  0.0000E+00  0.0000E+00  0.0000E+00  0.0000E+00  0.0000E+00  0.0000E+00  0.1287E-08  0.2674E-08  0.4152E-08  0.7042E-08  0.8694E-08  0.9033E-08  0.1073E-07  0.1382E-07  0.1416E-07  0.1444E-07  0.1606E-07  0.1905E-07  0.1921E-07  0.1787E-07  0.1646E-07  0.1488E-07  0.1017E-07  0.8540E-08  0.5119E-08  0.1726E-08  0.0000E+00  0.0000E+00  0.0000E+00  0.0000E+00  0.0000E+00  0.0000E+00  0.0000E+00  0.0000E+00  0.0000E+00  0.0000E+00  0.0000E+00  0.0000E+00  0.0000E+00  0.0000E+00  0.0000E+00  0.0000E+00  0.0000E+00  0.0000E+00  0.0000E+00  0.0000E+00  0.0000E+00  0.0000E+00  0.0000E+00
  0.0000E+00  0.0000E+00  0.0000E+00  0.0000E+00  0.0000E+00  0.0000E+00  0.0000E+00  0.0000E+00  0.0000E+00  0.0000E+00  0.0000E+00  0.0000E+00  0.0000E+00  0.0000E+00  0.0000E+00  0.0000E+00  0.0000E+00  0.0000E+00  0.0000E+00  0.0000E+00  0.0000E+00  0.0000E+00  0.0000E+00  0.0000E+00  0.0000E+00  0.0000E+00  0.0000E+00  0.0000E+00  0.0000E+00  0.0000E+00  0.0000E+00  0.0000E+00  0.0000E+00  0.1371E-08  0.4206E-08  0.5927E-08  0.9139E-08  0.9677E-08  0.1318E-07  0.1528E-07  0.1742E-07  0.2107E-07  0.2172E-07  0.2228E-07  0.2584E-07  0.2782E-07  0.2818E-07  0.2842E-07  0.2856E-07  0.2859E-07  0.2688E-07  0.2333E-07  0.1972E-07  0.1589E-07  0.1191E-07  0.5997E-08  0.3983E-08  0.1971E-08  0.0000E+00  0.0000E+00  0.0000E+00  0.0000E+00  0.0000E+00  0.0000E+00  0.0000E+00  0.0000E+00  0.0000E+00  0.0000E+00  0.0000E+00  0.0000E+00  0.0000E+00  0.0000E+00  0.0000E+00  0.0000E+00  0.0000E+00  0.0000E+00  0.0000E+00  0.0000E+00  0.0000E+00
  0.0000E+00  0.0000E+00  0.0000E+00  0.0000E+00  0.0000E+00  0.0000E+00  0.0000E+00  0.0000E+00  0.0000E+00  0.0000E+00  0.0000E+00  0.0000E+00  0.0000E+00  0.0000E+00  0.0000E+00  0.0000E+00  0.0000E+00  0.0000E+00  0.0000E+00  0.0000E+00  0.0000E+00  0.0000E+00  0.0000E+00  0.0000E+00  0.0000E+00  0.0000E+00  0.0000E+00  0.0000E+00  0.0000E+00  0.0000E+00  0.1402E-08  0.4324E-08  0.6212E-08  0.9695E-08  0.1200E-07  0.1593E-07  0.1854E-07  0.2278E-07  0.2391E-07  0.2831E-07  0.3107E-07  0.3208E-07  0.3638E-07  0.3891E-07  0.3961E-07  0.4013E-07  0.4389E-07  0.4584E-07  0.4417E-07  0.4233E-07  0.3845E-07  0.3420E-07  0.2989E-07  0.2535E-07  0.2068E-07  0.1606E-07  0.1140E-07  0.6766E-08  0.2249E-08  0.0000E+00  0.0000E+00  0.0000E+00  0.0000E+00  0.0000E+00  0.0000E+00  0.0000E+00  0.0000E+00  0.0000E+00  0.0000E+00  0.0000E+00  0.0000E+00  0.0000E+00  0.0000E+00  0.0000E+00  0.0000E+00  0.0000E+00  0.0000E+00  0.0000E+00  0.0000E+00
  0.0000E+00  0.0000E+00  0.0000E+00  0.0000E+00  0.0000E+00  0.0000E+00  0.0000E+00  0.0000E+00  0.0000E+00  0.0000E+00  0.0000E+00  0.0000E+00  0.0000E+00  0.0000E+00  0.0000E+00  0.0000E+00  0.0000E+00  0.0000E+00  0.0000E+00  0.0000E+00  0.0000E+00  0.0000E+00  0.0000E+00  0.2748E-08  0.4177E-08  0.4247E-08  0.4292E-08  0.4312E-08  0.4399E-08  0.6225E-08  0.8420E-08  0.1244E-07  0.1676E-07  0.2146E-07  0.2471E-07  0.2814E-07  0.3337E-07  0.3697E-07  0.4234E-07  0.4407E-07  0.4937E-07  0.5271E-07  0.5398E-07  0.5690E-07  0.6153E-07  0.6215E-07  0.6250E-07  0.6259E-07  0.6041E-07  0.6005E-07  0.5528E-07  0.4808E-07  0.4516E-07  0.3971E-07  0.3184E-07  0.2635E-07  0.2086E-07  0.1544E-07  0.7666E-08  0.2535E-08  0.0000E+00  0.0000E+00  0.0000E+00  0.0000E+00  0.0000E+00  0.0000E+00  0.0000E+00  0.0000E+00  0.0000E+00  0.0000E+00  0.0000E+00  0.0000E+00  0.0000E+00  0.0000E+00  0.0000E+00  0.0000E+00  0.0000E+00  0.0000E+00  0.0000E+00
  0.0000E+00  0.0000E+00  0.0000E+00  0.0000E+00  0.0000E+00  0.0000E+00  0.0000E+00  0.0000E+00  0.0000E+00  0.0000E+00  0.0000E+00  0.0000E+00  0.0000E+00  0.0000E+00  0.0000E+00  0.0000E+00  0.0000E+00  0.1372E-08  0.4194E-08  0.4420E-08  0.6105E-08  0.9305E-08  0.9652E-08  0.9951E-08  0.1020E-07  0.1510E-07  0.1531E-07  0.1543E-07  0.1582E-07  0.1690E-07  0.2030E-07  0.2569E-07  0.2981E-07  0.3588E-07  0.4230E-07  0.4693E-07  0.5362E-07  0.5832E-07  0.6295E-07  0.6945E-07  0.7167E-07  0.7566E-07  0.8148E-07  0.8277E-07  0.8365E-07  0.8413E-07  0.9064E-07  0.8832E-07  0.8563E-07  0.8027E-07  0.7433E-07  0.6825E-07  0.6183E-07  0.5521E-07  0.4588E-07  0.3929E-07  0.3276E-07  0.2635E-07  0.1736E-07  0.8576E-08  0.2822E-08  0.0000E+00  0.0000E+00  0.0000E+00  0.0000E+00  0.0000E+00  0.0000E+00  0.0000E+00  0.0000E+00  0.0000E+00  0.0000E+00  0.0000E+00  0.0000E+00  0.0000E+00  0.0000E+00  0.0000E+00  0.0000E+00  0.0000E+00  0.0000E+00
  0.0000E+00  0.0000E+00  0.0000E+00  0.0000E+00  0.0000E+00  0.0000E+00  0.0000E+00  0.0000E+00  0.0000E+00  0.0000E+00  0.0000E+00  0.0000E+00  0.0000E+00  0.0000E+00  0.1403E-08  0.4321E-08  0.6116E-08  0.9491E-08  0.1009E-07  0.1388E-07  0.1620E-07  0.1695E-07  0.2107E-07  0.2351E-07  0.2418E-07  0.2471E-07  0.2509E-07  0.2906E-07  0.3190E-07  0.3390E-07  0.3689E-07  0.4234E-07  0.4996E-07  0.5805E-07  0.6416E-07  0.7258E-07  0.7873E-07  0.8707E-07  0.9293E-07  0.9612E-07  0.1037E-06  0.1084E-06  0.1103E-06  0.1164E-06  0.1196E-06  0.1199E-06  0.1197E-06  0.1164E-06  0.1126E-06  0.1057E-06  0.9824E-07  0.9060E-07  0.8264E-07  0.7451E-07  0.6335E-07  0.5538E-07  0.5064E-07  0.3991E-07  0.2943E-07  0.1928E-07  0.1254E-07  0.6135E-08  0.3001E-08  0.0000E+00  0.0000E+00  0.0000E+00  0.0000E+00  0.0000E+00  0.0000E+00  0.0000E+00  0.0000E+00  0.0000E+00  0.0000E+00  0.0000E+00  0.0000E+00  0.0000E+00  0.0000E+00  0.0000E+00  0.0000E+00
  0.0000E+00  0.0000E+00  0.0000E+00  0.0000E+00  0.0000E+00  0.0000E+00  0.0000E+00  0.0000E+00  0.0000E+00  0.0000E+00  0.0000E+00  0.1350E-08  0.2877E-08  0.6043E-08  0.9503E-08  0.1186E-07  0.1592E-07  0.1709E-07  0.2172E-07  0.2481E-07  0.2985E-07  0.3318E-07  0.3466E-07  0.3991E-07  0.4316E-07  0.4428E-07  0.4513E-07  0.4619E-07  0.4815E-07  0.5132E-07  0.6006E-07  0.6753E-07  0.7779E-07  0.8587E-07  0.9656E-07  0.1047E-06  0.1153E-06  0.1230E-06  0.1303E-06  0.1398E-06  0.1433E-06  0.1515E-06  0.1563E-06  0.1575E-06  0.1580E-06  0.1577E-06  0.1779E-06  0.1656E-06  0.1497E-06  0.1407E-06  0.1281E-06  0.1218E-06  0.1118E-06  0.9839E-07  0.8494E-07  0.7522E-07  0.6926E-07  0.5659E-07  0.4432E-07  0.3250E-07  0.2118E-07  0.1370E-07  0.9995E-08  0.3264E-08  0.0000E+00  0.0000E+00  0.0000E+00  0.0000E+00  0.0000E+00  0.0000E+00  0.0000E+00  0.0000E+00  0.0000E+00  0.0000E+00  0.0000E+00  0.0000E+00  0.0000E+00  0.0000E+00  0.0000E+00
  0.0000E+00  0.0000E+00  0.0000E+00  0.0000E+00  0.0000E+00  0.0000E+00  0.0000E+00  0.0000E+00  0.0000E+00  0.1364E-08  0.4264E-08  0.6217E-08  0.9866E-08  0.1401E-07  0.1690E-07  0.2184E-07  0.2538E-07  0.3106E-07  0.3517E-07  0.4147E-07  0.4598E-07  0.5063E-07  0.5734E-07  0.5981E-07  0.6425E-07  0.7069E-07  0.7251E-07  0.7489E-07  0.7838E-07  0.8326E-07  0.8962E-07  0.9968E-07  0.1129E-06  0.1266E-06  0.1374E-06  0.1510E-06  0.1612E-06  0.1740E-06  0.1831E-06  0.2012E-06  0.2316E-06  0.2359E-06  0.2386E-06  0.2399E-06  0.2397E-06  0.2382E-06  0.2464E-06  0.2319E-06  0.2136E-06  0.1913E-06  0.1691E-06  0.1567E-06  0.1441E-06  0.1277E-06  0.1113E-06  0.9944E-07  0.9192E-07  0.7689E-07  0.6245E-07  0.4863E-07  0.3549E-07  0.2302E-07  0.1846E-07  0.1080E-07  0.3517E-08  0.0000E+00  0.0000E+00  0.0000E+00  0.0000E+00  0.0000E+00  0.0000E+00  0.0000E+00  0.0000E+00  0.0000E+00  0.0000E+00  0.0000E+00  0.0000E+00  0.0000E+00  0.0000E+00
  0.0000E+00  0.0000E+00  0.0000E+00  0.0000E+00  0.0000E+00  0.0000E+00  0.0000E+00  0.0000E+00  0.2904E-08  0.6206E-08  0.9936E-08  0.1425E-07  0.1905E-07  0.2272E-07  0.2855E-07  0.3486E-07  0.3993E-07  0.4722E-07  0.5304E-07  0.6116E-07  0.6751E-07  0.7616E-07  0.8026E-07  0.8911E-07  0.9526E-07  0.9846E-07  0.1072E-06  0.1144E-06  0.1201E-06  0.1274E-06  0.1362E-06  0.1465E-06  0.1638E-06  0.1783E-06  0.1959E-06  0.2242E-06  0.2497E-06  0.2752E-06  0.2850E-06  0.3197E-06  0.3397E-06  0.3445E-06  0.3469E-06  0.3469E-06  0.3448E-06  0.3518E-06  0.3353E-06  0.3142E-06  0.2924E-06  0.2531E-06  0.2283E-06  0.1996E-06  0.1836E-06  0.1634E-06  0.1435E-06  0.1288E-06  0.1193E-06  0.1014E-06  0.8435E-07  0.6814E-07  0.5281E-07  0.3836E-07  0.2479E-07  0.1583E-07  0.1150E-07  0.3695E-08  0.0000E+00  0.0000E+00  0.0000E+00  0.0000E+00  0.0000E+00  0.0000E+00  0.0000E+00  0.0000E+00  0.0000E+00  0.0000E+00  0.0000E+00  0.0000E+00  0.0000E+00
  0.0000E+00  0.0000E+00  0.0000E+00  0.0000E+00  0.0000E+00  0.0000E+00  0.2787E-08  0.6007E-08  0.9699E-08  0.1254E-07  0.1733E-07  0.2287E-07  0.2904E-07  0.3584E-07  0.4348E-07  0.4973E-07  0.5873E-07  0.6833E-07  0.7631E-07  0.8703E-07  0.9815E-07  0.1045E-06  0.1163E-06  0.1251E-06  0.1367E-06  0.1451E-06  0.1513E-06  0.1619E-06  0.1772E-06  0.1878E-06  0.1999E-06  0.2137E-06  0.2289E-06  0.2776E-06  0.3119E-06  0.3602E-06  0.3934E-06  0.4099E-06  0.4369E-06  0.4743E-06  0.4821E-06  0.4860E-06  0.4864E-06  0.4836E-06  0.4779E-06  0.4696E-06  0.4448E-06  0.4187E-06  0.3741E-06  0.3441E-06  0.3316E-06  0.2824E-06  0.2463E-06  0.2066E-06  0.1823E-06  0.1642E-06  0.1470E-06  0.1308E-06  0.1105E-06  0.9147E-07  0.7355E-07  0.5675E-07  0.4097E-07  0.2618E-07  0.1260E-07  0.7692E-08  0.3660E-08  0.0000E+00  0.0000E+00  0.0000E+00  0.0000E+00  0.0000E+00  0.0000E+00  0.0000E+00  0.0000E+00  0.0000E+00  0.0000E+00  0.0000E+00  0.0000E+00
  0.0000E+00  0.0000E+00  0.0000E+00  0.0000E+00  0.1350E-08  0.4291E-08  0.7865E-08  0.1199E-07  0.1673E-07  0.2229E-07  0.2858E-07  0.3392E-07  0.4184E-07  0.5060E-07  0.6044E-07  0.7116E-07  0.8274E-07  0.9303E-07  0.1063E-06  0.1205E-06  0.1325E-06  0.1478E-06  0.1603E-06  0.1760E-06  0.1883E-06  0.2131E-06  0.2554E-06  0.2702E-06  0.2859E-06  0.3026E-06  0.3202E-06  0.3390E-06  0.3793E-06  0.4405E-06  0.4861E-06  0.5442E-06  0.5703E-06  0.5911E-06  0.6349E-06  0.6602E-06  0.6665E-06  0.6675E-06  0.6637E-06  0.6556E-06  0.6438E-06  0.6141E-06  0.5823E-06  0.5491E-06  0.5118E-06  0.4745E-06  0.4172E-06  0.3789E-06  0.3190E-06  0.2757E-06  0.2288E-06  0.2005E-06  0.1795E-06  0.1657E-06  0.1417E-06  0.1191E-06  0.9793E-07  0.7803E-07  0.5928E-07  0.4194E-07  0.2629E-07  0.1249E-07  0.3960E-08  0.0000E+00  0.0000E+00  0.0000E+00  0.0000E+00  0.0000E+00  0.0000E+00  0.0000E+00  0.0000E+00  0.0000E+00  0.0000E+00  0.0000E+00  0.0000E+00
  0.0000E+00  0.0000E+00  0.0000E+00  0.1417E-08  0.4516E-08  0.8324E-08  0.1276E-07  0.1954E-07  0.2399E-07  0.3269E-07  0.4072E-07  0.4790E-07  0.5805E-07  0.6930E-07  0.8198E-07  0.9582E-07  0.1108E-06  0.1273E-06  0.1449E-06  0.1606E-06  0.1816E-06  0.2048E-06  0.2351E-06  0.2840E-06  0.3043E-06  0.3578E-06  0.3964E-06  0.4222E-06  0.4465E-06  0.4708E-06  0.4950E-06  0.5401E-06  0.5938E-06  0.6557E-06  0.7277E-06  0.7781E-06  0.8083E-06  0.8451E-06  0.8901E-06  0.8998E-06  0.9019E-06  0.8969E-06  0.8858E-06  0.8692E-06  0.8330E-06  0.7936E-06  0.7520E-06  0.7054E-06  0.6585E-06  0.5907E-06  0.5424E-06  0.4717E-06  0.4248E-06  0.3541E-06  0.3038E-06  0.2499E-06  0.2177E-06  0.1938E-06  0.1780E-06  0.1508E-06  0.1254E-06  0.1016E-06  0.7951E-07  0.5943E-07  0.4154E-07  0.2591E-07  0.1230E-07  0.3895E-08  0.0000E+00  0.0000E+00  0.0000E+00  0.0000E+00  0.0000E+00  0.0000E+00  0.0000E+00  0.0000E+00  0.0000E+00  0.0000E+00  0.0000E+00
  0.0000E+00  0.0000E+00  0.2814E-08  0.6169E-08  0.1014E-07  0.1498E-07  0.2062E-07  0.2715E-07  0.3489E-07  0.4372E-07  0.5374E-07  0.6531E-07  0.7827E-07  0.9268E-07  0.1089E-06  0.1268E-06  0.1462E-06  0.1720E-06  0.1953E-06  0.2247E-06  0.2758E-06  0.3210E-06  0.3819E-06  0.4312E-06  0.4841E-06  0.5516E-06  0.5908E-06  0.6274E-06  0.6647E-06  0.6985E-06  0.7321E-06  0.8133E-06  0.8939E-06  0.9718E-06  0.1054E-05  0.1099E-05  0.1130E-05  0.1181E-05  0.1205E-05  0.1206E-05  0.1197E-05  0.1182E-05  0.1159E-05  0.1114E-05  0.1065E-05  0.1012E-05  0.9536E-06  0.8942E-06  0.8127E-06  0.7513E-06  0.6667E-06  0.6071E-06  0.5231E-06  0.4678E-06  0.3869E-06  0.3298E-06  0.2693E-06  0.2329E-06  0.1990E-06  0.1794E-06  0.1554E-06  0.1274E-06  0.1017E-06  0.7871E-07  0.5846E-07  0.4079E-07  0.2540E-07  0.1205E-07  0.3812E-08  0.0000E+00  0.0000E+00  0.0000E+00  0.0000E+00  0.0000E+00  0.0000E+00  0.0000E+00  0.0000E+00  0.0000E+00  0.0000E+00
  0.0000E+00  0.2878E-08  0.6336E-08  0.1046E-07  0.1553E-07  0.2312E-07  0.3025E-07  0.3850E-07  0.4826E-07  0.5942E-07  0.7212E-07  0.8678E-07  0.1033E-06  0.1216E-06  0.1468E-06  0.1701E-06  0.2004E-06  0.2289E-06  0.2773E-06  0.3555E-06  0.4287E-06  0.4922E-06  0.5770E-06  0.6289E-06  0.7219E-06  0.7941E-06  0.8515E-06  0.9066E-06  0.9563E-06  0.1002E-05  0.1075E-05  0.1174E-05  0.1279E-05  0.1388E-05  0.1470E-05  0.1516E-05  0.1563E-05  0.1609E-05  0.1610E-05  0.1598E-05  0.1572E-05  0.1536E-05  0.1476E-05  0.1428E-05  0.1361E-05  0.1271E-05  0.1195E-05  0.1096E-05  0.1018E-05  0.9152E-06  0.8391E-06  0.7379E-06  0.6671E-06  0.5703E-06  0.5061E-06  0.4152E-06  0.3509E-06  0.2836E-06  0.2427E-06  0.2050E-06  0.1704E-06  0.1388E-06  0.1103E-06  0.9033E-07  0.7711E-07  0.5718E-07  0.3984E-07  0.2478E-07  0.1174E-07  0.3713E-08  0.0000E+00  0.0000E+00  0.0000E+00  0.0000E+00  0.0000E+00  0.0000E+00  0.0000E+00  0.0000E+00  0.0000E+00
  0.2906E-08  0.6426E-08  0.1219E-07  0.1740E-07  0.2377E-07  0.3125E-07  0.3999E-07  0.5040E-07  0.6241E-07  0.7842E-07  0.9440E-07  0.1129E-06  0.1381E-06  0.1620E-06  0.1939E-06  0.2293E-06  0.2630E-06  0.3319E-06  0.4273E-06  0.5292E-06  0.6151E-06  0.7196E-06  0.8185E-06  0.9143E-06  0.1034E-05  0.1118E-05  0.1200E-05  0.1276E-05  0.1346E-05  0.1412E-05  0.1544E-05  0.1682E-05  0.1810E-05  0.1934E-05  0.2007E-05  0.2054E-05  0.2108E-05  0.2129E-05  0.2111E-05  0.2079E-05  0.2030E-05  0.1972E-05  0.1886E-05  0.1793E-05  0.1677E-05  0.1577E-05  0.1456E-05  0.1355E-05  0.1230E-05  0.1132E-05  0.1035E-05  0.9187E-06  0.8299E-06  0.7198E-06  0.6090E-06  0.5333E-06  0.4322E-06  0.3617E-06  0.2904E-06  0.2459E-06  0.2054E-06  0.1689E-06  0.1364E-06  0.1080E-06  0.8315E-07  0.6157E-07  0.4283E-07  0.2661E-07  0.1260E-07  0.3978E-08  0.0000E+00  0.0000E+00  0.0000E+00  0.0000E+00  0.0000E+00  0.0000E+00  0.0000E+00  0.0000E+00  0.0000E+00
  0.6439E-08  0.1226E-07  0.1757E-07  0.2411E-07  0.3186E-07  0.4230E-07  0.5330E-07  0.6950E-07  0.8459E-07  0.1019E-06  0.1251E-06  0.1483E-06  0.1781E-06  0.2140E-06  0.2537E-06  0.3087E-06  0.4019E-06  0.5063E-06  0.6165E-06  0.7426E-06  0.8731E-06  0.1020E-05  0.1131E-05  0.1289E-05  0.1427E-05  0.1548E-05  0.1657E-05  0.1764E-05  0.1857E-05  0.1985E-05  0.2177E-05  0.2352E-05  0.2501E-05  0.2622E-05  0.2691E-05  0.2746E-05  0.2788E-05  0.2770E-05  0.2727E-05  0.2665E-05  0.2584E-05  0.2474E-05  0.2354E-05  0.2209E-05  0.2076E-05  0.1917E-05  0.1782E-05  0.1678E-05  0.1529E-05  0.1409E-05  0.1265E-05  0.1122E-05  0.9877E-06  0.8844E-06  0.7548E-06  0.6295E-06  0.5439E-06  0.4381E-06  0.3640E-06  0.2902E-06  0.2435E-06  0.2017E-06  0.1650E-06  0.1329E-06  0.1050E-06  0.8077E-07  0.5973E-07  0.4150E-07  0.2576E-07  0.1219E-07  0.3847E-08  0.0000E+00  0.0000E+00  0.0000E+00  0.0000E+00  0.0000E+00  0.0000E+00  0.0000E+00  0.0000E+00
  0.1443E-07  0.2282E-07  0.3112E-07  0.4082E-07  0.5217E-07  0.6559E-07  0.8309E-07  0.1012E-06  0.1204E-06  0.1443E-06  0.1698E-06  0.2023E-06  0.2385E-06  0.2774E-06  0.3378E-06  0.4509E-06  0.5741E-06  0.7210E-06  0.8692E-06  0.1032E-05  0.1216E-05  0.1385E-05  0.1570E-05  0.1778E-05  0.1943E-05  0.2111E-05  0.2261E-05  0.2431E-05  0.2582E-05  0.2802E-05  0.3037E-05  0.3259E-05  0.3426E-05  0.3532E-05  0.3595E-05  0.3649E-05  0.3634E-05  0.3569E-05  0.3470E-05  0.3366E-05  0.3224E-05  0.3072E-05  0.2885E-05  0.2714E-05  0.2540E-05  0.2364E-05  0.2192E-05  0.2000E-05  0.1841E-05  0.1662E-05  0.1521E-05  0.1356E-05  0.1192E-05  0.1033E-05  0.8788E-06  0.7659E-06  0.6334E-06  0.5130E-06  0.3979E-06  0.3443E-06  0.2780E-06  0.2312E-06  0.1960E-06  0.1600E-06  0.1287E-06  0.1016E-06  0.7803E-07  0.5764E-07  0.4001E-07  0.2481E-07  0.1173E-07  0.3703E-08  0.0000E+00  0.0000E+00  0.0000E+00  0.0000E+00  0.0000E+00  0.0000E+00  0.0000E+00
  0.2934E-07  0.3819E-07  0.5178E-07  0.6273E-07  0.7887E-07  0.9587E-07  0.1160E-06  0.1406E-06  0.1670E-06  0.1954E-06  0.2296E-06  0.2688E-06  0.3161E-06  0.3784E-06  0.4948E-06  0.6431E-06  0.8192E-06  0.9879E-06  0.1191E-05  0.1415E-05  0.1648E-05  0.1868E-05  0.2136E-05  0.2381E-05  0.2660E-05  0.2880E-05  0.3084E-05  0.3320E-05  0.3559E-05  0.3873E-05  0.4157E-05  0.4388E-05  0.4563E-05  0.4660E-05  0.4716E-05  0.4720E-05  0.4644E-05  0.4528E-05  0.4396E-05  0.4220E-05  0.3994E-05  0.3746E-05  0.3520E-05  0.3317E-05  0.3068E-05  0.2845E-05  0.2602E-05  0.2395E-05  0.2166E-05  0.1979E-05  0.1773E-05  0.1573E-05  0.1413E-05  0.1224E-05  0.1045E-05  0.8796E-06  0.7292E-06  0.6255E-06  0.5041E-06  0.3894E-06  0.3072E-06  0.2556E-06  0.2107E-06  0.1718E-06  0.1380E-06  0.1088E-06  0.8344E-07  0.6156E-07  0.4268E-07  0.2644E-07  0.1249E-07  0.3939E-08  0.0000E+00  0.0000E+00  0.0000E+00  0.0000E+00  0.0000E+00  0.0000E+00  0.0000E+00
  0.4847E-07  0.5836E-07  0.7486E-07  0.9100E-07  0.1111E-06  0.1327E-06  0.1559E-06  0.1890E-06  0.2223E-06  0.2603E-06  0.3061E-06  0.3535E-06  0.4245E-06  0.5652E-06  0.7227E-06  0.9154E-06  0.1126E-05  0.1351E-05  0.1606E-05  0.1897E-05  0.2193E-05  0.2501E-05  0.2898E-05  0.3264E-05  0.3578E-05  0.3875E-05  0.4184E-05  0.4492E-05  0.4847E-05  0.5234E-05  0.5576E-05  0.5824E-05  0.5975E-05  0.6047E-05  0.6079E-05  0.5996E-05  0.5856E-05  0.5687E-05  0.5463E-05  0.5195E-05  0.4892E-05  0.4609E-05  0.4305E-05  0.3958E-05  0.3669E-05  0.3361E-05  0.3092E-05  0.2804E-05  0.2563E-05  0.2301E-05  0.2084E-05  0.1844E-05  0.1612E-05  0.1393E-05  0.1188E-05  0.1034E-05  0.8651E-06  0.7135E-06  0.5786E-06  0.4592E-06  0.3759E-06  0.2963E-06  0.2462E-06  0.2027E-06  0.1651E-06  0.1325E-06  0.1043E-06  0.7993E-07  0.5892E-07  0.4082E-07  0.2527E-07  0.1194E-07  0.3763E-08  0.0000E+00  0.0000E+00  0.0000E+00  0.0000E+00  0.0000E+00  0.0000E+00
  0.7226E-07  0.8546E-07  0.1025E-06  0.1241E-06  0.1477E-06  0.1787E-06  0.2082E-06  0.2485E-06  0.2884E-06  0.3391E-06  0.3965E-06  0.4564E-06  0.5749E-06  0.7870E-06  0.1008E-05  0.1274E-05  0.1563E-05  0.1864E-05  0.2200E-05  0.2572E-05  0.2935E-05  0.3418E-05  0.3854E-05  0.4333E-05  0.4752E-05  0.5146E-05  0.5546E-05  0.6017E-05  0.6513E-05  0.6965E-05  0.7338E-05  0.7569E-05  0.7695E-05  0.7738E-05  0.7692E-05  0.7532E-05  0.7305E-05  0.7025E-05  0.6687E-05  0.6322E-05  0.5937E-05  0.5545E-05  0.5112E-05  0.4746E-05  0.4329E-05  0.3967E-05  0.3601E-05  0.3291E-05  0.2963E-05  0.2686E-05  0.2387E-05  0.2098E-05  0.1824E-05  0.1604E-05  0.1373E-05  0.1164E-05  0.9754E-06  0.8072E-06  0.6577E-06  0.5262E-06  0.4039E-06  0.3175E-06  0.2634E-06  0.2166E-06  0.1761E-06  0.1412E-06  0.1110E-06  0.8499E-07  0.6259E-07  0.4332E-07  0.2679E-07  0.1265E-07  0.3984E-08  0.0000E+00  0.0000E+00  0.0000E+00  0.0000E+00  0.0000E+00  0.0000E+00
  0.9500E-07  0.1183E-06  0.1381E-06  0.1669E-06  0.1944E-06  0.2301E-06  0.2719E-06  0.3152E-06  0.3722E-06  0.4296E-06  0.5367E-06  0.6586E-06  0.8622E-06  0.1119E-05  0.1424E-05  0.1754E-05  0.2120E-05  0.2517E-05  0.2961E-05  0.3425E-05  0.3925E-05  0.4538E-05  0.5081E-05  0.5694E-05  0.6241E-05  0.6774E-05  0.7345E-05  0.7978E-05  0.8579E-05  0.9102E-05  0.9472E-05  0.9684E-05  0.9762E-05  0.9735E-05  0.9580E-05  0.9315E-05  0.8974E-05  0.8557E-05  0.8098E-05  0.7609E-05  0.7125E-05  0.6579E-05  0.6083E-05  0.5571E-05  0.5095E-05  0.4625E-05  0.4196E-05  0.3786E-05  0.3432E-05  0.3061E-05  0.2741E-05  0.2402E-05  0.2084E-05  0.1794E-05  0.1534E-05  0.1301E-05  0.1092E-05  0.9059E-06  0.7414E-06  0.5970E-06  0.4717E-06  0.3851E-06  0.3030E-06  0.2511E-06  0.2064E-06  0.1677E-06  0.1343E-06  0.1055E-06  0.8074E-07  0.5942E-07  0.4111E-07  0.2541E-07  0.1200E-07  0.3779E-08  0.0000E+00  0.0000E+00  0.0000E+00  0.0000E+00  0.0000E+00
  0.1259E-06  0.1505E-06  0.1789E-06  0.2099E-06  0.2502E-06  0.2925E-06  0.3703E-06  0.4279E-06  0.4970E-06  0.5853E-06  0.7131E-06  0.9517E-06  0.1222E-05  0.1554E-05  0.1918E-05  0.2349E-05  0.2830E-05  0.3355E-05  0.3937E-05  0.4528E-05  0.5261E-05  0.5960E-05  0.6719E-05  0.7427E-05  0.8125E-05  0.8833E-05  0.9660E-05  0.1050E-04  0.1124E-04  0.1184E-04  0.1219E-04  0.1235E-04  0.1232E-04  0.1216E-04  0.1183E-04  0.1140E-04  0.1090E-04  0.1033E-04  0.9704E-05  0.9088E-05  0.8401E-05  0.7766E-05  0.7115E-05  0.6503E-05  0.5922E-05  0.5378E-05  0.4848E-05  0.4354E-05  0.3894E-05  0.3493E-05  0.3074E-05  0.2685E-05  0.2326E-05  0.1997E-05  0.1703E-05  0.1444E-05  0.1247E-05  0.1010E-05  0.8292E-06  0.7024E-06  0.5360E-06  0.4107E-06  0.3224E-06  0.2669E-06  0.2191E-06  0.1778E-06  0.1423E-06  0.1117E-06  0.8538E-07  0.6278E-07  0.4340E-07  0.2681E-07  0.1265E-07  0.3982E-08  0.0000E+00  0.0000E+00  0.0000E+00  0.0000E+00  0.0000E+00
  0.1546E-06  0.1840E-06  0.2205E-06  0.2604E-06  0.3152E-06  0.3769E-06  0.4840E-06  0.5616E-06  0.6476E-06  0.7847E-06  0.9808E-06  0.1317E-05  0.1670E-05  0.2097E-05  0.2574E-05  0.3117E-05  0.3728E-05  0.4427E-05  0.5196E-05  0.6024E-05  0.7007E-05  0.7917E-05  0.8930E-05  0.9869E-05  0.1080E-04  0.1182E-04  0.1290E-04  0.1388E-04  0.1470E-04  0.1523E-04  0.1551E-04  0.1555E-04  0.1543E-04  0.1510E-04  0.1459E-04  0.1399E-04  0.1325E-04  0.1242E-04  0.1160E-04  0.1073E-04  0.9883E-05  0.9065E-05  0.8286E-05  0.7558E-05  0.6827E-05  0.6154E-05  0.5549E-05  0.4960E-05  0.4428E-05  0.3902E-05  0.3422E-05  0.2978E-05  0.2576E-05  0.2245E-05  0.1919E-05  0.1628E-05  0.1340E-05  0.1149E-05  0.9525E-06  0.7503E-06  0.6020E-06  0.4750E-06  0.3873E-06  0.3045E-06  0.2520E-06  0.2067E-06  0.1677E-06  0.1342E-06  0.1053E-06  0.8043E-07  0.5912E-07  0.4086E-07  0.2523E-07  0.1191E-07  0.3749E-08  0.0000E+00  0.0000E+00  0.0000E+00  0.0000E+00
  0.1898E-06  0.2245E-06  0.2656E-06  0.3133E-06  0.4022E-06  0.5071E-06  0.6247E-06  0.7205E-06  0.8305E-06  0.1027E-05  0.1357E-05  0.1769E-05  0.2202E-05  0.2749E-05  0.3363E-05  0.4085E-05  0.4911E-05  0.5844E-05  0.6825E-05  0.7990E-05  0.9187E-05  0.1045E-04  0.1168E-04  0.1290E-04  0.1413E-04  0.1546E-04  0.1673E-04  0.1781E-04  0.1862E-04  0.1911E-04  0.1929E-04  0.1922E-04  0.1895E-04  0.1841E-04  0.1771E-04  0.1684E-04  0.1585E-04  0.1482E-04  0.1373E-04  0.1266E-04  0.1164E-04  0.1058E-04  0.9628E-05  0.8703E-05  0.7825E-05  0.7030E-05  0.6270E-05  0.5600E-05  0.4956E-05  0.4322E-05  0.3820E-05  0.3320E-05  0.2872E-05  0.2469E-05  0.2108E-05  0.1788E-05  0.1504E-05  0.1261E-05  0.1016E-05  0.8305E-06  0.7015E-06  0.5349E-06  0.4099E-06  0.3217E-06  0.2660E-06  0.2180E-06  0.1768E-06  0.1413E-06  0.1108E-06  0.8458E-07  0.6213E-07  0.4291E-07  0.2649E-07  0.1249E-07  0.3931E-08  0.0000E+00  0.0000E+00  0.0000E+00  0.0000E+00
  0.2268E-06  0.2706E-06  0.3159E-06  0.3976E-06  0.5218E-06  0.6731E-06  0.7897E-06  0.9105E-06  0.1089E-05  0.1383E-05  0.1800E-05  0.2268E-05  0.2890E-05  0.3590E-05  0.4401E-05  0.5333E-05  0.6403E-05  0.7581E-05  0.8882E-05  0.1038E-04  0.1186E-04  0.1347E-04  0.1504E-04  0.1658E-04  0.1817E-04  0.1979E-04  0.2122E-04  0.2234E-04  0.2313E-04  0.2356E-04  0.2363E-04  0.2343E-04  0.2292E-04  0.2215E-04  0.2118E-04  0.2000E-04  0.1876E-04  0.1747E-04  0.1612E-04  0.1480E-04  0.1347E-04  0.1223E-04  0.1104E-04  0.9910E-05  0.8935E-05  0.7971E-05  0.7092E-05  0.6262E-05  0.5533E-05  0.4846E-05  0.4190E-05  0.3635E-05  0.3142E-05  0.2696E-05  0.2302E-05  0.1952E-05  0.1643E-05  0.1341E-05  0.1148E-05  0.9534E-06  0.7603E-06  0.5891E-06  0.4936E-06  0.4146E-06  0.3409E-06  0.2965E-06  0.2591E-06  0.2234E-06  0.1828E-06  0.1384E-06  0.9990E-07  0.6761E-07  0.4309E-07  0.2474E-07  0.1167E-07  0.3675E-08  0.0000E+00  0.0000E+00  0.0000E+00
  0.2644E-06  0.3149E-06  0.3714E-06  0.4981E-06  0.6767E-06  0.8508E-06  0.9842E-06  0.1135E-05  0.1378E-05  0.1822E-05  0.2347E-05  0.2984E-05  0.3764E-05  0.4646E-05  0.5683E-05  0.6874E-05  0.8227E-05  0.9700E-05  0.1141E-04  0.1323E-04  0.1518E-04  0.1712E-04  0.1905E-04  0.2100E-04  0.2300E-04  0.2489E-04  0.2649E-04  0.2766E-04  0.2838E-04  0.2867E-04  0.2856E-04  0.2816E-04  0.2739E-04  0.2634E-04  0.2503E-04  0.2356E-04  0.2205E-04  0.2039E-04  0.1874E-04  0.1708E-04  0.1550E-04  0.1400E-04  0.1260E-04  0.1129E-04  0.1004E-04  0.8948E-05  0.7893E-05  0.6999E-05  0.6129E-05  0.5337E-05  0.4638E-05  0.3975E-05  0.3421E-05  0.2931E-05  0.2506E-05  0.2131E-05  0.1770E-05  0.1520E-05  0.1281E-05  0.1049E-05  0.8469E-06  0.7314E-06  0.6111E-06  0.5013E-06  0.4259E-06  0.3828E-06  0.3447E-06  0.3132E-06  0.2808E-06  0.2420E-06  0.1933E-06  0.1484E-06  0.1074E-06  0.7391E-07  0.4317E-07  0.2092E-07  0.5426E-08  0.0000E+00  0.0000E+00
  0.3127E-06  0.3666E-06  0.4659E-06  0.6665E-06  0.8718E-06  0.1048E-05  0.1208E-05  0.1423E-05  0.1777E-05  0.2379E-05  0.3049E-05  0.3860E-05  0.4818E-05  0.5944E-05  0.7228E-05  0.8723E-05  0.1040E-04  0.1229E-04  0.1448E-04  0.1675E-04  0.1924E-04  0.2167E-04  0.2399E-04  0.2647E-04  0.2889E-04  0.3103E-04  0.3271E-04  0.3385E-04  0.3445E-04  0.3458E-04  0.3424E-04  0.3353E-04  0.3243E-04  0.3099E-04  0.2938E-04  0.2757E-04  0.2562E-04  0.2362E-04  0.2162E-04  0.1965E-04  0.1774E-04  0.1595E-04  0.1426E-04  0.1268E-04  0.1130E-04  0.9966E-05  0.8810E-05  0.7708E-05  0.6727E-05  0.5862E-05  0.5055E-05  0.4350E-05  0.3733E-05  0.3198E-05  0.2730E-05  0.2325E-05  0.1977E-05  0.1682E-05  0.1393E-05  0.1150E-05  0.1004E-05  0.8540E-06  0.6968E-06  0.5816E-06  0.5026E-06  0.4547E-06  0.4125E-06  0.3756E-06  0.3437E-06  0.3149E-06  0.2713E-06  0.2197E-06  0.1641E-06  0.1160E-06  0.7794E-07  0.4824E-07  0.2561E-07  0.8817E-08  0.1692E-08
  0.3561E-06  0.4198E-06  0.5754E-06  0.8446E-06  0.1093E-05  0.1275E-05  0.1476E-05  0.1762E-05  0.2348E-05  0.3064E-05  0.3925E-05  0.4920E-05  0.6086E-05  0.7467E-05  0.9067E-05  0.1097E-04  0.1315E-04  0.1565E-04  0.1836E-04  0.2122E-04  0.2404E-04  0.2689E-04  0.2979E-04  0.3282E-04  0.3560E-04  0.3793E-04  0.3967E-04  0.4076E-04  0.4126E-04  0.4116E-04  0.4055E-04  0.3952E-04  0.3804E-04  0.3623E-04  0.3421E-04  0.3196E-04  0.2960E-04  0.2715E-04  0.2478E-04  0.2240E-04  0.2018E-04  0.1802E-04  0.1607E-04  0.1421E-04  0.1253E-04  0.1105E-04  0.9674E-05  0.8471E-05  0.7378E-05  0.6420E-05  0.5523E-05  0.4753E-05  0.4096E-05  0.3488E-05  0.2988E-05  0.2550E-05  0.2171E-05  0.1820E-05  0.1549E-05  0.1323E-05  0.1137E-05  0.9492E-06  0.7868E-06  0.6669E-06  0.5843E-06  0.5408E-06  0.4961E-06  0.4561E-06  0.4253E-06  0.3937E-06  0.3645E-06  0.3153E-06  0.2597E-06  0.1982E-06  0.1457E-06  0.1006E-06  0.6489E-07  0.3470E-07  0.1308E-07
  0.4067E-06  0.5208E-06  0.7379E-06  0.1052E-05  0.1314E-05  0.1546E-05  0.1823E-05  0.2239E-05  0.3022E-05  0.3863E-05  0.4919E-05  0.6173E-05  0.7632E-05  0.9425E-05  0.1153E-04  0.1387E-04  0.1659E-04  0.1960E-04  0.2276E-04  0.2611E-04  0.2948E-04  0.3289E-04  0.3652E-04  0.4009E-04  0.4320E-04  0.4572E-04  0.4748E-04  0.4852E-04  0.4886E-04  0.4857E-04  0.4773E-04  0.4633E-04  0.4442E-04  0.4218E-04  0.3965E-04  0.3691E-04  0.3404E-04  0.3118E-04  0.2827E-04  0.2550E-04  0.2278E-04  0.2031E-04  0.1795E-04  0.1580E-04  0.1385E-04  0.1212E-04  0.1066E-04  0.9284E-05  0.8075E-05  0.6976E-05  0.6047E-05  0.5208E-05  0.4438E-05  0.3795E-05  0.3261E-05  0.2800E-05  0.2362E-05  0.2016E-05  0.1726E-05  0.1486E-05  0.1259E-05  0.1064E-05  0.8941E-06  0.8357E-06  0.7268E-06  0.6504E-06  0.6008E-06  0.5571E-06  0.5171E-06  0.4797E-06  0.4473E-06  0.4091E-06  0.3547E-06  0.2852E-06  0.2153E-06  0.1611E-06  0.1129E-06  0.7472E-07  0.4487E-07
  0.4534E-06  0.6046E-06  0.9771E-06  0.1313E-05  0.1602E-05  0.1882E-05  0.2264E-05  0.2812E-05  0.3857E-05  0.4905E-05  0.6204E-05  0.7738E-05  0.9570E-05  0.1175E-04  0.1430E-04  0.1711E-04  0.2038E-04  0.2394E-04  0.2772E-04  0.3163E-04  0.3566E-04  0.3987E-04  0.4425E-04  0.4829E-04  0.5170E-04  0.5433E-04  0.5609E-04  0.5704E-04  0.5722E-04  0.5672E-04  0.5550E-04  0.5367E-04  0.5132E-04  0.4855E-04  0.4552E-04  0.4224E-04  0.3893E-04  0.3550E-04  0.3216E-04  0.2886E-04  0.2577E-04  0.2276E-04  0.2000E-04  0.1751E-04  0.1528E-04  0.1331E-04  0.1158E-04  0.1009E-04  0.8753E-05  0.7559E-05  0.6530E-05  0.5612E-05  0.4815E-05  0.4161E-05  0.3559E-05  0.3033E-05  0.2612E-05  0.2286E-05  0.1942E-05  0.1648E-05  0.1401E-05  0.1199E-05  0.1113E-05  0.9612E-06  0.8465E-06  0.7645E-06  0.7113E-06  0.6622E-06  0.6182E-06  0.5770E-06  0.5377E-06  0.5035E-06  0.4617E-06  0.3919E-06  0.3146E-06  0.2356E-06  0.1768E-06  0.1253E-06  0.8910E-07
  0.5052E-06  0.7830E-06  0.1208E-05  0.1586E-05  0.1946E-05  0.2283E-05  0.2769E-05  0.3642E-05  0.4823E-05  0.6137E-05  0.7692E-05  0.9535E-05  0.1175E-04  0.1439E-04  0.1742E-04  0.2085E-04  0.2471E-04  0.2881E-04  0.3330E-04  0.3796E-04  0.4281E-04  0.4795E-04  0.5298E-04  0.5740E-04  0.6102E-04  0.6366E-04  0.6540E-04  0.6620E-04  0.6615E-04  0.6532E-04  0.6368E-04  0.6139E-04  0.5856E-04  0.5533E-04  0.5171E-04  0.4799E-04  0.4411E-04  0.4018E-04  0.3626E-04  0.3252E-04  0.2887E-04  0.2550E-04  0.2229E-04  0.1940E-04  0.1679E-04  0.1452E-04  0.1260E-04  0.1091E-04  0.9427E-05  0.8167E-05  0.7013E-05  0.6034E-05  0.5229E-05  0.4499E-05  0.3844E-05  0.3334E-05  0.2930E-05  0.2521E-05  0.2165E-05  0.1852E-05  0.1582E-05  0.1453E-05  0.1269E-05  0.1109E-05  0.9879E-06  0.8997E-06  0.8397E-06  0.7857E-06  0.7348E-06  0.6887E-06  0.6434E-06  0.6022E-06  0.5649E-06  0.5073E-06  0.4344E-06  0.3392E-06  0.2634E-06  0.2010E-06  0.1420E-06
  0.6162E-06  0.9841E-06  0.1519E-05  0.1943E-05  0.2351E-05  0.2826E-05  0.3385E-05  0.4640E-05  0.5973E-05  0.7552E-05  0.9403E-05  0.1163E-04  0.1432E-04  0.1741E-04  0.2100E-04  0.2503E-04  0.2952E-04  0.3448E-04  0.3971E-04  0.4520E-04  0.5107E-04  0.5706E-04  0.6259E-04  0.6732E-04  0.7104E-04  0.7370E-04  0.7534E-04  0.7592E-04  0.7555E-04  0.7428E-04  0.7218E-04  0.6942E-04  0.6615E-04  0.6245E-04  0.5835E-04  0.5403E-04  0.4963E-04  0.4515E-04  0.4070E-04  0.3636E-04  0.3225E-04  0.2832E-04  0.2471E-04  0.2139E-04  0.1845E-04  0.1588E-04  0.1366E-04  0.1178E-04  0.1019E-04  0.8755E-05  0.7582E-05  0.6555E-05  0.5654E-05  0.4849E-05  0.4192E-05  0.3704E-05  0.3218E-05  0.2791E-05  0.2419E-05  0.2094E-05  0.1905E-05  0.1653E-05  0.1452E-05  0.1282E-05  0.1153E-05  0.1058E-05  0.9895E-06  0.9269E-06  0.8699E-06  0.8153E-06  0.7679E-06  0.7258E-06  0.6800E-06  0.6393E-06  0.5669E-06  0.4687E-06  0.3671E-06  0.2826E-06  0.2129E-06
  0.7391E-06  0.1222E-05  0.1843E-05  0.2362E-05  0.2841E-05  0.3442E-05  0.4224E-05  0.5764E-05  0.7322E-05  0.9132E-05  0.1133E-04  0.1399E-04  0.1710E-04  0.2079E-04  0.2502E-04  0.2979E-04  0.3505E-04  0.4085E-04  0.4696E-04  0.5344E-04  0.6034E-04  0.6706E-04  0.7300E-04  0.7795E-04  0.8171E-04  0.8429E-04  0.8569E-04  0.8600E-04  0.8522E-04  0.8351E-04  0.8098E-04  0.7780E-04  0.7399E-04  0.6971E-04  0.6513E-04  0.6026E-04  0.5527E-04  0.5026E-04  0.4535E-04  0.4046E-04  0.3579E-04  0.3136E-04  0.2725E-04  0.2355E-04  0.2022E-04  0.1729E-04  0.1484E-04  0.1276E-04  0.1094E-04  0.9481E-05  0.8197E-05  0.7067E-05  0.6079E-05  0.5306E-05  0.4618E-05  0.4039E-05  0.3535E-05  0.3097E-05  0.2714E-05  0.2471E-05  0.2173E-05  0.1906E-05  0.1670E-05  0.1481E-05  0.1342E-05  0.1236E-05  0.1158E-05  0.1088E-05  0.1027E-05  0.9689E-06  0.9135E-06  0.8562E-06  0.8022E-06  0.7509E-06  0.6890E-06  0.6094E-06  0.4818E-06  0.3869E-06  0.2980E-06
  0.8917E-06  0.1589E-05  0.2263E-05  0.2831E-05  0.3425E-05  0.4147E-05  0.5240E-05  0.6956E-05  0.8760E-05  0.1095E-04  0.1353E-04  0.1663E-04  0.2030E-04  0.2464E-04  0.2956E-04  0.3515E-04  0.4129E-04  0.4804E-04  0.5513E-04  0.6283E-04  0.7067E-04  0.7793E-04  0.8418E-04  0.8920E-04  0.9288E-04  0.9528E-04  0.9640E-04  0.9630E-04  0.9512E-04  0.9298E-04  0.9000E-04  0.8632E-04  0.8195E-04  0.7723E-04  0.7202E-04  0.6669E-04  0.6114E-04  0.5564E-04  0.5016E-04  0.4484E-04  0.3961E-04  0.3466E-04  0.3012E-04  0.2588E-04  0.2214E-04  0.1893E-04  0.1609E-04  0.1376E-04  0.1185E-04  0.1027E-04  0.8851E-05  0.7634E-05  0.6666E-05  0.5816E-05  0.5068E-05  0.4426E-05  0.3896E-05  0.3440E-05  0.3141E-05  0.2790E-05  0.2475E-05  0.2193E-05  0.1939E-05  0.1717E-05  0.1555E-05  0.1439E-05  0.1350E-05  0.1281E-05  0.1210E-05  0.1135E-05  0.1062E-05  0.9971E-06  0.9319E-06  0.8705E-06  0.8118E-06  0.7273E-06  0.6293E-06  0.4917E-06  0.4052E-06
  0.1178E-05  0.2034E-05  0.2758E-05  0.3421E-05  0.4147E-05  0.4919E-05  0.6331E-05  0.8366E-05  0.1042E-04  0.1294E-04  0.1596E-04  0.1958E-04  0.2390E-04  0.2895E-04  0.3476E-04  0.4120E-04  0.4840E-04  0.5608E-04  0.6436E-04  0.7320E-04  0.8178E-04  0.8946E-04  0.9587E-04  0.1008E-03  0.1044E-03  0.1065E-03  0.1072E-03  0.1068E-03  0.1052E-03  0.1025E-03  0.9907E-04  0.9485E-04  0.9006E-04  0.8470E-04  0.7908E-04  0.7316E-04  0.6716E-04  0.6113E-04  0.5524E-04  0.4950E-04  0.4389E-04  0.3852E-04  0.3339E-04  0.2879E-04  0.2454E-04  0.2073E-04  0.1752E-04  0.1493E-04  0.1284E-04  0.1106E-04  0.9555E-05  0.8361E-05  0.7349E-05  0.6428E-05  0.5616E-05  0.4906E-05  0.4324E-05  0.3934E-05  0.3511E-05  0.3138E-05  0.2809E-05  0.2512E-05  0.2245E-05  0.1997E-05  0.1805E-05  0.1664E-05  0.1569E-05  0.1486E-05  0.1395E-05  0.1308E-05  0.1226E-05  0.1148E-05  0.1071E-05  0.9997E-06  0.9254E-06  0.8417E-06  0.7412E-06  0.6309E-06  0.4957E-06
  0.1527E-05  0.2466E-05  0.3295E-05  0.4044E-05  0.4850E-05  0.5772E-05  0.7640E-05  0.9865E-05  0.1225E-04  0.1515E-04  0.1868E-04  0.2292E-04  0.2796E-04  0.3381E-04  0.4050E-04  0.4797E-04  0.5622E-04  0.6506E-04  0.7465E-04  0.8453E-04  0.9362E-04  0.1015E-03  0.1079E-03  0.1128E-03  0.1161E-03  0.1179E-03  0.1182E-03  0.1173E-03  0.1151E-03  0.1121E-03  0.1081E-03  0.1034E-03  0.9809E-04  0.9229E-04  0.8615E-04  0.7982E-04  0.7354E-04  0.6715E-04  0.6083E-04  0.5471E-04  0.4867E-04  0.4288E-04  0.3738E-04  0.3211E-04  0.2722E-04  0.2301E-04  0.1945E-04  0.1652E-04  0.1407E-04  0.1207E-04  0.1050E-04  0.9208E-05  0.8084E-05  0.7123E-05  0.6281E-05  0.5544E-05  0.5023E-05  0.4478E-05  0.3950E-05  0.3526E-05  0.3171E-05  0.2856E-05  0.2574E-05  0.2314E-05  0.2090E-05  0.1918E-05  0.1799E-05  0.1701E-05  0.1595E-05  0.1495E-05  0.1400E-05  0.1309E-05  0.1220E-05  0.1133E-05  0.1046E-05  0.9637E-06  0.8582E-06  0.7486E-06  0.6296E-06
  0.1885E-05  0.3014E-05  0.3880E-05  0.4742E-05  0.5644E-05  0.6810E-05  0.9024E-05  0.1149E-04  0.1424E-04  0.1765E-04  0.2175E-04  0.2669E-04  0.3252E-04  0.3931E-04  0.4698E-04  0.5561E-04  0.6496E-04  0.7516E-04  0.8605E-04  0.9660E-04  0.1061E-03  0.1140E-03  0.1203E-03  0.1249E-03  0.1278E-03  0.1292E-03  0.1291E-03  0.1276E-03  0.1251E-03  0.1215E-03  0.1170E-03  0.1118E-03  0.1060E-03  0.9985E-04  0.9348E-04  0.8694E-04  0.8025E-04  0.7353E-04  0.6691E-04  0.6046E-04  0.5417E-04  0.4799E-04  0.4201E-04  0.3626E-04  0.3102E-04  0.2636E-04  0.2203E-04  0.1853E-04  0.1570E-04  0.1352E-04  0.1176E-04  0.1025E-04  0.8996E-05  0.7986E-05  0.7091E-05  0.6381E-05  0.5734E-05  0.5108E-05  0.4555E-05  0.4015E-05  0.3573E-05  0.3230E-05  0.2925E-05  0.2644E-05  0.2416E-05  0.2202E-05  0.2051E-05  0.1933E-05  0.1809E-05  0.1694E-05  0.1584E-05  0.1478E-05  0.1374E-05  0.1272E-05  0.1172E-05  0.1078E-05  0.9772E-06  0.8614E-06  0.7340E-06
  0.2304E-05  0.3562E-05  0.4503E-05  0.5456E-05  0.6457E-05  0.7991E-05  0.1047E-04  0.1326E-04  0.1650E-04  0.2039E-04  0.2517E-04  0.3089E-04  0.3762E-04  0.4539E-04  0.5420E-04  0.6404E-04  0.7472E-04  0.8636E-04  0.9827E-04  0.1093E-03  0.1189E-03  0.1267E-03  0.1328E-03  0.1370E-03  0.1395E-03  0.1404E-03  0.1397E-03  0.1378E-03  0.1347E-03  0.1306E-03  0.1257E-03  0.1201E-03  0.1139E-03  0.1075E-03  0.1010E-03  0.9434E-04  0.8749E-04  0.8058E-04  0.7375E-04  0.6708E-04  0.6064E-04  0.5418E-04  0.4800E-04  0.4205E-04  0.3626E-04  0.3064E-04  0.2574E-04  0.2153E-04  0.1826E-04  0.1547E-04  0.1340E-04  0.1167E-04  0.1032E-04  0.9128E-05  0.8117E-05  0.7341E-05  0.6583E-05  0.5861E-05  0.5227E-05  0.4613E-05  0.4096E-05  0.3645E-05  0.3296E-05  0.2995E-05  0.2745E-05  0.2528E-05  0.2334E-05  0.2178E-05  0.2033E-05  0.1902E-05  0.1775E-05  0.1652E-05  0.1532E-05  0.1414E-05  0.1300E-05  0.1197E-05  0.1095E-05  0.9730E-06  0.8431E-06
  0.2747E-05  0.4152E-05  0.5127E-05  0.6180E-05  0.7309E-05  0.9285E-05  0.1209E-04  0.1523E-04  0.1895E-04  0.2349E-04  0.2897E-04  0.3559E-04  0.4335E-04  0.5225E-04  0.6237E-04  0.7341E-04  0.8571E-04  0.9862E-04  0.1112E-03  0.1225E-03  0.1319E-03  0.1396E-03  0.1452E-03  0.1489E-03  0.1509E-03  0.1512E-03  0.1501E-03  0.1476E-03  0.1440E-03  0.1395E-03  0.1341E-03  0.1282E-03  0.1218E-03  0.1155E-03  0.1089E-03  0.1023E-03  0.9553E-04  0.8850E-04  0.8162E-04  0.7509E-04  0.6888E-04  0.6255E-04  0.5632E-04  0.4997E-04  0.4331E-04  0.3699E-04  0.3114E-04  0.2622E-04  0.2186E-04  0.1849E-04  0.1590E-04  0.1374E-04  0.1201E-04  0.1067E-04  0.9511E-05  0.8493E-05  0.7579E-05  0.6774E-05  0.6009E-05  0.5350E-05  0.4709E-05  0.4184E-05  0.3711E-05  0.3360E-05  0.3081E-05  0.2847E-05  0.2628E-05  0.2443E-05  0.2269E-05  0.2117E-05  0.1972E-05  0.1830E-05  0.1692E-05  0.1558E-05  0.1432E-05  0.1317E-05  0.1199E-05  0.1076E-05  0.9450E-06
  0.3215E-05  0.4748E-05  0.5825E-05  0.6957E-05  0.8205E-05  0.1080E-04  0.1380E-04  0.1739E-04  0.2166E-04  0.2694E-04  0.3324E-04  0.4085E-04  0.4973E-04  0.5986E-04  0.7136E-04  0.8403E-04  0.9777E-04  0.1117E-03  0.1246E-03  0.1359E-03  0.1451E-03  0.1522E-03  0.1574E-03  0.1606E-03  0.1619E-03  0.1616E-03  0.1600E-03  0.1570E-03  0.1529E-03  0.1480E-03  0.1424E-03  0.1364E-03  0.1301E-03  0.1237E-03  0.1176E-03  0.1111E-03  0.1047E-03  0.9813E-04  0.9173E-04  0.8560E-04  0.7965E-04  0.7387E-04  0.6744E-04  0.6044E-04  0.5332E-04  0.4615E-04  0.3925E-04  0.3272E-04  0.2735E-04  0.2311E-04  0.1959E-04  0.1678E-04  0.1459E-04  0.1282E-04  0.1121E-04  0.9867E-05  0.8801E-05  0.7801E-05  0.6938E-05  0.6122E-05  0.5423E-05  0.4762E-05  0.4180E-05  0.3763E-05  0.3429E-05  0.3167E-05  0.2945E-05  0.2725E-05  0.2514E-05  0.2335E-05  0.2170E-05  0.2009E-05  0.1853E-05  0.1701E-05  0.1567E-05  0.1434E-05  0.1304E-05  0.1181E-05  0.1035E-05
  0.3969E-05  0.5366E-05  0.6507E-05  0.7758E-05  0.9412E-05  0.1236E-04  0.1572E-04  0.1977E-04  0.2472E-04  0.3070E-04  0.3804E-04  0.4677E-04  0.5693E-04  0.6858E-04  0.8142E-04  0.9582E-04  0.1109E-03  0.1254E-03  0.1384E-03  0.1493E-03  0.1581E-03  0.1646E-03  0.1691E-03  0.1716E-03  0.1724E-03  0.1716E-03  0.1693E-03  0.1658E-03  0.1614E-03  0.1561E-03  0.1503E-03  0.1444E-03  0.1385E-03  0.1327E-03  0.1270E-03  0.1213E-03  0.1157E-03  0.1101E-03  0.1047E-03  0.9924E-04  0.9385E-04  0.8840E-04  0.8202E-04  0.7502E-04  0.6727E-04  0.5908E-04  0.5047E-04  0.4243E-04  0.3559E-04  0.2976E-04  0.2500E-04  0.2117E-04  0.1810E-04  0.1559E-04  0.1342E-04  0.1169E-04  0.1018E-04  0.9013E-05  0.7915E-05  0.6988E-05  0.6032E-05  0.5280E-05  0.4693E-05  0.4207E-05  0.3812E-05  0.3495E-05  0.3246E-05  0.2999E-05  0.2776E-05  0.2559E-05  0.2367E-05  0.2187E-05  0.2012E-05  0.1846E-05  0.1697E-05  0.1550E-05  0.1405E-05  0.1271E-05  0.1126E-05
  0.4522E-05  0.5974E-05  0.7245E-05  0.8638E-05  0.1077E-04  0.1403E-04  0.1778E-04  0.2234E-04  0.2810E-04  0.3507E-04  0.4349E-04  0.5349E-04  0.6501E-04  0.7822E-04  0.9290E-04  0.1089E-03  0.1248E-03  0.1395E-03  0.1523E-03  0.1627E-03  0.1708E-03  0.1766E-03  0.1803E-03  0.1821E-03  0.1821E-03  0.1806E-03  0.1778E-03  0.1739E-03  0.1692E-03  0.1638E-03  0.1582E-03  0.1527E-03  0.1474E-03  0.1424E-03  0.1379E-03  0.1336E-03  0.1294E-03  0.1253E-03  0.1213E-03  0.1173E-03  0.1130E-03  0.1078E-03  0.1019E-03  0.9461E-04  0.8605E-04  0.7623E-04  0.6604E-04  0.5631E-04  0.4720E-04  0.3924E-04  0.3257E-04  0.2705E-04  0.2258E-04  0.1907E-04  0.1620E-04  0.1376E-04  0.1193E-04  0.1031E-04  0.8908E-05  0.7739E-05  0.6738E-05  0.5901E-05  0.5199E-05  0.4634E-05  0.4228E-05  0.3853E-05  0.3546E-05  0.3289E-05  0.3037E-05  0.2790E-05  0.2560E-05  0.2362E-05  0.2171E-05  0.1989E-05  0.1825E-05  0.1663E-05  0.1508E-05  0.1362E-05  0.1217E-05
  0.5162E-05  0.6653E-05  0.8019E-05  0.9532E-05  0.1218E-04  0.1578E-04  0.1999E-04  0.2532E-04  0.3188E-04  0.3994E-04  0.4959E-04  0.6105E-04  0.7428E-04  0.8912E-04  0.1057E-03  0.1229E-03  0.1393E-03  0.1538E-03  0.1660E-03  0.1757E-03  0.1829E-03  0.1879E-03  0.1907E-03  0.1917E-03  0.1910E-03  0.1888E-03  0.1855E-03  0.1813E-03  0.1764E-03  0.1711E-03  0.1658E-03  0.1613E-03  0.1569E-03  0.1536E-03  0.1507E-03  0.1487E-03  0.1467E-03  0.1449E-03  0.1431E-03  0.1408E-03  0.1379E-03  0.1336E-03  0.1276E-03  0.1199E-03  0.1101E-03  0.9884E-04  0.8675E-04  0.7446E-04  0.6271E-04  0.5184E-04  0.4243E-04  0.3455E-04  0.2823E-04  0.2334E-04  0.1942E-04  0.1635E-04  0.1383E-04  0.1178E-04  0.1002E-04  0.8572E-05  0.7437E-05  0.6512E-05  0.5732E-05  0.5139E-05  0.4642E-05  0.4233E-05  0.3870E-05  0.3560E-05  0.3277E-05  0.3014E-05  0.2761E-05  0.2534E-05  0.2324E-05  0.2127E-05  0.1944E-05  0.1775E-05  0.1606E-05  0.1449E-05  0.1294E-05
  0.5707E-05  0.7336E-05  0.8825E-05  0.1064E-04  0.1386E-04  0.1772E-04  0.2253E-04  0.2859E-04  0.3618E-04  0.4549E-04  0.5663E-04  0.6970E-04  0.8467E-04  0.1016E-03  0.1198E-03  0.1378E-03  0.1540E-03  0.1681E-03  0.1794E-03  0.1882E-03  0.1944E-03  0.1983E-03  0.2002E-03  0.2003E-03  0.1989E-03  0.1960E-03  0.1923E-03  0.1878E-03  0.1829E-03  0.1780E-03  0.1736E-03  0.1701E-03  0.1676E-03  0.1665E-03  0.1664E-03  0.1672E-03  0.1686E-03  0.1703E-03  0.1721E-03  0.1721E-03  0.1705E-03  0.1666E-03  0.1604E-03  0.1514E-03  0.1403E-03  0.1272E-03  0.1129E-03  0.9751E-04  0.8207E-04  0.6743E-04  0.5448E-04  0.4382E-04  0.3510E-04  0.2831E-04  0.2317E-04  0.1904E-04  0.1569E-04  0.1318E-04  0.1114E-04  0.9487E-05  0.8204E-05  0.7163E-05  0.6216E-05  0.5570E-05  0.5025E-05  0.4615E-05  0.4216E-05  0.3842E-05  0.3523E-05  0.3240E-05  0.2964E-05  0.2705E-05  0.2475E-05  0.2262E-05  0.2061E-05  0.1881E-05  0.1702E-05  0.1534E-05  0.1381E-05
  0.6348E-05  0.8049E-05  0.9648E-05  0.1186E-04  0.1555E-04  0.1991E-04  0.2535E-04  0.3234E-04  0.4109E-04  0.5191E-04  0.6466E-04  0.7963E-04  0.9661E-04  0.1155E-03  0.1349E-03  0.1530E-03  0.1689E-03  0.1820E-03  0.1923E-03  0.1998E-03  0.2048E-03  0.2077E-03  0.2086E-03  0.2078E-03  0.2055E-03  0.2022E-03  0.1979E-03  0.1934E-03  0.1887E-03  0.1846E-03  0.1813E-03  0.1799E-03  0.1800E-03  0.1822E-03  0.1859E-03  0.1912E-03  0.1978E-03  0.2042E-03  0.2095E-03  0.2125E-03  0.2122E-03  0.2081E-03  0.2004E-03  0.1896E-03  0.1762E-03  0.1609E-03  0.1433E-03  0.1243E-03  0.1045E-03  0.8540E-04  0.6859E-04  0.5446E-04  0.4293E-04  0.3414E-04  0.2726E-04  0.2188E-04  0.1782E-04  0.1467E-04  0.1228E-04  0.1035E-04  0.8867E-05  0.7718E-05  0.6807E-05  0.6042E-05  0.5442E-05  0.4971E-05  0.4554E-05  0.4142E-05  0.3760E-05  0.3436E-05  0.3153E-05  0.2873E-05  0.2616E-05  0.2389E-05  0.2175E-05  0.1983E-05  0.1792E-05  0.1614E-05  0.1452E-05
  0.6956E-05  0.8778E-05  0.1055E-04  0.1328E-04  0.1737E-04  0.2222E-04  0.2858E-04  0.3667E-04  0.4678E-04  0.5922E-04  0.7387E-04  0.9088E-04  0.1103E-03  0.1308E-03  0.1508E-03  0.1686E-03  0.1835E-03  0.1955E-03  0.2046E-03  0.2107E-03  0.2143E-03  0.2158E-03  0.2157E-03  0.2140E-03  0.2110E-03  0.2071E-03  0.2026E-03  0.1981E-03  0.1939E-03  0.1909E-03  0.1897E-03  0.1906E-03  0.1947E-03  0.2013E-03  0.2107E-03  0.2223E-03  0.2350E-03  0.2478E-03  0.2577E-03  0.2635E-03  0.2640E-03  0.2582E-03  0.2476E-03  0.2334E-03  0.2170E-03  0.1984E-03  0.1772E-03  0.1533E-03  0.1285E-03  0.1049E-03  0.8383E-04  0.6596E-04  0.5146E-04  0.4000E-04  0.3127E-04  0.2477E-04  0.1979E-04  0.1604E-04  0.1334E-04  0.1126E-04  0.9643E-05  0.8378E-05  0.7319E-05  0.6521E-05  0.5861E-05  0.5340E-05  0.4885E-05  0.4441E-05  0.4015E-05  0.3633E-05  0.3324E-05  0.3036E-05  0.2760E-05  0.2512E-05  0.2283E-05  0.2069E-05  0.1880E-05  0.1692E-05  0.1518E-05
  0.7546E-05  0.9519E-05  0.1151E-04  0.1483E-04  0.1937E-04  0.2499E-04  0.3225E-04  0.4163E-04  0.5340E-04  0.6776E-04  0.8478E-04  0.1042E-03  0.1256E-03  0.1473E-03  0.1672E-03  0.1841E-03  0.1979E-03  0.2085E-03  0.2159E-03  0.2207E-03  0.2229E-03  0.2231E-03  0.2214E-03  0.2188E-03  0.2150E-03  0.2108E-03  0.2061E-03  0.2017E-03  0.1983E-03  0.1973E-03  0.1985E-03  0.2033E-03  0.2120E-03  0.2253E-03  0.2426E-03  0.2626E-03  0.2836E-03  0.3043E-03  0.3198E-03  0.3277E-03  0.3261E-03  0.3162E-03  0.3005E-03  0.2815E-03  0.2610E-03  0.2385E-03  0.2121E-03  0.1827E-03  0.1527E-03  0.1244E-03  0.9903E-04  0.7752E-04  0.5983E-04  0.4577E-04  0.3524E-04  0.2732E-04  0.2161E-04  0.1745E-04  0.1430E-04  0.1208E-04  0.1030E-04  0.8994E-05  0.7845E-05  0.6974E-05  0.6284E-05  0.5715E-05  0.5198E-05  0.4727E-05  0.4281E-05  0.3842E-05  0.3485E-05  0.3188E-05  0.2895E-05  0.2626E-05  0.2384E-05  0.2159E-05  0.1959E-05  0.1762E-05  0.1580E-05
  0.8193E-05  0.1023E-04  0.1258E-04  0.1655E-04  0.2156E-04  0.2803E-04  0.3647E-04  0.4744E-04  0.6111E-04  0.7782E-04  0.9735E-04  0.1195E-03  0.1428E-03  0.1646E-03  0.1838E-03  0.1996E-03  0.2119E-03  0.2208E-03  0.2267E-03  0.2299E-03  0.2309E-03  0.2295E-03  0.2264E-03  0.2221E-03  0.2177E-03  0.2130E-03  0.2083E-03  0.2046E-03  0.2024E-03  0.2035E-03  0.2081E-03  0.2179E-03  0.2341E-03  0.2556E-03  0.2843E-03  0.3165E-03  0.3493E-03  0.3779E-03  0.3975E-03  0.4036E-03  0.3967E-03  0.3792E-03  0.3559E-03  0.3312E-03  0.3061E-03  0.2778E-03  0.2452E-03  0.2100E-03  0.1748E-03  0.1420E-03  0.1124E-03  0.8752E-04  0.6701E-04  0.5073E-04  0.3846E-04  0.2965E-04  0.2330E-04  0.1863E-04  0.1524E-04  0.1285E-04  0.1094E-04  0.9552E-05  0.8380E-05  0.7449E-05  0.6713E-05  0.6092E-05  0.5514E-05  0.5001E-05  0.4536E-05  0.4060E-05  0.3637E-05  0.3315E-05  0.3022E-05  0.2737E-05  0.2477E-05  0.2242E-05  0.2021E-05  0.1827E-05  0.1636E-05
  0.8784E-05  0.1102E-04  0.1382E-04  0.1843E-04  0.2405E-04  0.3151E-04  0.4138E-04  0.5422E-04  0.7028E-04  0.8961E-04  0.1122E-03  0.1369E-03  0.1612E-03  0.1830E-03  0.2010E-03  0.2152E-03  0.2257E-03  0.2328E-03  0.2368E-03  0.2385E-03  0.2379E-03  0.2355E-03  0.2307E-03  0.2250E-03  0.2188E-03  0.2137E-03  0.2094E-03  0.2065E-03  0.2057E-03  0.2096E-03  0.2192E-03  0.2364E-03  0.2627E-03  0.2981E-03  0.3423E-03  0.3910E-03  0.4377E-03  0.4734E-03  0.4921E-03  0.4909E-03  0.4725E-03  0.4434E-03  0.4106E-03  0.3801E-03  0.3494E-03  0.3137E-03  0.2737E-03  0.2321E-03  0.1920E-03  0.1551E-03  0.1226E-03  0.9486E-04  0.7220E-04  0.5431E-04  0.4092E-04  0.3128E-04  0.2441E-04  0.1953E-04  0.1602E-04  0.1345E-04  0.1153E-04  0.1009E-04  0.8894E-05  0.7918E-05  0.7112E-05  0.6455E-05  0.5843E-05  0.5277E-05  0.4774E-05  0.4302E-05  0.3814E-05  0.3440E-05  0.3134E-05  0.2840E-05  0.2563E-05  0.2317E-05  0.2088E-05  0.1885E-05  0.1688E-05
  0.9451E-05  0.1181E-04  0.1532E-04  0.2038E-04  0.2672E-04  0.3535E-04  0.4694E-04  0.6198E-04  0.8085E-04  0.1036E-03  0.1294E-03  0.1561E-03  0.1810E-03  0.2021E-03  0.2191E-03  0.2316E-03  0.2401E-03  0.2452E-03  0.2472E-03  0.2469E-03  0.2447E-03  0.2407E-03  0.2353E-03  0.2276E-03  0.2201E-03  0.2133E-03  0.2092E-03  0.2074E-03  0.2084E-03  0.2162E-03  0.2329E-03  0.2613E-03  0.3041E-03  0.3606E-03  0.4268E-03  0.4958E-03  0.5562E-03  0.5921E-03  0.5993E-03  0.5812E-03  0.5451E-03  0.5017E-03  0.4603E-03  0.4245E-03  0.3870E-03  0.3422E-03  0.2934E-03  0.2460E-03  0.2019E-03  0.1624E-03  0.1278E-03  0.9851E-04  0.7456E-04  0.5590E-04  0.4189E-04  0.3208E-04  0.2508E-04  0.2019E-04  0.1667E-04  0.1400E-04  0.1199E-04  0.1055E-04  0.9365E-05  0.8368E-05  0.7516E-05  0.6789E-05  0.6163E-05  0.5552E-05  0.5004E-05  0.4512E-05  0.4021E-05  0.3559E-05  0.3228E-05  0.2933E-05  0.2643E-05  0.2384E-05  0.2147E-05  0.1930E-05  0.1733E-05
  0.9976E-05  0.1260E-04  0.1685E-04  0.2237E-04  0.2967E-04  0.3969E-04  0.5318E-04  0.7095E-04  0.9311E-04  0.1196E-03  0.1485E-03  0.1768E-03  0.2021E-03  0.2228E-03  0.2385E-03  0.2496E-03  0.2564E-03  0.2592E-03  0.2591E-03  0.2568E-03  0.2523E-03  0.2463E-03  0.2393E-03  0.2312E-03  0.2217E-03  0.2137E-03  0.2080E-03  0.2073E-03  0.2111E-03  0.2249E-03  0.2531E-03  0.3011E-03  0.3698E-03  0.4572E-03  0.5547E-03  0.6427E-03  0.7039E-03  0.7256E-03  0.7070E-03  0.6623E-03  0.6058E-03  0.5486E-03  0.5014E-03  0.4606E-03  0.4138E-03  0.3578E-03  0.3009E-03  0.2491E-03  0.2027E-03  0.1621E-03  0.1270E-03  0.9774E-04  0.7403E-04  0.5546E-04  0.4168E-04  0.3202E-04  0.2530E-04  0.2054E-04  0.1709E-04  0.1450E-04  0.1252E-04  0.1097E-04  0.9750E-05  0.8734E-05  0.7903E-05  0.7126E-05  0.6448E-05  0.5818E-05  0.5238E-05  0.4698E-05  0.4226E-05  0.3714E-05  0.3322E-05  0.3002E-05  0.2715E-05  0.2443E-05  0.2198E-05  0.1975E-05  0.1773E-05
  0.1063E-04  0.1366E-04  0.1842E-04  0.2447E-04  0.3275E-04  0.4434E-04  0.6002E-04  0.8061E-04  0.1066E-03  0.1368E-03  0.1685E-03  0.1984E-03  0.2243E-03  0.2450E-03  0.2602E-03  0.2703E-03  0.2756E-03  0.2770E-03  0.2748E-03  0.2699E-03  0.2631E-03  0.2545E-03  0.2450E-03  0.2351E-03  0.2252E-03  0.2148E-03  0.2078E-03  0.2065E-03  0.2146E-03  0.2391E-03  0.2893E-03  0.3690E-03  0.4793E-03  0.6117E-03  0.7381E-03  0.8303E-03  0.8655E-03  0.8499E-03  0.7945E-03  0.7193E-03  0.6441E-03  0.5782E-03  0.5271E-03  0.4798E-03  0.4212E-03  0.3557E-03  0.2934E-03  0.2396E-03  0.1935E-03  0.1542E-03  0.1210E-03  0.9339E-04  0.7092E-04  0.5331E-04  0.4039E-04  0.3133E-04  0.2506E-04  0.2068E-04  0.1743E-04  0.1493E-04  0.1297E-04  0.1145E-04  0.1021E-04  0.9168E-05  0.8261E-05  0.7452E-05  0.6714E-05  0.6068E-05  0.5453E-05  0.4892E-05  0.4373E-05  0.3890E-05  0.3421E-05  0.3078E-05  0.2773E-05  0.2495E-05  0.2241E-05  0.2013E-05  0.1803E-05
  0.1129E-04  0.1467E-04  0.1978E-04  0.2661E-04  0.3593E-04  0.4899E-04  0.6687E-04  0.9059E-04  0.1202E-03  0.1539E-03  0.1882E-03  0.2198E-03  0.2468E-03  0.2684E-03  0.2842E-03  0.2944E-03  0.2994E-03  0.2999E-03  0.2965E-03  0.2898E-03  0.2807E-03  0.2696E-03  0.2571E-03  0.2443E-03  0.2316E-03  0.2196E-03  0.2097E-03  0.2080E-03  0.2243E-03  0.2711E-03  0.3583E-03  0.4925E-03  0.6623E-03  0.8361E-03  0.9645E-03  0.1021E-02  0.1001E-02  0.9308E-03  0.8361E-03  0.7372E-03  0.6494E-03  0.5820E-03  0.5270E-03  0.4711E-03  0.4031E-03  0.3329E-03  0.2703E-03  0.2188E-03  0.1763E-03  0.1409E-03  0.1111E-03  0.8624E-04  0.6612E-04  0.5016E-04  0.3839E-04  0.3012E-04  0.2458E-04  0.2050E-04  0.1751E-04  0.1525E-04  0.1334E-04  0.1189E-04  0.1067E-04  0.9567E-05  0.8632E-05  0.7780E-05  0.6987E-05  0.6278E-05  0.5666E-05  0.5073E-05  0.4534E-05  0.4037E-05  0.3550E-05  0.3150E-05  0.2824E-05  0.2537E-05  0.2275E-05  0.2044E-05  0.1832E-05
  0.1193E-04  0.1570E-04  0.2129E-04  0.2866E-04  0.3894E-04  0.5335E-04  0.7337E-04  0.9992E-04  0.1327E-03  0.1692E-03  0.2056E-03  0.2391E-03  0.2679E-03  0.2913E-03  0.3089E-03  0.3208E-03  0.3274E-03  0.3290E-03  0.3263E-03  0.3198E-03  0.3098E-03  0.2970E-03  0.2821E-03  0.2659E-03  0.2491E-03  0.2337E-03  0.2218E-03  0.2230E-03  0.2544E-03  0.3395E-03  0.4955E-03  0.7093E-03  0.9345E-03  0.1107E-02  0.1179E-02  0.1154E-02  0.1059E-02  0.9361E-03  0.8109E-03  0.7017E-03  0.6126E-03  0.5492E-03  0.4930E-03  0.4310E-03  0.3610E-03  0.2931E-03  0.2362E-03  0.1912E-03  0.1548E-03  0.1248E-03  0.9928E-04  0.7804E-04  0.6068E-04  0.4690E-04  0.3646E-04  0.2908E-04  0.2403E-04  0.2043E-04  0.1760E-04  0.1546E-04  0.1375E-04  0.1232E-04  0.1106E-04  0.9977E-05  0.8974E-05  0.8079E-05  0.7287E-05  0.6496E-05  0.5835E-05  0.5239E-05  0.4679E-05  0.4160E-05  0.3678E-05  0.3227E-05  0.2881E-05  0.2569E-05  0.2304E-05  0.2068E-05  0.1855E-05
  0.1267E-04  0.1676E-04  0.2258E-04  0.3051E-04  0.4148E-04  0.5707E-04  0.7855E-04  0.1073E-03  0.1423E-03  0.1806E-03  0.2185E-03  0.2538E-03  0.2846E-03  0.3105E-03  0.3309E-03  0.3459E-03  0.3558E-03  0.3612E-03  0.3625E-03  0.3599E-03  0.3530E-03  0.3424E-03  0.3278E-03  0.3101E-03  0.2902E-03  0.2698E-03  0.2576E-03  0.2718E-03  0.3439E-03  0.5055E-03  0.7543E-03  0.1036E-02  0.1252E-02  0.1339E-02  0.1291E-02  0.1159E-02  0.9984E-03  0.8445E-03  0.7102E-03  0.6072E-03  0.5358E-03  0.4834E-03  0.4293E-03  0.3677E-03  0.3029E-03  0.2451E-03  0.1985E-03  0.1624E-03  0.1329E-03  0.1086E-03  0.8795E-04  0.7027E-04  0.5559E-04  0.4383E-04  0.3474E-04  0.2813E-04  0.2352E-04  0.2033E-04  0.1787E-04  0.1580E-04  0.1418E-04  0.1276E-04  0.1149E-04  0.1035E-04  0.9319E-05  0.8382E-05  0.7526E-05  0.6765E-05  0.6017E-05  0.5379E-05  0.4808E-05  0.4279E-05  0.3783E-05  0.3319E-05  0.2932E-05  0.2604E-05  0.2325E-05  0.2087E-05  0.1873E-05
  0.1337E-04  0.1782E-04  0.2386E-04  0.3203E-04  0.4370E-04  0.5989E-04  0.8239E-04  0.1123E-03  0.1482E-03  0.1867E-03  0.2252E-03  0.2615E-03  0.2940E-03  0.3220E-03  0.3451E-03  0.3634E-03  0.3778E-03  0.3885E-03  0.3960E-03  0.4008E-03  0.4024E-03  0.3999E-03  0.3926E-03  0.3805E-03  0.3630E-03  0.3456E-03  0.3465E-03  0.4042E-03  0.5627E-03  0.8444E-03  0.1180E-02  0.1434E-02  0.1509E-02  0.1411E-02  0.1214E-02  0.1000E-02  0.8142E-03  0.6657E-03  0.5551E-03  0.4838E-03  0.4415E-03  0.4041E-03  0.3530E-03  0.2968E-03  0.2435E-03  0.1993E-03  0.1643E-03  0.1370E-03  0.1142E-03  0.9501E-04  0.7837E-04  0.6399E-04  0.5166E-04  0.4152E-04  0.3348E-04  0.2752E-04  0.2336E-04  0.2033E-04  0.1799E-04  0.1618E-04  0.1459E-04  0.1316E-04  0.1189E-04  0.1072E-04  0.9650E-05  0.8671E-05  0.7787E-05  0.6978E-05  0.6246E-05  0.5557E-05  0.4920E-05  0.4379E-05  0.3870E-05  0.3398E-05  0.2991E-05  0.2646E-05  0.2349E-05  0.2098E-05  0.1883E-05
  0.1407E-04  0.1862E-04  0.2494E-04  0.3335E-04  0.4522E-04  0.6161E-04  0.8466E-04  0.1147E-03  0.1502E-03  0.1882E-03  0.2260E-03  0.2620E-03  0.2947E-03  0.3234E-03  0.3477E-03  0.3683E-03  0.3853E-03  0.4001E-03  0.4137E-03  0.4258E-03  0.4365E-03  0.4461E-03  0.4517E-03  0.4527E-03  0.4498E-03  0.4566E-03  0.5150E-03  0.6858E-03  0.1015E-02  0.1422E-02  0.1712E-02  0.1742E-02  0.1544E-02  0.1250E-02  0.9664E-03  0.7417E-03  0.5938E-03  0.5084E-03  0.4673E-03  0.4600E-03  0.4344E-03  0.3691E-03  0.2932E-03  0.2353E-03  0.1939E-03  0.1625E-03  0.1379E-03  0.1176E-03  0.9996E-04  0.8480E-04  0.7138E-04  0.5937E-04  0.4891E-04  0.4001E-04  0.3283E-04  0.2737E-04  0.2334E-04  0.2048E-04  0.1842E-04  0.1663E-04  0.1502E-04  0.1359E-04  0.1228E-04  0.1108E-04  0.9973E-05  0.8957E-05  0.8025E-05  0.7185E-05  0.6421E-05  0.5719E-05  0.5072E-05  0.4467E-05  0.3951E-05  0.3477E-05  0.3041E-05  0.2679E-05  0.2374E-05  0.2114E-05  0.1878E-05
  0.1471E-04  0.1942E-04  0.2579E-04  0.3427E-04  0.4600E-04  0.6234E-04  0.8513E-04  0.1145E-03  0.1488E-03  0.1855E-03  0.2223E-03  0.2574E-03  0.2892E-03  0.3172E-03  0.3406E-03  0.3604E-03  0.3773E-03  0.3926E-03  0.4074E-03  0.4226E-03  0.4384E-03  0.4540E-03  0.4706E-03  0.4831E-03  0.5046E-03  0.5731E-03  0.7724E-03  0.1189E-02  0.1766E-02  0.2206E-02  0.2295E-02  0.2184E-02  0.1895E-02  0.9830E-03  0.7354E-03  0.5976E-03  0.8076E-03  0.9062E-03  0.8533E-03  0.8170E-03  0.6853E-03  0.4637E-03  0.2814E-03  0.1935E-03  0.1579E-03  0.1370E-03  0.1192E-03  0.1040E-03  0.9024E-04  0.7787E-04  0.6670E-04  0.5653E-04  0.4739E-04  0.3950E-04  0.3287E-04  0.2770E-04  0.2383E-04  0.2102E-04  0.1896E-04  0.1714E-04  0.1552E-04  0.1401E-04  0.1266E-04  0.1141E-04  0.1028E-04  0.9229E-05  0.8267E-05  0.7404E-05  0.6594E-05  0.5865E-05  0.5201E-05  0.4605E-05  0.4026E-05  0.3527E-05  0.3093E-05  0.2719E-05  0.2400E-05  0.2132E-05  0.1885E-05
  0.1528E-04  0.1991E-04  0.2642E-04  0.3488E-04  0.4620E-04  0.6209E-04  0.8415E-04  0.1121E-03  0.1444E-03  0.1792E-03  0.2148E-03  0.2492E-03  0.2806E-03  0.3080E-03  0.3303E-03  0.3482E-03  0.3625E-03  0.3751E-03  0.3868E-03  0.3988E-03  0.4115E-03  0.4255E-03  0.4404E-03  0.4613E-03  0.5293E-03  0.7517E-03  0.1263E-02  0.2090E-02  0.2900E-02  0.3227E-02  0.2959E-02  0.1869E-02  0.9209E-03  0.7400E-03  0.6298E-03  0.8886E-03  0.6758E-03  0.8146E-03  0.1323E-02  0.1597E-02  0.1364E-02  0.8257E-03  0.3909E-03  0.1949E-03  0.1385E-03  0.1212E-03  0.1080E-03  0.9599E-04  0.8433E-04  0.7398E-04  0.6420E-04  0.5519E-04  0.4688E-04  0.3954E-04  0.3343E-04  0.2835E-04  0.2450E-04  0.2169E-04  0.1957E-04  0.1775E-04  0.1603E-04  0.1447E-04  0.1304E-04  0.1176E-04  0.1058E-04  0.9496E-05  0.8508E-05  0.7603E-05  0.6774E-05  0.5998E-05  0.5322E-05  0.4694E-05  0.4134E-05  0.3605E-05  0.3144E-05  0.2752E-05  0.2422E-05  0.2143E-05  0.1888E-05
  0.1570E-04  0.2040E-04  0.2658E-04  0.3494E-04  0.4577E-04  0.6116E-04  0.8195E-04  0.1076E-03  0.1374E-03  0.1701E-03  0.2038E-03  0.2373E-03  0.2686E-03  0.2964E-03  0.3197E-03  0.3380E-03  0.3518E-03  0.3629E-03  0.3717E-03  0.3787E-03  0.3856E-03  0.3926E-03  0.4011E-03  0.4339E-03  0.6035E-03  0.1109E-02  0.1985E-02  0.2875E-02  0.3064E-02  0.2317E-02  0.1177E-02  0.6783E-03  0.5872E-03  0.5000E-03  0.4922E-03  0.6925E-03  0.1622E-02  0.9366E-03  0.1025E-02  0.1382E-02  0.1423E-02  0.1016E-02  0.5021E-03  0.2143E-03  0.1321E-03  0.1132E-03  0.1022E-03  0.9155E-04  0.8170E-04  0.7216E-04  0.6312E-04  0.5488E-04  0.4724E-04  0.4037E-04  0.3430E-04  0.2934E-04  0.2550E-04  0.2252E-04  0.2026E-04  0.1836E-04  0.1658E-04  0.1495E-04  0.1346E-04  0.1212E-04  0.1089E-04  0.9760E-05  0.8743E-05  0.7804E-05  0.6950E-05  0.6147E-05  0.5430E-05  0.4792E-05  0.4214E-05  0.3690E-05  0.3227E-05  0.2785E-05  0.2444E-05  0.2157E-05  0.1883E-05
  0.1592E-04  0.2056E-04  0.2651E-04  0.3441E-04  0.4513E-04  0.5949E-04  0.7838E-04  0.1014E-03  0.1287E-03  0.1586E-03  0.1899E-03  0.2215E-03  0.2520E-03  0.2795E-03  0.3038E-03  0.3239E-03  0.3402E-03  0.3534E-03  0.3654E-03  0.3730E-03  0.3753E-03  0.3765E-03  0.3786E-03  0.4213E-03  0.6563E-03  0.1241E-02  0.1932E-02  0.2141E-02  0.1503E-02  0.7419E-03  0.4703E-03  0.4074E-03  0.3609E-03  0.3333E-03  0.3824E-03  0.7089E-03  0.1049E-02  0.2008E-02  0.1194E-02  0.1061E-02  0.1002E-02  0.7322E-03  0.4043E-03  0.2000E-03  0.1309E-03  0.1116E-03  0.1010E-03  0.9072E-04  0.8109E-04  0.7186E-04  0.6354E-04  0.5559E-04  0.4817E-04  0.4149E-04  0.3568E-04  0.3061E-04  0.2659E-04  0.2342E-04  0.2098E-04  0.1896E-04  0.1713E-04  0.1543E-04  0.1388E-04  0.1246E-04  0.1119E-04  0.1003E-04  0.8975E-05  0.8016E-05  0.7112E-05  0.6302E-05  0.5545E-05  0.4872E-05  0.4283E-05  0.3762E-05  0.3282E-05  0.2864E-05  0.2462E-05  0.2156E-05  0.1883E-05
  0.1572E-04  0.2044E-04  0.2611E-04  0.3386E-04  0.4369E-04  0.5683E-04  0.7377E-04  0.9470E-04  0.1186E-03  0.1453E-03  0.1733E-03  0.2023E-03  0.2305E-03  0.2567E-03  0.2803E-03  0.3008E-03  0.3177E-03  0.3317E-03  0.3444E-03  0.3570E-03  0.3610E-03  0.3572E-03  0.3538E-03  0.3821E-03  0.5559E-03  0.9020E-03  0.1056E-02  0.7907E-03  0.4613E-03  0.3292E-03  0.2934E-03  0.2816E-03  0.2831E-03  0.3291E-03  0.4268E-03  0.7678E-03  0.9618E-03  0.1734E-02  0.2069E-02  0.1132E-02  0.7529E-03  0.5168E-03  0.3054E-03  0.1803E-03  0.1319E-03  0.1138E-03  0.1020E-03  0.9163E-04  0.8208E-04  0.7308E-04  0.6455E-04  0.5676E-04  0.4969E-04  0.4305E-04  0.3705E-04  0.3196E-04  0.2774E-04  0.2436E-04  0.2171E-04  0.1958E-04  0.1770E-04  0.1594E-04  0.1430E-04  0.1285E-04  0.1150E-04  0.1031E-04  0.9206E-05  0.8218E-05  0.7291E-05  0.6432E-05  0.5667E-05  0.4980E-05  0.4365E-05  0.3820E-05  0.3334E-05  0.2910E-05  0.2534E-05  0.2170E-05  0.1889E-05
  0.1527E-04  0.1991E-04  0.2545E-04  0.3259E-04  0.4184E-04  0.5361E-04  0.6856E-04  0.8665E-04  0.1075E-03  0.1307E-03  0.1552E-03  0.1808E-03  0.2058E-03  0.2291E-03  0.2501E-03  0.2683E-03  0.2830E-03  0.2945E-03  0.3039E-03  0.3124E-03  0.3185E-03  0.3141E-03  0.3034E-03  0.3054E-03  0.3573E-03  0.4228E-03  0.3797E-03  0.2895E-03  0.2432E-03  0.2350E-03  0.2501E-03  0.2904E-03  0.3523E-03  0.4377E-03  0.5361E-03  0.7896E-03  0.1048E-02  0.1281E-02  0.2088E-02  0.1726E-02  0.7948E-03  0.4199E-03  0.2608E-03  0.1759E-03  0.1363E-03  0.1175E-03  0.1041E-03  0.9343E-04  0.8359E-04  0.7447E-04  0.6598E-04  0.5820E-04  0.5110E-04  0.4445E-04  0.3854E-04  0.3335E-04  0.2893E-04  0.2531E-04  0.2248E-04  0.2020E-04  0.1823E-04  0.1643E-04  0.1476E-04  0.1321E-04  0.1183E-04  0.1057E-04  0.9445E-05  0.8404E-05  0.7476E-05  0.6566E-05  0.5783E-05  0.5081E-05  0.4423E-05  0.3880E-05  0.3387E-05  0.2941E-05  0.2557E-05  0.2213E-05  0.1897E-05
  0.1466E-04  0.1909E-04  0.2438E-04  0.3088E-04  0.3945E-04  0.4986E-04  0.6284E-04  0.7835E-04  0.9620E-04  0.1160E-03  0.1369E-03  0.1585E-03  0.1798E-03  0.1993E-03  0.2170E-03  0.2320E-03  0.2439E-03  0.2520E-03  0.2570E-03  0.2594E-03  0.2588E-03  0.2544E-03  0.2424E-03  0.2312E-03  0.2270E-03  0.2258E-03  0.2141E-03  0.2155E-03  0.2346E-03  0.2710E-03  0.3271E-03  0.3959E-03  0.4718E-03  0.5418E-03  0.6100E-03  0.7672E-03  0.1030E-02  0.1221E-02  0.1669E-02  0.1813E-02  0.1076E-02  0.4577E-03  0.2487E-03  0.1776E-03  0.1426E-03  0.1221E-03  0.1079E-03  0.9640E-04  0.8587E-04  0.7644E-04  0.6792E-04  0.6000E-04  0.5264E-04  0.4607E-04  0.4004E-04  0.3467E-04  0.3010E-04  0.2633E-04  0.2325E-04  0.2081E-04  0.1876E-04  0.1690E-04  0.1518E-04  0.1361E-04  0.1217E-04  0.1085E-04  0.9673E-05  0.8602E-05  0.7618E-05  0.6723E-05  0.5891E-05  0.5164E-05  0.4507E-05  0.3923E-05  0.3443E-05  0.2985E-05  0.2582E-05  0.2227E-05  0.1901E-05
  0.1386E-04  0.1801E-04  0.2299E-04  0.2902E-04  0.3650E-04  0.4576E-04  0.5704E-04  0.7025E-04  0.8539E-04  0.1018E-03  0.1191E-03  0.1370E-03  0.1546E-03  0.1713E-03  0.1858E-03  0.1978E-03  0.2066E-03  0.2121E-03  0.2144E-03  0.2139E-03  0.2112E-03  0.2056E-03  0.1988E-03  0.1926E-03  0.1939E-03  0.2033E-03  0.2242E-03  0.2588E-03  0.3101E-03  0.3740E-03  0.4420E-03  0.5043E-03  0.5535E-03  0.5947E-03  0.6517E-03  0.7848E-03  0.1033E-02  0.1290E-02  0.1483E-02  0.1468E-02  0.1093E-02  0.5405E-03  0.2611E-03  0.1806E-03  0.1485E-03  0.1276E-03  0.1121E-03  0.9958E-04  0.8862E-04  0.7882E-04  0.6984E-04  0.6176E-04  0.5441E-04  0.4763E-04  0.4148E-04  0.3601E-04  0.3127E-04  0.2730E-04  0.2405E-04  0.2148E-04  0.1929E-04  0.1736E-04  0.1558E-04  0.1397E-04  0.1249E-04  0.1115E-04  0.9925E-05  0.8815E-05  0.7796E-05  0.6843E-05  0.6031E-05  0.5236E-05  0.4592E-05  0.3994E-05  0.3466E-05  0.3014E-05  0.2595E-05  0.2250E-05  0.1922E-05
  0.1291E-04  0.1679E-04  0.2129E-04  0.2667E-04  0.3332E-04  0.4155E-04  0.5129E-04  0.6228E-04  0.7472E-04  0.8838E-04  0.1028E-03  0.1176E-03  0.1323E-03  0.1462E-03  0.1580E-03  0.1679E-03  0.1755E-03  0.1803E-03  0.1828E-03  0.1835E-03  0.1836E-03  0.1829E-03  0.1866E-03  0.1944E-03  0.2132E-03  0.2438E-03  0.2885E-03  0.3460E-03  0.4098E-03  0.4715E-03  0.5212E-03  0.5550E-03  0.5808E-03  0.6213E-03  0.7065E-03  0.8747E-03  0.1120E-02  0.1331E-02  0.1374E-02  0.1208E-02  0.8839E-03  0.4925E-03  0.2580E-03  0.1827E-03  0.1527E-03  0.1320E-03  0.1159E-03  0.1030E-03  0.9145E-04  0.8127E-04  0.7197E-04  0.6361E-04  0.5607E-04  0.4916E-04  0.4294E-04  0.3729E-04  0.3237E-04  0.2821E-04  0.2483E-04  0.2209E-04  0.1983E-04  0.1784E-04  0.1601E-04  0.1431E-04  0.1280E-04  0.1139E-04  0.1015E-04  0.9001E-05  0.7977E-05  0.6989E-05  0.6114E-05  0.5330E-05  0.4643E-05  0.4058E-05  0.3509E-05  0.3042E-05  0.2622E-05  0.2226E-05  0.1900E-05
  0.1179E-04  0.1529E-04  0.1945E-04  0.2436E-04  0.3005E-04  0.3707E-04  0.4540E-04  0.5487E-04  0.6514E-04  0.7630E-04  0.8829E-04  0.1006E-03  0.1129E-03  0.1249E-03  0.1353E-03  0.1447E-03  0.1521E-03  0.1591E-03  0.1651E-03  0.1709E-03  0.1778E-03  0.1884E-03  0.2032E-03  0.2273E-03  0.2611E-03  0.3090E-03  0.3647E-03  0.4228E-03  0.4757E-03  0.5145E-03  0.5392E-03  0.5576E-03  0.5874E-03  0.6567E-03  0.7909E-03  0.9950E-03  0.1208E-02  0.1317E-02  0.1239E-02  0.9884E-03  0.6616E-03  0.3821E-03  0.2341E-03  0.1812E-03  0.1558E-03  0.1358E-03  0.1193E-03  0.1059E-03  0.9389E-04  0.8353E-04  0.7404E-04  0.6553E-04  0.5770E-04  0.5064E-04  0.4423E-04  0.3850E-04  0.3346E-04  0.2920E-04  0.2562E-04  0.2271E-04  0.2031E-04  0.1825E-04  0.1638E-04  0.1466E-04  0.1310E-04  0.1166E-04  0.1036E-04  0.9198E-05  0.8121E-05  0.7093E-05  0.6231E-05  0.5398E-05  0.4731E-05  0.4081E-05  0.3552E-05  0.3061E-05  0.2634E-05  0.2254E-05  0.1908E-05
  0.1075E-04  0.1375E-04  0.1748E-04  0.2198E-04  0.2692E-04  0.3285E-04  0.3990E-04  0.4777E-04  0.5638E-04  0.6551E-04  0.7575E-04  0.8623E-04  0.9716E-04  0.1075E-03  0.1182E-03  0.1278E-03  0.1385E-03  0.1488E-03  0.1600E-03  0.1739E-03  0.1897E-03  0.2103E-03  0.2365E-03  0.2699E-03  0.3133E-03  0.3624E-03  0.4104E-03  0.4522E-03  0.4840E-03  0.5048E-03  0.5204E-03  0.5463E-03  0.6033E-03  0.7151E-03  0.8888E-03  0.1090E-02  0.1233E-02  0.1231E-02  0.1062E-02  0.7785E-03  0.4956E-03  0.3059E-03  0.2160E-03  0.1799E-03  0.1572E-03  0.1381E-03  0.1222E-03  0.1086E-03  0.9643E-04  0.8563E-04  0.7588E-04  0.6719E-04  0.5925E-04  0.5203E-04  0.4552E-04  0.3963E-04  0.3447E-04  0.3004E-04  0.2634E-04  0.2332E-04  0.2081E-04  0.1867E-04  0.1672E-04  0.1494E-04  0.1333E-04  0.1188E-04  0.1056E-04  0.9381E-05  0.8249E-05  0.7238E-05  0.6299E-05  0.5477E-05  0.4774E-05  0.4144E-05  0.3584E-05  0.3090E-05  0.2625E-05  0.2239E-05  0.1912E-05
  0.9577E-05  0.1253E-04  0.1572E-04  0.1956E-04  0.2396E-04  0.2878E-04  0.3457E-04  0.4108E-04  0.4821E-04  0.5610E-04  0.6505E-04  0.7438E-04  0.8411E-04  0.9506E-04  0.1062E-03  0.1191E-03  0.1330E-03  0.1487E-03  0.1665E-03  0.1873E-03  0.2109E-03  0.2376E-03  0.2693E-03  0.3056E-03  0.3443E-03  0.3818E-03  0.4147E-03  0.4397E-03  0.4578E-03  0.4749E-03  0.5000E-03  0.5488E-03  0.6402E-03  0.7850E-03  0.9669E-03  0.1125E-02  0.1185E-02  0.1095E-02  0.8734E-03  0.6036E-03  0.3890E-03  0.2632E-03  0.2070E-03  0.1788E-03  0.1579E-03  0.1397E-03  0.1241E-03  0.1105E-03  0.9841E-04  0.8752E-04  0.7775E-04  0.6881E-04  0.6067E-04  0.5331E-04  0.4662E-04  0.4069E-04  0.3542E-04  0.3087E-04  0.2702E-04  0.2384E-04  0.2122E-04  0.1900E-04  0.1703E-04  0.1522E-04  0.1359E-04  0.1208E-04  0.1071E-04  0.9486E-05  0.8360E-05  0.7328E-05  0.6410E-05  0.5547E-05  0.4847E-05  0.4160E-05  0.3615E-05  0.3086E-05  0.2660E-05  0.2258E-05  0.1897E-05
  0.8678E-05  0.1109E-04  0.1396E-04  0.1720E-04  0.2105E-04  0.2506E-04  0.2984E-04  0.3495E-04  0.4082E-04  0.4789E-04  0.5568E-04  0.6445E-04  0.7450E-04  0.8580E-04  0.9957E-04  0.1156E-03  0.1343E-03  0.1555E-03  0.1792E-03  0.2049E-03  0.2322E-03  0.2610E-03  0.2907E-03  0.3210E-03  0.3492E-03  0.3738E-03  0.3942E-03  0.4117E-03  0.4300E-03  0.4556E-03  0.4998E-03  0.5760E-03  0.6937E-03  0.8466E-03  0.1001E-02  0.1094E-02  0.1074E-02  0.9277E-03  0.7028E-03  0.4809E-03  0.3239E-03  0.2410E-03  0.2013E-03  0.1778E-03  0.1580E-03  0.1405E-03  0.1255E-03  0.1122E-03  0.1002E-03  0.8915E-04  0.7916E-04  0.7004E-04  0.6190E-04  0.5440E-04  0.4765E-04  0.4163E-04  0.3622E-04  0.3154E-04  0.2760E-04  0.2433E-04  0.2162E-04  0.1934E-04  0.1728E-04  0.1544E-04  0.1375E-04  0.1223E-04  0.1086E-04  0.9618E-05  0.8488E-05  0.7435E-05  0.6464E-05  0.5607E-05  0.4873E-05  0.4208E-05  0.3634E-05  0.3105E-05  0.2640E-05  0.2223E-05  0.1901E-05
  0.7624E-05  0.9758E-05  0.1216E-04  0.1509E-04  0.1827E-04  0.2178E-04  0.2570E-04  0.3004E-04  0.3512E-04  0.4146E-04  0.4855E-04  0.5735E-04  0.6778E-04  0.8064E-04  0.9732E-04  0.1171E-03  0.1404E-03  0.1658E-03  0.1924E-03  0.2200E-03  0.2471E-03  0.2724E-03  0.2967E-03  0.3190E-03  0.3378E-03  0.3542E-03  0.3700E-03  0.3890E-03  0.4150E-03  0.4545E-03  0.5183E-03  0.6136E-03  0.7385E-03  0.8744E-03  0.9804E-03  0.1008E-02  0.9310E-03  0.7650E-03  0.5676E-03  0.3980E-03  0.2886E-03  0.2283E-03  0.1971E-03  0.1760E-03  0.1572E-03  0.1411E-03  0.1263E-03  0.1132E-03  0.1012E-03  0.9026E-04  0.8030E-04  0.7114E-04  0.6291E-04  0.5534E-04  0.4854E-04  0.4237E-04  0.3691E-04  0.3216E-04  0.2813E-04  0.2476E-04  0.2194E-04  0.1955E-04  0.1748E-04  0.1562E-04  0.1393E-04  0.1239E-04  0.1099E-04  0.9715E-05  0.8545E-05  0.7476E-05  0.6503E-05  0.5658E-05  0.4901E-05  0.4219E-05  0.3616E-05  0.3101E-05  0.2651E-05  0.2247E-05  0.1896E-05
  0.6863E-05  0.8474E-05  0.1069E-04  0.1318E-04  0.1591E-04  0.1876E-04  0.2226E-04  0.2586E-04  0.3105E-04  0.3663E-04  0.4392E-04  0.5271E-04  0.6402E-04  0.7926E-04  0.9820E-04  0.1213E-03  0.1476E-03  0.1753E-03  0.2032E-03  0.2293E-03  0.2527E-03  0.2735E-03  0.2913E-03  0.3064E-03  0.3194E-03  0.3332E-03  0.3504E-03  0.3753E-03  0.4113E-03  0.4646E-03  0.5408E-03  0.6389E-03  0.7507E-03  0.8514E-03  0.9062E-03  0.8821E-03  0.7808E-03  0.6266E-03  0.4687E-03  0.3455E-03  0.2660E-03  0.2205E-03  0.1935E-03  0.1737E-03  0.1564E-03  0.1405E-03  0.1264E-03  0.1136E-03  0.1019E-03  0.9105E-04  0.8111E-04  0.7197E-04  0.6359E-04  0.5599E-04  0.4920E-04  0.4301E-04  0.3750E-04  0.3267E-04  0.2855E-04  0.2507E-04  0.2219E-04  0.1976E-04  0.1766E-04  0.1578E-04  0.1404E-04  0.1246E-04  0.1104E-04  0.9780E-05  0.8601E-05  0.7527E-05  0.6547E-05  0.5693E-05  0.4903E-05  0.4198E-05  0.3664E-05  0.3098E-05  0.2654E-05  0.2222E-05  0.1914E-05
  0.6337E-05  0.7637E-05  0.9375E-05  0.1145E-04  0.1381E-04  0.1638E-04  0.1906E-04  0.2284E-04  0.2749E-04  0.3318E-04  0.4042E-04  0.4970E-04  0.6215E-04  0.7906E-04  0.1002E-03  0.1254E-03  0.1531E-03  0.1810E-03  0.2073E-03  0.2303E-03  0.2499E-03  0.2660E-03  0.2788E-03  0.2893E-03  0.3002E-03  0.3147E-03  0.3359E-03  0.3675E-03  0.4126E-03  0.4732E-03  0.5494E-03  0.6369E-03  0.7222E-03  0.7834E-03  0.7941E-03  0.7445E-03  0.6432E-03  0.5176E-03  0.3996E-03  0.3102E-03  0.2516E-03  0.2145E-03  0.1901E-03  0.1711E-03  0.1544E-03  0.1394E-03  0.1258E-03  0.1134E-03  0.1020E-03  0.9150E-04  0.8156E-04  0.7238E-04  0.6406E-04  0.5647E-04  0.4968E-04  0.4348E-04  0.3794E-04  0.3303E-04  0.2884E-04  0.2532E-04  0.2238E-04  0.1989E-04  0.1777E-04  0.1584E-04  0.1408E-04  0.1252E-04  0.1111E-04  0.9825E-05  0.8642E-05  0.7534E-05  0.6569E-05  0.5668E-05  0.4878E-05  0.4221E-05  0.3630E-05  0.3083E-05  0.2654E-05  0.2246E-05  0.1887E-05
  0.5887E-05  0.7026E-05  0.8335E-05  0.1001E-04  0.1197E-04  0.1417E-04  0.1667E-04  0.2015E-04  0.2461E-04  0.3036E-04  0.3758E-04  0.4735E-04  0.6070E-04  0.7866E-04  0.1011E-03  0.1272E-03  0.1549E-03  0.1816E-03  0.2058E-03  0.2257E-03  0.2414E-03  0.2533E-03  0.2628E-03  0.2712E-03  0.2820E-03  0.2990E-03  0.3251E-03  0.3626E-03  0.4121E-03  0.4725E-03  0.5416E-03  0.6090E-03  0.6638E-03  0.6909E-03  0.6763E-03  0.6201E-03  0.5336E-03  0.4374E-03  0.3506E-03  0.2849E-03  0.2390E-03  0.2077E-03  0.1857E-03  0.1679E-03  0.1519E-03  0.1379E-03  0.1247E-03  0.1127E-03  0.1018E-03  0.9139E-04  0.8162E-04  0.7257E-04  0.6427E-04  0.5677E-04  0.4997E-04  0.4380E-04  0.3822E-04  0.3327E-04  0.2909E-04  0.2553E-04  0.2252E-04  0.1997E-04  0.1780E-04  0.1587E-04  0.1414E-04  0.1257E-04  0.1115E-04  0.9828E-05  0.8622E-05  0.7548E-05  0.6564E-05  0.5695E-05  0.4902E-05  0.4213E-05  0.3628E-05  0.3095E-05  0.2625E-05  0.2213E-05  0.1873E-05
  0.5533E-05  0.6438E-05  0.7568E-05  0.9093E-05  0.1053E-04  0.1253E-04  0.1464E-04  0.1797E-04  0.2266E-04  0.2800E-04  0.3522E-04  0.4520E-04  0.5914E-04  0.7750E-04  0.1005E-03  0.1265E-03  0.1531E-03  0.1781E-03  0.1993E-03  0.2164E-03  0.2296E-03  0.2391E-03  0.2463E-03  0.2540E-03  0.2665E-03  0.2862E-03  0.3154E-03  0.3553E-03  0.4041E-03  0.4598E-03  0.5161E-03  0.5642E-03  0.5958E-03  0.6005E-03  0.5743E-03  0.5216E-03  0.4523E-03  0.3796E-03  0.3145E-03  0.2649E-03  0.2283E-03  0.2016E-03  0.1808E-03  0.1638E-03  0.1494E-03  0.1358E-03  0.1235E-03  0.1118E-03  0.1010E-03  0.9093E-04  0.8138E-04  0.7248E-04  0.6428E-04  0.5683E-04  0.5002E-04  0.4389E-04  0.3834E-04  0.3345E-04  0.2922E-04  0.2562E-04  0.2255E-04  0.1997E-04  0.1779E-04  0.1587E-04  0.1413E-04  0.1256E-04  0.1111E-04  0.9787E-05  0.8604E-05  0.7493E-05  0.6529E-05  0.5643E-05  0.4856E-05  0.4205E-05  0.3579E-05  0.3061E-05  0.2633E-05  0.2210E-05  0.1872E-05
  0.5347E-05  0.6145E-05  0.7129E-05  0.8230E-05  0.9639E-05  0.1120E-04  0.1300E-04  0.1643E-04  0.2067E-04  0.2591E-04  0.3318E-04  0.4324E-04  0.5698E-04  0.7526E-04  0.9764E-04  0.1230E-03  0.1483E-03  0.1713E-03  0.1906E-03  0.2059E-03  0.2170E-03  0.2246E-03  0.2309E-03  0.2394E-03  0.2528E-03  0.2744E-03  0.3046E-03  0.3435E-03  0.3888E-03  0.4356E-03  0.4786E-03  0.5109E-03  0.5268E-03  0.5206E-03  0.4918E-03  0.4465E-03  0.3915E-03  0.3363E-03  0.2873E-03  0.2478E-03  0.2175E-03  0.1941E-03  0.1755E-03  0.1599E-03  0.1459E-03  0.1334E-03  0.1214E-03  0.1102E-03  0.9989E-04  0.9005E-04  0.8073E-04  0.7199E-04  0.6396E-04  0.5665E-04  0.4990E-04  0.4384E-04  0.3835E-04  0.3345E-04  0.2923E-04  0.2559E-04  0.2251E-04  0.1993E-04  0.1773E-04  0.1582E-04  0.1408E-04  0.1248E-04  0.1102E-04  0.9723E-05  0.8532E-05  0.7453E-05  0.6483E-05  0.5584E-05  0.4834E-05  0.4146E-05  0.3537E-05  0.3052E-05  0.2603E-05  0.2158E-05  0.1845E-05
  0.5152E-05  0.5932E-05  0.6800E-05  0.7783E-05  0.8974E-05  0.1019E-04  0.1219E-04  0.1555E-04  0.1936E-04  0.2428E-04  0.3138E-04  0.4120E-04  0.5461E-04  0.7237E-04  0.9420E-04  0.1180E-03  0.1420E-03  0.1634E-03  0.1810E-03  0.1946E-03  0.2043E-03  0.2114E-03  0.2178E-03  0.2265E-03  0.2406E-03  0.2618E-03  0.2907E-03  0.3262E-03  0.3646E-03  0.4021E-03  0.4344E-03  0.4555E-03  0.4621E-03  0.4519E-03  0.4249E-03  0.3875E-03  0.3449E-03  0.3018E-03  0.2640E-03  0.2321E-03  0.2067E-03  0.1863E-03  0.1698E-03  0.1552E-03  0.1422E-03  0.1305E-03  0.1192E-03  0.1085E-03  0.9836E-04  0.8883E-04  0.7984E-04  0.7132E-04  0.6344E-04  0.5624E-04  0.4960E-04  0.4358E-04  0.3822E-04  0.3336E-04  0.2912E-04  0.2548E-04  0.2239E-04  0.1984E-04  0.1763E-04  0.1572E-04  0.1396E-04  0.1236E-04  0.1091E-04  0.9636E-05  0.8458E-05  0.7390E-05  0.6403E-05  0.5547E-05  0.4764E-05  0.4090E-05  0.3529E-05  0.3001E-05  0.2545E-05  0.2159E-05  0.1825E-05
  0.4959E-05  0.5720E-05  0.6586E-05  0.7515E-05  0.8505E-05  0.9692E-05  0.1173E-04  0.1469E-04  0.1830E-04  0.2320E-04  0.2994E-04  0.3947E-04  0.5229E-04  0.6926E-04  0.8981E-04  0.1126E-03  0.1348E-03  0.1548E-03  0.1712E-03  0.1837E-03  0.1926E-03  0.1990E-03  0.2053E-03  0.2141E-03  0.2278E-03  0.2474E-03  0.2735E-03  0.3037E-03  0.3352E-03  0.3646E-03  0.3885E-03  0.4022E-03  0.4039E-03  0.3930E-03  0.3702E-03  0.3403E-03  0.3067E-03  0.2727E-03  0.2433E-03  0.2174E-03  0.1960E-03  0.1784E-03  0.1633E-03  0.1502E-03  0.1382E-03  0.1271E-03  0.1166E-03  0.1063E-03  0.9650E-04  0.8738E-04  0.7864E-04  0.7035E-04  0.6265E-04  0.5558E-04  0.4910E-04  0.4322E-04  0.3788E-04  0.3311E-04  0.2891E-04  0.2527E-04  0.2223E-04  0.1965E-04  0.1746E-04  0.1555E-04  0.1380E-04  0.1222E-04  0.1081E-04  0.9506E-05  0.8359E-05  0.7269E-05  0.6321E-05  0.5469E-05  0.4712E-05  0.4062E-05  0.3465E-05  0.2964E-05  0.2514E-05  0.2126E-05  0.1774E-05
  0.4778E-05  0.5519E-05  0.6337E-05  0.7205E-05  0.8233E-05  0.9466E-05  0.1152E-04  0.1416E-04  0.1768E-04  0.2239E-04  0.2893E-04  0.3775E-04  0.4987E-04  0.6599E-04  0.8554E-04  0.1065E-03  0.1272E-03  0.1457E-03  0.1610E-03  0.1724E-03  0.1808E-03  0.1871E-03  0.1932E-03  0.2015E-03  0.2139E-03  0.2314E-03  0.2535E-03  0.2783E-03  0.3035E-03  0.3266E-03  0.3434E-03  0.3533E-03  0.3526E-03  0.3423E-03  0.3245E-03  0.3009E-03  0.2749E-03  0.2485E-03  0.2248E-03  0.2035E-03  0.1859E-03  0.1705E-03  0.1571E-03  0.1448E-03  0.1339E-03  0.1234E-03  0.1135E-03  0.1036E-03  0.9443E-04  0.8554E-04  0.7709E-04  0.6912E-04  0.6166E-04  0.5474E-04  0.4841E-04  0.4263E-04  0.3741E-04  0.3273E-04  0.2859E-04  0.2499E-04  0.2197E-04  0.1940E-04  0.1725E-04  0.1529E-04  0.1357E-04  0.1200E-04  0.1062E-04  0.9358E-05  0.8173E-05  0.7144E-05  0.6205E-05  0.5357E-05  0.4645E-05  0.3982E-05  0.3413E-05  0.2904E-05  0.2453E-05  0.2106E-05  0.1757E-05
  0.4598E-05  0.5301E-05  0.6062E-05  0.6942E-05  0.7950E-05  0.9169E-05  0.1123E-04  0.1377E-04  0.1718E-04  0.2171E-04  0.2770E-04  0.3612E-04  0.4751E-04  0.6239E-04  0.8043E-04  0.9992E-04  0.1191E-03  0.1362E-03  0.1503E-03  0.1614E-03  0.1692E-03  0.1754E-03  0.1812E-03  0.1887E-03  0.1996E-03  0.2143E-03  0.2323E-03  0.2520E-03  0.2724E-03  0.2896E-03  0.3026E-03  0.3088E-03  0.3083E-03  0.2999E-03  0.2859E-03  0.2675E-03  0.2473E-03  0.2272E-03  0.2078E-03  0.1908E-03  0.1757E-03  0.1624E-03  0.1504E-03  0.1395E-03  0.1292E-03  0.1196E-03  0.1101E-03  0.1010E-03  0.9205E-04  0.8348E-04  0.7535E-04  0.6761E-04  0.6041E-04  0.5370E-04  0.4752E-04  0.4187E-04  0.3679E-04  0.3220E-04  0.2816E-04  0.2462E-04  0.2162E-04  0.1911E-04  0.1695E-04  0.1502E-04  0.1331E-04  0.1182E-04  0.1042E-04  0.9186E-05  0.8033E-05  0.7023E-05  0.6089E-05  0.5293E-05  0.4535E-05  0.3901E-05  0.3332E-05  0.2814E-05  0.2422E-05  0.2050E-05  0.1707E-05
  0.4408E-05  0.5054E-05  0.5834E-05  0.6690E-05  0.7633E-05  0.8950E-05  0.1094E-04  0.1334E-04  0.1653E-04  0.2081E-04  0.2660E-04  0.3424E-04  0.4473E-04  0.5856E-04  0.7506E-04  0.9289E-04  0.1105E-03  0.1264E-03  0.1398E-03  0.1500E-03  0.1578E-03  0.1637E-03  0.1692E-03  0.1759E-03  0.1849E-03  0.1968E-03  0.2109E-03  0.2271E-03  0.2425E-03  0.2558E-03  0.2657E-03  0.2706E-03  0.2696E-03  0.2634E-03  0.2528E-03  0.2391E-03  0.2233E-03  0.2082E-03  0.1924E-03  0.1786E-03  0.1659E-03  0.1544E-03  0.1437E-03  0.1338E-03  0.1243E-03  0.1153E-03  0.1065E-03  0.9780E-04  0.8938E-04  0.8109E-04  0.7327E-04  0.6592E-04  0.5895E-04  0.5247E-04  0.4648E-04  0.4094E-04  0.3598E-04  0.3158E-04  0.2762E-04  0.2415E-04  0.2121E-04  0.1871E-04  0.1658E-04  0.1470E-04  0.1304E-04  0.1153E-04  0.1019E-04  0.8945E-05  0.7850E-05  0.6828E-05  0.5957E-05  0.5148E-05  0.4435E-05  0.3787E-05  0.3215E-05  0.2773E-05  0.2358E-05  0.1972E-05  0.1673E-05
  0.4184E-05  0.4850E-05  0.5607E-05  0.6427E-05  0.7295E-05  0.8686E-05  0.1057E-04  0.1288E-04  0.1586E-04  0.1986E-04  0.2520E-04  0.3232E-04  0.4199E-04  0.5447E-04  0.6939E-04  0.8574E-04  0.1019E-03  0.1165E-03  0.1290E-03  0.1388E-03  0.1463E-03  0.1520E-03  0.1570E-03  0.1628E-03  0.1701E-03  0.1794E-03  0.1909E-03  0.2031E-03  0.2151E-03  0.2254E-03  0.2330E-03  0.2369E-03  0.2368E-03  0.2324E-03  0.2245E-03  0.2145E-03  0.2026E-03  0.1905E-03  0.1781E-03  0.1669E-03  0.1561E-03  0.1462E-03  0.1368E-03  0.1278E-03  0.1191E-03  0.1106E-03  0.1024E-03  0.9419E-04  0.8626E-04  0.7842E-04  0.7104E-04  0.6396E-04  0.5727E-04  0.5101E-04  0.4520E-04  0.3988E-04  0.3509E-04  0.3080E-04  0.2700E-04  0.2362E-04  0.2073E-04  0.1827E-04  0.1618E-04  0.1432E-04  0.1269E-04  0.1123E-04  0.9923E-05  0.8733E-05  0.7628E-05  0.6666E-05  0.5785E-05  0.5030E-05  0.4297E-05  0.3682E-05  0.3157E-05  0.2684E-05  0.2292E-05  0.1926E-05  0.1607E-05
  0.4010E-05  0.4661E-05  0.5370E-05  0.6126E-05  0.7057E-05  0.8392E-05  0.1012E-04  0.1234E-04  0.1518E-04  0.1887E-04  0.2374E-04  0.3033E-04  0.3900E-04  0.5031E-04  0.6389E-04  0.7857E-04  0.9326E-04  0.1068E-03  0.1185E-03  0.1277E-03  0.1349E-03  0.1403E-03  0.1450E-03  0.1499E-03  0.1556E-03  0.1632E-03  0.1720E-03  0.1814E-03  0.1908E-03  0.1986E-03  0.2048E-03  0.2083E-03  0.2087E-03  0.2058E-03  0.2005E-03  0.1929E-03  0.1842E-03  0.1746E-03  0.1651E-03  0.1557E-03  0.1466E-03  0.1380E-03  0.1296E-03  0.1215E-03  0.1136E-03  0.1059E-03  0.9806E-04  0.9051E-04  0.8291E-04  0.7559E-04  0.6851E-04  0.6178E-04  0.5537E-04  0.4939E-04  0.4380E-04  0.3871E-04  0.3405E-04  0.2994E-04  0.2625E-04  0.2301E-04  0.2018E-04  0.1777E-04  0.1572E-04  0.1393E-04  0.1231E-04  0.1090E-04  0.9622E-05  0.8484E-05  0.7428E-05  0.6460E-05  0.5605E-05  0.4878E-05  0.4162E-05  0.3571E-05  0.3047E-05  0.2603E-05  0.2197E-05  0.1850E-05  0.1578E-05
  0.3848E-05  0.4449E-05  0.5116E-05  0.5897E-05  0.6813E-05  0.8090E-05  0.9747E-05  0.1182E-04  0.1444E-04  0.1789E-04  0.2236E-04  0.2819E-04  0.3612E-04  0.4629E-04  0.5823E-04  0.7158E-04  0.8489E-04  0.9728E-04  0.1081E-03  0.1168E-03  0.1235E-03  0.1288E-03  0.1331E-03  0.1371E-03  0.1420E-03  0.1479E-03  0.1545E-03  0.1618E-03  0.1689E-03  0.1751E-03  0.1803E-03  0.1835E-03  0.1845E-03  0.1829E-03  0.1793E-03  0.1738E-03  0.1676E-03  0.1601E-03  0.1527E-03  0.1448E-03  0.1372E-03  0.1297E-03  0.1225E-03  0.1152E-03  0.1079E-03  0.1008E-03  0.9359E-04  0.8642E-04  0.7937E-04  0.7251E-04  0.6577E-04  0.5941E-04  0.5335E-04  0.4757E-04  0.4226E-04  0.3736E-04  0.3294E-04  0.2896E-04  0.2543E-04  0.2232E-04  0.1956E-04  0.1722E-04  0.1521E-04  0.1349E-04  0.1192E-04  0.1053E-04  0.9335E-05  0.8187E-05  0.7163E-05  0.6234E-05  0.5421E-05  0.4692E-05  0.4026E-05  0.3431E-05  0.2932E-05  0.2483E-05  0.2107E-05  0.1800E-05  0.1505E-05
  0.3671E-05  0.4222E-05  0.4908E-05  0.5649E-05  0.6530E-05  0.7731E-05  0.9340E-05  0.1123E-04  0.1369E-04  0.1680E-04  0.2080E-04  0.2608E-04  0.3320E-04  0.4215E-04  0.5300E-04  0.6472E-04  0.7686E-04  0.8811E-04  0.9798E-04  0.1060E-03  0.1126E-03  0.1176E-03  0.1214E-03  0.1251E-03  0.1290E-03  0.1335E-03  0.1389E-03  0.1443E-03  0.1495E-03  0.1549E-03  0.1593E-03  0.1624E-03  0.1636E-03  0.1631E-03  0.1609E-03  0.1571E-03  0.1524E-03  0.1466E-03  0.1411E-03  0.1345E-03  0.1284E-03  0.1218E-03  0.1153E-03  0.1087E-03  0.1022E-03  0.9555E-04  0.8891E-04  0.8220E-04  0.7568E-04  0.6920E-04  0.6295E-04  0.5687E-04  0.5109E-04  0.4571E-04  0.4059E-04  0.3594E-04  0.3174E-04  0.2793E-04  0.2453E-04  0.2155E-04  0.1890E-04  0.1662E-04  0.1468E-04  0.1298E-04  0.1150E-04  0.1017E-04  0.8976E-05  0.7928E-05  0.6909E-05  0.6030E-05  0.5214E-05  0.4519E-05  0.3875E-05  0.3327E-05  0.2812E-05  0.2386E-05  0.2051E-05  0.1716E-05  0.1420E-05
