DSAA
          79         109
    318.3670    342.0670
   7336.5760   7369.2760
  0.0000E+00  0.1303E-04
  0.0000E+00  0.0000E+00  0.0000E+00  0.0000E+00  0.0000E+00  0.0000E+00  0.0000E+00  0.0000E+00  0.0000E+00  0.0000E+00  0.0000E+00  0.0000E+00  0.0000E+00  0.0000E+00  0.0000E+00  0.0000E+00  0.0000E+00  0.0000E+00  0.0000E+00  0.0000E+00  0.0000E+00  0.0000E+00  0.0000E+00  0.0000E+00  0.0000E+00  0.0000E+00  0.0000E+00  0.0000E+00  0.0000E+00  0.0000E+00  0.0000E+00  0.0000E+00  0.0000E+00  0.0000E+00  0.0000E+00  0.0000E+00  0.0000E+00  0.0000E+00  0.0000E+00  0.0000E+00  0.0000E+00  0.0000E+00  0.0000E+00  0.0000E+00  0.0000E+00  0.0000E+00  0.0000E+00  0.0000E+00  0.0000E+00  0.0000E+00  0.0000E+00  0.0000E+00  0.0000E+00  0.0000E+00  0.0000E+00  0.0000E+00  0.0000E+00  0.0000E+00  0.0000E+00  0.0000E+00  0.0000E+00  0.0000E+00  0.0000E+00  0.0000E+00  0.0000E+00  0.0000E+00  0.0000E+00  0.0000E+00  0.0000E+00  0.0000E+00  0.0000E+00  0.0000E+00  0.0000E+00  0.0000E+00  0.0000E+00  0.0000E+00  0.0000E+00  0.0000E+00  0.0000E+00
  0.0000E+00  0.0000E+00  0.0000E+00  0.0000E+00  0.0000E+00  0.0000E+00  0.0000E+00  0.0000E+00  0.0000E+00  0.0000E+00  0.0000E+00  0.0000E+00  0.0000E+00  0.0000E+00  0.0000E+00  0.0000E+00  0.0000E+00  0.0000E+00  0.0000E+00  0.0000E+00  0.0000E+00  0.0000E+00  0.0000E+00  0.0000E+00  0.0000E+00  0.0000E+00  0.0000E+00  0.0000E+00  0.0000E+00  0.0000E+00  0.0000E+00  0.0000E+00  0.0000E+00  0.0000E+00  0.0000E+00  0.0000E+00  0.0000E+00  0.0000E+00  0.0000E+00  0.0000E+00  0.0000E+00  0.0000E+00  0.0000E+00  0.0000E+00  0.0000E+00  0.0000E+00  0.0000E+00  0.0000E+00  0.0000E+00  0.0000E+00  0.0000E+00  0.0000E+00  0.0000E+00  0.0000E+00  0.0000E+00  0.0000E+00  0.0000E+00  0.0000E+00  0.0000E+00  0.0000E+00  0.0000E+00  0.0000E+00  0.0000E+00  0.0000E+00  0.0000E+00  0.0000E+00  0.0000E+00  0.0000E+00  0.0000E+00  0.0000E+00  0.0000E+00  0.0000E+00  0.0000E+00  0.0000E+00  0.0000E+00  0.0000E+00  0.0000E+00  0.0000E+00  0.0000E+00
  0.0000E+00  0.0000E+00  0.0000E+00  0.0000E+00  0.0000E+00  0.0000E+00  0.0000E+00  0.0000E+00  0.0000E+00  0.0000E+00  0.0000E+00  0.0000E+00  0.0000E+00  0.0000E+00  0.0000E+00  0.0000E+00  0.0000E+00  0.0000E+00  0.0000E+00  0.0000E+00  0.0000E+00  0.0000E+00  0.0000E+00  0.0000E+00  0.0000E+00  0.0000E+00  0.0000E+00  0.0000E+00  0.0000E+00  0.0000E+00  0.0000E+00  0.0000E+00  0.0000E+00  0.0000E+00  0.0000E+00  0.0000E+00  0.0000E+00  0.0000E+00  0.0000E+00  0.0000E+00  0.0000E+00  0.0000E+00  0.0000E+00  0.0000E+00  0.0000E+00  0.0000E+00  0.0000E+00  0.0000E+00  0.0000E+00  0.0000E+00  0.0000E+00  0.0000E+00  0.0000E+00  0.0000E+00  0.0000E+00  0.0000E+00  0.0000E+00  0.0000E+00  0.0000E+00  0.0000E+00  0.0000E+00  0.0000E+00  0.0000E+00  0.0000E+00  0.0000E+00  0.0000E+00  0.0000E+00  0.0000E+00  0.0000E+00  0.0000E+00  0.0000E+00  0.0000E+00  0.0000E+00  0.0000E+00  0.0000E+00  0.0000E+00  0.0000E+00  0.0000E+00  0.0000E+00
  0.0000E+00  0.0000E+00  0.0000E+00  0.0000E+00  0.0000E+00  0.0000E+00  0.0000E+00  0.0000E+00  0.0000E+00  0.0000E+00  0.0000E+00  0.0000E+00  0.0000E+00  0.0000E+00  0.0000E+00  0.0000E+00  0.0000E+00  0.0000E+00  0.0000E+00  0.0000E+00  0.0000E+00  0.0000E+00  0.0000E+00  0.0000E+00  0.0000E+00  0.0000E+00  0.0000E+00  0.0000E+00  0.0000E+00  0.0000E+00  0.0000E+00  0.0000E+00  0.0000E+00  0.0000E+00  0.0000E+00  0.0000E+00  0.0000E+00  0.0000E+00  0.0000E+00  0.0000E+00  0.0000E+00  0.0000E+00  0.0000E+00  0.0000E+00  0.0000E+00  0.0000E+00  0.0000E+00  0.0000E+00  0.0000E+00  0.0000E+00  0.0000E+00  0.0000E+00  0.0000E+00  0.0000E+00  0.0000E+00  0.0000E+00  0.0000E+00  0.0000E+00  0.0000E+00  0.0000E+00  0.0000E+00  0.0000E+00  0.0000E+00  0.0000E+00  0.0000E+00  0.0000E+00  0.0000E+00  0.0000E+00  0.0000E+00  0.0000E+00  0.0000E+00  0.0000E+00  0.0000E+00  0.0000E+00  0.0000E+00  0.0000E+00  0.0000E+00  0.0000E+00  0.0000E+00
  0.0000E+00  0.0000E+00  0.0000E+00  0.0000E+00  0.0000E+00  0.0000E+00  0.0000E+00  0.0000E+00  0.0000E+00  0.0000E+00  0.0000E+00  0.0000E+00  0.0000E+00  0.0000E+00  0.0000E+00  0.0000E+00  0.0000E+00  0.0000E+00  0.0000E+00  0.0000E+00  0.0000E+00  0.0000E+00  0.0000E+00  0.0000E+00  0.0000E+00  0.0000E+00  0.0000E+00  0.0000E+00  0.0000E+00  0.0000E+00  0.0000E+00  0.0000E+00  0.0000E+00  0.0000E+00  0.0000E+00  0.0000E+00  0.0000E+00  0.0000E+00  0.0000E+00  0.0000E+00  0.0000E+00  0.0000E+00  0.0000E+00  0.0000E+00  0.0000E+00  0.0000E+00  0.0000E+00  0.0000E+00  0.0000E+00  0.0000E+00  0.0000E+00  0.0000E+00  0.0000E+00  0.0000E+00  0.0000E+00  0.0000E+00  0.0000E+00  0.0000E+00  0.0000E+00  0.0000E+00  0.0000E+00  0.0000E+00  0.0000E+00  0.0000E+00  0.0000E+00  0.0000E+00  0.0000E+00  0.0000E+00  0.0000E+00  0.0000E+00  0.0000E+00  0.0000E+00  0.0000E+00  0.0000E+00  0.0000E+00  0.0000E+00  0.0000E+00  0.0000E+00  0.0000E+00
  0.0000E+00  0.0000E+00  0.0000E+00  0.0000E+00  0.0000E+00  0.0000E+00  0.0000E+00  0.0000E+00  0.0000E+00  0.0000E+00  0.0000E+00  0.0000E+00  0.0000E+00  0.0000E+00  0.0000E+00  0.0000E+00  0.0000E+00  0.0000E+00  0.0000E+00  0.0000E+00  0.0000E+00  0.0000E+00  0.0000E+00  0.0000E+00  0.0000E+00  0.0000E+00  0.0000E+00  0.0000E+00  0.0000E+00  0.0000E+00  0.0000E+00  0.0000E+00  0.0000E+00  0.0000E+00  0.0000E+00  0.0000E+00  0.0000E+00  0.0000E+00  0.0000E+00  0.0000E+00  0.0000E+00  0.0000E+00  0.0000E+00  0.0000E+00  0.0000E+00  0.0000E+00  0.0000E+00  0.0000E+00  0.0000E+00  0.0000E+00  0.0000E+00  0.0000E+00  0.0000E+00  0.0000E+00  0.0000E+00  0.0000E+00  0.0000E+00  0.0000E+00  0.0000E+00  0.0000E+00  0.0000E+00  0.0000E+00  0.0000E+00  0.0000E+00  0.0000E+00  0.0000E+00  0.0000E+00  0.0000E+00  0.0000E+00  0.0000E+00  0.0000E+00  0.0000E+00  0.0000E+00  0.0000E+00  0.0000E+00  0.0000E+00  0.0000E+00  0.0000E+00  0.0000E+00
  0.0000E+00  0.0000E+00  0.0000E+00  0.0000E+00  0.0000E+00  0.0000E+00  0.0000E+00  0.0000E+00  0.0000E+00  0.0000E+00  0.0000E+00  0.0000E+00  0.0000E+00  0.0000E+00  0.0000E+00  0.0000E+00  0.0000E+00  0.0000E+00  0.0000E+00  0.0000E+00  0.0000E+00  0.0000E+00  0.0000E+00  0.0000E+00  0.0000E+00  0.0000E+00  0.0000E+00  0.0000E+00  0.0000E+00  0.0000E+00  0.0000E+00  0.0000E+00  0.0000E+00  0.0000E+00  0.0000E+00  0.0000E+00  0.0000E+00  0.0000E+00  0.0000E+00  0.0000E+00  0.0000E+00  0.0000E+00  0.0000E+00  0.0000E+00  0.0000E+00  0.0000E+00  0.0000E+00  0.0000E+00  0.0000E+00  0.0000E+00  0.0000E+00  0.0000E+00  0.0000E+00  0.0000E+00  0.0000E+00  0.0000E+00  0.0000E+00  0.0000E+00  0.0000E+00  0.0000E+00  0.0000E+00  0.0000E+00  0.0000E+00  0.0000E+00  0.0000E+00  0.0000E+00  0.0000E+00  0.0000E+00  0.0000E+00  0.0000E+00  0.0000E+00  0.0000E+00  0.0000E+00  0.0000E+00  0.0000E+00  0.0000E+00  0.0000E+00  0.0000E+00  0.0000E+00
  0.0000E+00  0.0000E+00  0.0000E+00  0.0000E+00  0.0000E+00  0.0000E+00  0.0000E+00  0.0000E+00  0.0000E+00  0.0000E+00  0.0000E+00  0.0000E+00  0.0000E+00  0.0000E+00  0.0000E+00  0.0000E+00  0.0000E+00  0.0000E+00  0.0000E+00  0.0000E+00  0.0000E+00  0.0000E+00  0.0000E+00  0.0000E+00  0.0000E+00  0.0000E+00  0.0000E+00  0.0000E+00  0.0000E+00  0.0000E+00  0.0000E+00  0.0000E+00  0.0000E+00  0.0000E+00  0.0000E+00  0.0000E+00  0.0000E+00  0.0000E+00  0.0000E+00  0.0000E+00  0.0000E+00  0.0000E+00  0.0000E+00  0.0000E+00  0.0000E+00  0.0000E+00  0.0000E+00  0.0000E+00  0.0000E+00  0.0000E+00  0.0000E+00  0.0000E+00  0.0000E+00  0.0000E+00  0.0000E+00  0.0000E+00  0.0000E+00  0.0000E+00  0.0000E+00  0.0000E+00  0.0000E+00  0.0000E+00  0.0000E+00  0.0000E+00  0.0000E+00  0.0000E+00  0.0000E+00  0.0000E+00  0.0000E+00  0.0000E+00  0.0000E+00  0.0000E+00  0.0000E+00  0.0000E+00  0.0000E+00  0.0000E+00  0.0000E+00  0.0000E+00  0.0000E+00
  0.0000E+00  0.0000E+00  0.0000E+00  0.0000E+00  0.0000E+00  0.0000E+00  0.0000E+00  0.0000E+00  0.0000E+00  0.0000E+00  0.0000E+00  0.0000E+00  0.0000E+00  0.0000E+00  0.0000E+00  0.0000E+00  0.0000E+00  0.0000E+00  0.0000E+00  0.0000E+00  0.0000E+00  0.0000E+00  0.0000E+00  0.0000E+00  0.0000E+00  0.0000E+00  0.0000E+00  0.0000E+00  0.0000E+00  0.0000E+00  0.0000E+00  0.0000E+00  0.0000E+00  0.0000E+00  0.0000E+00  0.0000E+00  0.0000E+00  0.0000E+00  0.0000E+00  0.0000E+00  0.0000E+00  0.0000E+00  0.0000E+00  0.0000E+00  0.0000E+00  0.0000E+00  0.0000E+00  0.0000E+00  0.0000E+00  0.0000E+00  0.0000E+00  0.0000E+00  0.0000E+00  0.0000E+00  0.0000E+00  0.0000E+00  0.0000E+00  0.0000E+00  0.0000E+00  0.0000E+00  0.0000E+00  0.0000E+00  0.0000E+00  0.0000E+00  0.0000E+00  0.0000E+00  0.0000E+00  0.0000E+00  0.0000E+00  0.0000E+00  0.0000E+00  0.0000E+00  0.0000E+00  0.0000E+00  0.0000E+00  0.0000E+00  0.0000E+00  0.0000E+00  0.0000E+00
  0.0000E+00  0.0000E+00  0.0000E+00  0.0000E+00  0.0000E+00  0.0000E+00  0.0000E+00  0.0000E+00  0.0000E+00  0.0000E+00  0.0000E+00  0.0000E+00  0.0000E+00  0.0000E+00  0.0000E+00  0.0000E+00  0.0000E+00  0.0000E+00  0.0000E+00  0.0000E+00  0.0000E+00  0.0000E+00  0.0000E+00  0.0000E+00  0.0000E+00  0.0000E+00  0.0000E+00  0.0000E+00  0.0000E+00  0.0000E+00  0.0000E+00  0.0000E+00  0.0000E+00  0.0000E+00  0.0000E+00  0.0000E+00  0.0000E+00  0.0000E+00  0.0000E+00  0.0000E+00  0.0000E+00  0.0000E+00  0.0000E+00  0.0000E+00  0.0000E+00  0.0000E+00  0.0000E+00  0.0000E+00  0.0000E+00  0.0000E+00  0.0000E+00  0.0000E+00  0.0000E+00  0.0000E+00  0.0000E+00  0.0000E+00  0.0000E+00  0.0000E+00  0.0000E+00  0.0000E+00  0.0000E+00  0.0000E+00  0.0000E+00  0.0000E+00  0.0000E+00  0.0000E+00  0.0000E+00  0.0000E+00  0.0000E+00  0.0000E+00  0.0000E+00  0.0000E+00  0.0000E+00  0.0000E+00  0.0000E+00  0.0000E+00  0.0000E+00  0.0000E+00  0.0000E+00
  0.0000E+00  0.0000E+00  0.0000E+00  0.0000E+00  0.0000E+00  0.0000E+00  0.0000E+00  0.0000E+00  0.0000E+00  0.0000E+00  0.0000E+00  0.0000E+00  0.0000E+00  0.0000E+00  0.0000E+00  0.0000E+00  0.0000E+00  0.0000E+00  0.0000E+00  0.0000E+00  0.0000E+00  0.0000E+00  0.0000E+00  0.0000E+00  0.0000E+00  0.0000E+00  0.0000E+00  0.0000E+00  0.0000E+00  0.0000E+00  0.0000E+00  0.0000E+00  0.0000E+00  0.0000E+00  0.0000E+00  0.0000E+00  0.0000E+00  0.0000E+00  0.0000E+00  0.0000E+00  0.0000E+00  0.0000E+00  0.0000E+00  0.0000E+00  0.0000E+00  0.0000E+00  0.0000E+00  0.0000E+00  0.0000E+00  0.0000E+00  0.0000E+00  0.0000E+00  0.0000E+00  0.0000E+00  0.0000E+00  0.0000E+00  0.0000E+00  0.0000E+00  0.0000E+00  0.0000E+00  0.0000E+00  0.0000E+00  0.0000E+00  0.0000E+00  0.0000E+00  0.0000E+00  0.0000E+00  0.0000E+00  0.0000E+00  0.0000E+00  0.0000E+00  0.0000E+00  0.0000E+00  0.0000E+00  0.0000E+00  0.0000E+00  0.0000E+00  0.0000E+00  0.0000E+00
  0.0000E+00  0.0000E+00  0.0000E+00  0.0000E+00  0.0000E+00  0.0000E+00  0.0000E+00  0.0000E+00  0.0000E+00  0.0000E+00  0.0000E+00  0.0000E+00  0.0000E+00  0.0000E+00  0.0000E+00  0.0000E+00  0.0000E+00  0.0000E+00  0.0000E+00  0.0000E+00  0.0000E+00  0.0000E+00  0.0000E+00  0.0000E+00  0.0000E+00  0.0000E+00  0.0000E+00  0.0000E+00  0.0000E+00  0.0000E+00  0.0000E+00  0.0000E+00  0.0000E+00  0.0000E+00  0.0000E+00  0.0000E+00  0.0000E+00  0.0000E+00  0.0000E+00  0.0000E+00  0.0000E+00  0.0000E+00  0.0000E+00  0.0000E+00  0.0000E+00  0.0000E+00  0.0000E+00  0.0000E+00  0.0000E+00  0.0000E+00  0.0000E+00  0.0000E+00  0.0000E+00  0.0000E+00  0.0000E+00  0.0000E+00  0.0000E+00  0.0000E+00  0.0000E+00  0.0000E+00  0.0000E+00  0.0000E+00  0.0000E+00  0.0000E+00  0.0000E+00  0.0000E+00  0.0000E+00  0.0000E+00  0.0000E+00  0.0000E+00  0.0000E+00  0.0000E+00  0.0000E+00  0.0000E+00  0.0000E+00  0.0000E+00  0.0000E+00  0.0000E+00  0.0000E+00
  0.0000E+00  0.0000E+00  0.0000E+00  0.0000E+00  0.0000E+00  0.0000E+00  0.0000E+00  0.0000E+00  0.0000E+00  0.0000E+00  0.0000E+00  0.0000E+00  0.0000E+00  0.0000E+00  0.0000E+00  0.0000E+00  0.0000E+00  0.0000E+00  0.0000E+00  0.0000E+00  0.0000E+00  0.0000E+00  0.0000E+00  0.0000E+00  0.0000E+00  0.0000E+00  0.0000E+00  0.0000E+00  0.0000E+00  0.0000E+00  0.0000E+00  0.0000E+00  0.0000E+00  0.0000E+00  0.0000E+00  0.0000E+00  0.0000E+00  0.0000E+00  0.0000E+00  0.0000E+00  0.0000E+00  0.0000E+00  0.0000E+00  0.0000E+00  0.0000E+00  0.0000E+00  0.0000E+00  0.0000E+00  0.0000E+00  0.0000E+00  0.0000E+00  0.0000E+00  0.0000E+00  0.0000E+00  0.0000E+00  0.0000E+00  0.0000E+00  0.0000E+00  0.0000E+00  0.0000E+00  0.0000E+00  0.0000E+00  0.0000E+00  0.0000E+00  0.0000E+00  0.0000E+00  0.0000E+00  0.0000E+00  0.0000E+00  0.0000E+00  0.0000E+00  0.0000E+00  0.0000E+00  0.0000E+00  0.0000E+00  0.0000E+00  0.0000E+00  0.0000E+00  0.0000E+00
  0.0000E+00  0.0000E+00  0.0000E+00  0.0000E+00  0.0000E+00  0.0000E+00  0.0000E+00  0.0000E+00  0.0000E+00  0.0000E+00  0.0000E+00  0.0000E+00  0.0000E+00  0.0000E+00  0.0000E+00  0.0000E+00  0.0000E+00  0.0000E+00  0.0000E+00  0.0000E+00  0.0000E+00  0.0000E+00  0.0000E+00  0.0000E+00  0.0000E+00  0.0000E+00  0.0000E+00  0.0000E+00  0.0000E+00  0.0000E+00  0.0000E+00  0.0000E+00  0.0000E+00  0.0000E+00  0.0000E+00  0.0000E+00  0.0000E+00  0.0000E+00  0.0000E+00  0.0000E+00  0.0000E+00  0.0000E+00  0.0000E+00  0.0000E+00  0.0000E+00  0.0000E+00  0.0000E+00  0.0000E+00  0.0000E+00  0.0000E+00  0.0000E+00  0.0000E+00  0.0000E+00  0.0000E+00  0.0000E+00  0.0000E+00  0.0000E+00  0.0000E+00  0.0000E+00  0.0000E+00  0.0000E+00  0.0000E+00  0.0000E+00  0.0000E+00  0.0000E+00  0.0000E+00  0.0000E+00  0.0000E+00  0.0000E+00  0.0000E+00  0.0000E+00  0.0000E+00  0.0000E+00  0.0000E+00  0.0000E+00  0.0000E+00  0.0000E+00  0.0000E+00  0.0000E+00
  0.0000E+00  0.0000E+00  0.0000E+00  0.0000E+00  0.0000E+00  0.0000E+00  0.0000E+00  0.0000E+00  0.0000E+00  0.0000E+00  0.0000E+00  0.0000E+00  0.0000E+00  0.0000E+00  0.0000E+00  0.0000E+00  0.0000E+00  0.0000E+00  0.0000E+00  0.0000E+00  0.0000E+00  0.0000E+00  0.0000E+00  0.0000E+00  0.0000E+00  0.0000E+00  0.0000E+00  0.0000E+00  0.0000E+00  0.0000E+00  0.0000E+00  0.0000E+00  0.0000E+00  0.0000E+00  0.0000E+00  0.0000E+00  0.0000E+00  0.0000E+00  0.0000E+00  0.0000E+00  0.0000E+00  0.0000E+00  0.0000E+00  0.0000E+00  0.0000E+00  0.0000E+00  0.0000E+00  0.0000E+00  0.0000E+00  0.0000E+00  0.0000E+00  0.0000E+00  0.0000E+00  0.0000E+00  0.0000E+00  0.0000E+00  0.0000E+00  0.0000E+00  0.0000E+00  0.0000E+00  0.0000E+00  0.0000E+00  0.0000E+00  0.0000E+00  0.0000E+00  0.0000E+00  0.0000E+00  0.0000E+00  0.0000E+00  0.0000E+00  0.0000E+00  0.0000E+00  0.0000E+00  0.0000E+00  0.0000E+00  0.0000E+00  0.0000E+00  0.0000E+00  0.0000E+00
  0.0000E+00  0.0000E+00  0.0000E+00  0.0000E+00  0.0000E+00  0.0000E+00  0.0000E+00  0.0000E+00  0.0000E+00  0.0000E+00  0.0000E+00  0.0000E+00  0.0000E+00  0.0000E+00  0.0000E+00  0.0000E+00  0.0000E+00  0.0000E+00  0.0000E+00  0.0000E+00  0.0000E+00  0.0000E+00  0.0000E+00  0.0000E+00  0.0000E+00  0.0000E+00  0.0000E+00  0.0000E+00  0.0000E+00  0.0000E+00  0.0000E+00  0.0000E+00  0.0000E+00  0.0000E+00  0.0000E+00  0.0000E+00  0.0000E+00  0.0000E+00  0.0000E+00  0.0000E+00  0.0000E+00  0.0000E+00  0.0000E+00  0.0000E+00  0.0000E+00  0.0000E+00  0.0000E+00  0.0000E+00  0.0000E+00  0.0000E+00  0.0000E+00  0.0000E+00  0.0000E+00  0.0000E+00  0.0000E+00  0.0000E+00  0.0000E+00  0.0000E+00  0.0000E+00  0.0000E+00  0.0000E+00  0.0000E+00  0.0000E+00  0.0000E+00  0.0000E+00  0.0000E+00  0.0000E+00  0.0000E+00  0.0000E+00  0.0000E+00  0.0000E+00  0.0000E+00  0.0000E+00  0.0000E+00  0.0000E+00  0.0000E+00  0.0000E+00  0.0000E+00  0.0000E+00
  0.0000E+00  0.0000E+00  0.0000E+00  0.0000E+00  0.0000E+00  0.0000E+00  0.0000E+00  0.0000E+00  0.0000E+00  0.0000E+00  0.0000E+00  0.0000E+00  0.0000E+00  0.0000E+00  0.0000E+00  0.0000E+00  0.0000E+00  0.0000E+00  0.0000E+00  0.0000E+00  0.0000E+00  0.0000E+00  0.0000E+00  0.0000E+00  0.0000E+00  0.0000E+00  0.0000E+00  0.0000E+00  0.0000E+00  0.0000E+00  0.0000E+00  0.0000E+00  0.0000E+00  0.0000E+00  0.0000E+00  0.0000E+00  0.0000E+00  0.0000E+00  0.0000E+00  0.0000E+00  0.0000E+00  0.0000E+00  0.0000E+00  0.0000E+00  0.0000E+00  0.0000E+00  0.0000E+00  0.0000E+00  0.0000E+00  0.0000E+00  0.0000E+00  0.0000E+00  0.0000E+00  0.0000E+00  0.0000E+00  0.0000E+00  0.0000E+00  0.0000E+00  0.0000E+00  0.0000E+00  0.0000E+00  0.0000E+00  0.0000E+00  0.0000E+00  0.0000E+00  0.0000E+00  0.0000E+00  0.0000E+00  0.0000E+00  0.0000E+00  0.0000E+00  0.0000E+00  0.0000E+00  0.0000E+00  0.0000E+00  0.0000E+00  0.0000E+00  0.0000E+00  0.0000E+00
  0.0000E+00  0.0000E+00  0.0000E+00  0.0000E+00  0.0000E+00  0.0000E+00  0.0000E+00  0.0000E+00  0.0000E+00  0.0000E+00  0.0000E+00  0.0000E+00  0.0000E+00  0.0000E+00  0.0000E+00  0.0000E+00  0.0000E+00  0.0000E+00  0.0000E+00  0.0000E+00  0.0000E+00  0.0000E+00  0.0000E+00  0.0000E+00  0.0000E+00  0.0000E+00  0.0000E+00  0.0000E+00  0.0000E+00  0.0000E+00  0.0000E+00  0.0000E+00  0.0000E+00  0.0000E+00  0.0000E+00  0.0000E+00  0.0000E+00  0.0000E+00  0.0000E+00  0.0000E+00  0.0000E+00  0.0000E+00  0.0000E+00  0.0000E+00  0.0000E+00  0.0000E+00  0.0000E+00  0.0000E+00  0.0000E+00  0.0000E+00  0.0000E+00  0.0000E+00  0.0000E+00  0.0000E+00  0.0000E+00  0.0000E+00  0.0000E+00  0.0000E+00  0.0000E+00  0.0000E+00  0.0000E+00  0.0000E+00  0.0000E+00  0.0000E+00  0.0000E+00  0.0000E+00  0.0000E+00  0.0000E+00  0.0000E+00  0.0000E+00  0.0000E+00  0.0000E+00  0.0000E+00  0.0000E+00  0.0000E+00  0.0000E+00  0.0000E+00  0.0000E+00  0.0000E+00
  0.0000E+00  0.0000E+00  0.0000E+00  0.0000E+00  0.0000E+00  0.0000E+00  0.0000E+00  0.0000E+00  0.0000E+00  0.0000E+00  0.0000E+00  0.0000E+00  0.0000E+00  0.0000E+00  0.0000E+00  0.0000E+00  0.0000E+00  0.0000E+00  0.0000E+00  0.0000E+00  0.0000E+00  0.0000E+00  0.0000E+00  0.0000E+00  0.0000E+00  0.0000E+00  0.0000E+00  0.0000E+00  0.0000E+00  0.0000E+00  0.0000E+00  0.0000E+00  0.0000E+00  0.0000E+00  0.0000E+00  0.0000E+00  0.0000E+00  0.0000E+00  0.0000E+00  0.0000E+00  0.0000E+00  0.0000E+00  0.0000E+00  0.0000E+00  0.0000E+00  0.0000E+00  0.0000E+00  0.0000E+00  0.0000E+00  0.0000E+00  0.0000E+00  0.0000E+00  0.0000E+00  0.0000E+00  0.0000E+00  0.0000E+00  0.0000E+00  0.0000E+00  0.0000E+00  0.0000E+00  0.0000E+00  0.0000E+00  0.0000E+00  0.0000E+00  0.0000E+00  0.0000E+00  0.0000E+00  0.0000E+00  0.0000E+00  0.0000E+00  0.0000E+00  0.0000E+00  0.0000E+00  0.0000E+00  0.0000E+00  0.0000E+00  0.0000E+00  0.0000E+00  0.0000E+00
  0.0000E+00  0.0000E+00  0.0000E+00  0.0000E+00  0.0000E+00  0.0000E+00  0.0000E+00  0.0000E+00  0.0000E+00  0.0000E+00  0.0000E+00  0.0000E+00  0.0000E+00  0.0000E+00  0.0000E+00  0.0000E+00  0.0000E+00  0.0000E+00  0.0000E+00  0.0000E+00  0.0000E+00  0.0000E+00  0.0000E+00  0.0000E+00  0.0000E+00  0.0000E+00  0.0000E+00  0.0000E+00  0.0000E+00  0.0000E+00  0.0000E+00  0.0000E+00  0.0000E+00  0.0000E+00  0.0000E+00  0.0000E+00  0.0000E+00  0.0000E+00  0.0000E+00  0.0000E+00  0.0000E+00  0.0000E+00  0.0000E+00  0.0000E+00  0.0000E+00  0.0000E+00  0.0000E+00  0.0000E+00  0.0000E+00  0.0000E+00  0.0000E+00  0.0000E+00  0.0000E+00  0.0000E+00  0.0000E+00  0.0000E+00  0.0000E+00  0.0000E+00  0.0000E+00  0.0000E+00  0.0000E+00  0.0000E+00  0.0000E+00  0.0000E+00  0.0000E+00  0.0000E+00  0.0000E+00  0.0000E+00  0.0000E+00  0.0000E+00  0.0000E+00  0.0000E+00  0.0000E+00  0.0000E+00  0.0000E+00  0.0000E+00  0.0000E+00  0.0000E+00  0.0000E+00
  0.0000E+00  0.0000E+00  0.0000E+00  0.0000E+00  0.0000E+00  0.0000E+00  0.0000E+00  0.0000E+00  0.0000E+00  0.0000E+00  0.0000E+00  0.0000E+00  0.0000E+00  0.0000E+00  0.0000E+00  0.0000E+00  0.0000E+00  0.0000E+00  0.0000E+00  0.0000E+00  0.0000E+00  0.0000E+00  0.0000E+00  0.0000E+00  0.0000E+00  0.0000E+00  0.0000E+00  0.0000E+00  0.0000E+00  0.0000E+00  0.0000E+00  0.0000E+00  0.0000E+00  0.0000E+00  0.0000E+00  0.0000E+00  0.0000E+00  0.0000E+00  0.0000E+00  0.0000E+00  0.0000E+00  0.0000E+00  0.0000E+00  0.0000E+00  0.0000E+00  0.0000E+00  0.0000E+00  0.0000E+00  0.0000E+00  0.0000E+00  0.0000E+00  0.0000E+00  0.0000E+00  0.0000E+00  0.0000E+00  0.0000E+00  0.0000E+00  0.0000E+00  0.0000E+00  0.0000E+00  0.0000E+00  0.0000E+00  0.0000E+00  0.0000E+00  0.0000E+00  0.0000E+00  0.0000E+00  0.0000E+00  0.0000E+00  0.0000E+00  0.0000E+00  0.0000E+00  0.0000E+00  0.0000E+00  0.0000E+00  0.0000E+00  0.0000E+00  0.0000E+00  0.0000E+00
  0.0000E+00  0.0000E+00  0.0000E+00  0.0000E+00  0.0000E+00  0.0000E+00  0.0000E+00  0.0000E+00  0.0000E+00  0.0000E+00  0.0000E+00  0.0000E+00  0.0000E+00  0.0000E+00  0.0000E+00  0.0000E+00  0.0000E+00  0.0000E+00  0.0000E+00  0.0000E+00  0.0000E+00  0.0000E+00  0.0000E+00  0.0000E+00  0.0000E+00  0.0000E+00  0.0000E+00  0.0000E+00  0.0000E+00  0.0000E+00  0.0000E+00  0.0000E+00  0.0000E+00  0.0000E+00  0.0000E+00  0.0000E+00  0.0000E+00  0.0000E+00  0.0000E+00  0.0000E+00  0.0000E+00  0.0000E+00  0.0000E+00  0.0000E+00  0.0000E+00  0.0000E+00  0.0000E+00  0.0000E+00  0.0000E+00  0.0000E+00  0.0000E+00  0.0000E+00  0.0000E+00  0.0000E+00  0.0000E+00  0.0000E+00  0.0000E+00  0.0000E+00  0.0000E+00  0.0000E+00  0.0000E+00  0.0000E+00  0.0000E+00  0.0000E+00  0.0000E+00  0.0000E+00  0.0000E+00  0.0000E+00  0.0000E+00  0.0000E+00  0.0000E+00  0.0000E+00  0.0000E+00  0.0000E+00  0.0000E+00  0.0000E+00  0.0000E+00  0.0000E+00  0.0000E+00
  0.0000E+00  0.0000E+00  0.0000E+00  0.0000E+00  0.0000E+00  0.0000E+00  0.0000E+00  0.0000E+00  0.0000E+00  0.0000E+00  0.0000E+00  0.0000E+00  0.0000E+00  0.0000E+00  0.0000E+00  0.0000E+00  0.0000E+00  0.0000E+00  0.0000E+00  0.0000E+00  0.0000E+00  0.0000E+00  0.0000E+00  0.0000E+00  0.0000E+00  0.0000E+00  0.0000E+00  0.0000E+00  0.0000E+00  0.0000E+00  0.0000E+00  0.0000E+00  0.0000E+00  0.0000E+00  0.0000E+00  0.0000E+00  0.0000E+00  0.0000E+00  0.0000E+00  0.0000E+00  0.0000E+00  0.0000E+00  0.0000E+00  0.0000E+00  0.0000E+00  0.0000E+00  0.0000E+00  0.0000E+00  0.0000E+00  0.0000E+00  0.0000E+00  0.0000E+00  0.0000E+00  0.0000E+00  0.0000E+00  0.0000E+00  0.0000E+00  0.0000E+00  0.0000E+00  0.0000E+00  0.0000E+00  0.0000E+00  0.0000E+00  0.0000E+00  0.0000E+00  0.0000E+00  0.0000E+00  0.0000E+00  0.0000E+00  0.0000E+00  0.0000E+00  0.0000E+00  0.0000E+00  0.0000E+00  0.0000E+00  0.0000E+00  0.0000E+00  0.0000E+00  0.0000E+00
  0.0000E+00  0.0000E+00  0.0000E+00  0.0000E+00  0.0000E+00  0.0000E+00  0.0000E+00  0.0000E+00  0.0000E+00  0.0000E+00  0.0000E+00  0.0000E+00  0.0000E+00  0.0000E+00  0.0000E+00  0.0000E+00  0.0000E+00  0.0000E+00  0.0000E+00  0.0000E+00  0.0000E+00  0.0000E+00  0.0000E+00  0.0000E+00  0.0000E+00  0.0000E+00  0.0000E+00  0.0000E+00  0.0000E+00  0.0000E+00  0.0000E+00  0.0000E+00  0.0000E+00  0.0000E+00  0.0000E+00  0.0000E+00  0.0000E+00  0.0000E+00  0.0000E+00  0.0000E+00  0.0000E+00  0.0000E+00  0.0000E+00  0.0000E+00  0.0000E+00  0.0000E+00  0.0000E+00  0.0000E+00  0.0000E+00  0.0000E+00  0.0000E+00  0.0000E+00  0.0000E+00  0.0000E+00  0.0000E+00  0.0000E+00  0.0000E+00  0.0000E+00  0.0000E+00  0.0000E+00  0.0000E+00  0.0000E+00  0.0000E+00  0.0000E+00  0.0000E+00  0.0000E+00  0.0000E+00  0.0000E+00  0.0000E+00  0.0000E+00  0.0000E+00  0.0000E+00  0.0000E+00  0.0000E+00  0.0000E+00  0.0000E+00  0.0000E+00  0.0000E+00  0.0000E+00
  0.0000E+00  0.0000E+00  0.0000E+00  0.0000E+00  0.0000E+00  0.0000E+00  0.0000E+00  0.0000E+00  0.0000E+00  0.0000E+00  0.0000E+00  0.0000E+00  0.0000E+00  0.0000E+00  0.0000E+00  0.0000E+00  0.0000E+00  0.0000E+00  0.0000E+00  0.0000E+00  0.0000E+00  0.0000E+00  0.0000E+00  0.0000E+00  0.0000E+00  0.0000E+00  0.0000E+00  0.0000E+00  0.0000E+00  0.0000E+00  0.0000E+00  0.0000E+00  0.0000E+00  0.0000E+00  0.0000E+00  0.0000E+00  0.0000E+00  0.0000E+00  0.0000E+00  0.0000E+00  0.0000E+00  0.0000E+00  0.0000E+00  0.0000E+00  0.0000E+00  0.0000E+00  0.0000E+00  0.0000E+00  0.0000E+00  0.0000E+00  0.0000E+00  0.0000E+00  0.0000E+00  0.0000E+00  0.0000E+00  0.0000E+00  0.0000E+00  0.0000E+00  0.0000E+00  0.0000E+00  0.0000E+00  0.0000E+00  0.0000E+00  0.0000E+00  0.0000E+00  0.0000E+00  0.0000E+00  0.0000E+00  0.0000E+00  0.0000E+00  0.0000E+00  0.0000E+00  0.0000E+00  0.0000E+00  0.0000E+00  0.0000E+00  0.0000E+00  0.0000E+00  0.0000E+00
  0.0000E+00  0.0000E+00  0.0000E+00  0.0000E+00  0.0000E+00  0.0000E+00  0.0000E+00  0.0000E+00  0.0000E+00  0.0000E+00  0.0000E+00  0.0000E+00  0.0000E+00  0.0000E+00  0.0000E+00  0.0000E+00  0.0000E+00  0.0000E+00  0.0000E+00  0.0000E+00  0.0000E+00  0.0000E+00  0.0000E+00  0.0000E+00  0.0000E+00  0.0000E+00  0.0000E+00  0.0000E+00  0.0000E+00  0.0000E+00  0.0000E+00  0.0000E+00  0.0000E+00  0.0000E+00  0.0000E+00  0.0000E+00  0.0000E+00  0.0000E+00  0.0000E+00  0.0000E+00  0.0000E+00  0.0000E+00  0.0000E+00  0.0000E+00  0.0000E+00  0.0000E+00  0.0000E+00  0.0000E+00  0.0000E+00  0.0000E+00  0.0000E+00  0.0000E+00  0.0000E+00  0.0000E+00  0.0000E+00  0.0000E+00  0.0000E+00  0.0000E+00  0.0000E+00  0.0000E+00  0.0000E+00  0.0000E+00  0.0000E+00  0.0000E+00  0.0000E+00  0.0000E+00  0.0000E+00  0.0000E+00  0.0000E+00  0.0000E+00  0.0000E+00  0.0000E+00  0.0000E+00  0.0000E+00  0.0000E+00  0.0000E+00  0.0000E+00  0.0000E+00  0.0000E+00
  0.0000E+00  0.0000E+00  0.0000E+00  0.0000E+00  0.0000E+00  0.0000E+00  0.0000E+00  0.0000E+00  0.0000E+00  0.0000E+00  0.0000E+00  0.0000E+00  0.0000E+00  0.0000E+00  0.0000E+00  0.0000E+00  0.0000E+00  0.0000E+00  0.0000E+00  0.0000E+00  0.0000E+00  0.0000E+00  0.0000E+00  0.0000E+00  0.0000E+00  0.0000E+00  0.0000E+00  0.0000E+00  0.0000E+00  0.0000E+00  0.0000E+00  0.0000E+00  0.0000E+00  0.0000E+00  0.0000E+00  0.0000E+00  0.0000E+00  0.0000E+00  0.0000E+00  0.0000E+00  0.0000E+00  0.0000E+00  0.0000E+00  0.0000E+00  0.0000E+00  0.0000E+00  0.0000E+00  0.0000E+00  0.0000E+00  0.0000E+00  0.0000E+00  0.0000E+00  0.0000E+00  0.0000E+00  0.0000E+00  0.0000E+00  0.0000E+00  0.0000E+00  0.0000E+00  0.0000E+00  0.0000E+00  0.0000E+00  0.0000E+00  0.0000E+00  0.0000E+00  0.0000E+00  0.0000E+00  0.0000E+00  0.0000E+00  0.0000E+00  0.0000E+00  0.0000E+00  0.0000E+00  0.0000E+00  0.0000E+00  0.0000E+00  0.0000E+00  0.0000E+00  0.0000E+00
  0.0000E+00  0.0000E+00  0.0000E+00  0.0000E+00  0.0000E+00  0.0000E+00  0.0000E+00  0.0000E+00  0.0000E+00  0.0000E+00  0.0000E+00  0.0000E+00  0.0000E+00  0.0000E+00  0.0000E+00  0.0000E+00  0.0000E+00  0.0000E+00  0.0000E+00  0.0000E+00  0.0000E+00  0.0000E+00  0.0000E+00  0.0000E+00  0.0000E+00  0.0000E+00  0.0000E+00  0.0000E+00  0.0000E+00  0.0000E+00  0.0000E+00  0.0000E+00  0.0000E+00  0.0000E+00  0.0000E+00  0.0000E+00  0.0000E+00  0.0000E+00  0.0000E+00  0.0000E+00  0.0000E+00  0.0000E+00  0.0000E+00  0.0000E+00  0.0000E+00  0.0000E+00  0.0000E+00  0.0000E+00  0.0000E+00  0.0000E+00  0.0000E+00  0.0000E+00  0.0000E+00  0.0000E+00  0.0000E+00  0.0000E+00  0.0000E+00  0.0000E+00  0.0000E+00  0.0000E+00  0.0000E+00  0.0000E+00  0.0000E+00  0.0000E+00  0.0000E+00  0.0000E+00  0.0000E+00  0.0000E+00  0.0000E+00  0.0000E+00  0.0000E+00  0.0000E+00  0.0000E+00  0.0000E+00  0.0000E+00  0.0000E+00  0.0000E+00  0.0000E+00  0.0000E+00
  0.0000E+00  0.0000E+00  0.0000E+00  0.0000E+00  0.0000E+00  0.0000E+00  0.0000E+00  0.0000E+00  0.0000E+00  0.0000E+00  0.0000E+00  0.0000E+00  0.0000E+00  0.0000E+00  0.0000E+00  0.0000E+00  0.0000E+00  0.0000E+00  0.0000E+00  0.0000E+00  0.0000E+00  0.0000E+00  0.0000E+00  0.0000E+00  0.0000E+00  0.0000E+00  0.0000E+00  0.0000E+00  0.0000E+00  0.0000E+00  0.0000E+00  0.0000E+00  0.0000E+00  0.0000E+00  0.0000E+00  0.0000E+00  0.0000E+00  0.0000E+00  0.0000E+00  0.0000E+00  0.0000E+00  0.0000E+00  0.0000E+00  0.0000E+00  0.0000E+00  0.0000E+00  0.0000E+00  0.0000E+00  0.0000E+00  0.0000E+00  0.0000E+00  0.0000E+00  0.0000E+00  0.0000E+00  0.0000E+00  0.0000E+00  0.0000E+00  0.0000E+00  0.0000E+00  0.0000E+00  0.0000E+00  0.0000E+00  0.0000E+00  0.0000E+00  0.0000E+00  0.0000E+00  0.0000E+00  0.0000E+00  0.0000E+00  0.0000E+00  0.0000E+00  0.0000E+00  0.0000E+00  0.0000E+00  0.0000E+00  0.0000E+00  0.0000E+00  0.0000E+00  0.0000E+00
  0.0000E+00  0.0000E+00  0.0000E+00  0.0000E+00  0.0000E+00  0.0000E+00  0.0000E+00  0.0000E+00  0.0000E+00  0.0000E+00  0.0000E+00  0.0000E+00  0.0000E+00  0.0000E+00  0.0000E+00  0.0000E+00  0.0000E+00  0.0000E+00  0.0000E+00  0.0000E+00  0.0000E+00  0.0000E+00  0.0000E+00  0.0000E+00  0.0000E+00  0.0000E+00  0.0000E+00  0.0000E+00  0.0000E+00  0.0000E+00  0.0000E+00  0.0000E+00  0.0000E+00  0.0000E+00  0.0000E+00  0.0000E+00  0.0000E+00  0.0000E+00  0.0000E+00  0.0000E+00  0.0000E+00  0.0000E+00  0.0000E+00  0.0000E+00  0.0000E+00  0.0000E+00  0.0000E+00  0.0000E+00  0.0000E+00  0.0000E+00  0.0000E+00  0.0000E+00  0.0000E+00  0.0000E+00  0.0000E+00  0.0000E+00  0.0000E+00  0.0000E+00  0.0000E+00  0.0000E+00  0.0000E+00  0.0000E+00  0.0000E+00  0.0000E+00  0.0000E+00  0.0000E+00  0.0000E+00  0.0000E+00  0.0000E+00  0.0000E+00  0.0000E+00  0.0000E+00  0.0000E+00  0.0000E+00  0.0000E+00  0.0000E+00  0.0000E+00  0.0000E+00  0.0000E+00
  0.0000E+00  0.0000E+00  0.0000E+00  0.0000E+00  0.0000E+00  0.0000E+00  0.0000E+00  0.0000E+00  0.0000E+00  0.0000E+00  0.0000E+00  0.0000E+00  0.0000E+00  0.0000E+00  0.0000E+00  0.0000E+00  0.0000E+00  0.0000E+00  0.0000E+00  0.0000E+00  0.0000E+00  0.0000E+00  0.0000E+00  0.0000E+00  0.0000E+00  0.0000E+00  0.0000E+00  0.0000E+00  0.0000E+00  0.0000E+00  0.0000E+00  0.0000E+00  0.0000E+00  0.0000E+00  0.0000E+00  0.0000E+00  0.0000E+00  0.0000E+00  0.0000E+00  0.0000E+00  0.0000E+00  0.0000E+00  0.0000E+00  0.0000E+00  0.0000E+00  0.0000E+00  0.0000E+00  0.0000E+00  0.0000E+00  0.0000E+00  0.0000E+00  0.0000E+00  0.0000E+00  0.0000E+00  0.0000E+00  0.0000E+00  0.0000E+00  0.0000E+00  0.0000E+00  0.0000E+00  0.0000E+00  0.0000E+00  0.0000E+00  0.0000E+00  0.0000E+00  0.0000E+00  0.0000E+00  0.0000E+00  0.0000E+00  0.0000E+00  0.0000E+00  0.0000E+00  0.0000E+00  0.0000E+00  0.0000E+00  0.0000E+00  0.0000E+00  0.0000E+00  0.0000E+00
  0.0000E+00  0.0000E+00  0.0000E+00  0.0000E+00  0.0000E+00  0.0000E+00  0.0000E+00  0.0000E+00  0.0000E+00  0.0000E+00  0.0000E+00  0.0000E+00  0.0000E+00  0.0000E+00  0.0000E+00  0.0000E+00  0.0000E+00  0.0000E+00  0.0000E+00  0.0000E+00  0.0000E+00  0.0000E+00  0.0000E+00  0.0000E+00  0.0000E+00  0.0000E+00  0.0000E+00  0.0000E+00  0.0000E+00  0.0000E+00  0.0000E+00  0.0000E+00  0.0000E+00  0.0000E+00  0.0000E+00  0.0000E+00  0.0000E+00  0.0000E+00  0.0000E+00  0.0000E+00  0.0000E+00  0.0000E+00  0.0000E+00  0.0000E+00  0.0000E+00  0.0000E+00  0.0000E+00  0.0000E+00  0.0000E+00  0.0000E+00  0.0000E+00  0.0000E+00  0.0000E+00  0.0000E+00  0.0000E+00  0.0000E+00  0.0000E+00  0.0000E+00  0.0000E+00  0.0000E+00  0.0000E+00  0.0000E+00  0.0000E+00  0.0000E+00  0.0000E+00  0.0000E+00  0.0000E+00  0.0000E+00  0.0000E+00  0.0000E+00  0.0000E+00  0.0000E+00  0.0000E+00  0.0000E+00  0.0000E+00  0.0000E+00  0.0000E+00  0.0000E+00  0.0000E+00
  0.0000E+00  0.0000E+00  0.0000E+00  0.0000E+00  0.0000E+00  0.0000E+00  0.0000E+00  0.0000E+00  0.0000E+00  0.0000E+00  0.0000E+00  0.0000E+00  0.0000E+00  0.0000E+00  0.0000E+00  0.0000E+00  0.0000E+00  0.0000E+00  0.0000E+00  0.0000E+00  0.0000E+00  0.0000E+00  0.0000E+00  0.0000E+00  0.0000E+00  0.0000E+00  0.0000E+00  0.0000E+00  0.0000E+00  0.0000E+00  0.0000E+00  0.0000E+00  0.0000E+00  0.0000E+00  0.1177E-09  0.1121E-09  0.1059E-09  0.9911E-10  0.9185E-10  0.1659E-09  0.1984E-09  0.1765E-09  0.1194E-09  0.1040E-09  0.8906E-10  0.0000E+00  0.0000E+00  0.0000E+00  0.0000E+00  0.0000E+00  0.0000E+00  0.0000E+00  0.0000E+00  0.0000E+00  0.0000E+00  0.0000E+00  0.0000E+00  0.0000E+00  0.0000E+00  0.0000E+00  0.0000E+00  0.0000E+00  0.0000E+00  0.0000E+00  0.0000E+00  0.0000E+00  0.0000E+00  0.0000E+00  0.0000E+00  0.0000E+00  0.0000E+00  0.0000E+00  0.0000E+00  0.0000E+00  0.0000E+00  0.0000E+00  0.0000E+00  0.0000E+00  0.0000E+00
  0.0000E+00  0.0000E+00  0.0000E+00  0.0000E+00  0.0000E+00  0.0000E+00  0.0000E+00  0.0000E+00  0.0000E+00  0.0000E+00  0.0000E+00  0.0000E+00  0.0000E+00  0.0000E+00  0.0000E+00  0.0000E+00  0.0000E+00  0.0000E+00  0.0000E+00  0.0000E+00  0.0000E+00  0.0000E+00  0.0000E+00  0.0000E+00  0.0000E+00  0.0000E+00  0.0000E+00  0.0000E+00  0.0000E+00  0.0000E+00  0.1267E-09  0.1341E-09  0.1412E-09  0.2755E-09  0.4089E-09  0.4856E-09  0.4610E-09  0.6255E-09  0.6865E-09  0.6986E-09  0.6959E-09  0.6989E-09  0.5718E-09  0.3185E-09  0.2746E-09  0.2325E-09  0.1202E-09  0.0000E+00  0.0000E+00  0.0000E+00  0.0000E+00  0.0000E+00  0.0000E+00  0.0000E+00  0.0000E+00  0.0000E+00  0.0000E+00  0.0000E+00  0.0000E+00  0.0000E+00  0.0000E+00  0.0000E+00  0.0000E+00  0.0000E+00  0.0000E+00  0.0000E+00  0.0000E+00  0.0000E+00  0.0000E+00  0.0000E+00  0.0000E+00  0.0000E+00  0.0000E+00  0.0000E+00  0.0000E+00  0.0000E+00  0.0000E+00  0.0000E+00  0.0000E+00
  0.0000E+00  0.0000E+00  0.0000E+00  0.0000E+00  0.0000E+00  0.0000E+00  0.0000E+00  0.0000E+00  0.0000E+00  0.0000E+00  0.0000E+00  0.0000E+00  0.0000E+00  0.0000E+00  0.0000E+00  0.0000E+00  0.0000E+00  0.0000E+00  0.0000E+00  0.0000E+00  0.0000E+00  0.0000E+00  0.0000E+00  0.0000E+00  0.0000E+00  0.0000E+00  0.0000E+00  0.0000E+00  0.1319E-09  0.1410E-09  0.2811E-09  0.4427E-09  0.5937E-09  0.8882E-09  0.1167E-08  0.1250E-08  0.1434E-08  0.1586E-08  0.1488E-08  0.1572E-08  0.1512E-08  0.1362E-08  0.1263E-08  0.1007E-08  0.6913E-09  0.4610E-09  0.2978E-09  0.1278E-09  0.0000E+00  0.0000E+00  0.0000E+00  0.0000E+00  0.0000E+00  0.0000E+00  0.0000E+00  0.0000E+00  0.0000E+00  0.0000E+00  0.0000E+00  0.0000E+00  0.0000E+00  0.0000E+00  0.0000E+00  0.0000E+00  0.0000E+00  0.0000E+00  0.0000E+00  0.0000E+00  0.0000E+00  0.0000E+00  0.0000E+00  0.0000E+00  0.0000E+00  0.0000E+00  0.0000E+00  0.0000E+00  0.0000E+00  0.0000E+00  0.0000E+00
  0.0000E+00  0.0000E+00  0.0000E+00  0.0000E+00  0.0000E+00  0.0000E+00  0.0000E+00  0.0000E+00  0.0000E+00  0.0000E+00  0.0000E+00  0.0000E+00  0.0000E+00  0.0000E+00  0.0000E+00  0.0000E+00  0.0000E+00  0.0000E+00  0.0000E+00  0.0000E+00  0.0000E+00  0.0000E+00  0.0000E+00  0.0000E+00  0.0000E+00  0.0000E+00  0.1336E-09  0.1444E-09  0.4295E-09  0.4616E-09  0.9190E-09  0.1124E-08  0.1328E-08  0.1957E-08  0.2291E-08  0.2406E-08  0.2601E-08  0.2752E-08  0.2743E-08  0.2659E-08  0.2542E-08  0.2387E-08  0.2131E-08  0.1955E-08  0.1584E-08  0.1000E-08  0.6602E-09  0.3181E-09  0.1345E-09  0.0000E+00  0.0000E+00  0.0000E+00  0.0000E+00  0.0000E+00  0.0000E+00  0.0000E+00  0.0000E+00  0.0000E+00  0.0000E+00  0.0000E+00  0.0000E+00  0.0000E+00  0.0000E+00  0.0000E+00  0.0000E+00  0.0000E+00  0.0000E+00  0.0000E+00  0.0000E+00  0.0000E+00  0.0000E+00  0.0000E+00  0.0000E+00  0.0000E+00  0.0000E+00  0.0000E+00  0.0000E+00  0.0000E+00  0.0000E+00
  0.0000E+00  0.0000E+00  0.0000E+00  0.0000E+00  0.0000E+00  0.0000E+00  0.0000E+00  0.0000E+00  0.0000E+00  0.0000E+00  0.0000E+00  0.0000E+00  0.0000E+00  0.0000E+00  0.0000E+00  0.0000E+00  0.0000E+00  0.0000E+00  0.0000E+00  0.0000E+00  0.0000E+00  0.0000E+00  0.0000E+00  0.0000E+00  0.1318E-09  0.1440E-09  0.4307E-09  0.4681E-09  0.9363E-09  0.1170E-08  0.1724E-08  0.2315E-08  0.2594E-08  0.3010E-08  0.3749E-08  0.3916E-08  0.4153E-08  0.4324E-08  0.4419E-08  0.4278E-08  0.3971E-08  0.3864E-08  0.3479E-08  0.3146E-08  0.2730E-08  0.1990E-08  0.1399E-08  0.7657E-09  0.4843E-09  0.1399E-09  0.0000E+00  0.0000E+00  0.0000E+00  0.0000E+00  0.0000E+00  0.0000E+00  0.0000E+00  0.0000E+00  0.0000E+00  0.0000E+00  0.0000E+00  0.0000E+00  0.0000E+00  0.0000E+00  0.0000E+00  0.0000E+00  0.0000E+00  0.0000E+00  0.0000E+00  0.0000E+00  0.0000E+00  0.0000E+00  0.0000E+00  0.0000E+00  0.0000E+00  0.0000E+00  0.0000E+00  0.0000E+00  0.0000E+00
  0.0000E+00  0.0000E+00  0.0000E+00  0.0000E+00  0.0000E+00  0.0000E+00  0.0000E+00  0.0000E+00  0.0000E+00  0.0000E+00  0.0000E+00  0.0000E+00  0.0000E+00  0.0000E+00  0.0000E+00  0.0000E+00  0.0000E+00  0.0000E+00  0.0000E+00  0.0000E+00  0.0000E+00  0.0000E+00  0.1266E-09  0.1398E-09  0.4202E-09  0.4617E-09  0.7789E-09  0.1170E-08  0.1573E-08  0.2366E-08  0.2727E-08  0.3437E-08  0.4191E-08  0.4730E-08  0.5427E-08  0.5677E-08  0.6183E-08  0.6410E-08  0.6530E-08  0.6342E-08  0.5937E-08  0.5764E-08  0.5342E-08  0.4980E-08  0.4345E-08  0.3355E-08  0.2625E-08  0.1582E-08  0.8145E-09  0.5064E-09  0.1892E-09  0.0000E+00  0.0000E+00  0.0000E+00  0.0000E+00  0.0000E+00  0.0000E+00  0.0000E+00  0.0000E+00  0.0000E+00  0.0000E+00  0.0000E+00  0.0000E+00  0.0000E+00  0.0000E+00  0.0000E+00  0.0000E+00  0.0000E+00  0.0000E+00  0.0000E+00  0.0000E+00  0.0000E+00  0.0000E+00  0.0000E+00  0.0000E+00  0.0000E+00  0.0000E+00  0.0000E+00  0.0000E+00
  0.0000E+00  0.0000E+00  0.0000E+00  0.0000E+00  0.0000E+00  0.0000E+00  0.0000E+00  0.0000E+00  0.0000E+00  0.0000E+00  0.0000E+00  0.0000E+00  0.0000E+00  0.0000E+00  0.0000E+00  0.0000E+00  0.0000E+00  0.0000E+00  0.0000E+00  0.0000E+00  0.0000E+00  0.1321E-09  0.1467E-09  0.4429E-09  0.6184E-09  0.1138E-08  0.1402E-08  0.2181E-08  0.2713E-08  0.3645E-08  0.4133E-08  0.5201E-08  0.5949E-08  0.6687E-08  0.7533E-08  0.8128E-08  0.8377E-08  0.8924E-08  0.9134E-08  0.9117E-08  0.8819E-08  0.8376E-08  0.7990E-08  0.7312E-08  0.6439E-08  0.5459E-08  0.4366E-08  0.3048E-08  0.1906E-08  0.9128E-09  0.5216E-09  0.1918E-09  0.0000E+00  0.0000E+00  0.0000E+00  0.0000E+00  0.0000E+00  0.0000E+00  0.0000E+00  0.0000E+00  0.0000E+00  0.0000E+00  0.0000E+00  0.0000E+00  0.0000E+00  0.0000E+00  0.0000E+00  0.0000E+00  0.0000E+00  0.0000E+00  0.0000E+00  0.0000E+00  0.0000E+00  0.0000E+00  0.0000E+00  0.0000E+00  0.0000E+00  0.0000E+00  0.0000E+00
  0.0000E+00  0.0000E+00  0.0000E+00  0.0000E+00  0.0000E+00  0.0000E+00  0.0000E+00  0.0000E+00  0.0000E+00  0.0000E+00  0.0000E+00  0.0000E+00  0.0000E+00  0.0000E+00  0.0000E+00  0.0000E+00  0.0000E+00  0.0000E+00  0.0000E+00  0.0000E+00  0.1364E-09  0.2806E-09  0.4616E-09  0.7872E-09  0.1195E-08  0.1776E-08  0.2467E-08  0.3206E-08  0.4070E-08  0.4805E-08  0.6032E-08  0.6740E-08  0.8304E-08  0.9047E-08  0.1015E-07  0.1121E-07  0.1165E-07  0.1238E-07  0.1274E-07  0.1259E-07  0.1248E-07  0.1218E-07  0.1146E-07  0.1058E-07  0.9700E-08  0.8286E-08  0.6830E-08  0.4965E-08  0.3483E-08  0.2171E-08  0.1006E-08  0.4775E-09  0.1441E-09  0.0000E+00  0.0000E+00  0.0000E+00  0.0000E+00  0.0000E+00  0.0000E+00  0.0000E+00  0.0000E+00  0.0000E+00  0.0000E+00  0.0000E+00  0.0000E+00  0.0000E+00  0.0000E+00  0.0000E+00  0.0000E+00  0.0000E+00  0.0000E+00  0.0000E+00  0.0000E+00  0.0000E+00  0.0000E+00  0.0000E+00  0.0000E+00  0.0000E+00  0.0000E+00
  0.0000E+00  0.0000E+00  0.0000E+00  0.0000E+00  0.0000E+00  0.0000E+00  0.0000E+00  0.0000E+00  0.0000E+00  0.0000E+00  0.0000E+00  0.0000E+00  0.0000E+00  0.0000E+00  0.0000E+00  0.0000E+00  0.0000E+00  0.0000E+00  0.0000E+00  0.1394E-09  0.4236E-09  0.4759E-09  0.9645E-09  0.1241E-08  0.2178E-08  0.2581E-08  0.3733E-08  0.4299E-08  0.5693E-08  0.6642E-08  0.8098E-08  0.9253E-08  0.1068E-07  0.1192E-07  0.1336E-07  0.1474E-07  0.1576E-07  0.1651E-07  0.1740E-07  0.1741E-07  0.1738E-07  0.1710E-07  0.1651E-07  0.1537E-07  0.1400E-07  0.1228E-07  0.1047E-07  0.8061E-08  0.5874E-08  0.3844E-08  0.2285E-08  0.1029E-08  0.4754E-09  0.1403E-09  0.0000E+00  0.0000E+00  0.0000E+00  0.0000E+00  0.0000E+00  0.0000E+00  0.0000E+00  0.0000E+00  0.0000E+00  0.0000E+00  0.0000E+00  0.0000E+00  0.0000E+00  0.0000E+00  0.0000E+00  0.0000E+00  0.0000E+00  0.0000E+00  0.0000E+00  0.0000E+00  0.0000E+00  0.0000E+00  0.0000E+00  0.0000E+00  0.0000E+00
  0.0000E+00  0.0000E+00  0.0000E+00  0.0000E+00  0.0000E+00  0.0000E+00  0.0000E+00  0.0000E+00  0.0000E+00  0.0000E+00  0.0000E+00  0.0000E+00  0.0000E+00  0.0000E+00  0.0000E+00  0.0000E+00  0.0000E+00  0.1242E-09  0.1409E-09  0.4294E-09  0.4851E-09  0.1134E-08  0.1274E-08  0.2242E-08  0.2821E-08  0.3875E-08  0.4839E-08  0.5971E-08  0.7187E-08  0.8796E-08  0.1008E-07  0.1200E-07  0.1329E-07  0.1564E-07  0.1696E-07  0.1902E-07  0.2047E-07  0.2167E-07  0.2334E-07  0.2368E-07  0.2389E-07  0.2374E-07  0.2315E-07  0.2179E-07  0.2007E-07  0.1781E-07  0.1552E-07  0.1244E-07  0.9519E-08  0.6623E-08  0.4088E-08  0.2364E-08  0.1030E-08  0.4110E-09  0.9292E-10  0.0000E+00  0.0000E+00  0.0000E+00  0.0000E+00  0.0000E+00  0.0000E+00  0.0000E+00  0.0000E+00  0.0000E+00  0.0000E+00  0.0000E+00  0.0000E+00  0.0000E+00  0.0000E+00  0.0000E+00  0.0000E+00  0.0000E+00  0.0000E+00  0.0000E+00  0.0000E+00  0.0000E+00  0.0000E+00  0.0000E+00  0.0000E+00
  0.0000E+00  0.0000E+00  0.0000E+00  0.0000E+00  0.0000E+00  0.0000E+00  0.0000E+00  0.0000E+00  0.0000E+00  0.0000E+00  0.0000E+00  0.0000E+00  0.0000E+00  0.0000E+00  0.0000E+00  0.0000E+00  0.1236E-09  0.1409E-09  0.4306E-09  0.4892E-09  0.1145E-08  0.1433E-08  0.2281E-08  0.3049E-08  0.3977E-08  0.5168E-08  0.6374E-08  0.7687E-08  0.9209E-08  0.1109E-07  0.1273E-07  0.1499E-07  0.1694E-07  0.1950E-07  0.2158E-07  0.2391E-07  0.2622E-07  0.2807E-07  0.2996E-07  0.3171E-07  0.3242E-07  0.3261E-07  0.3403E-07  0.3237E-07  0.3012E-07  0.2876E-07  0.2517E-07  0.2015E-07  0.1479E-07  0.1053E-07  0.7243E-08  0.4374E-08  0.2320E-08  0.8835E-09  0.2884E-09  0.4556E-10  0.0000E+00  0.0000E+00  0.0000E+00  0.0000E+00  0.0000E+00  0.0000E+00  0.0000E+00  0.0000E+00  0.0000E+00  0.0000E+00  0.0000E+00  0.0000E+00  0.0000E+00  0.0000E+00  0.0000E+00  0.0000E+00  0.0000E+00  0.0000E+00  0.0000E+00  0.0000E+00  0.0000E+00  0.0000E+00  0.0000E+00
  0.0000E+00  0.0000E+00  0.0000E+00  0.0000E+00  0.0000E+00  0.0000E+00  0.0000E+00  0.0000E+00  0.0000E+00  0.0000E+00  0.0000E+00  0.0000E+00  0.0000E+00  0.0000E+00  0.0000E+00  0.0000E+00  0.1394E-09  0.4270E-09  0.4877E-09  0.9972E-09  0.1438E-08  0.2294E-08  0.3078E-08  0.4032E-08  0.5261E-08  0.6519E-08  0.8117E-08  0.9516E-08  0.1176E-07  0.1330E-07  0.1604E-07  0.1825E-07  0.2123E-07  0.2377E-07  0.2707E-07  0.2977E-07  0.3356E-07  0.3580E-07  0.3904E-07  0.4326E-07  0.4474E-07  0.4901E-07  0.5337E-07  0.5144E-07  0.5275E-07  0.4903E-07  0.4464E-07  0.3597E-07  0.2894E-07  0.1714E-07  0.1178E-07  0.7663E-08  0.4472E-08  0.2221E-08  0.7813E-09  0.2179E-09  0.0000E+00  0.0000E+00  0.0000E+00  0.0000E+00  0.0000E+00  0.0000E+00  0.0000E+00  0.0000E+00  0.0000E+00  0.0000E+00  0.0000E+00  0.0000E+00  0.0000E+00  0.0000E+00  0.0000E+00  0.0000E+00  0.0000E+00  0.0000E+00  0.0000E+00  0.0000E+00  0.0000E+00  0.0000E+00  0.0000E+00
  0.0000E+00  0.0000E+00  0.0000E+00  0.0000E+00  0.0000E+00  0.0000E+00  0.0000E+00  0.0000E+00  0.0000E+00  0.0000E+00  0.0000E+00  0.0000E+00  0.0000E+00  0.0000E+00  0.0000E+00  0.1365E-09  0.2859E-09  0.4809E-09  0.9853E-09  0.1289E-08  0.2280E-08  0.2909E-08  0.4040E-08  0.5292E-08  0.6585E-08  0.8237E-08  0.9708E-08  0.1205E-07  0.1372E-07  0.1663E-07  0.1929E-07  0.2232E-07  0.2554E-07  0.2944E-07  0.3315E-07  0.3709E-07  0.4108E-07  0.4717E-07  0.5116E-07  0.6026E-07  0.6694E-07  0.7553E-07  0.8500E-07  0.8631E-07  0.8635E-07  0.7912E-07  0.7085E-07  0.6006E-07  0.4320E-07  0.3374E-07  0.1938E-07  0.1257E-07  0.7785E-08  0.4271E-08  0.1919E-08  0.8348E-09  0.3143E-09  0.0000E+00  0.0000E+00  0.0000E+00  0.0000E+00  0.0000E+00  0.0000E+00  0.0000E+00  0.0000E+00  0.0000E+00  0.0000E+00  0.0000E+00  0.0000E+00  0.0000E+00  0.0000E+00  0.0000E+00  0.0000E+00  0.0000E+00  0.0000E+00  0.0000E+00  0.0000E+00  0.0000E+00  0.0000E+00
  0.0000E+00  0.0000E+00  0.0000E+00  0.0000E+00  0.0000E+00  0.0000E+00  0.0000E+00  0.0000E+00  0.0000E+00  0.0000E+00  0.0000E+00  0.0000E+00  0.0000E+00  0.0000E+00  0.1322E-09  0.2779E-09  0.4690E-09  0.9626E-09  0.1265E-08  0.2085E-08  0.2872E-08  0.4001E-08  0.5259E-08  0.6392E-08  0.8044E-08  0.9779E-08  0.1219E-07  0.1396E-07  0.1700E-07  0.1983E-07  0.2309E-07  0.2662E-07  0.3096E-07  0.3561E-07  0.3992E-07  0.4523E-07  0.5269E-07  0.6338E-07  0.7258E-07  0.8746E-07  0.1019E-06  0.1145E-06  0.1308E-06  0.1336E-06  0.1304E-06  0.1221E-06  0.1110E-06  0.8906E-07  0.7377E-07  0.5124E-07  0.3858E-07  0.2097E-07  0.1293E-07  0.7655E-08  0.4081E-08  0.2518E-08  0.1369E-08  0.5724E-09  0.1413E-09  0.0000E+00  0.0000E+00  0.0000E+00  0.0000E+00  0.0000E+00  0.0000E+00  0.0000E+00  0.0000E+00  0.0000E+00  0.0000E+00  0.0000E+00  0.0000E+00  0.0000E+00  0.0000E+00  0.0000E+00  0.0000E+00  0.0000E+00  0.0000E+00  0.0000E+00  0.0000E+00
  0.0000E+00  0.0000E+00  0.0000E+00  0.0000E+00  0.0000E+00  0.0000E+00  0.0000E+00  0.0000E+00  0.0000E+00  0.0000E+00  0.0000E+00  0.0000E+00  0.0000E+00  0.1267E-09  0.1468E-09  0.4523E-09  0.7909E-09  0.1228E-08  0.2026E-08  0.2657E-08  0.3742E-08  0.4819E-08  0.6304E-08  0.7964E-08  0.9521E-08  0.1193E-07  0.1401E-07  0.1713E-07  0.2009E-07  0.2352E-07  0.2727E-07  0.3193E-07  0.3703E-07  0.4195E-07  0.5029E-07  0.5904E-07  0.6905E-07  0.8342E-07  0.1051E-06  0.1270E-06  0.1514E-06  0.1782E-06  0.1900E-06  0.1968E-06  0.1923E-06  0.1816E-06  0.1654E-06  0.1416E-06  0.1163E-06  0.8917E-07  0.6261E-07  0.4279E-07  0.2337E-07  0.1287E-07  0.7780E-08  0.4893E-08  0.3159E-08  0.2083E-08  0.9874E-09  0.1473E-09  0.0000E+00  0.0000E+00  0.0000E+00  0.0000E+00  0.0000E+00  0.0000E+00  0.0000E+00  0.0000E+00  0.0000E+00  0.0000E+00  0.0000E+00  0.0000E+00  0.0000E+00  0.0000E+00  0.0000E+00  0.0000E+00  0.0000E+00  0.0000E+00  0.0000E+00
  0.0000E+00  0.0000E+00  0.0000E+00  0.0000E+00  0.0000E+00  0.0000E+00  0.0000E+00  0.0000E+00  0.0000E+00  0.0000E+00  0.0000E+00  0.0000E+00  0.0000E+00  0.1400E-09  0.4314E-09  0.6277E-09  0.1178E-08  0.1652E-08  0.2418E-08  0.3450E-08  0.4524E-08  0.5952E-08  0.7408E-08  0.9353E-08  0.1153E-07  0.1387E-07  0.1676E-07  0.1956E-07  0.2361E-07  0.2753E-07  0.3207E-07  0.3742E-07  0.4318E-07  0.4988E-07  0.6176E-07  0.7577E-07  0.9243E-07  0.1208E-06  0.1508E-06  0.1821E-06  0.2200E-06  0.2529E-06  0.2707E-06  0.2794E-06  0.2775E-06  0.2656E-06  0.2421E-06  0.2163E-06  0.1786E-06  0.1428E-06  0.1053E-06  0.7083E-07  0.4448E-07  0.2191E-07  0.1348E-07  0.9021E-08  0.6266E-08  0.4133E-08  0.2269E-08  0.1370E-08  0.3774E-09  0.0000E+00  0.0000E+00  0.0000E+00  0.0000E+00  0.0000E+00  0.0000E+00  0.0000E+00  0.0000E+00  0.0000E+00  0.0000E+00  0.0000E+00  0.0000E+00  0.0000E+00  0.0000E+00  0.0000E+00  0.0000E+00  0.0000E+00  0.0000E+00
  0.0000E+00  0.0000E+00  0.0000E+00  0.0000E+00  0.0000E+00  0.0000E+00  0.0000E+00  0.0000E+00  0.0000E+00  0.0000E+00  0.0000E+00  0.0000E+00  0.1320E-09  0.2795E-09  0.4752E-09  0.9800E-09  0.1299E-08  0.2152E-08  0.2986E-08  0.4186E-08  0.5546E-08  0.6991E-08  0.8861E-08  0.1081E-07  0.1334E-07  0.1619E-07  0.1928E-07  0.2275E-07  0.2680E-07  0.3203E-07  0.3722E-07  0.4359E-07  0.5026E-07  0.6257E-07  0.7793E-07  0.9635E-07  0.1296E-06  0.1649E-06  0.2163E-06  0.2579E-06  0.3053E-06  0.3493E-06  0.3751E-06  0.3893E-06  0.3905E-06  0.3747E-06  0.3536E-06  0.3143E-06  0.2747E-06  0.2208E-06  0.1705E-06  0.1198E-06  0.7657E-07  0.4698E-07  0.2828E-07  0.1564E-07  0.1113E-07  0.7062E-08  0.4708E-08  0.2722E-08  0.1366E-08  0.3854E-09  0.0000E+00  0.0000E+00  0.0000E+00  0.0000E+00  0.0000E+00  0.0000E+00  0.0000E+00  0.0000E+00  0.0000E+00  0.0000E+00  0.0000E+00  0.0000E+00  0.0000E+00  0.0000E+00  0.0000E+00  0.0000E+00  0.0000E+00
  0.0000E+00  0.0000E+00  0.0000E+00  0.0000E+00  0.0000E+00  0.0000E+00  0.0000E+00  0.0000E+00  0.0000E+00  0.0000E+00  0.0000E+00  0.1231E-09  0.1442E-09  0.4457E-09  0.6519E-09  0.1226E-08  0.1877E-08  0.2535E-08  0.3806E-08  0.4943E-08  0.6510E-08  0.8290E-08  0.1001E-07  0.1264E-07  0.1500E-07  0.1851E-07  0.2195E-07  0.2628E-07  0.3084E-07  0.3616E-07  0.4293E-07  0.4978E-07  0.6245E-07  0.7758E-07  0.9696E-07  0.1322E-06  0.1771E-06  0.2281E-06  0.2927E-06  0.3547E-06  0.4142E-06  0.4721E-06  0.5083E-06  0.5312E-06  0.5333E-06  0.5266E-06  0.4959E-06  0.4607E-06  0.4030E-06  0.3396E-06  0.2647E-06  0.1940E-06  0.1303E-06  0.8204E-07  0.5035E-07  0.3263E-07  0.1825E-07  0.1213E-07  0.7806E-08  0.4921E-08  0.2771E-08  0.1371E-08  0.4627E-09  0.0000E+00  0.0000E+00  0.0000E+00  0.0000E+00  0.0000E+00  0.0000E+00  0.0000E+00  0.0000E+00  0.0000E+00  0.0000E+00  0.0000E+00  0.0000E+00  0.0000E+00  0.0000E+00  0.0000E+00  0.0000E+00
  0.0000E+00  0.0000E+00  0.0000E+00  0.0000E+00  0.0000E+00  0.0000E+00  0.0000E+00  0.0000E+00  0.0000E+00  0.0000E+00  0.0000E+00  0.1339E-09  0.2846E-09  0.4856E-09  0.1004E-08  0.1475E-08  0.2379E-08  0.3252E-08  0.4345E-08  0.5969E-08  0.7315E-08  0.9525E-08  0.1163E-07  0.1415E-07  0.1726E-07  0.2066E-07  0.2514E-07  0.2965E-07  0.3493E-07  0.4122E-07  0.4818E-07  0.5866E-07  0.7351E-07  0.9780E-07  0.1286E-06  0.1745E-06  0.2327E-06  0.3078E-06  0.3938E-06  0.4770E-06  0.5515E-06  0.6266E-06  0.6767E-06  0.7121E-06  0.7255E-06  0.7236E-06  0.6980E-06  0.6530E-06  0.5882E-06  0.5010E-06  0.4058E-06  0.3040E-06  0.2128E-06  0.1374E-06  0.8826E-07  0.5898E-07  0.3541E-07  0.2092E-07  0.1256E-07  0.7874E-08  0.4692E-08  0.2665E-08  0.1282E-08  0.3267E-09  0.0000E+00  0.0000E+00  0.0000E+00  0.0000E+00  0.0000E+00  0.0000E+00  0.0000E+00  0.0000E+00  0.0000E+00  0.0000E+00  0.0000E+00  0.0000E+00  0.0000E+00  0.0000E+00  0.0000E+00
  0.0000E+00  0.0000E+00  0.0000E+00  0.0000E+00  0.0000E+00  0.0000E+00  0.0000E+00  0.0000E+00  0.0000E+00  0.0000E+00  0.1229E-09  0.1447E-09  0.4480E-09  0.6585E-09  0.1240E-08  0.1905E-08  0.2734E-08  0.3885E-08  0.5065E-08  0.6691E-08  0.8554E-08  0.1058E-07  0.1315E-07  0.1591E-07  0.1943E-07  0.2316E-07  0.2786E-07  0.3289E-07  0.3877E-07  0.4627E-07  0.5401E-07  0.6802E-07  0.8891E-07  0.1214E-06  0.1691E-06  0.2293E-06  0.3123E-06  0.4071E-06  0.5153E-06  0.6239E-06  0.7269E-06  0.8150E-06  0.8843E-06  0.9358E-06  0.9685E-06  0.9717E-06  0.9568E-06  0.9072E-06  0.8307E-06  0.7266E-06  0.5979E-06  0.4669E-06  0.3389E-06  0.2267E-06  0.1500E-06  0.9342E-07  0.6105E-07  0.3517E-07  0.1882E-07  0.1192E-07  0.7272E-08  0.4219E-08  0.2374E-08  0.1031E-08  0.1978E-09  0.0000E+00  0.0000E+00  0.0000E+00  0.0000E+00  0.0000E+00  0.0000E+00  0.0000E+00  0.0000E+00  0.0000E+00  0.0000E+00  0.0000E+00  0.0000E+00  0.0000E+00  0.0000E+00
  0.0000E+00  0.0000E+00  0.0000E+00  0.0000E+00  0.0000E+00  0.0000E+00  0.0000E+00  0.0000E+00  0.0000E+00  0.0000E+00  0.1322E-09  0.2821E-09  0.4827E-09  0.9993E-09  0.1474E-08  0.2381E-08  0.3107E-08  0.4379E-08  0.5842E-08  0.7422E-08  0.9687E-08  0.1166E-07  0.1451E-07  0.1777E-07  0.2137E-07  0.2609E-07  0.3062E-07  0.3660E-07  0.4340E-07  0.5100E-07  0.6007E-07  0.8054E-07  0.1113E-06  0.1489E-06  0.2123E-06  0.2995E-06  0.4108E-06  0.5391E-06  0.6649E-06  0.8041E-06  0.9356E-06  0.1049E-05  0.1140E-05  0.1218E-05  0.1263E-05  0.1293E-05  0.1279E-05  0.1235E-05  0.1145E-05  0.1018E-05  0.8580E-06  0.6829E-06  0.5073E-06  0.3546E-06  0.2296E-06  0.1504E-06  0.9067E-07  0.5310E-07  0.3211E-07  0.1689E-07  0.1054E-07  0.6289E-08  0.3702E-08  0.1874E-08  0.8193E-09  0.7374E-10  0.0000E+00  0.0000E+00  0.0000E+00  0.0000E+00  0.0000E+00  0.0000E+00  0.0000E+00  0.0000E+00  0.0000E+00  0.0000E+00  0.0000E+00  0.0000E+00  0.0000E+00
  0.0000E+00  0.0000E+00  0.0000E+00  0.0000E+00  0.0000E+00  0.0000E+00  0.0000E+00  0.0000E+00  0.0000E+00  0.0000E+00  0.1414E-09  0.4380E-09  0.6469E-09  0.1219E-08  0.1730E-08  0.2553E-08  0.3848E-08  0.5036E-08  0.6669E-08  0.8361E-08  0.1042E-07  0.1301E-07  0.1586E-07  0.1969E-07  0.2358E-07  0.2818E-07  0.3374E-07  0.3995E-07  0.4742E-07  0.5608E-07  0.6997E-07  0.9259E-07  0.1318E-06  0.1865E-06  0.2773E-06  0.3893E-06  0.5219E-06  0.6906E-06  0.8521E-06  0.1027E-05  0.1191E-05  0.1330E-05  0.1454E-05  0.1551E-05  0.1637E-05  0.1681E-05  0.1688E-05  0.1638E-05  0.1538E-05  0.1381E-05  0.1183E-05  0.9572E-06  0.7289E-06  0.5169E-06  0.3439E-06  0.2150E-06  0.1343E-06  0.7857E-07  0.4327E-07  0.2457E-07  0.1448E-07  0.8755E-08  0.5273E-08  0.2981E-08  0.1396E-08  0.4579E-09  0.0000E+00  0.0000E+00  0.0000E+00  0.0000E+00  0.0000E+00  0.0000E+00  0.0000E+00  0.0000E+00  0.0000E+00  0.0000E+00  0.0000E+00  0.0000E+00  0.0000E+00
  0.0000E+00  0.0000E+00  0.0000E+00  0.0000E+00  0.0000E+00  0.0000E+00  0.0000E+00  0.0000E+00  0.0000E+00  0.1271E-09  0.1504E-09  0.4666E-09  0.8284E-09  0.1300E-08  0.2162E-08  0.3034E-08  0.4282E-08  0.5729E-08  0.7120E-08  0.9136E-08  0.1135E-07  0.1439E-07  0.1745E-07  0.2109E-07  0.2554E-07  0.3051E-07  0.3654E-07  0.4356E-07  0.5139E-07  0.6034E-07  0.8123E-07  0.1134E-06  0.1612E-06  0.2419E-06  0.3468E-06  0.4910E-06  0.6657E-06  0.8674E-06  0.1077E-05  0.1287E-05  0.1490E-05  0.1667E-05  0.1830E-05  0.1968E-05  0.2082E-05  0.2154E-05  0.2171E-05  0.2126E-05  0.2007E-05  0.1822E-05  0.1580E-05  0.1290E-05  0.9993E-06  0.7154E-06  0.4760E-06  0.3022E-06  0.1827E-06  0.1064E-06  0.5983E-07  0.3497E-07  0.1872E-07  0.1165E-07  0.7036E-08  0.4153E-08  0.2133E-08  0.9626E-09  0.1525E-09  0.0000E+00  0.0000E+00  0.0000E+00  0.0000E+00  0.0000E+00  0.0000E+00  0.0000E+00  0.0000E+00  0.0000E+00  0.0000E+00  0.0000E+00  0.0000E+00
  0.0000E+00  0.0000E+00  0.0000E+00  0.0000E+00  0.0000E+00  0.0000E+00  0.0000E+00  0.0000E+00  0.0000E+00  0.1345E-09  0.2883E-09  0.4944E-09  0.1025E-08  0.1519E-08  0.2454E-08  0.3542E-08  0.4542E-08  0.6078E-08  0.7926E-08  0.1013E-07  0.1248E-07  0.1529E-07  0.1879E-07  0.2269E-07  0.2747E-07  0.3275E-07  0.3928E-07  0.4641E-07  0.5515E-07  0.6478E-07  0.9304E-07  0.1330E-06  0.1936E-06  0.2964E-06  0.4388E-06  0.6220E-06  0.8331E-06  0.1085E-05  0.1343E-05  0.1595E-05  0.1842E-05  0.2068E-05  0.2270E-05  0.2460E-05  0.2607E-05  0.2711E-05  0.2742E-05  0.2689E-05  0.2552E-05  0.2324E-05  0.2020E-05  0.1668E-05  0.1289E-05  0.9337E-06  0.6252E-06  0.3900E-06  0.2358E-06  0.1385E-06  0.7766E-07  0.4306E-07  0.2358E-07  0.1465E-07  0.9107E-08  0.5386E-08  0.3017E-08  0.1391E-08  0.4726E-09  0.0000E+00  0.0000E+00  0.0000E+00  0.0000E+00  0.0000E+00  0.0000E+00  0.0000E+00  0.0000E+00  0.0000E+00  0.0000E+00  0.0000E+00  0.0000E+00
  0.0000E+00  0.0000E+00  0.0000E+00  0.0000E+00  0.0000E+00  0.0000E+00  0.0000E+00  0.0000E+00  0.0000E+00  0.1416E-09  0.4388E-09  0.6516E-09  0.1228E-08  0.1898E-08  0.2587E-08  0.3734E-08  0.5125E-08  0.6797E-08  0.8360E-08  0.1069E-07  0.1338E-07  0.1637E-07  0.1984E-07  0.2420E-07  0.2932E-07  0.3492E-07  0.4182E-07  0.4940E-07  0.5829E-07  0.6892E-07  0.1035E-06  0.1589E-06  0.2340E-06  0.3633E-06  0.5378E-06  0.7739E-06  0.1044E-05  0.1335E-05  0.1650E-05  0.1956E-05  0.2250E-05  0.2527E-05  0.2795E-05  0.3022E-05  0.3220E-05  0.3342E-05  0.3383E-05  0.3317E-05  0.3143E-05  0.2858E-05  0.2486E-05  0.2043E-05  0.1585E-05  0.1144E-05  0.7636E-06  0.4777E-06  0.2864E-06  0.1661E-06  0.9305E-07  0.5110E-07  0.2801E-07  0.1777E-07  0.1090E-07  0.6662E-08  0.3857E-08  0.2102E-08  0.8666E-09  0.1515E-09  0.0000E+00  0.0000E+00  0.0000E+00  0.0000E+00  0.0000E+00  0.0000E+00  0.0000E+00  0.0000E+00  0.0000E+00  0.0000E+00  0.0000E+00
  0.0000E+00  0.0000E+00  0.0000E+00  0.0000E+00  0.0000E+00  0.0000E+00  0.0000E+00  0.0000E+00  0.1245E-09  0.1482E-09  0.4598E-09  0.8190E-09  0.1287E-08  0.1990E-08  0.3017E-08  0.4262E-08  0.5372E-08  0.7125E-08  0.9163E-08  0.1141E-07  0.1403E-07  0.1738E-07  0.2134E-07  0.2565E-07  0.3102E-07  0.3691E-07  0.4383E-07  0.5216E-07  0.6108E-07  0.7220E-07  0.1172E-06  0.1846E-06  0.2765E-06  0.4379E-06  0.6661E-06  0.9483E-06  0.1282E-05  0.1626E-05  0.2006E-05  0.2377E-05  0.2727E-05  0.3076E-05  0.3396E-05  0.3683E-05  0.3909E-05  0.4051E-05  0.4079E-05  0.3983E-05  0.3748E-05  0.3391E-05  0.2924E-05  0.2391E-05  0.1834E-05  0.1319E-05  0.8790E-06  0.5469E-06  0.3252E-06  0.1871E-06  0.1067E-06  0.5974E-07  0.3416E-07  0.2078E-07  0.1299E-07  0.7982E-08  0.4707E-08  0.2639E-08  0.1223E-08  0.3754E-09  0.0000E+00  0.0000E+00  0.0000E+00  0.0000E+00  0.0000E+00  0.0000E+00  0.0000E+00  0.0000E+00  0.0000E+00  0.0000E+00  0.0000E+00
  0.0000E+00  0.0000E+00  0.0000E+00  0.0000E+00  0.0000E+00  0.0000E+00  0.0000E+00  0.0000E+00  0.1297E-09  0.2790E-09  0.4791E-09  0.8540E-09  0.1477E-08  0.2233E-08  0.3144E-08  0.4440E-08  0.5954E-08  0.7605E-08  0.9545E-08  0.1188E-07  0.1485E-07  0.1834E-07  0.2221E-07  0.2670E-07  0.3227E-07  0.3840E-07  0.4558E-07  0.5421E-07  0.6385E-07  0.7749E-07  0.1321E-06  0.2139E-06  0.3361E-06  0.5300E-06  0.8061E-06  0.1156E-05  0.1555E-05  0.1970E-05  0.2423E-05  0.2865E-05  0.3289E-05  0.3701E-05  0.4084E-05  0.4416E-05  0.4669E-05  0.4803E-05  0.4807E-05  0.4650E-05  0.4326E-05  0.3864E-05  0.3285E-05  0.2642E-05  0.2009E-05  0.1428E-05  0.9435E-06  0.5836E-06  0.3483E-06  0.2017E-06  0.1147E-06  0.6505E-07  0.3784E-07  0.2328E-07  0.1490E-07  0.9339E-08  0.5522E-08  0.3089E-08  0.1680E-08  0.6259E-09  0.7313E-10  0.0000E+00  0.0000E+00  0.0000E+00  0.0000E+00  0.0000E+00  0.0000E+00  0.0000E+00  0.0000E+00  0.0000E+00  0.0000E+00
  0.0000E+00  0.0000E+00  0.0000E+00  0.0000E+00  0.0000E+00  0.0000E+00  0.0000E+00  0.0000E+00  0.1344E-09  0.2893E-09  0.4965E-09  0.1029E-08  0.1531E-08  0.2474E-08  0.3420E-08  0.4598E-08  0.6165E-08  0.7873E-08  0.9880E-08  0.1250E-07  0.1560E-07  0.1897E-07  0.2321E-07  0.2759E-07  0.3333E-07  0.3964E-07  0.4702E-07  0.5588E-07  0.6612E-07  0.9191E-07  0.1441E-06  0.2466E-06  0.4066E-06  0.6404E-06  0.9727E-06  0.1400E-05  0.1884E-05  0.2391E-05  0.2904E-05  0.3425E-05  0.3936E-05  0.4413E-05  0.4857E-05  0.5219E-05  0.5471E-05  0.5576E-05  0.5504E-05  0.5241E-05  0.4803E-05  0.4202E-05  0.3507E-05  0.2773E-05  0.2067E-05  0.1447E-05  0.9503E-06  0.5873E-06  0.3521E-06  0.2061E-06  0.1179E-06  0.6828E-07  0.3915E-07  0.2565E-07  0.1636E-07  0.1030E-07  0.6378E-08  0.3617E-08  0.1956E-08  0.7878E-09  0.1551E-09  0.0000E+00  0.0000E+00  0.0000E+00  0.0000E+00  0.0000E+00  0.0000E+00  0.0000E+00  0.0000E+00  0.0000E+00  0.0000E+00
  0.0000E+00  0.0000E+00  0.0000E+00  0.0000E+00  0.0000E+00  0.0000E+00  0.0000E+00  0.0000E+00  0.1385E-09  0.2983E-09  0.6401E-09  0.1206E-08  0.1578E-08  0.2548E-08  0.3684E-08  0.4904E-08  0.6346E-08  0.8279E-08  0.1037E-07  0.1285E-07  0.1603E-07  0.1948E-07  0.2382E-07  0.2831E-07  0.3417E-07  0.4060E-07  0.4813E-07  0.5713E-07  0.6716E-07  0.1016E-06  0.1620E-06  0.2843E-06  0.4908E-06  0.7875E-06  0.1190E-05  0.1692E-05  0.2264E-05  0.2865E-05  0.3466E-05  0.4084E-05  0.4663E-05  0.5227E-05  0.5706E-05  0.6071E-05  0.6282E-05  0.6303E-05  0.6106E-05  0.5701E-05  0.5092E-05  0.4357E-05  0.3543E-05  0.2734E-05  0.2000E-05  0.1383E-05  0.8995E-06  0.5565E-06  0.3353E-06  0.1974E-06  0.1155E-06  0.6780E-07  0.4127E-07  0.2728E-07  0.1754E-07  0.1119E-07  0.6911E-08  0.4054E-08  0.2294E-08  0.1045E-08  0.3202E-09  0.0000E+00  0.0000E+00  0.0000E+00  0.0000E+00  0.0000E+00  0.0000E+00  0.0000E+00  0.0000E+00  0.0000E+00  0.0000E+00
  0.0000E+00  0.0000E+00  0.0000E+00  0.0000E+00  0.0000E+00  0.0000E+00  0.0000E+00  0.0000E+00  0.1419E-09  0.4393E-09  0.6563E-09  0.1235E-08  0.1767E-08  0.2761E-08  0.3772E-08  0.5018E-08  0.6492E-08  0.8465E-08  0.1060E-07  0.1334E-07  0.1636E-07  0.1988E-07  0.2428E-07  0.2884E-07  0.3477E-07  0.4128E-07  0.4887E-07  0.5794E-07  0.6801E-07  0.1099E-06  0.1838E-06  0.3232E-06  0.5869E-06  0.9494E-06  0.1449E-05  0.2052E-05  0.2714E-05  0.3416E-05  0.4130E-05  0.4836E-05  0.5515E-05  0.6122E-05  0.6615E-05  0.6930E-05  0.7044E-05  0.6921E-05  0.6536E-05  0.5928E-05  0.5151E-05  0.4268E-05  0.3375E-05  0.2542E-05  0.1821E-05  0.1239E-05  0.8011E-06  0.4976E-06  0.3044E-06  0.1823E-06  0.1090E-06  0.6733E-07  0.4239E-07  0.2799E-07  0.1838E-07  0.1181E-07  0.7338E-08  0.4452E-08  0.2457E-08  0.1206E-08  0.3897E-09  0.0000E+00  0.0000E+00  0.0000E+00  0.0000E+00  0.0000E+00  0.0000E+00  0.0000E+00  0.0000E+00  0.0000E+00  0.0000E+00
  0.0000E+00  0.0000E+00  0.0000E+00  0.0000E+00  0.0000E+00  0.0000E+00  0.0000E+00  0.0000E+00  0.1447E-09  0.4477E-09  0.6693E-09  0.1259E-08  0.1948E-08  0.2811E-08  0.3840E-08  0.5105E-08  0.6601E-08  0.8602E-08  0.1077E-07  0.1354E-07  0.1681E-07  0.2014E-07  0.2458E-07  0.2917E-07  0.3512E-07  0.4158E-07  0.4996E-07  0.5892E-07  0.6945E-07  0.1213E-06  0.2230E-06  0.3842E-06  0.7014E-06  0.1155E-05  0.1755E-05  0.2478E-05  0.3251E-05  0.4084E-05  0.4911E-05  0.5717E-05  0.6460E-05  0.7086E-05  0.7526E-05  0.7735E-05  0.7672E-05  0.7308E-05  0.6695E-05  0.5863E-05  0.4912E-05  0.3937E-05  0.3020E-05  0.2218E-05  0.1559E-05  0.1050E-05  0.6765E-06  0.4235E-06  0.2631E-06  0.1605E-06  0.9966E-07  0.6124E-07  0.4193E-07  0.2811E-07  0.1865E-07  0.1203E-07  0.7637E-08  0.4658E-08  0.2584E-08  0.1323E-08  0.4923E-09  0.7111E-10  0.0000E+00  0.0000E+00  0.0000E+00  0.0000E+00  0.0000E+00  0.0000E+00  0.0000E+00  0.0000E+00  0.0000E+00
  0.0000E+00  0.0000E+00  0.0000E+00  0.0000E+00  0.0000E+00  0.0000E+00  0.0000E+00  0.1226E-09  0.1467E-09  0.4538E-09  0.6787E-09  0.1275E-08  0.1973E-08  0.2846E-08  0.3885E-08  0.5163E-08  0.6861E-08  0.8686E-08  0.1087E-07  0.1365E-07  0.1693E-07  0.2027E-07  0.2493E-07  0.3002E-07  0.3648E-07  0.4327E-07  0.5195E-07  0.6134E-07  0.7212E-07  0.1367E-06  0.2555E-06  0.4467E-06  0.8415E-06  0.1407E-05  0.2119E-05  0.3002E-05  0.3907E-05  0.4884E-05  0.5825E-05  0.6730E-05  0.7498E-05  0.8078E-05  0.8393E-05  0.8383E-05  0.8040E-05  0.7389E-05  0.6493E-05  0.5459E-05  0.4401E-05  0.3406E-05  0.2535E-05  0.1817E-05  0.1259E-05  0.8420E-06  0.5439E-06  0.3454E-06  0.2201E-06  0.1382E-06  0.8939E-07  0.5938E-07  0.4090E-07  0.2775E-07  0.1855E-07  0.1219E-07  0.7791E-08  0.4782E-08  0.2721E-08  0.1374E-08  0.5138E-09  0.7448E-10  0.0000E+00  0.0000E+00  0.0000E+00  0.0000E+00  0.0000E+00  0.0000E+00  0.0000E+00  0.0000E+00  0.0000E+00
  0.0000E+00  0.0000E+00  0.0000E+00  0.0000E+00  0.0000E+00  0.0000E+00  0.0000E+00  0.1237E-09  0.1480E-09  0.4574E-09  0.6844E-09  0.1285E-08  0.1987E-08  0.2865E-08  0.3909E-08  0.5191E-08  0.6892E-08  0.8718E-08  0.1090E-07  0.1368E-07  0.1694E-07  0.2126E-07  0.2597E-07  0.3165E-07  0.3865E-07  0.4666E-07  0.5543E-07  0.6536E-07  0.7655E-07  0.1505E-06  0.2957E-06  0.5401E-06  0.1031E-05  0.1700E-05  0.2596E-05  0.3628E-05  0.4726E-05  0.5840E-05  0.6920E-05  0.7878E-05  0.8604E-05  0.9033E-05  0.9092E-05  0.8752E-05  0.8044E-05  0.7050E-05  0.5911E-05  0.4754E-05  0.3681E-05  0.2752E-05  0.1995E-05  0.1408E-05  0.9650E-06  0.6468E-06  0.4228E-06  0.2746E-06  0.1772E-06  0.1166E-06  0.7863E-07  0.5591E-07  0.3931E-07  0.2706E-07  0.1817E-07  0.1203E-07  0.7794E-08  0.4818E-08  0.2760E-08  0.1403E-08  0.6436E-09  0.7671E-10  0.0000E+00  0.0000E+00  0.0000E+00  0.0000E+00  0.0000E+00  0.0000E+00  0.0000E+00  0.0000E+00  0.0000E+00
  0.0000E+00  0.0000E+00  0.0000E+00  0.0000E+00  0.0000E+00  0.0000E+00  0.0000E+00  0.1241E-09  0.1485E-09  0.4585E-09  0.6863E-09  0.1287E-08  0.1990E-08  0.2868E-08  0.3910E-08  0.5188E-08  0.6694E-08  0.8696E-08  0.1110E-07  0.1437E-07  0.1798E-07  0.2309E-07  0.2844E-07  0.3486E-07  0.4187E-07  0.5010E-07  0.6061E-07  0.7206E-07  0.8540E-07  0.1802E-06  0.3668E-06  0.6728E-06  0.1280E-05  0.2142E-05  0.3220E-05  0.4453E-05  0.5764E-05  0.7049E-05  0.8217E-05  0.9137E-05  0.9689E-05  0.9815E-05  0.9469E-05  0.8678E-05  0.7554E-05  0.6277E-05  0.4995E-05  0.3839E-05  0.2860E-05  0.2081E-05  0.1483E-05  0.1035E-05  0.7102E-06  0.4815E-06  0.3225E-06  0.2157E-06  0.1440E-06  0.9877E-07  0.7274E-07  0.5202E-07  0.3648E-07  0.2542E-07  0.1739E-07  0.1158E-07  0.7535E-08  0.4655E-08  0.2751E-08  0.1408E-08  0.6491E-09  0.1469E-09  0.0000E+00  0.0000E+00  0.0000E+00  0.0000E+00  0.0000E+00  0.0000E+00  0.0000E+00  0.0000E+00  0.0000E+00
  0.0000E+00  0.0000E+00  0.0000E+00  0.0000E+00  0.0000E+00  0.0000E+00  0.0000E+00  0.1238E-09  0.1482E-09  0.4571E-09  0.6844E-09  0.1282E-08  0.1982E-08  0.2854E-08  0.3888E-08  0.5154E-08  0.6645E-08  0.9184E-08  0.1207E-07  0.1575E-07  0.2044E-07  0.2531E-07  0.3232E-07  0.3961E-07  0.4856E-07  0.5912E-07  0.7174E-07  0.8484E-07  0.1069E-06  0.2243E-06  0.4566E-06  0.8879E-06  0.1656E-05  0.2701E-05  0.4073E-05  0.5571E-05  0.7112E-05  0.8528E-05  0.9679E-05  0.1040E-04  0.1058E-04  0.1022E-04  0.9321E-05  0.8040E-05  0.6578E-05  0.5147E-05  0.3892E-05  0.2872E-05  0.2079E-05  0.1486E-05  0.1051E-05  0.7337E-06  0.5113E-06  0.3529E-06  0.2419E-06  0.1636E-06  0.1175E-06  0.8869E-07  0.6531E-07  0.4758E-07  0.3390E-07  0.2365E-07  0.1611E-07  0.1072E-07  0.6948E-08  0.4350E-08  0.2545E-08  0.1390E-08  0.5709E-09  0.1464E-09  0.0000E+00  0.0000E+00  0.0000E+00  0.0000E+00  0.0000E+00  0.0000E+00  0.0000E+00  0.0000E+00  0.0000E+00
  0.0000E+00  0.0000E+00  0.0000E+00  0.0000E+00  0.0000E+00  0.0000E+00  0.0000E+00  0.1229E-09  0.1471E-09  0.4531E-09  0.6787E-09  0.1270E-08  0.1818E-08  0.2824E-08  0.3843E-08  0.5298E-08  0.7442E-08  0.1028E-07  0.1357E-07  0.1826E-07  0.2358E-07  0.3059E-07  0.3842E-07  0.4820E-07  0.6347E-07  0.7905E-07  0.9620E-07  0.1133E-06  0.1308E-06  0.3020E-06  0.6276E-06  0.1233E-05  0.2175E-05  0.3536E-05  0.5261E-05  0.7052E-05  0.8794E-05  0.1022E-04  0.1112E-04  0.1140E-04  0.1101E-04  0.9981E-05  0.8504E-05  0.6833E-05  0.5227E-05  0.3858E-05  0.2790E-05  0.1996E-05  0.1428E-05  0.1013E-05  0.7225E-06  0.5096E-06  0.3601E-06  0.2552E-06  0.1819E-06  0.1346E-06  0.1031E-06  0.7799E-07  0.5854E-07  0.4270E-07  0.3039E-07  0.2163E-07  0.1497E-07  0.1004E-07  0.6542E-08  0.4111E-08  0.2454E-08  0.1349E-08  0.5575E-09  0.7574E-10  0.0000E+00  0.0000E+00  0.0000E+00  0.0000E+00  0.0000E+00  0.0000E+00  0.0000E+00  0.0000E+00  0.0000E+00
  0.0000E+00  0.0000E+00  0.0000E+00  0.0000E+00  0.0000E+00  0.0000E+00  0.0000E+00  0.0000E+00  0.1452E-09  0.4467E-09  0.6693E-09  0.1251E-08  0.1791E-08  0.2778E-08  0.3970E-08  0.5980E-08  0.8395E-08  0.1195E-07  0.1624E-07  0.2198E-07  0.2861E-07  0.3972E-07  0.5165E-07  0.6476E-07  0.8272E-07  0.1013E-06  0.1207E-06  0.1409E-06  0.1852E-06  0.3869E-06  0.8412E-06  0.1679E-05  0.2976E-05  0.4757E-05  0.6828E-05  0.8891E-05  0.1063E-04  0.1178E-04  0.1217E-04  0.1176E-04  0.1061E-04  0.8919E-05  0.7039E-05  0.5246E-05  0.3773E-05  0.2661E-05  0.1872E-05  0.1324E-05  0.9452E-06  0.6784E-06  0.4925E-06  0.3510E-06  0.2566E-06  0.1968E-06  0.1509E-06  0.1169E-06  0.8942E-07  0.6824E-07  0.5120E-07  0.3789E-07  0.2737E-07  0.1931E-07  0.1339E-07  0.9174E-08  0.5997E-08  0.3868E-08  0.2238E-08  0.1209E-08  0.4195E-09  0.7293E-10  0.0000E+00  0.0000E+00  0.0000E+00  0.0000E+00  0.0000E+00  0.0000E+00  0.0000E+00  0.0000E+00  0.0000E+00
  0.0000E+00  0.0000E+00  0.0000E+00  0.0000E+00  0.0000E+00  0.0000E+00  0.0000E+00  0.0000E+00  0.1426E-09  0.3078E-09  0.6564E-09  0.1083E-08  0.1754E-08  0.2981E-08  0.4671E-08  0.7048E-08  0.1014E-07  0.1408E-07  0.2072E-07  0.2855E-07  0.3792E-07  0.5078E-07  0.6526E-07  0.8065E-07  0.9709E-07  0.1152E-06  0.1337E-06  0.1543E-06  0.2667E-06  0.5605E-06  0.1232E-05  0.2417E-05  0.4166E-05  0.6409E-05  0.8787E-05  0.1084E-04  0.1223E-04  0.1274E-04  0.1234E-04  0.1111E-04  0.9236E-05  0.7135E-05  0.5193E-05  0.3624E-05  0.2490E-05  0.1725E-05  0.1214E-05  0.8778E-06  0.6253E-06  0.4523E-06  0.3335E-06  0.2590E-06  0.2046E-06  0.1604E-06  0.1279E-06  0.1012E-06  0.7744E-07  0.5854E-07  0.4457E-07  0.3293E-07  0.2377E-07  0.1725E-07  0.1192E-07  0.8066E-08  0.5230E-08  0.3339E-08  0.1951E-08  0.1013E-08  0.3969E-09  0.0000E+00  0.0000E+00  0.0000E+00  0.0000E+00  0.0000E+00  0.0000E+00  0.0000E+00  0.0000E+00  0.0000E+00  0.0000E+00
  0.0000E+00  0.0000E+00  0.0000E+00  0.0000E+00  0.0000E+00  0.0000E+00  0.0000E+00  0.0000E+00  0.1393E-09  0.3006E-09  0.6401E-09  0.1156E-08  0.2047E-08  0.3393E-08  0.5663E-08  0.8420E-08  0.1281E-07  0.1874E-07  0.2592E-07  0.3549E-07  0.4664E-07  0.5916E-07  0.7288E-07  0.8811E-07  0.1052E-06  0.1241E-06  0.1451E-06  0.1971E-06  0.3968E-06  0.9090E-06  0.1881E-05  0.3543E-05  0.5821E-05  0.8421E-05  0.1077E-04  0.1239E-04  0.1303E-04  0.1265E-04  0.1138E-04  0.9398E-05  0.7127E-05  0.5040E-05  0.3402E-05  0.2275E-05  0.1555E-05  0.1101E-05  0.7912E-06  0.5838E-06  0.4474E-06  0.3348E-06  0.2681E-06  0.2063E-06  0.1662E-06  0.1349E-06  0.1112E-06  0.8750E-07  0.6675E-07  0.5047E-07  0.3793E-07  0.2841E-07  0.2081E-07  0.1478E-07  0.1043E-07  0.7185E-08  0.4681E-08  0.2897E-08  0.1707E-08  0.8588E-09  0.2975E-09  0.0000E+00  0.0000E+00  0.0000E+00  0.0000E+00  0.0000E+00  0.0000E+00  0.0000E+00  0.0000E+00  0.0000E+00  0.0000E+00
  0.0000E+00  0.0000E+00  0.0000E+00  0.0000E+00  0.0000E+00  0.0000E+00  0.0000E+00  0.0000E+00  0.1353E-09  0.2920E-09  0.6979E-09  0.1143E-08  0.2425E-08  0.4175E-08  0.6829E-08  0.1076E-07  0.1564E-07  0.2303E-07  0.3073E-07  0.3994E-07  0.5062E-07  0.6340E-07  0.7759E-07  0.9473E-07  0.1139E-06  0.1359E-06  0.1605E-06  0.2799E-06  0.6431E-06  0.1485E-05  0.2938E-05  0.5136E-05  0.7784E-05  0.1033E-04  0.1217E-04  0.1293E-04  0.1264E-04  0.1139E-04  0.9377E-05  0.6995E-05  0.4820E-05  0.3153E-05  0.2046E-05  0.1365E-05  0.9650E-06  0.7099E-06  0.5608E-06  0.4520E-06  0.3608E-06  0.2902E-06  0.2311E-06  0.1805E-06  0.1379E-06  0.1169E-06  0.9597E-07  0.7614E-07  0.5761E-07  0.4328E-07  0.3246E-07  0.2398E-07  0.1750E-07  0.1276E-07  0.8880E-08  0.5979E-08  0.4028E-08  0.2557E-08  0.1502E-08  0.7420E-09  0.2343E-09  0.0000E+00  0.0000E+00  0.0000E+00  0.0000E+00  0.0000E+00  0.0000E+00  0.0000E+00  0.0000E+00  0.0000E+00  0.0000E+00
  0.0000E+00  0.0000E+00  0.0000E+00  0.0000E+00  0.0000E+00  0.0000E+00  0.0000E+00  0.0000E+00  0.1308E-09  0.2822E-09  0.6699E-09  0.1559E-08  0.2838E-08  0.5066E-08  0.8439E-08  0.1288E-07  0.1888E-07  0.2527E-07  0.3348E-07  0.4273E-07  0.5444E-07  0.6812E-07  0.8450E-07  0.1033E-06  0.1257E-06  0.1509E-06  0.2330E-06  0.4999E-06  0.1167E-05  0.2448E-05  0.4465E-05  0.7073E-05  0.9634E-05  0.1157E-04  0.1245E-04  0.1229E-04  0.1111E-04  0.9142E-05  0.6743E-05  0.4521E-05  0.2860E-05  0.1793E-05  0.1204E-05  0.8575E-06  0.6607E-06  0.5368E-06  0.4438E-06  0.3736E-06  0.3193E-06  0.2681E-06  0.2099E-06  0.1703E-06  0.1344E-06  0.1013E-06  0.8325E-07  0.6636E-07  0.5045E-07  0.3692E-07  0.2792E-07  0.2029E-07  0.1484E-07  0.1056E-07  0.7635E-08  0.5111E-08  0.3308E-08  0.1958E-08  0.1144E-08  0.5600E-09  0.1479E-09  0.0000E+00  0.0000E+00  0.0000E+00  0.0000E+00  0.0000E+00  0.0000E+00  0.0000E+00  0.0000E+00  0.0000E+00  0.0000E+00
  0.0000E+00  0.0000E+00  0.0000E+00  0.0000E+00  0.0000E+00  0.0000E+00  0.0000E+00  0.0000E+00  0.1257E-09  0.2491E-09  0.8220E-09  0.1649E-08  0.3400E-08  0.6384E-08  0.9912E-08  0.1473E-07  0.2040E-07  0.2723E-07  0.3566E-07  0.4630E-07  0.5892E-07  0.7404E-07  0.9197E-07  0.1129E-06  0.1375E-06  0.1882E-06  0.3753E-06  0.8896E-06  0.2013E-05  0.3896E-05  0.6357E-05  0.8894E-05  0.1081E-04  0.1172E-04  0.1161E-04  0.1059E-04  0.8735E-05  0.6406E-05  0.4192E-05  0.2566E-05  0.1584E-05  0.1065E-05  0.7516E-06  0.6123E-06  0.5174E-06  0.4483E-06  0.3836E-06  0.3299E-06  0.2826E-06  0.2468E-06  0.2111E-06  0.1668E-06  0.1345E-06  0.1017E-06  0.7474E-07  0.5743E-07  0.4381E-07  0.3250E-07  0.2399E-07  0.1760E-07  0.1231E-07  0.8918E-08  0.6179E-08  0.4210E-08  0.2821E-08  0.1665E-08  0.8910E-09  0.3168E-09  0.0000E+00  0.0000E+00  0.0000E+00  0.0000E+00  0.0000E+00  0.0000E+00  0.0000E+00  0.0000E+00  0.0000E+00  0.0000E+00  0.0000E+00
  0.0000E+00  0.0000E+00  0.0000E+00  0.0000E+00  0.0000E+00  0.0000E+00  0.0000E+00  0.0000E+00  0.3713E-10  0.3663E-09  0.8285E-09  0.2174E-08  0.4388E-08  0.7345E-08  0.1133E-07  0.1575E-07  0.2178E-07  0.2889E-07  0.3798E-07  0.4948E-07  0.6311E-07  0.7987E-07  0.9923E-07  0.1223E-06  0.1482E-06  0.2673E-06  0.6683E-06  0.1629E-05  0.3343E-05  0.5718E-05  0.8215E-05  0.1003E-04  0.1085E-04  0.1076E-04  0.9869E-05  0.8203E-05  0.5994E-05  0.3847E-05  0.2346E-05  0.1544E-05  0.1100E-05  0.7626E-06  0.6159E-06  0.5355E-06  0.4758E-06  0.4242E-06  0.3738E-06  0.3310E-06  0.2895E-06  0.2443E-06  0.2124E-06  0.1760E-06  0.1356E-06  0.1046E-06  0.7532E-07  0.5235E-07  0.3855E-07  0.2855E-07  0.2141E-07  0.1508E-07  0.1070E-07  0.7336E-08  0.5109E-08  0.3398E-08  0.2119E-08  0.1232E-08  0.7329E-09  0.2366E-09  0.0000E+00  0.0000E+00  0.0000E+00  0.0000E+00  0.0000E+00  0.0000E+00  0.0000E+00  0.0000E+00  0.0000E+00  0.0000E+00  0.0000E+00
  0.0000E+00  0.0000E+00  0.0000E+00  0.0000E+00  0.0000E+00  0.0000E+00  0.0000E+00  0.0000E+00  0.6995E-10  0.4805E-09  0.1075E-08  0.2925E-08  0.4918E-08  0.7788E-08  0.1173E-07  0.1643E-07  0.2267E-07  0.3072E-07  0.4082E-07  0.5323E-07  0.6816E-07  0.8620E-07  0.1069E-06  0.1321E-06  0.2042E-06  0.4885E-06  0.1272E-05  0.2812E-05  0.5117E-05  0.7586E-05  0.9353E-05  0.1002E-04  0.9842E-05  0.9076E-05  0.7613E-05  0.5540E-05  0.3550E-05  0.2260E-05  0.1745E-05  0.1666E-05  0.1361E-05  0.9496E-06  0.6656E-06  0.5520E-06  0.4989E-06  0.4530E-06  0.4055E-06  0.3520E-06  0.3094E-06  0.2625E-06  0.2221E-06  0.1816E-06  0.1464E-06  0.1090E-06  0.7994E-07  0.5407E-07  0.3555E-07  0.2539E-07  0.1876E-07  0.1384E-07  0.9372E-08  0.6515E-08  0.3942E-08  0.2715E-08  0.1752E-08  0.9322E-09  0.3825E-09  0.7363E-10  0.0000E+00  0.0000E+00  0.0000E+00  0.0000E+00  0.0000E+00  0.0000E+00  0.0000E+00  0.0000E+00  0.0000E+00  0.0000E+00  0.0000E+00
  0.0000E+00  0.0000E+00  0.0000E+00  0.0000E+00  0.0000E+00  0.0000E+00  0.0000E+00  0.0000E+00  0.2322E-09  0.6714E-09  0.1521E-08  0.3119E-08  0.5183E-08  0.8322E-08  0.1234E-07  0.1763E-07  0.2442E-07  0.3307E-07  0.4381E-07  0.5720E-07  0.7334E-07  0.9260E-07  0.1156E-06  0.1495E-06  0.3248E-06  0.9206E-06  0.2289E-05  0.4483E-05  0.6945E-05  0.8664E-05  0.9167E-05  0.8848E-05  0.8206E-05  0.6969E-05  0.5077E-05  0.3200E-05  0.2111E-05  0.1927E-05  0.2451E-05  0.2895E-05  0.2329E-05  0.1416E-05  0.8460E-06  0.6229E-06  0.5430E-06  0.4885E-06  0.4364E-06  0.3872E-06  0.3278E-06  0.2855E-06  0.2343E-06  0.1959E-06  0.1531E-06  0.1201E-06  0.8496E-07  0.5948E-07  0.3929E-07  0.2347E-07  0.1700E-07  0.1241E-07  0.8779E-08  0.5451E-08  0.3619E-08  0.2057E-08  0.1185E-08  0.7420E-09  0.2876E-09  0.0000E+00  0.0000E+00  0.0000E+00  0.0000E+00  0.0000E+00  0.0000E+00  0.0000E+00  0.0000E+00  0.0000E+00  0.0000E+00  0.0000E+00  0.0000E+00
  0.0000E+00  0.0000E+00  0.0000E+00  0.0000E+00  0.0000E+00  0.0000E+00  0.0000E+00  0.1683E-09  0.3751E-09  0.7873E-09  0.1703E-08  0.3368E-08  0.5929E-08  0.8950E-08  0.1337E-07  0.1880E-07  0.2603E-07  0.3521E-07  0.4699E-07  0.6155E-07  0.7923E-07  0.1001E-06  0.1252E-06  0.2244E-06  0.6507E-06  0.1800E-05  0.3884E-05  0.6269E-05  0.7941E-05  0.8232E-05  0.7716E-05  0.7146E-05  0.6226E-05  0.4589E-05  0.2841E-05  0.1781E-05  0.1704E-05  0.2617E-05  0.3795E-05  0.4014E-05  0.3116E-05  0.1843E-05  0.1028E-05  0.7059E-06  0.5928E-06  0.5284E-06  0.4700E-06  0.4140E-06  0.3620E-06  0.3082E-06  0.2580E-06  0.2068E-06  0.1676E-06  0.1271E-06  0.9522E-07  0.6589E-07  0.4297E-07  0.2736E-07  0.1567E-07  0.1186E-07  0.8140E-08  0.5582E-08  0.3085E-08  0.1745E-08  0.8997E-09  0.3791E-09  0.7260E-10  0.0000E+00  0.0000E+00  0.0000E+00  0.0000E+00  0.0000E+00  0.0000E+00  0.0000E+00  0.0000E+00  0.0000E+00  0.0000E+00  0.0000E+00  0.0000E+00
  0.0000E+00  0.0000E+00  0.0000E+00  0.0000E+00  0.0000E+00  0.0000E+00  0.1668E-09  0.3725E-09  0.6239E-09  0.1077E-08  0.1981E-08  0.3844E-08  0.6371E-08  0.9498E-08  0.1399E-07  0.1973E-07  0.2785E-07  0.3811E-07  0.5083E-07  0.6637E-07  0.8549E-07  0.1081E-06  0.1450E-06  0.3572E-06  0.1217E-05  0.3318E-05  0.6210E-05  0.8030E-05  0.7761E-05  0.6586E-05  0.5899E-05  0.5318E-05  0.3995E-05  0.2491E-05  0.1541E-05  0.1283E-05  0.2016E-05  0.3312E-05  0.3862E-05  0.3719E-05  0.2857E-05  0.1752E-05  0.1048E-05  0.7637E-06  0.6461E-06  0.5730E-06  0.5070E-06  0.4449E-06  0.3868E-06  0.3338E-06  0.2817E-06  0.2291E-06  0.1806E-06  0.1418E-06  0.1031E-06  0.7453E-07  0.4964E-07  0.3074E-07  0.1879E-07  0.1110E-07  0.7949E-08  0.5271E-08  0.3333E-08  0.1535E-08  0.4736E-09  0.2748E-09  0.0000E+00  0.0000E+00  0.0000E+00  0.0000E+00  0.0000E+00  0.0000E+00  0.0000E+00  0.0000E+00  0.0000E+00  0.0000E+00  0.0000E+00  0.0000E+00  0.0000E+00
  0.0000E+00  0.0000E+00  0.0000E+00  0.0000E+00  0.0000E+00  0.8540E-10  0.2862E-09  0.6096E-09  0.9092E-09  0.1349E-08  0.2371E-08  0.4280E-08  0.6828E-08  0.1029E-07  0.1505E-07  0.2139E-07  0.3020E-07  0.4094E-07  0.5449E-07  0.7155E-07  0.9226E-07  0.1172E-06  0.1716E-06  0.4475E-06  0.1603E-05  0.4428E-05  0.8158E-05  0.1004E-04  0.9046E-05  0.7210E-05  0.5454E-05  0.3536E-05  0.2091E-05  0.1342E-05  0.1104E-05  0.1368E-05  0.2188E-05  0.2484E-05  0.2395E-05  0.2133E-05  0.1734E-05  0.1297E-05  0.9784E-06  0.8044E-06  0.6998E-06  0.6192E-06  0.5459E-06  0.4775E-06  0.4144E-06  0.3566E-06  0.3042E-06  0.2517E-06  0.2012E-06  0.1555E-06  0.1171E-06  0.8320E-07  0.5932E-07  0.3762E-07  0.2238E-07  0.1306E-07  0.7948E-08  0.5387E-08  0.3321E-08  0.1451E-08  0.5818E-09  0.0000E+00  0.0000E+00  0.0000E+00  0.0000E+00  0.0000E+00  0.0000E+00  0.0000E+00  0.0000E+00  0.0000E+00  0.0000E+00  0.0000E+00  0.0000E+00  0.0000E+00  0.0000E+00
  0.0000E+00  0.0000E+00  0.0000E+00  0.0000E+00  0.8223E-10  0.2757E-09  0.5140E-09  0.8059E-09  0.1160E-08  0.1658E-08  0.2863E-08  0.4783E-08  0.7427E-08  0.1121E-07  0.1608E-07  0.2289E-07  0.3233E-07  0.4397E-07  0.5887E-07  0.7719E-07  0.9967E-07  0.1266E-06  0.1737E-06  0.3822E-06  0.1185E-05  0.3089E-05  0.5638E-05  0.7438E-05  0.8060E-05  0.7843E-05  0.6436E-05  0.4272E-05  0.2283E-05  0.1100E-05  0.1202E-05  0.1202E-05  0.1271E-05  0.1329E-05  0.1364E-05  0.1350E-05  0.1261E-05  0.1110E-05  0.9672E-06  0.8512E-06  0.7527E-06  0.6656E-06  0.5863E-06  0.5121E-06  0.4433E-06  0.3810E-06  0.3245E-06  0.2716E-06  0.2222E-06  0.1739E-06  0.1304E-06  0.9518E-07  0.6537E-07  0.4438E-07  0.2770E-07  0.1601E-07  0.9039E-08  0.5495E-08  0.3390E-08  0.1727E-08  0.4905E-09  0.0000E+00  0.0000E+00  0.0000E+00  0.0000E+00  0.0000E+00  0.0000E+00  0.0000E+00  0.0000E+00  0.0000E+00  0.0000E+00  0.0000E+00  0.0000E+00  0.0000E+00  0.0000E+00
  0.0000E+00  0.0000E+00  0.0000E+00  0.0000E+00  0.1837E-09  0.4111E-09  0.6907E-09  0.1032E-08  0.1447E-08  0.2009E-08  0.3324E-08  0.5348E-08  0.8086E-08  0.1191E-07  0.1746E-07  0.2482E-07  0.3494E-07  0.4737E-07  0.6345E-07  0.8333E-07  0.1078E-06  0.1370E-06  0.1725E-06  0.2603E-06  0.5138E-06  0.1040E-05  0.1735E-05  0.2497E-05  0.3165E-05  0.3073E-05  0.2190E-05  0.1474E-05  0.1355E-05  0.1267E-05  0.1125E-05  0.1187E-05  0.1244E-05  0.1292E-05  0.1320E-05  0.1303E-05  0.1232E-05  0.1123E-05  0.1008E-05  0.9001E-06  0.8021E-06  0.7112E-06  0.6257E-06  0.5462E-06  0.4727E-06  0.4057E-06  0.3454E-06  0.2913E-06  0.2403E-06  0.1908E-06  0.1445E-06  0.1059E-06  0.7680E-07  0.5134E-07  0.3331E-07  0.1955E-07  0.1134E-07  0.5680E-08  0.3665E-08  0.2008E-08  0.7665E-09  0.2332E-09  0.0000E+00  0.0000E+00  0.0000E+00  0.0000E+00  0.0000E+00  0.0000E+00  0.0000E+00  0.0000E+00  0.0000E+00  0.0000E+00  0.0000E+00  0.0000E+00  0.0000E+00
  0.0000E+00  0.0000E+00  0.1432E-11  0.1764E-09  0.3925E-09  0.6580E-09  0.9803E-09  0.1309E-08  0.1791E-08  0.2471E-08  0.3847E-08  0.5780E-08  0.8988E-08  0.1295E-07  0.1902E-07  0.2689E-07  0.3748E-07  0.5128E-07  0.6879E-07  0.9003E-07  0.1169E-06  0.1486E-06  0.1862E-06  0.2313E-06  0.2968E-06  0.4031E-06  0.5643E-06  0.9799E-06  0.1435E-05  0.1735E-05  0.2376E-05  0.3164E-05  0.2135E-05  0.1273E-05  0.1196E-05  0.1234E-05  0.1288E-05  0.1325E-05  0.1337E-05  0.1308E-05  0.1240E-05  0.1147E-05  0.1046E-05  0.9440E-06  0.8463E-06  0.7522E-06  0.6636E-06  0.5793E-06  0.5013E-06  0.4303E-06  0.3666E-06  0.3092E-06  0.2571E-06  0.2070E-06  0.1613E-06  0.1198E-06  0.8502E-07  0.5964E-07  0.3911E-07  0.2518E-07  0.1358E-07  0.7710E-08  0.4203E-08  0.2503E-08  0.1290E-08  0.4830E-09  0.0000E+00  0.0000E+00  0.0000E+00  0.0000E+00  0.0000E+00  0.0000E+00  0.0000E+00  0.0000E+00  0.0000E+00  0.0000E+00  0.0000E+00  0.0000E+00  0.0000E+00
  0.0000E+00  0.2008E-11  0.8827E-10  0.2906E-09  0.5371E-09  0.8422E-09  0.1214E-08  0.1606E-08  0.2161E-08  0.3055E-08  0.4448E-08  0.6759E-08  0.9916E-08  0.1448E-07  0.2083E-07  0.2965E-07  0.4118E-07  0.5564E-07  0.7446E-07  0.9765E-07  0.1260E-06  0.1607E-06  0.2017E-06  0.2497E-06  0.3059E-06  0.4062E-06  0.6754E-06  0.1397E-05  0.2706E-05  0.4190E-05  0.4537E-05  0.2929E-05  0.1776E-05  0.1309E-05  0.1285E-05  0.1292E-05  0.1331E-05  0.1357E-05  0.1355E-05  0.1320E-05  0.1256E-05  0.1172E-05  0.1079E-05  0.9819E-06  0.8842E-06  0.7896E-06  0.6974E-06  0.6102E-06  0.5286E-06  0.4540E-06  0.3870E-06  0.3265E-06  0.2730E-06  0.2219E-06  0.1743E-06  0.1325E-06  0.9738E-07  0.6899E-07  0.4636E-07  0.3012E-07  0.1788E-07  0.9725E-08  0.4411E-08  0.2886E-08  0.1840E-08  0.7454E-09  0.2273E-09  0.0000E+00  0.0000E+00  0.0000E+00  0.0000E+00  0.0000E+00  0.0000E+00  0.0000E+00  0.0000E+00  0.0000E+00  0.0000E+00  0.0000E+00  0.0000E+00
  0.0000E+00  0.2821E-11  0.1906E-09  0.4218E-09  0.7057E-09  0.1048E-08  0.1407E-08  0.1923E-08  0.2699E-08  0.3807E-08  0.5519E-08  0.8060E-08  0.1151E-07  0.1652E-07  0.2334E-07  0.3253E-07  0.4473E-07  0.6053E-07  0.8047E-07  0.1057E-06  0.1364E-06  0.1733E-06  0.2176E-06  0.2695E-06  0.3395E-06  0.5463E-06  0.1293E-05  0.3154E-05  0.5362E-05  0.5344E-05  0.3382E-05  0.2387E-05  0.1839E-05  0.1474E-05  0.1427E-05  0.1388E-05  0.1390E-05  0.1395E-05  0.1379E-05  0.1338E-05  0.1277E-05  0.1199E-05  0.1110E-05  0.1015E-05  0.9180E-06  0.8222E-06  0.7279E-06  0.6374E-06  0.5533E-06  0.4759E-06  0.4061E-06  0.3430E-06  0.2864E-06  0.2350E-06  0.1880E-06  0.1444E-06  0.1072E-06  0.7739E-07  0.5321E-07  0.3536E-07  0.2158E-07  0.1156E-07  0.6166E-08  0.3294E-08  0.1933E-08  0.7826E-09  0.2388E-09  0.0000E+00  0.0000E+00  0.0000E+00  0.0000E+00  0.0000E+00  0.0000E+00  0.0000E+00  0.0000E+00  0.0000E+00  0.0000E+00  0.0000E+00  0.0000E+00
  0.3527E-11  0.9451E-10  0.3071E-09  0.5634E-09  0.8821E-09  0.1206E-08  0.1688E-08  0.2270E-08  0.3262E-08  0.4625E-08  0.6931E-08  0.9758E-08  0.1342E-07  0.1876E-07  0.2610E-07  0.3593E-07  0.4878E-07  0.6576E-07  0.8713E-07  0.1140E-06  0.1471E-06  0.1870E-06  0.2342E-06  0.2898E-06  0.3791E-06  0.7091E-06  0.1856E-05  0.4178E-05  0.5832E-05  0.4637E-05  0.2880E-05  0.2446E-05  0.2110E-05  0.1839E-05  0.1687E-05  0.1574E-05  0.1514E-05  0.1478E-05  0.1436E-05  0.1380E-05  0.1310E-05  0.1229E-05  0.1141E-05  0.1046E-05  0.9481E-06  0.8504E-06  0.7545E-06  0.6620E-06  0.5754E-06  0.4955E-06  0.4230E-06  0.3582E-06  0.3004E-06  0.2463E-06  0.1969E-06  0.1552E-06  0.1183E-06  0.8588E-07  0.6086E-07  0.4104E-07  0.2546E-07  0.1506E-07  0.8425E-08  0.4119E-08  0.2267E-08  0.1298E-08  0.4862E-09  0.0000E+00  0.0000E+00  0.0000E+00  0.0000E+00  0.0000E+00  0.0000E+00  0.0000E+00  0.0000E+00  0.0000E+00  0.0000E+00  0.0000E+00  0.0000E+00
  0.4546E-11  0.1985E-09  0.4361E-09  0.7202E-09  0.1007E-08  0.1440E-08  0.1919E-08  0.2739E-08  0.3946E-08  0.5914E-08  0.8285E-08  0.1163E-07  0.1572E-07  0.2146E-07  0.2920E-07  0.3969E-07  0.5349E-07  0.7153E-07  0.9444E-07  0.1233E-06  0.1583E-06  0.2010E-06  0.2515E-06  0.3106E-06  0.4087E-06  0.7434E-06  0.1856E-05  0.3904E-05  0.5482E-05  0.4935E-05  0.3425E-05  0.2607E-05  0.2364E-05  0.2252E-05  0.2096E-05  0.1912E-05  0.1760E-05  0.1647E-05  0.1550E-05  0.1457E-05  0.1365E-05  0.1271E-05  0.1175E-05  0.1076E-05  0.9754E-06  0.8749E-06  0.7770E-06  0.6829E-06  0.5942E-06  0.5122E-06  0.4382E-06  0.3711E-06  0.3109E-06  0.2563E-06  0.2071E-06  0.1639E-06  0.1268E-06  0.9496E-07  0.6776E-07  0.4666E-07  0.3028E-07  0.1831E-07  0.1010E-07  0.5356E-08  0.2616E-08  0.1585E-08  0.5061E-09  0.0000E+00  0.0000E+00  0.0000E+00  0.0000E+00  0.0000E+00  0.0000E+00  0.0000E+00  0.0000E+00  0.0000E+00  0.0000E+00  0.0000E+00  0.0000E+00
  0.9767E-10  0.3060E-09  0.5671E-09  0.8177E-09  0.1215E-08  0.1625E-08  0.2289E-08  0.3307E-08  0.4763E-08  0.7107E-08  0.9819E-08  0.1341E-07  0.1810E-07  0.2442E-07  0.3268E-07  0.4382E-07  0.5854E-07  0.7783E-07  0.1023E-06  0.1327E-06  0.1702E-06  0.2154E-06  0.2689E-06  0.3313E-06  0.4193E-06  0.7033E-06  0.1606E-05  0.3331E-05  0.5129E-05  0.5501E-05  0.4359E-05  0.3056E-05  0.2545E-05  0.2471E-05  0.2436E-05  0.2319E-05  0.2137E-05  0.1943E-05  0.1766E-05  0.1609E-05  0.1469E-05  0.1342E-05  0.1224E-05  0.1113E-05  0.1004E-05  0.8984E-06  0.7966E-06  0.7004E-06  0.6098E-06  0.5264E-06  0.4503E-06  0.3819E-06  0.3210E-06  0.2652E-06  0.2153E-06  0.1716E-06  0.1346E-06  0.1024E-06  0.7454E-07  0.5259E-07  0.3441E-07  0.2138E-07  0.1180E-07  0.6652E-08  0.2958E-08  0.1644E-08  0.7634E-09  0.2341E-09  0.0000E+00  0.0000E+00  0.0000E+00  0.0000E+00  0.0000E+00  0.0000E+00  0.0000E+00  0.0000E+00  0.0000E+00  0.0000E+00  0.0000E+00
  0.1991E-09  0.4252E-09  0.6320E-09  0.9853E-09  0.1351E-08  0.1896E-08  0.2638E-08  0.3878E-08  0.5693E-08  0.8158E-08  0.1126E-07  0.1545E-07  0.2053E-07  0.2764E-07  0.3656E-07  0.4859E-07  0.6429E-07  0.8441E-07  0.1102E-06  0.1425E-06  0.1821E-06  0.2298E-06  0.2861E-06  0.3517E-06  0.4265E-06  0.6563E-06  0.1351E-05  0.2800E-05  0.4665E-05  0.5760E-05  0.5239E-05  0.3825E-05  0.2831E-05  0.2551E-05  0.2545E-05  0.2542E-05  0.2444E-05  0.2259E-05  0.2040E-05  0.1823E-05  0.1626E-05  0.1452E-05  0.1300E-05  0.1163E-05  0.1038E-05  0.9229E-06  0.8154E-06  0.7152E-06  0.6224E-06  0.5373E-06  0.4599E-06  0.3903E-06  0.3274E-06  0.2718E-06  0.2214E-06  0.1784E-06  0.1401E-06  0.1082E-06  0.8133E-07  0.5733E-07  0.3899E-07  0.2473E-07  0.1400E-07  0.7744E-08  0.3488E-08  0.1944E-08  0.1019E-08  0.2417E-09  0.0000E+00  0.0000E+00  0.0000E+00  0.0000E+00  0.0000E+00  0.0000E+00  0.0000E+00  0.0000E+00  0.0000E+00  0.0000E+00  0.0000E+00
  0.2209E-09  0.4793E-09  0.7820E-09  0.1086E-08  0.1556E-08  0.2151E-08  0.3080E-08  0.4506E-08  0.6532E-08  0.9315E-08  0.1289E-07  0.1729E-07  0.2330E-07  0.3103E-07  0.4089E-07  0.5355E-07  0.7019E-07  0.9150E-07  0.1185E-06  0.1525E-06  0.1939E-06  0.2438E-06  0.3028E-06  0.3708E-06  0.4480E-06  0.6233E-06  0.1156E-05  0.2334E-05  0.4093E-05  0.5619E-05  0.5843E-05  0.4727E-05  0.3371E-05  0.2666E-05  0.2496E-05  0.2503E-05  0.2488E-05  0.2387E-05  0.2211E-05  0.1999E-05  0.1781E-05  0.1577E-05  0.1392E-05  0.1228E-05  0.1081E-05  0.9497E-06  0.8325E-06  0.7270E-06  0.6315E-06  0.5452E-06  0.4667E-06  0.3963E-06  0.3329E-06  0.2772E-06  0.2269E-06  0.1826E-06  0.1446E-06  0.1141E-06  0.8657E-07  0.6286E-07  0.4375E-07  0.2839E-07  0.1656E-07  0.8846E-08  0.4398E-08  0.2237E-08  0.1047E-08  0.4808E-09  0.0000E+00  0.0000E+00  0.0000E+00  0.0000E+00  0.0000E+00  0.0000E+00  0.0000E+00  0.0000E+00  0.0000E+00  0.0000E+00  0.0000E+00
  0.3259E-09  0.5254E-09  0.8665E-09  0.1197E-08  0.1709E-08  0.2426E-08  0.3490E-08  0.5238E-08  0.7553E-08  0.1058E-07  0.1428E-07  0.1943E-07  0.2608E-07  0.3443E-07  0.4511E-07  0.5886E-07  0.7631E-07  0.9862E-07  0.1271E-06  0.1623E-06  0.2055E-06  0.2572E-06  0.3182E-06  0.3884E-06  0.4673E-06  0.6158E-06  0.1015E-05  0.1958E-05  0.3521E-05  0.5217E-05  0.6079E-05  0.5517E-05  0.4140E-05  0.2989E-05  0.2488E-05  0.2350E-05  0.2335E-05  0.2296E-05  0.2195E-05  0.2040E-05  0.1855E-05  0.1659E-05  0.1468E-05  0.1290E-05  0.1126E-05  0.9797E-06  0.8494E-06  0.7363E-06  0.6373E-06  0.5490E-06  0.4692E-06  0.3980E-06  0.3343E-06  0.2779E-06  0.2300E-06  0.1869E-06  0.1501E-06  0.1176E-06  0.8996E-07  0.6676E-07  0.4690E-07  0.3115E-07  0.1870E-07  0.1040E-07  0.5583E-08  0.2285E-08  0.1071E-08  0.4916E-09  0.0000E+00  0.0000E+00  0.0000E+00  0.0000E+00  0.0000E+00  0.0000E+00  0.0000E+00  0.0000E+00  0.0000E+00  0.0000E+00  0.0000E+00
  0.3540E-09  0.6498E-09  0.9380E-09  0.1365E-08  0.1857E-08  0.2636E-08  0.4028E-08  0.5840E-08  0.8413E-08  0.1162E-07  0.1590E-07  0.2154E-07  0.2864E-07  0.3781E-07  0.4929E-07  0.6400E-07  0.8256E-07  0.1058E-06  0.1353E-06  0.1719E-06  0.2164E-06  0.2696E-06  0.3318E-06  0.4033E-06  0.4837E-06  0.6137E-06  0.9278E-06  0.1698E-05  0.3063E-05  0.4758E-05  0.6013E-05  0.6093E-05  0.4981E-05  0.3584E-05  0.2675E-05  0.2290E-05  0.2166E-05  0.2125E-05  0.2071E-05  0.1972E-05  0.1832E-05  0.1670E-05  0.1498E-05  0.1325E-05  0.1159E-05  0.1004E-05  0.8648E-06  0.7430E-06  0.6389E-06  0.5499E-06  0.4703E-06  0.3993E-06  0.3367E-06  0.2811E-06  0.2314E-06  0.1877E-06  0.1522E-06  0.1199E-06  0.9399E-07  0.7025E-07  0.5008E-07  0.3376E-07  0.2084E-07  0.1148E-07  0.5719E-08  0.2759E-08  0.1090E-08  0.5005E-09  0.0000E+00  0.0000E+00  0.0000E+00  0.0000E+00  0.0000E+00  0.0000E+00  0.0000E+00  0.0000E+00  0.0000E+00  0.0000E+00  0.0000E+00
  0.4711E-09  0.6975E-09  0.1075E-08  0.1472E-08  0.2048E-08  0.2959E-08  0.4442E-08  0.6684E-08  0.9192E-08  0.1271E-07  0.1749E-07  0.2348E-07  0.3128E-07  0.4088E-07  0.5315E-07  0.6885E-07  0.8833E-07  0.1127E-06  0.1430E-06  0.1804E-06  0.2260E-06  0.2804E-06  0.3437E-06  0.4155E-06  0.4963E-06  0.6054E-06  0.8986E-06  0.1557E-05  0.2730E-05  0.4304E-05  0.5762E-05  0.6385E-05  0.5772E-05  0.4402E-05  0.3139E-05  0.2428E-05  0.2126E-05  0.2000E-05  0.1923E-05  0.1856E-05  0.1753E-05  0.1623E-05  0.1477E-05  0.1322E-05  0.1165E-05  0.1014E-05  0.8731E-06  0.7468E-06  0.6379E-06  0.5453E-06  0.4661E-06  0.3960E-06  0.3338E-06  0.2788E-06  0.2311E-06  0.1894E-06  0.1534E-06  0.1220E-06  0.9570E-07  0.7247E-07  0.5366E-07  0.3582E-07  0.2234E-07  0.1256E-07  0.6665E-08  0.2803E-08  0.1584E-08  0.5072E-09  0.0000E+00  0.0000E+00  0.0000E+00  0.0000E+00  0.0000E+00  0.0000E+00  0.0000E+00  0.0000E+00  0.0000E+00  0.0000E+00  0.0000E+00
  0.5006E-09  0.7401E-09  0.1137E-08  0.1575E-08  0.2274E-08  0.3330E-08  0.5057E-08  0.7185E-08  0.1006E-07  0.1388E-07  0.1891E-07  0.2533E-07  0.3357E-07  0.4384E-07  0.5678E-07  0.7313E-07  0.9349E-07  0.1187E-06  0.1498E-06  0.1878E-06  0.2342E-06  0.2890E-06  0.3526E-06  0.4246E-06  0.5050E-06  0.5977E-06  0.8914E-06  0.1466E-05  0.2457E-05  0.3835E-05  0.5335E-05  0.6357E-05  0.6331E-05  0.5258E-05  0.3841E-05  0.2778E-05  0.2222E-05  0.1972E-05  0.1844E-05  0.1745E-05  0.1647E-05  0.1543E-05  0.1419E-05  0.1284E-05  0.1143E-05  0.1003E-05  0.8684E-06  0.7442E-06  0.6340E-06  0.5395E-06  0.4599E-06  0.3911E-06  0.3300E-06  0.2771E-06  0.2304E-06  0.1883E-06  0.1534E-06  0.1239E-06  0.9713E-07  0.7417E-07  0.5456E-07  0.3788E-07  0.2459E-07  0.1405E-07  0.7222E-08  0.3277E-08  0.1597E-08  0.5117E-09  0.2294E-09  0.0000E+00  0.0000E+00  0.0000E+00  0.0000E+00  0.0000E+00  0.0000E+00  0.0000E+00  0.0000E+00  0.0000E+00  0.0000E+00
  0.5377E-09  0.7890E-09  0.1190E-08  0.1731E-08  0.2521E-08  0.3578E-08  0.5400E-08  0.7751E-08  0.1070E-07  0.1495E-07  0.2022E-07  0.2692E-07  0.3564E-07  0.4645E-07  0.5991E-07  0.7666E-07  0.9774E-07  0.1238E-06  0.1554E-06  0.1941E-06  0.2404E-06  0.2951E-06  0.3583E-06  0.4301E-06  0.5093E-06  0.6487E-06  0.9349E-06  0.1458E-05  0.2234E-05  0.3364E-05  0.4702E-05  0.5884E-05  0.6377E-05  0.5883E-05  0.4635E-05  0.3343E-05  0.2485E-05  0.2042E-05  0.1818E-05  0.1683E-05  0.1572E-05  0.1456E-05  0.1340E-05  0.1223E-05  0.1099E-05  0.9725E-06  0.8484E-06  0.7315E-06  0.6250E-06  0.5320E-06  0.4520E-06  0.3838E-06  0.3248E-06  0.2721E-06  0.2267E-06  0.1868E-06  0.1526E-06  0.1227E-06  0.9704E-07  0.7463E-07  0.5549E-07  0.3891E-07  0.2498E-07  0.1441E-07  0.7680E-08  0.3674E-08  0.1361E-08  0.5140E-09  0.2307E-09  0.0000E+00  0.0000E+00  0.0000E+00  0.0000E+00  0.0000E+00  0.0000E+00  0.0000E+00  0.0000E+00  0.0000E+00  0.0000E+00
  0.5591E-09  0.9429E-09  0.1321E-08  0.1836E-08  0.2679E-08  0.3926E-08  0.5749E-08  0.8206E-08  0.1153E-07  0.1584E-07  0.2140E-07  0.2843E-07  0.3742E-07  0.4853E-07  0.6224E-07  0.7942E-07  0.1009E-06  0.1272E-06  0.1596E-06  0.1984E-06  0.2444E-06  0.2986E-06  0.3611E-06  0.4316E-06  0.5094E-06  0.6787E-06  0.9640E-06  0.1418E-05  0.2070E-05  0.2979E-05  0.4071E-05  0.5161E-05  0.5898E-05  0.5930E-05  0.5165E-05  0.3978E-05  0.2906E-05  0.2236E-05  0.1866E-05  0.1655E-05  0.1512E-05  0.1387E-05  0.1272E-05  0.1155E-05  0.1041E-05  0.9286E-06  0.8170E-06  0.7091E-06  0.6094E-06  0.5203E-06  0.4420E-06  0.3743E-06  0.3151E-06  0.2654E-06  0.2216E-06  0.1834E-06  0.1506E-06  0.1220E-06  0.9610E-07  0.7532E-07  0.5613E-07  0.3957E-07  0.2624E-07  0.1582E-07  0.8563E-08  0.3696E-08  0.1361E-08  0.5140E-09  0.2310E-09  0.0000E+00  0.0000E+00  0.0000E+00  0.0000E+00  0.0000E+00  0.0000E+00  0.0000E+00  0.0000E+00  0.0000E+00  0.0000E+00
  0.6130E-09  0.1003E-08  0.1396E-08  0.1953E-08  0.2833E-08  0.4142E-08  0.6120E-08  0.8563E-08  0.1209E-07  0.1656E-07  0.2234E-07  0.2961E-07  0.3868E-07  0.5002E-07  0.6401E-07  0.8126E-07  0.1029E-06  0.1296E-06  0.1618E-06  0.2005E-06  0.2460E-06  0.2992E-06  0.3603E-06  0.4292E-06  0.5438E-06  0.7203E-06  0.9987E-06  0.1383E-05  0.1945E-05  0.2687E-05  0.3568E-05  0.4480E-05  0.5224E-05  0.5539E-05  0.5257E-05  0.4419E-05  0.3381E-05  0.2534E-05  0.2007E-05  0.1691E-05  0.1488E-05  0.1338E-05  0.1210E-05  0.1095E-05  0.9832E-06  0.8775E-06  0.7768E-06  0.6795E-06  0.5876E-06  0.5042E-06  0.4296E-06  0.3647E-06  0.3083E-06  0.2587E-06  0.2162E-06  0.1798E-06  0.1487E-06  0.1204E-06  0.9534E-07  0.7434E-07  0.5549E-07  0.4059E-07  0.2661E-07  0.1633E-07  0.8745E-08  0.3700E-08  0.1786E-08  0.5117E-09  0.2303E-09  0.0000E+00  0.0000E+00  0.0000E+00  0.0000E+00  0.0000E+00  0.0000E+00  0.0000E+00  0.0000E+00  0.0000E+00  0.0000E+00
  0.6426E-09  0.1056E-08  0.1491E-08  0.2079E-08  0.3113E-08  0.4574E-08  0.6491E-08  0.9085E-08  0.1262E-07  0.1717E-07  0.2304E-07  0.3034E-07  0.3944E-07  0.5099E-07  0.6502E-07  0.8234E-07  0.1037E-06  0.1300E-06  0.1618E-06  0.2000E-06  0.2449E-06  0.2966E-06  0.3560E-06  0.4224E-06  0.5538E-06  0.7389E-06  0.9922E-06  0.1347E-05  0.1837E-05  0.2454E-05  0.3182E-05  0.3937E-05  0.4611E-05  0.5025E-05  0.5020E-05  0.4544E-05  0.3743E-05  0.2888E-05  0.2220E-05  0.1789E-05  0.1508E-05  0.1314E-05  0.1164E-05  0.1038E-05  0.9290E-06  0.8275E-06  0.7329E-06  0.6446E-06  0.5612E-06  0.4832E-06  0.4133E-06  0.3510E-06  0.2969E-06  0.2495E-06  0.2089E-06  0.1738E-06  0.1437E-06  0.1172E-06  0.9359E-07  0.7350E-07  0.5559E-07  0.4077E-07  0.2676E-07  0.1694E-07  0.8774E-08  0.3887E-08  0.1780E-08  0.5071E-09  0.0000E+00  0.0000E+00  0.0000E+00  0.0000E+00  0.0000E+00  0.0000E+00  0.0000E+00  0.0000E+00  0.0000E+00  0.0000E+00  0.0000E+00
  0.6712E-09  0.1108E-08  0.1563E-08  0.2241E-08  0.3254E-08  0.4757E-08  0.6653E-08  0.9402E-08  0.1299E-07  0.1762E-07  0.2350E-07  0.3074E-07  0.3988E-07  0.5132E-07  0.6524E-07  0.8236E-07  0.1034E-06  0.1291E-06  0.1601E-06  0.1972E-06  0.2408E-06  0.2913E-06  0.3483E-06  0.4348E-06  0.5649E-06  0.7416E-06  0.9786E-06  0.1300E-05  0.1728E-05  0.2254E-05  0.2862E-05  0.3506E-05  0.4096E-05  0.4524E-05  0.4664E-05  0.4459E-05  0.3911E-05  0.3172E-05  0.2465E-05  0.1928E-05  0.1568E-05  0.1315E-05  0.1135E-05  0.9949E-06  0.8783E-06  0.7802E-06  0.6903E-06  0.6072E-06  0.5313E-06  0.4598E-06  0.3951E-06  0.3372E-06  0.2874E-06  0.2419E-06  0.2027E-06  0.1688E-06  0.1390E-06  0.1137E-06  0.9148E-07  0.7194E-07  0.5491E-07  0.4022E-07  0.2732E-07  0.1704E-07  0.8899E-08  0.3866E-08  0.1531E-08  0.5003E-09  0.0000E+00  0.0000E+00  0.0000E+00  0.0000E+00  0.0000E+00  0.0000E+00  0.0000E+00  0.0000E+00  0.0000E+00  0.0000E+00  0.0000E+00
  0.6983E-09  0.1159E-08  0.1631E-08  0.2331E-08  0.3389E-08  0.4912E-08  0.6757E-08  0.9586E-08  0.1317E-07  0.1787E-07  0.2361E-07  0.3084E-07  0.3990E-07  0.5092E-07  0.6483E-07  0.8155E-07  0.1019E-06  0.1266E-06  0.1566E-06  0.1923E-06  0.2342E-06  0.2827E-06  0.3371E-06  0.4302E-06  0.5548E-06  0.7318E-06  0.9470E-06  0.1241E-05  0.1611E-05  0.2064E-05  0.2580E-05  0.3124E-05  0.3643E-05  0.4054E-05  0.4268E-05  0.4218E-05  0.3889E-05  0.3331E-05  0.2675E-05  0.2084E-05  0.1644E-05  0.1341E-05  0.1120E-05  0.9614E-06  0.8369E-06  0.7351E-06  0.6492E-06  0.5704E-06  0.4991E-06  0.4343E-06  0.3748E-06  0.3218E-06  0.2737E-06  0.2308E-06  0.1933E-06  0.1619E-06  0.1339E-06  0.1094E-06  0.8841E-07  0.7001E-07  0.5296E-07  0.3947E-07  0.2653E-07  0.1666E-07  0.8867E-08  0.3828E-08  0.1513E-08  0.2574E-09  0.0000E+00  0.0000E+00  0.0000E+00  0.0000E+00  0.0000E+00  0.0000E+00  0.0000E+00  0.0000E+00  0.0000E+00  0.0000E+00  0.0000E+00
  0.7117E-09  0.1124E-08  0.1695E-08  0.2398E-08  0.3404E-08  0.4909E-08  0.6892E-08  0.9581E-08  0.1320E-07  0.1771E-07  0.2330E-07  0.3035E-07  0.3906E-07  0.5006E-07  0.6344E-07  0.7983E-07  0.9943E-07  0.1230E-06  0.1513E-06  0.1854E-06  0.2253E-06  0.2711E-06  0.3337E-06  0.4243E-06  0.5458E-06  0.7009E-06  0.9084E-06  0.1170E-05  0.1487E-05  0.1890E-05  0.2317E-05  0.2778E-05  0.3224E-05  0.3606E-05  0.3847E-05  0.3891E-05  0.3711E-05  0.3321E-05  0.2787E-05  0.2214E-05  0.1727E-05  0.1369E-05  0.1118E-05  0.9332E-06  0.7997E-06  0.6940E-06  0.6080E-06  0.5331E-06  0.4667E-06  0.4073E-06  0.3533E-06  0.3039E-06  0.2602E-06  0.2207E-06  0.1853E-06  0.1543E-06  0.1279E-06  0.1049E-06  0.8424E-07  0.6663E-07  0.5171E-07  0.3815E-07  0.2671E-07  0.1654E-07  0.8796E-08  0.3461E-08  0.1251E-08  0.2522E-09  0.0000E+00  0.0000E+00  0.0000E+00  0.0000E+00  0.0000E+00  0.0000E+00  0.0000E+00  0.0000E+00  0.0000E+00  0.0000E+00  0.0000E+00
  0.7346E-09  0.1135E-08  0.1684E-08  0.2401E-08  0.3288E-08  0.4800E-08  0.6905E-08  0.9673E-08  0.1308E-07  0.1748E-07  0.2300E-07  0.2964E-07  0.3812E-07  0.4875E-07  0.6173E-07  0.7714E-07  0.9582E-07  0.1180E-06  0.1450E-06  0.1768E-06  0.2143E-06  0.2575E-06  0.3209E-06  0.4099E-06  0.5206E-06  0.6734E-06  0.8597E-06  0.1090E-05  0.1382E-05  0.1708E-05  0.2086E-05  0.2469E-05  0.2850E-05  0.3188E-05  0.3431E-05  0.3523E-05  0.3442E-05  0.3176E-05  0.2765E-05  0.2270E-05  0.1788E-05  0.1394E-05  0.1110E-05  0.9086E-06  0.7624E-06  0.6551E-06  0.5686E-06  0.4976E-06  0.4347E-06  0.3797E-06  0.3312E-06  0.2867E-06  0.2461E-06  0.2091E-06  0.1763E-06  0.1475E-06  0.1217E-06  0.9947E-07  0.8006E-07  0.6421E-07  0.4907E-07  0.3651E-07  0.2523E-07  0.1523E-07  0.8564E-08  0.3169E-08  0.1229E-08  0.2460E-09  0.0000E+00  0.0000E+00  0.0000E+00  0.0000E+00  0.0000E+00  0.0000E+00  0.0000E+00  0.0000E+00  0.0000E+00  0.0000E+00  0.0000E+00
  0.7546E-09  0.1129E-08  0.1737E-08  0.2385E-08  0.3352E-08  0.4851E-08  0.6810E-08  0.9360E-08  0.1272E-07  0.1705E-07  0.2200E-07  0.2853E-07  0.3669E-07  0.4676E-07  0.5903E-07  0.7385E-07  0.9154E-07  0.1123E-06  0.1373E-06  0.1671E-06  0.2017E-06  0.2439E-06  0.3049E-06  0.3874E-06  0.4953E-06  0.6287E-06  0.7992E-06  0.1003E-05  0.1254E-05  0.1544E-05  0.1862E-05  0.2183E-05  0.2504E-05  0.2805E-05  0.3022E-05  0.3132E-05  0.3112E-05  0.2943E-05  0.2632E-05  0.2229E-05  0.1794E-05  0.1400E-05  0.1095E-05  0.8794E-06  0.7257E-06  0.6141E-06  0.5298E-06  0.4623E-06  0.4039E-06  0.3526E-06  0.3080E-06  0.2673E-06  0.2303E-06  0.1965E-06  0.1660E-06  0.1383E-06  0.1151E-06  0.9452E-07  0.7600E-07  0.5926E-07  0.4639E-07  0.3471E-07  0.2409E-07  0.1438E-07  0.8053E-08  0.3112E-08  0.1202E-08  0.2389E-09  0.0000E+00  0.0000E+00  0.0000E+00  0.0000E+00  0.0000E+00  0.0000E+00  0.0000E+00  0.0000E+00  0.0000E+00  0.0000E+00  0.0000E+00
  0.7714E-09  0.1153E-08  0.1658E-08  0.2435E-08  0.3396E-08  0.4842E-08  0.6683E-08  0.9082E-08  0.1228E-07  0.1621E-07  0.2117E-07  0.2733E-07  0.3490E-07  0.4444E-07  0.5601E-07  0.6977E-07  0.8634E-07  0.1059E-06  0.1287E-06  0.1559E-06  0.1879E-06  0.2293E-06  0.2850E-06  0.3605E-06  0.4576E-06  0.5805E-06  0.7285E-06  0.9183E-06  0.1124E-05  0.1381E-05  0.1642E-05  0.1919E-05  0.2187E-05  0.2436E-05  0.2635E-05  0.2753E-05  0.2760E-05  0.2651E-05  0.2426E-05  0.2105E-05  0.1737E-05  0.1371E-05  0.1066E-05  0.8416E-06  0.6846E-06  0.5730E-06  0.4897E-06  0.4262E-06  0.3731E-06  0.3256E-06  0.2849E-06  0.2485E-06  0.2152E-06  0.1844E-06  0.1567E-06  0.1314E-06  0.1084E-06  0.8891E-07  0.7178E-07  0.5665E-07  0.4393E-07  0.3233E-07  0.2256E-07  0.1437E-07  0.7457E-08  0.2677E-08  0.9405E-09  0.0000E+00  0.0000E+00  0.0000E+00  0.0000E+00  0.0000E+00  0.0000E+00  0.0000E+00  0.0000E+00  0.0000E+00  0.0000E+00  0.0000E+00  0.0000E+00
  0.7735E-09  0.1172E-08  0.1680E-08  0.2330E-08  0.3244E-08  0.4497E-08  0.6398E-08  0.8769E-08  0.1173E-07  0.1554E-07  0.2011E-07  0.2573E-07  0.3296E-07  0.4180E-07  0.5265E-07  0.6553E-07  0.8078E-07  0.9873E-07  0.1196E-06  0.1443E-06  0.1733E-06  0.2114E-06  0.2660E-06  0.3306E-06  0.4244E-06  0.5326E-06  0.6645E-06  0.8217E-06  0.1015E-05  0.1218E-05  0.1448E-05  0.1675E-05  0.1897E-05  0.2105E-05  0.2275E-05  0.2385E-05  0.2405E-05  0.2338E-05  0.2175E-05  0.1925E-05  0.1621E-05  0.1304E-05  0.1014E-05  0.7931E-06  0.6379E-06  0.5291E-06  0.4509E-06  0.3900E-06  0.3418E-06  0.2990E-06  0.2628E-06  0.2298E-06  0.1986E-06  0.1709E-06  0.1452E-06  0.1220E-06  0.1010E-06  0.8316E-07  0.6639E-07  0.5204E-07  0.3984E-07  0.2997E-07  0.2010E-07  0.1220E-07  0.5966E-08  0.2145E-08  0.2564E-09  0.0000E+00  0.0000E+00  0.0000E+00  0.0000E+00  0.0000E+00  0.0000E+00  0.0000E+00  0.0000E+00  0.0000E+00  0.0000E+00  0.0000E+00  0.0000E+00
  0.7835E-09  0.1185E-08  0.1611E-08  0.2263E-08  0.3080E-08  0.4333E-08  0.6050E-08  0.8159E-08  0.1103E-07  0.1442E-07  0.1871E-07  0.2401E-07  0.3066E-07  0.3899E-07  0.4877E-07  0.6058E-07  0.7475E-07  0.9122E-07  0.1103E-06  0.1324E-06  0.1584E-06  0.1932E-06  0.2407E-06  0.3034E-06  0.3851E-06  0.4789E-06  0.5954E-06  0.7352E-06  0.8915E-06  0.1072E-05  0.1263E-05  0.1451E-05  0.1639E-05  0.1810E-05  0.1952E-05  0.2047E-05  0.2072E-05  0.2025E-05  0.1900E-05  0.1711E-05  0.1466E-05  0.1201E-05  0.9461E-06  0.7345E-06  0.5854E-06  0.4828E-06  0.4096E-06  0.3543E-06  0.3098E-06  0.2725E-06  0.2404E-06  0.2095E-06  0.1829E-06  0.1579E-06  0.1352E-06  0.1145E-06  0.9511E-07  0.7736E-07  0.6203E-07  0.4882E-07  0.3778E-07  0.2715E-07  0.1847E-07  0.1133E-07  0.5358E-08  0.2053E-08  0.2458E-09  0.0000E+00  0.0000E+00  0.0000E+00  0.0000E+00  0.0000E+00  0.0000E+00  0.0000E+00  0.0000E+00  0.0000E+00  0.0000E+00  0.0000E+00  0.0000E+00
  0.5976E-09  0.1044E-08  0.1606E-08  0.2221E-08  0.2978E-08  0.4128E-08  0.5672E-08  0.7582E-08  0.1019E-07  0.1344E-07  0.1733E-07  0.2227E-07  0.2817E-07  0.3581E-07  0.4474E-07  0.5559E-07  0.6832E-07  0.8334E-07  0.1005E-06  0.1204E-06  0.1435E-06  0.1748E-06  0.2183E-06  0.2689E-06  0.3430E-06  0.4285E-06  0.5260E-06  0.6472E-06  0.7738E-06  0.9319E-06  0.1085E-05  0.1245E-05  0.1401E-05  0.1539E-05  0.1656E-05  0.1736E-05  0.1759E-05  0.1730E-05  0.1636E-05  0.1482E-05  0.1292E-05  0.1076E-05  0.8612E-06  0.6721E-06  0.5283E-06  0.4353E-06  0.3690E-06  0.3194E-06  0.2799E-06  0.2458E-06  0.2180E-06  0.1917E-06  0.1669E-06  0.1448E-06  0.1236E-06  0.1046E-06  0.8669E-07  0.7165E-07  0.5724E-07  0.4485E-07  0.3428E-07  0.2488E-07  0.1620E-07  0.9655E-08  0.4658E-08  0.1501E-08  0.2161E-09  0.0000E+00  0.0000E+00  0.0000E+00  0.0000E+00  0.0000E+00  0.0000E+00  0.0000E+00  0.0000E+00  0.0000E+00  0.0000E+00  0.0000E+00  0.0000E+00
  0.5939E-09  0.9653E-09  0.1436E-08  0.2018E-08  0.2668E-08  0.3578E-08  0.5071E-08  0.6945E-08  0.9224E-08  0.1208E-07  0.1581E-07  0.2029E-07  0.2579E-07  0.3271E-07  0.4078E-07  0.5042E-07  0.6200E-07  0.7531E-07  0.9087E-07  0.1084E-06  0.1287E-06  0.1566E-06  0.1908E-06  0.2411E-06  0.3010E-06  0.3759E-06  0.4592E-06  0.5586E-06  0.6774E-06  0.7964E-06  0.9320E-06  0.1060E-05  0.1187E-05  0.1298E-05  0.1391E-05  0.1452E-05  0.1477E-05  0.1456E-05  0.1382E-05  0.1266E-05  0.1111E-05  0.9411E-06  0.7647E-06  0.6052E-06  0.4753E-06  0.3856E-06  0.3292E-06  0.2858E-06  0.2511E-06  0.2214E-06  0.1960E-06  0.1732E-06  0.1510E-06  0.1313E-06  0.1136E-06  0.9686E-07  0.8112E-07  0.6591E-07  0.5236E-07  0.4073E-07  0.3086E-07  0.2207E-07  0.1387E-07  0.7723E-08  0.3313E-08  0.1028E-08  0.0000E+00  0.0000E+00  0.0000E+00  0.0000E+00  0.0000E+00  0.0000E+00  0.0000E+00  0.0000E+00  0.0000E+00  0.0000E+00  0.0000E+00  0.0000E+00  0.0000E+00
  0.5643E-09  0.9178E-09  0.1375E-08  0.1823E-08  0.2471E-08  0.3374E-08  0.4555E-08  0.6225E-08  0.8429E-08  0.1095E-07  0.1432E-07  0.1813E-07  0.2339E-07  0.2941E-07  0.3674E-07  0.4535E-07  0.5568E-07  0.6760E-07  0.8132E-07  0.9697E-07  0.1144E-06  0.1371E-06  0.1694E-06  0.2111E-06  0.2607E-06  0.3221E-06  0.3992E-06  0.4833E-06  0.5758E-06  0.6805E-06  0.7894E-06  0.8942E-06  0.9975E-06  0.1086E-05  0.1160E-05  0.1213E-05  0.1233E-05  0.1212E-05  0.1153E-05  0.1064E-05  0.9433E-06  0.8057E-06  0.6646E-06  0.5335E-06  0.4244E-06  0.3425E-06  0.2881E-06  0.2537E-06  0.2231E-06  0.1981E-06  0.1761E-06  0.1551E-06  0.1364E-06  0.1194E-06  0.1030E-06  0.8711E-07  0.7230E-07  0.6016E-07  0.4772E-07  0.3682E-07  0.2750E-07  0.1956E-07  0.1309E-07  0.6967E-08  0.2340E-08  0.6143E-09  0.0000E+00  0.0000E+00  0.0000E+00  0.0000E+00  0.0000E+00  0.0000E+00  0.0000E+00  0.0000E+00  0.0000E+00  0.0000E+00  0.0000E+00  0.0000E+00  0.0000E+00
