DSAA
          79         109
    318.3670    342.0670
   7336.5760   7369.2760
  0.0000E+00  0.3790E-04
  0.0000E+00  0.0000E+00  0.0000E+00  0.0000E+00  0.0000E+00  0.0000E+00  0.0000E+00  0.0000E+00  0.0000E+00  0.0000E+00  0.0000E+00  0.0000E+00  0.0000E+00  0.0000E+00  0.0000E+00  0.0000E+00  0.0000E+00  0.0000E+00  0.0000E+00  0.0000E+00  0.0000E+00  0.0000E+00  0.0000E+00  0.0000E+00  0.0000E+00  0.0000E+00  0.0000E+00  0.0000E+00  0.0000E+00  0.0000E+00  0.0000E+00  0.0000E+00  0.0000E+00  0.0000E+00  0.0000E+00  0.0000E+00  0.0000E+00  0.0000E+00  0.0000E+00  0.0000E+00  0.0000E+00  0.0000E+00  0.0000E+00  0.0000E+00  0.0000E+00  0.0000E+00  0.0000E+00  0.0000E+00  0.0000E+00  0.0000E+00  0.0000E+00  0.0000E+00  0.0000E+00  0.0000E+00  0.0000E+00  0.0000E+00  0.0000E+00  0.0000E+00  0.0000E+00  0.0000E+00  0.0000E+00  0.0000E+00  0.0000E+00  0.0000E+00  0.0000E+00  0.0000E+00  0.0000E+00  0.0000E+00  0.0000E+00  0.0000E+00  0.0000E+00  0.0000E+00  0.0000E+00  0.0000E+00  0.0000E+00  0.0000E+00  0.0000E+00  0.0000E+00  0.0000E+00
  0.0000E+00  0.0000E+00  0.0000E+00  0.0000E+00  0.0000E+00  0.0000E+00  0.0000E+00  0.0000E+00  0.0000E+00  0.0000E+00  0.0000E+00  0.0000E+00  0.0000E+00  0.0000E+00  0.0000E+00  0.0000E+00  0.0000E+00  0.0000E+00  0.0000E+00  0.0000E+00  0.0000E+00  0.0000E+00  0.0000E+00  0.0000E+00  0.0000E+00  0.0000E+00  0.0000E+00  0.0000E+00  0.0000E+00  0.0000E+00  0.0000E+00  0.0000E+00  0.0000E+00  0.0000E+00  0.0000E+00  0.0000E+00  0.0000E+00  0.0000E+00  0.0000E+00  0.0000E+00  0.0000E+00  0.0000E+00  0.0000E+00  0.0000E+00  0.0000E+00  0.0000E+00  0.0000E+00  0.0000E+00  0.0000E+00  0.0000E+00  0.0000E+00  0.0000E+00  0.0000E+00  0.0000E+00  0.0000E+00  0.0000E+00  0.0000E+00  0.0000E+00  0.0000E+00  0.0000E+00  0.0000E+00  0.0000E+00  0.0000E+00  0.0000E+00  0.0000E+00  0.0000E+00  0.0000E+00  0.0000E+00  0.0000E+00  0.0000E+00  0.0000E+00  0.0000E+00  0.0000E+00  0.0000E+00  0.0000E+00  0.0000E+00  0.0000E+00  0.0000E+00  0.0000E+00
  0.0000E+00  0.0000E+00  0.0000E+00  0.0000E+00  0.0000E+00  0.0000E+00  0.0000E+00  0.0000E+00  0.0000E+00  0.0000E+00  0.0000E+00  0.0000E+00  0.0000E+00  0.0000E+00  0.0000E+00  0.0000E+00  0.0000E+00  0.0000E+00  0.0000E+00  0.0000E+00  0.0000E+00  0.0000E+00  0.0000E+00  0.0000E+00  0.0000E+00  0.0000E+00  0.0000E+00  0.0000E+00  0.0000E+00  0.0000E+00  0.0000E+00  0.0000E+00  0.0000E+00  0.0000E+00  0.0000E+00  0.0000E+00  0.0000E+00  0.0000E+00  0.0000E+00  0.0000E+00  0.0000E+00  0.0000E+00  0.0000E+00  0.0000E+00  0.0000E+00  0.0000E+00  0.0000E+00  0.0000E+00  0.0000E+00  0.0000E+00  0.0000E+00  0.0000E+00  0.0000E+00  0.0000E+00  0.0000E+00  0.0000E+00  0.0000E+00  0.0000E+00  0.0000E+00  0.0000E+00  0.0000E+00  0.0000E+00  0.0000E+00  0.0000E+00  0.0000E+00  0.0000E+00  0.0000E+00  0.0000E+00  0.0000E+00  0.0000E+00  0.0000E+00  0.0000E+00  0.0000E+00  0.0000E+00  0.0000E+00  0.0000E+00  0.0000E+00  0.0000E+00  0.0000E+00
  0.0000E+00  0.0000E+00  0.0000E+00  0.0000E+00  0.0000E+00  0.0000E+00  0.0000E+00  0.0000E+00  0.0000E+00  0.0000E+00  0.0000E+00  0.0000E+00  0.0000E+00  0.0000E+00  0.0000E+00  0.0000E+00  0.0000E+00  0.0000E+00  0.0000E+00  0.0000E+00  0.0000E+00  0.0000E+00  0.0000E+00  0.0000E+00  0.0000E+00  0.0000E+00  0.0000E+00  0.0000E+00  0.0000E+00  0.0000E+00  0.0000E+00  0.0000E+00  0.0000E+00  0.0000E+00  0.0000E+00  0.0000E+00  0.0000E+00  0.0000E+00  0.0000E+00  0.0000E+00  0.0000E+00  0.0000E+00  0.0000E+00  0.0000E+00  0.0000E+00  0.0000E+00  0.0000E+00  0.0000E+00  0.0000E+00  0.0000E+00  0.0000E+00  0.0000E+00  0.0000E+00  0.0000E+00  0.0000E+00  0.0000E+00  0.0000E+00  0.0000E+00  0.0000E+00  0.0000E+00  0.0000E+00  0.0000E+00  0.0000E+00  0.0000E+00  0.0000E+00  0.0000E+00  0.0000E+00  0.0000E+00  0.0000E+00  0.0000E+00  0.0000E+00  0.0000E+00  0.0000E+00  0.0000E+00  0.0000E+00  0.0000E+00  0.0000E+00  0.0000E+00  0.0000E+00
  0.0000E+00  0.0000E+00  0.0000E+00  0.0000E+00  0.0000E+00  0.0000E+00  0.0000E+00  0.0000E+00  0.0000E+00  0.0000E+00  0.0000E+00  0.0000E+00  0.0000E+00  0.0000E+00  0.0000E+00  0.0000E+00  0.0000E+00  0.0000E+00  0.0000E+00  0.0000E+00  0.0000E+00  0.0000E+00  0.0000E+00  0.0000E+00  0.0000E+00  0.0000E+00  0.0000E+00  0.0000E+00  0.0000E+00  0.0000E+00  0.0000E+00  0.0000E+00  0.0000E+00  0.0000E+00  0.0000E+00  0.0000E+00  0.0000E+00  0.0000E+00  0.0000E+00  0.0000E+00  0.0000E+00  0.0000E+00  0.0000E+00  0.0000E+00  0.0000E+00  0.0000E+00  0.0000E+00  0.0000E+00  0.0000E+00  0.0000E+00  0.0000E+00  0.0000E+00  0.0000E+00  0.0000E+00  0.0000E+00  0.0000E+00  0.0000E+00  0.0000E+00  0.0000E+00  0.0000E+00  0.0000E+00  0.0000E+00  0.0000E+00  0.0000E+00  0.0000E+00  0.0000E+00  0.0000E+00  0.0000E+00  0.0000E+00  0.0000E+00  0.0000E+00  0.0000E+00  0.0000E+00  0.0000E+00  0.0000E+00  0.0000E+00  0.0000E+00  0.0000E+00  0.0000E+00
  0.0000E+00  0.0000E+00  0.0000E+00  0.0000E+00  0.0000E+00  0.0000E+00  0.0000E+00  0.0000E+00  0.0000E+00  0.0000E+00  0.0000E+00  0.0000E+00  0.0000E+00  0.0000E+00  0.0000E+00  0.0000E+00  0.0000E+00  0.0000E+00  0.0000E+00  0.0000E+00  0.0000E+00  0.0000E+00  0.0000E+00  0.0000E+00  0.0000E+00  0.0000E+00  0.0000E+00  0.0000E+00  0.0000E+00  0.0000E+00  0.0000E+00  0.0000E+00  0.0000E+00  0.0000E+00  0.0000E+00  0.0000E+00  0.0000E+00  0.0000E+00  0.0000E+00  0.0000E+00  0.0000E+00  0.0000E+00  0.0000E+00  0.0000E+00  0.0000E+00  0.0000E+00  0.0000E+00  0.0000E+00  0.0000E+00  0.0000E+00  0.0000E+00  0.0000E+00  0.0000E+00  0.0000E+00  0.0000E+00  0.0000E+00  0.0000E+00  0.0000E+00  0.0000E+00  0.0000E+00  0.0000E+00  0.0000E+00  0.0000E+00  0.0000E+00  0.0000E+00  0.0000E+00  0.0000E+00  0.0000E+00  0.0000E+00  0.0000E+00  0.0000E+00  0.0000E+00  0.0000E+00  0.0000E+00  0.0000E+00  0.0000E+00  0.0000E+00  0.0000E+00  0.0000E+00
  0.0000E+00  0.0000E+00  0.0000E+00  0.0000E+00  0.0000E+00  0.0000E+00  0.0000E+00  0.0000E+00  0.0000E+00  0.0000E+00  0.0000E+00  0.0000E+00  0.0000E+00  0.0000E+00  0.0000E+00  0.0000E+00  0.0000E+00  0.0000E+00  0.0000E+00  0.0000E+00  0.0000E+00  0.0000E+00  0.0000E+00  0.0000E+00  0.0000E+00  0.0000E+00  0.0000E+00  0.0000E+00  0.0000E+00  0.0000E+00  0.0000E+00  0.0000E+00  0.0000E+00  0.0000E+00  0.0000E+00  0.0000E+00  0.0000E+00  0.0000E+00  0.0000E+00  0.0000E+00  0.0000E+00  0.0000E+00  0.0000E+00  0.0000E+00  0.0000E+00  0.0000E+00  0.0000E+00  0.0000E+00  0.0000E+00  0.0000E+00  0.0000E+00  0.0000E+00  0.0000E+00  0.0000E+00  0.0000E+00  0.0000E+00  0.0000E+00  0.0000E+00  0.0000E+00  0.0000E+00  0.0000E+00  0.0000E+00  0.0000E+00  0.0000E+00  0.0000E+00  0.0000E+00  0.0000E+00  0.0000E+00  0.0000E+00  0.0000E+00  0.0000E+00  0.0000E+00  0.0000E+00  0.0000E+00  0.0000E+00  0.0000E+00  0.0000E+00  0.0000E+00  0.0000E+00
  0.0000E+00  0.0000E+00  0.0000E+00  0.0000E+00  0.0000E+00  0.0000E+00  0.0000E+00  0.0000E+00  0.0000E+00  0.0000E+00  0.0000E+00  0.0000E+00  0.0000E+00  0.0000E+00  0.0000E+00  0.0000E+00  0.0000E+00  0.0000E+00  0.0000E+00  0.0000E+00  0.0000E+00  0.0000E+00  0.0000E+00  0.0000E+00  0.0000E+00  0.0000E+00  0.0000E+00  0.0000E+00  0.0000E+00  0.0000E+00  0.0000E+00  0.0000E+00  0.0000E+00  0.0000E+00  0.0000E+00  0.0000E+00  0.0000E+00  0.0000E+00  0.0000E+00  0.0000E+00  0.0000E+00  0.0000E+00  0.0000E+00  0.0000E+00  0.0000E+00  0.0000E+00  0.0000E+00  0.0000E+00  0.0000E+00  0.0000E+00  0.0000E+00  0.0000E+00  0.0000E+00  0.0000E+00  0.0000E+00  0.0000E+00  0.0000E+00  0.0000E+00  0.0000E+00  0.0000E+00  0.0000E+00  0.0000E+00  0.0000E+00  0.0000E+00  0.0000E+00  0.0000E+00  0.0000E+00  0.0000E+00  0.0000E+00  0.0000E+00  0.0000E+00  0.0000E+00  0.0000E+00  0.0000E+00  0.0000E+00  0.0000E+00  0.0000E+00  0.0000E+00  0.0000E+00
  0.0000E+00  0.0000E+00  0.0000E+00  0.0000E+00  0.0000E+00  0.0000E+00  0.0000E+00  0.0000E+00  0.0000E+00  0.0000E+00  0.0000E+00  0.0000E+00  0.0000E+00  0.0000E+00  0.0000E+00  0.0000E+00  0.0000E+00  0.0000E+00  0.0000E+00  0.0000E+00  0.0000E+00  0.0000E+00  0.0000E+00  0.0000E+00  0.0000E+00  0.0000E+00  0.0000E+00  0.0000E+00  0.0000E+00  0.0000E+00  0.0000E+00  0.0000E+00  0.0000E+00  0.0000E+00  0.0000E+00  0.0000E+00  0.0000E+00  0.0000E+00  0.0000E+00  0.0000E+00  0.0000E+00  0.0000E+00  0.0000E+00  0.0000E+00  0.0000E+00  0.0000E+00  0.0000E+00  0.0000E+00  0.0000E+00  0.0000E+00  0.0000E+00  0.0000E+00  0.0000E+00  0.0000E+00  0.0000E+00  0.0000E+00  0.0000E+00  0.0000E+00  0.0000E+00  0.0000E+00  0.0000E+00  0.0000E+00  0.0000E+00  0.0000E+00  0.0000E+00  0.0000E+00  0.0000E+00  0.0000E+00  0.0000E+00  0.0000E+00  0.0000E+00  0.0000E+00  0.0000E+00  0.0000E+00  0.0000E+00  0.0000E+00  0.0000E+00  0.0000E+00  0.0000E+00
  0.0000E+00  0.0000E+00  0.0000E+00  0.0000E+00  0.0000E+00  0.0000E+00  0.0000E+00  0.0000E+00  0.0000E+00  0.0000E+00  0.0000E+00  0.0000E+00  0.0000E+00  0.0000E+00  0.0000E+00  0.0000E+00  0.0000E+00  0.0000E+00  0.0000E+00  0.0000E+00  0.0000E+00  0.0000E+00  0.0000E+00  0.0000E+00  0.0000E+00  0.0000E+00  0.0000E+00  0.0000E+00  0.0000E+00  0.0000E+00  0.0000E+00  0.0000E+00  0.0000E+00  0.0000E+00  0.0000E+00  0.0000E+00  0.0000E+00  0.0000E+00  0.0000E+00  0.0000E+00  0.0000E+00  0.0000E+00  0.0000E+00  0.0000E+00  0.0000E+00  0.0000E+00  0.0000E+00  0.0000E+00  0.0000E+00  0.0000E+00  0.0000E+00  0.0000E+00  0.0000E+00  0.0000E+00  0.0000E+00  0.0000E+00  0.0000E+00  0.0000E+00  0.0000E+00  0.0000E+00  0.0000E+00  0.0000E+00  0.0000E+00  0.0000E+00  0.0000E+00  0.0000E+00  0.0000E+00  0.0000E+00  0.0000E+00  0.0000E+00  0.0000E+00  0.0000E+00  0.0000E+00  0.0000E+00  0.0000E+00  0.0000E+00  0.0000E+00  0.0000E+00  0.0000E+00
  0.0000E+00  0.0000E+00  0.0000E+00  0.0000E+00  0.0000E+00  0.0000E+00  0.0000E+00  0.0000E+00  0.0000E+00  0.0000E+00  0.0000E+00  0.0000E+00  0.0000E+00  0.0000E+00  0.0000E+00  0.0000E+00  0.0000E+00  0.0000E+00  0.0000E+00  0.0000E+00  0.0000E+00  0.0000E+00  0.0000E+00  0.0000E+00  0.0000E+00  0.0000E+00  0.0000E+00  0.0000E+00  0.0000E+00  0.0000E+00  0.0000E+00  0.0000E+00  0.0000E+00  0.0000E+00  0.0000E+00  0.0000E+00  0.0000E+00  0.0000E+00  0.0000E+00  0.0000E+00  0.0000E+00  0.0000E+00  0.0000E+00  0.0000E+00  0.0000E+00  0.0000E+00  0.0000E+00  0.0000E+00  0.0000E+00  0.0000E+00  0.0000E+00  0.0000E+00  0.0000E+00  0.0000E+00  0.0000E+00  0.0000E+00  0.0000E+00  0.0000E+00  0.0000E+00  0.0000E+00  0.0000E+00  0.0000E+00  0.0000E+00  0.0000E+00  0.0000E+00  0.0000E+00  0.0000E+00  0.0000E+00  0.0000E+00  0.0000E+00  0.0000E+00  0.0000E+00  0.0000E+00  0.0000E+00  0.0000E+00  0.0000E+00  0.0000E+00  0.0000E+00  0.0000E+00
  0.0000E+00  0.0000E+00  0.0000E+00  0.0000E+00  0.0000E+00  0.0000E+00  0.0000E+00  0.0000E+00  0.0000E+00  0.0000E+00  0.0000E+00  0.0000E+00  0.0000E+00  0.0000E+00  0.0000E+00  0.0000E+00  0.0000E+00  0.0000E+00  0.0000E+00  0.0000E+00  0.0000E+00  0.0000E+00  0.0000E+00  0.0000E+00  0.0000E+00  0.0000E+00  0.0000E+00  0.0000E+00  0.0000E+00  0.0000E+00  0.0000E+00  0.0000E+00  0.0000E+00  0.0000E+00  0.0000E+00  0.0000E+00  0.0000E+00  0.0000E+00  0.0000E+00  0.0000E+00  0.0000E+00  0.0000E+00  0.0000E+00  0.0000E+00  0.0000E+00  0.0000E+00  0.0000E+00  0.0000E+00  0.0000E+00  0.0000E+00  0.0000E+00  0.0000E+00  0.0000E+00  0.0000E+00  0.0000E+00  0.0000E+00  0.0000E+00  0.0000E+00  0.0000E+00  0.0000E+00  0.0000E+00  0.0000E+00  0.0000E+00  0.0000E+00  0.0000E+00  0.0000E+00  0.0000E+00  0.0000E+00  0.0000E+00  0.0000E+00  0.0000E+00  0.0000E+00  0.0000E+00  0.0000E+00  0.0000E+00  0.0000E+00  0.0000E+00  0.0000E+00  0.0000E+00
  0.0000E+00  0.0000E+00  0.0000E+00  0.0000E+00  0.0000E+00  0.0000E+00  0.0000E+00  0.0000E+00  0.0000E+00  0.0000E+00  0.0000E+00  0.0000E+00  0.0000E+00  0.0000E+00  0.0000E+00  0.0000E+00  0.0000E+00  0.0000E+00  0.0000E+00  0.0000E+00  0.0000E+00  0.0000E+00  0.0000E+00  0.0000E+00  0.0000E+00  0.0000E+00  0.0000E+00  0.0000E+00  0.0000E+00  0.0000E+00  0.0000E+00  0.0000E+00  0.0000E+00  0.0000E+00  0.0000E+00  0.0000E+00  0.0000E+00  0.0000E+00  0.0000E+00  0.0000E+00  0.0000E+00  0.0000E+00  0.0000E+00  0.0000E+00  0.0000E+00  0.0000E+00  0.0000E+00  0.0000E+00  0.0000E+00  0.0000E+00  0.0000E+00  0.0000E+00  0.0000E+00  0.0000E+00  0.0000E+00  0.0000E+00  0.0000E+00  0.0000E+00  0.0000E+00  0.0000E+00  0.0000E+00  0.0000E+00  0.0000E+00  0.0000E+00  0.0000E+00  0.0000E+00  0.0000E+00  0.0000E+00  0.0000E+00  0.0000E+00  0.0000E+00  0.0000E+00  0.0000E+00  0.0000E+00  0.0000E+00  0.0000E+00  0.0000E+00  0.0000E+00  0.0000E+00
  0.0000E+00  0.0000E+00  0.0000E+00  0.0000E+00  0.0000E+00  0.0000E+00  0.0000E+00  0.0000E+00  0.0000E+00  0.0000E+00  0.0000E+00  0.0000E+00  0.0000E+00  0.0000E+00  0.0000E+00  0.0000E+00  0.0000E+00  0.0000E+00  0.0000E+00  0.0000E+00  0.0000E+00  0.0000E+00  0.0000E+00  0.0000E+00  0.0000E+00  0.0000E+00  0.0000E+00  0.0000E+00  0.0000E+00  0.0000E+00  0.0000E+00  0.0000E+00  0.0000E+00  0.0000E+00  0.0000E+00  0.0000E+00  0.0000E+00  0.0000E+00  0.0000E+00  0.0000E+00  0.0000E+00  0.0000E+00  0.0000E+00  0.0000E+00  0.0000E+00  0.0000E+00  0.0000E+00  0.0000E+00  0.0000E+00  0.0000E+00  0.0000E+00  0.0000E+00  0.0000E+00  0.0000E+00  0.0000E+00  0.0000E+00  0.0000E+00  0.0000E+00  0.0000E+00  0.0000E+00  0.0000E+00  0.0000E+00  0.0000E+00  0.0000E+00  0.0000E+00  0.0000E+00  0.0000E+00  0.0000E+00  0.0000E+00  0.0000E+00  0.0000E+00  0.0000E+00  0.0000E+00  0.0000E+00  0.0000E+00  0.0000E+00  0.0000E+00  0.0000E+00  0.0000E+00
  0.0000E+00  0.0000E+00  0.0000E+00  0.0000E+00  0.0000E+00  0.0000E+00  0.0000E+00  0.0000E+00  0.0000E+00  0.0000E+00  0.0000E+00  0.0000E+00  0.0000E+00  0.0000E+00  0.0000E+00  0.0000E+00  0.0000E+00  0.0000E+00  0.0000E+00  0.0000E+00  0.0000E+00  0.0000E+00  0.0000E+00  0.0000E+00  0.0000E+00  0.0000E+00  0.0000E+00  0.0000E+00  0.0000E+00  0.0000E+00  0.0000E+00  0.0000E+00  0.0000E+00  0.0000E+00  0.0000E+00  0.0000E+00  0.0000E+00  0.0000E+00  0.0000E+00  0.0000E+00  0.0000E+00  0.0000E+00  0.0000E+00  0.0000E+00  0.0000E+00  0.0000E+00  0.0000E+00  0.0000E+00  0.0000E+00  0.0000E+00  0.0000E+00  0.0000E+00  0.0000E+00  0.0000E+00  0.0000E+00  0.0000E+00  0.0000E+00  0.0000E+00  0.0000E+00  0.0000E+00  0.0000E+00  0.0000E+00  0.0000E+00  0.0000E+00  0.0000E+00  0.0000E+00  0.0000E+00  0.0000E+00  0.0000E+00  0.0000E+00  0.0000E+00  0.0000E+00  0.0000E+00  0.0000E+00  0.0000E+00  0.0000E+00  0.0000E+00  0.0000E+00  0.0000E+00
  0.0000E+00  0.0000E+00  0.0000E+00  0.0000E+00  0.0000E+00  0.0000E+00  0.0000E+00  0.0000E+00  0.0000E+00  0.0000E+00  0.0000E+00  0.0000E+00  0.0000E+00  0.0000E+00  0.0000E+00  0.0000E+00  0.0000E+00  0.0000E+00  0.0000E+00  0.0000E+00  0.0000E+00  0.0000E+00  0.0000E+00  0.0000E+00  0.0000E+00  0.0000E+00  0.0000E+00  0.0000E+00  0.0000E+00  0.0000E+00  0.0000E+00  0.0000E+00  0.0000E+00  0.0000E+00  0.0000E+00  0.0000E+00  0.0000E+00  0.0000E+00  0.0000E+00  0.0000E+00  0.0000E+00  0.0000E+00  0.0000E+00  0.0000E+00  0.0000E+00  0.0000E+00  0.0000E+00  0.0000E+00  0.0000E+00  0.0000E+00  0.0000E+00  0.0000E+00  0.0000E+00  0.0000E+00  0.0000E+00  0.0000E+00  0.0000E+00  0.0000E+00  0.0000E+00  0.0000E+00  0.0000E+00  0.0000E+00  0.0000E+00  0.0000E+00  0.0000E+00  0.0000E+00  0.0000E+00  0.0000E+00  0.0000E+00  0.0000E+00  0.0000E+00  0.0000E+00  0.0000E+00  0.0000E+00  0.0000E+00  0.0000E+00  0.0000E+00  0.0000E+00  0.0000E+00
  0.0000E+00  0.0000E+00  0.0000E+00  0.0000E+00  0.0000E+00  0.0000E+00  0.0000E+00  0.0000E+00  0.0000E+00  0.0000E+00  0.0000E+00  0.0000E+00  0.0000E+00  0.0000E+00  0.0000E+00  0.0000E+00  0.0000E+00  0.0000E+00  0.0000E+00  0.0000E+00  0.0000E+00  0.0000E+00  0.0000E+00  0.0000E+00  0.0000E+00  0.0000E+00  0.0000E+00  0.0000E+00  0.0000E+00  0.0000E+00  0.0000E+00  0.0000E+00  0.0000E+00  0.0000E+00  0.0000E+00  0.0000E+00  0.0000E+00  0.0000E+00  0.0000E+00  0.0000E+00  0.0000E+00  0.0000E+00  0.0000E+00  0.0000E+00  0.0000E+00  0.0000E+00  0.0000E+00  0.0000E+00  0.0000E+00  0.0000E+00  0.0000E+00  0.0000E+00  0.0000E+00  0.0000E+00  0.0000E+00  0.0000E+00  0.0000E+00  0.0000E+00  0.0000E+00  0.0000E+00  0.0000E+00  0.0000E+00  0.0000E+00  0.0000E+00  0.0000E+00  0.0000E+00  0.0000E+00  0.0000E+00  0.0000E+00  0.0000E+00  0.0000E+00  0.0000E+00  0.0000E+00  0.0000E+00  0.0000E+00  0.0000E+00  0.0000E+00  0.0000E+00  0.0000E+00
  0.0000E+00  0.0000E+00  0.0000E+00  0.0000E+00  0.0000E+00  0.0000E+00  0.0000E+00  0.0000E+00  0.0000E+00  0.0000E+00  0.0000E+00  0.0000E+00  0.0000E+00  0.0000E+00  0.0000E+00  0.0000E+00  0.0000E+00  0.0000E+00  0.0000E+00  0.0000E+00  0.0000E+00  0.0000E+00  0.0000E+00  0.0000E+00  0.0000E+00  0.0000E+00  0.0000E+00  0.0000E+00  0.0000E+00  0.0000E+00  0.0000E+00  0.0000E+00  0.0000E+00  0.0000E+00  0.0000E+00  0.0000E+00  0.0000E+00  0.0000E+00  0.0000E+00  0.0000E+00  0.0000E+00  0.0000E+00  0.0000E+00  0.0000E+00  0.0000E+00  0.0000E+00  0.0000E+00  0.0000E+00  0.0000E+00  0.0000E+00  0.0000E+00  0.0000E+00  0.0000E+00  0.0000E+00  0.0000E+00  0.0000E+00  0.0000E+00  0.0000E+00  0.0000E+00  0.0000E+00  0.0000E+00  0.0000E+00  0.0000E+00  0.0000E+00  0.0000E+00  0.0000E+00  0.0000E+00  0.0000E+00  0.0000E+00  0.0000E+00  0.0000E+00  0.0000E+00  0.0000E+00  0.0000E+00  0.0000E+00  0.0000E+00  0.0000E+00  0.0000E+00  0.0000E+00
  0.0000E+00  0.0000E+00  0.0000E+00  0.0000E+00  0.0000E+00  0.0000E+00  0.0000E+00  0.0000E+00  0.0000E+00  0.0000E+00  0.0000E+00  0.0000E+00  0.0000E+00  0.0000E+00  0.0000E+00  0.0000E+00  0.0000E+00  0.0000E+00  0.0000E+00  0.0000E+00  0.0000E+00  0.0000E+00  0.0000E+00  0.0000E+00  0.0000E+00  0.0000E+00  0.0000E+00  0.0000E+00  0.0000E+00  0.0000E+00  0.0000E+00  0.0000E+00  0.0000E+00  0.0000E+00  0.0000E+00  0.0000E+00  0.0000E+00  0.0000E+00  0.0000E+00  0.0000E+00  0.0000E+00  0.0000E+00  0.0000E+00  0.0000E+00  0.0000E+00  0.0000E+00  0.0000E+00  0.0000E+00  0.0000E+00  0.0000E+00  0.0000E+00  0.0000E+00  0.0000E+00  0.0000E+00  0.0000E+00  0.0000E+00  0.0000E+00  0.0000E+00  0.0000E+00  0.0000E+00  0.0000E+00  0.0000E+00  0.0000E+00  0.0000E+00  0.0000E+00  0.0000E+00  0.0000E+00  0.0000E+00  0.0000E+00  0.0000E+00  0.0000E+00  0.0000E+00  0.0000E+00  0.0000E+00  0.0000E+00  0.0000E+00  0.0000E+00  0.0000E+00  0.0000E+00
  0.0000E+00  0.0000E+00  0.0000E+00  0.0000E+00  0.0000E+00  0.0000E+00  0.0000E+00  0.0000E+00  0.0000E+00  0.0000E+00  0.0000E+00  0.0000E+00  0.0000E+00  0.0000E+00  0.0000E+00  0.0000E+00  0.0000E+00  0.0000E+00  0.0000E+00  0.0000E+00  0.0000E+00  0.0000E+00  0.0000E+00  0.0000E+00  0.0000E+00  0.0000E+00  0.0000E+00  0.0000E+00  0.0000E+00  0.0000E+00  0.0000E+00  0.0000E+00  0.0000E+00  0.0000E+00  0.0000E+00  0.0000E+00  0.0000E+00  0.0000E+00  0.0000E+00  0.0000E+00  0.0000E+00  0.0000E+00  0.0000E+00  0.0000E+00  0.0000E+00  0.0000E+00  0.0000E+00  0.0000E+00  0.0000E+00  0.0000E+00  0.0000E+00  0.0000E+00  0.0000E+00  0.0000E+00  0.0000E+00  0.0000E+00  0.0000E+00  0.0000E+00  0.0000E+00  0.0000E+00  0.0000E+00  0.0000E+00  0.0000E+00  0.0000E+00  0.0000E+00  0.0000E+00  0.0000E+00  0.0000E+00  0.0000E+00  0.0000E+00  0.0000E+00  0.0000E+00  0.0000E+00  0.0000E+00  0.0000E+00  0.0000E+00  0.0000E+00  0.0000E+00  0.0000E+00
  0.0000E+00  0.0000E+00  0.0000E+00  0.0000E+00  0.0000E+00  0.0000E+00  0.0000E+00  0.0000E+00  0.0000E+00  0.0000E+00  0.0000E+00  0.0000E+00  0.0000E+00  0.0000E+00  0.0000E+00  0.0000E+00  0.0000E+00  0.0000E+00  0.0000E+00  0.0000E+00  0.0000E+00  0.0000E+00  0.0000E+00  0.0000E+00  0.0000E+00  0.0000E+00  0.0000E+00  0.0000E+00  0.0000E+00  0.0000E+00  0.0000E+00  0.0000E+00  0.0000E+00  0.0000E+00  0.0000E+00  0.0000E+00  0.0000E+00  0.0000E+00  0.0000E+00  0.0000E+00  0.0000E+00  0.0000E+00  0.0000E+00  0.0000E+00  0.0000E+00  0.0000E+00  0.0000E+00  0.0000E+00  0.0000E+00  0.0000E+00  0.0000E+00  0.0000E+00  0.0000E+00  0.0000E+00  0.0000E+00  0.0000E+00  0.0000E+00  0.0000E+00  0.0000E+00  0.0000E+00  0.0000E+00  0.0000E+00  0.0000E+00  0.0000E+00  0.0000E+00  0.0000E+00  0.0000E+00  0.0000E+00  0.4063E-10  0.6171E-10  0.6268E-10  0.6351E-10  0.6419E-10  0.1255E-09  0.1263E-09  0.1065E-09  0.6439E-10  0.2195E-10  0.0000E+00
  0.0000E+00  0.0000E+00  0.0000E+00  0.0000E+00  0.0000E+00  0.0000E+00  0.0000E+00  0.0000E+00  0.0000E+00  0.0000E+00  0.0000E+00  0.0000E+00  0.0000E+00  0.0000E+00  0.0000E+00  0.0000E+00  0.0000E+00  0.0000E+00  0.0000E+00  0.0000E+00  0.0000E+00  0.0000E+00  0.0000E+00  0.0000E+00  0.0000E+00  0.0000E+00  0.0000E+00  0.0000E+00  0.0000E+00  0.0000E+00  0.0000E+00  0.0000E+00  0.0000E+00  0.0000E+00  0.0000E+00  0.0000E+00  0.0000E+00  0.0000E+00  0.0000E+00  0.0000E+00  0.0000E+00  0.0000E+00  0.0000E+00  0.0000E+00  0.0000E+00  0.0000E+00  0.0000E+00  0.0000E+00  0.0000E+00  0.0000E+00  0.0000E+00  0.0000E+00  0.0000E+00  0.0000E+00  0.0000E+00  0.0000E+00  0.0000E+00  0.0000E+00  0.0000E+00  0.0000E+00  0.0000E+00  0.0000E+00  0.0000E+00  0.4324E-10  0.6614E-10  0.6793E-10  0.1131E-09  0.1374E-09  0.1400E-09  0.1422E-09  0.1660E-09  0.2118E-09  0.2138E-09  0.2153E-09  0.2163E-09  0.1942E-09  0.1475E-09  0.1245E-09  0.7495E-10
  0.0000E+00  0.0000E+00  0.0000E+00  0.0000E+00  0.0000E+00  0.0000E+00  0.0000E+00  0.0000E+00  0.0000E+00  0.0000E+00  0.0000E+00  0.0000E+00  0.0000E+00  0.0000E+00  0.0000E+00  0.0000E+00  0.0000E+00  0.0000E+00  0.0000E+00  0.0000E+00  0.0000E+00  0.0000E+00  0.0000E+00  0.0000E+00  0.0000E+00  0.0000E+00  0.0000E+00  0.0000E+00  0.0000E+00  0.0000E+00  0.0000E+00  0.0000E+00  0.0000E+00  0.0000E+00  0.0000E+00  0.0000E+00  0.0000E+00  0.0000E+00  0.0000E+00  0.0000E+00  0.0000E+00  0.0000E+00  0.0000E+00  0.0000E+00  0.0000E+00  0.0000E+00  0.0000E+00  0.0000E+00  0.0000E+00  0.0000E+00  0.0000E+00  0.0000E+00  0.0000E+00  0.0000E+00  0.0000E+00  0.0000E+00  0.0000E+00  0.0000E+00  0.0000E+00  0.4551E-10  0.7008E-10  0.9580E-10  0.1452E-09  0.1497E-09  0.1774E-09  0.2289E-09  0.2340E-09  0.2386E-09  0.3132E-09  0.3178E-09  0.3216E-09  0.3245E-09  0.3268E-09  0.3750E-09  0.3760E-09  0.3277E-09  0.2784E-09  0.2257E-09  0.1703E-09
  0.0000E+00  0.0000E+00  0.0000E+00  0.0000E+00  0.0000E+00  0.0000E+00  0.0000E+00  0.0000E+00  0.0000E+00  0.0000E+00  0.0000E+00  0.0000E+00  0.0000E+00  0.0000E+00  0.0000E+00  0.0000E+00  0.0000E+00  0.0000E+00  0.0000E+00  0.0000E+00  0.0000E+00  0.0000E+00  0.0000E+00  0.0000E+00  0.0000E+00  0.0000E+00  0.0000E+00  0.0000E+00  0.0000E+00  0.0000E+00  0.0000E+00  0.0000E+00  0.0000E+00  0.0000E+00  0.0000E+00  0.0000E+00  0.0000E+00  0.0000E+00  0.0000E+00  0.0000E+00  0.0000E+00  0.0000E+00  0.0000E+00  0.0000E+00  0.0000E+00  0.0000E+00  0.0000E+00  0.0000E+00  0.0000E+00  0.0000E+00  0.0000E+00  0.0000E+00  0.0000E+00  0.0000E+00  0.0000E+00  0.2347E-10  0.7152E-10  0.9911E-10  0.1515E-09  0.1581E-09  0.2140E-09  0.2465E-09  0.2796E-09  0.3378E-09  0.3468E-09  0.3549E-09  0.4384E-09  0.4462E-09  0.4529E-09  0.4583E-09  0.5389E-09  0.5429E-09  0.5457E-09  0.5472E-09  0.5214E-09  0.4665E-09  0.4105E-09  0.3789E-09  0.2886E-09
  0.0000E+00  0.0000E+00  0.0000E+00  0.0000E+00  0.0000E+00  0.0000E+00  0.0000E+00  0.0000E+00  0.0000E+00  0.0000E+00  0.0000E+00  0.0000E+00  0.0000E+00  0.0000E+00  0.0000E+00  0.0000E+00  0.0000E+00  0.0000E+00  0.0000E+00  0.0000E+00  0.0000E+00  0.0000E+00  0.0000E+00  0.0000E+00  0.0000E+00  0.0000E+00  0.0000E+00  0.0000E+00  0.0000E+00  0.0000E+00  0.0000E+00  0.0000E+00  0.0000E+00  0.0000E+00  0.0000E+00  0.0000E+00  0.0000E+00  0.0000E+00  0.0000E+00  0.0000E+00  0.0000E+00  0.0000E+00  0.0000E+00  0.0000E+00  0.0000E+00  0.0000E+00  0.0000E+00  0.0000E+00  0.0000E+00  0.0000E+00  0.0000E+00  0.0000E+00  0.2434E-10  0.7437E-10  0.1284E-09  0.1604E-09  0.1949E-09  0.2560E-09  0.2940E-09  0.3586E-09  0.3724E-09  0.4393E-09  0.4800E-09  0.4933E-09  0.5605E-09  0.6001E-09  0.6112E-09  0.6205E-09  0.7117E-09  0.7190E-09  0.7245E-09  0.7282E-09  0.7301E-09  0.7576E-09  0.7272E-09  0.6679E-09  0.6038E-09  0.5358E-09  0.4675E-09
  0.0000E+00  0.0000E+00  0.0000E+00  0.0000E+00  0.0000E+00  0.0000E+00  0.0000E+00  0.0000E+00  0.0000E+00  0.0000E+00  0.0000E+00  0.0000E+00  0.0000E+00  0.0000E+00  0.0000E+00  0.0000E+00  0.0000E+00  0.0000E+00  0.0000E+00  0.0000E+00  0.0000E+00  0.0000E+00  0.0000E+00  0.0000E+00  0.0000E+00  0.0000E+00  0.0000E+00  0.0000E+00  0.0000E+00  0.0000E+00  0.0000E+00  0.0000E+00  0.0000E+00  0.0000E+00  0.0000E+00  0.0000E+00  0.0000E+00  0.0000E+00  0.0000E+00  0.0000E+00  0.0000E+00  0.0000E+00  0.0000E+00  0.0000E+00  0.0000E+00  0.0000E+00  0.0000E+00  0.0000E+00  0.0000E+00  0.2457E-10  0.7535E-10  0.1069E-09  0.1659E-09  0.2296E-09  0.2699E-09  0.3399E-09  0.3849E-09  0.4319E-09  0.5077E-09  0.5570E-09  0.6348E-09  0.6557E-09  0.7046E-09  0.7824E-09  0.8001E-09  0.8455E-09  0.9194E-09  0.9319E-09  0.9418E-09  0.9491E-09  0.1044E-08  0.1047E-08  0.1048E-08  0.1016E-08  0.9486E-09  0.8794E-09  0.8051E-09  0.7268E-09  0.6482E-09
  0.0000E+00  0.0000E+00  0.0000E+00  0.0000E+00  0.0000E+00  0.0000E+00  0.0000E+00  0.0000E+00  0.0000E+00  0.0000E+00  0.0000E+00  0.0000E+00  0.0000E+00  0.0000E+00  0.0000E+00  0.0000E+00  0.0000E+00  0.0000E+00  0.0000E+00  0.0000E+00  0.0000E+00  0.0000E+00  0.0000E+00  0.0000E+00  0.0000E+00  0.0000E+00  0.0000E+00  0.0000E+00  0.0000E+00  0.0000E+00  0.0000E+00  0.0000E+00  0.0000E+00  0.0000E+00  0.0000E+00  0.0000E+00  0.0000E+00  0.0000E+00  0.0000E+00  0.0000E+00  0.0000E+00  0.4860E-10  0.7360E-10  0.7458E-10  0.7528E-10  0.7572E-10  0.7587E-10  0.7673E-10  0.1064E-09  0.1417E-09  0.2073E-09  0.2771E-09  0.3527E-09  0.4034E-09  0.4863E-09  0.5423E-09  0.6306E-09  0.6901E-09  0.7508E-09  0.8425E-09  0.9033E-09  0.9632E-09  0.1022E-08  0.1079E-08  0.1166E-08  0.1186E-08  0.1203E-08  0.1282E-08  0.1326E-08  0.1333E-08  0.1338E-08  0.1338E-08  0.1336E-08  0.1296E-08  0.1217E-08  0.1172E-08  0.1085E-08  0.9574E-09  0.8662E-09
  0.0000E+00  0.0000E+00  0.0000E+00  0.0000E+00  0.0000E+00  0.0000E+00  0.0000E+00  0.0000E+00  0.0000E+00  0.0000E+00  0.0000E+00  0.0000E+00  0.0000E+00  0.0000E+00  0.0000E+00  0.0000E+00  0.0000E+00  0.0000E+00  0.0000E+00  0.0000E+00  0.0000E+00  0.0000E+00  0.0000E+00  0.0000E+00  0.0000E+00  0.0000E+00  0.0000E+00  0.0000E+00  0.0000E+00  0.0000E+00  0.0000E+00  0.0000E+00  0.0000E+00  0.0000E+00  0.0000E+00  0.4904E-10  0.7541E-10  0.7811E-10  0.1319E-09  0.1613E-09  0.1655E-09  0.1691E-09  0.1722E-09  0.2556E-09  0.2585E-09  0.2604E-09  0.2613E-09  0.2653E-09  0.2779E-09  0.3282E-09  0.4113E-09  0.4719E-09  0.5650E-09  0.6638E-09  0.7337E-09  0.8388E-09  0.9125E-09  0.1021E-08  0.1096E-08  0.1171E-08  0.1279E-08  0.1316E-08  0.1420E-08  0.1487E-08  0.1514E-08  0.1609E-08  0.1664E-08  0.1679E-08  0.1690E-08  0.1695E-08  0.1803E-08  0.1765E-08  0.1758E-08  0.1672E-08  0.1582E-08  0.1485E-08  0.1383E-08  0.1279E-08  0.1172E-08
  0.0000E+00  0.0000E+00  0.0000E+00  0.0000E+00  0.0000E+00  0.0000E+00  0.0000E+00  0.0000E+00  0.0000E+00  0.0000E+00  0.0000E+00  0.0000E+00  0.0000E+00  0.0000E+00  0.0000E+00  0.0000E+00  0.0000E+00  0.0000E+00  0.0000E+00  0.0000E+00  0.0000E+00  0.0000E+00  0.0000E+00  0.0000E+00  0.0000E+00  0.0000E+00  0.0000E+00  0.0000E+00  0.0000E+00  0.0000E+00  0.0000E+00  0.4846E-10  0.7531E-10  0.1047E-09  0.1606E-09  0.1679E-09  0.2022E-09  0.2644E-09  0.2736E-09  0.3107E-09  0.3763E-09  0.3855E-09  0.3933E-09  0.3997E-09  0.4047E-09  0.4986E-09  0.5025E-09  0.5126E-09  0.5356E-09  0.5721E-09  0.6476E-09  0.7588E-09  0.8769E-09  0.9641E-09  0.1090E-08  0.1181E-08  0.1311E-08  0.1404E-08  0.1534E-08  0.1625E-08  0.1713E-08  0.1837E-08  0.1879E-08  0.1956E-08  0.2066E-08  0.2093E-08  0.2113E-08  0.2533E-08  0.2545E-08  0.2548E-08  0.2545E-08  0.2534E-08  0.2381E-08  0.2180E-08  0.1976E-08  0.1860E-08  0.1738E-08  0.1615E-08  0.1489E-08
  0.0000E+00  0.0000E+00  0.0000E+00  0.0000E+00  0.0000E+00  0.0000E+00  0.0000E+00  0.0000E+00  0.0000E+00  0.0000E+00  0.0000E+00  0.0000E+00  0.0000E+00  0.0000E+00  0.0000E+00  0.0000E+00  0.0000E+00  0.0000E+00  0.0000E+00  0.0000E+00  0.0000E+00  0.0000E+00  0.0000E+00  0.0000E+00  0.0000E+00  0.0000E+00  0.0000E+00  0.0000E+00  0.2456E-10  0.7536E-10  0.1059E-09  0.1639E-09  0.2003E-09  0.2650E-09  0.2785E-09  0.3496E-09  0.3939E-09  0.4401E-09  0.5166E-09  0.5342E-09  0.5501E-09  0.6290E-09  0.6752E-09  0.6878E-09  0.6978E-09  0.7049E-09  0.7147E-09  0.8019E-09  0.8382E-09  0.8911E-09  0.9892E-09  0.1131E-08  0.1240E-08  0.1391E-08  0.1544E-08  0.1661E-08  0.1776E-08  0.1932E-08  0.2045E-08  0.2196E-08  0.2302E-08  0.2512E-08  0.2869E-08  0.2924E-08  0.2968E-08  0.3001E-08  0.3162E-08  0.3449E-08  0.3456E-08  0.3451E-08  0.3436E-08  0.3273E-08  0.3104E-08  0.2764E-08  0.2725E-08  0.2469E-08  0.2160E-08  0.2014E-08  0.1865E-08
  0.0000E+00  0.0000E+00  0.0000E+00  0.0000E+00  0.0000E+00  0.0000E+00  0.0000E+00  0.0000E+00  0.0000E+00  0.0000E+00  0.0000E+00  0.0000E+00  0.0000E+00  0.0000E+00  0.0000E+00  0.0000E+00  0.0000E+00  0.0000E+00  0.0000E+00  0.0000E+00  0.0000E+00  0.0000E+00  0.0000E+00  0.0000E+00  0.0000E+00  0.0000E+00  0.4960E-10  0.7813E-10  0.1365E-09  0.1990E-09  0.2656E-09  0.3106E-09  0.3856E-09  0.4077E-09  0.4910E-09  0.5464E-09  0.6359E-09  0.6955E-09  0.7233E-09  0.8180E-09  0.8788E-09  0.9039E-09  0.9979E-09  0.1054E-08  0.1072E-08  0.1087E-08  0.1109E-08  0.1144E-08  0.1198E-08  0.1269E-08  0.1394E-08  0.1568E-08  0.1750E-08  0.1935E-08  0.2081E-08  0.2269E-08  0.2414E-08  0.2720E-08  0.2985E-08  0.3251E-08  0.3343E-08  0.3736E-08  0.3967E-08  0.4032E-08  0.4082E-08  0.4116E-08  0.4414E-08  0.4560E-08  0.4553E-08  0.4532E-08  0.4359E-08  0.4175E-08  0.3982E-08  0.3757E-08  0.3528E-08  0.3108E-08  0.2795E-08  0.2547E-08  0.2370E-08
  0.0000E+00  0.0000E+00  0.0000E+00  0.0000E+00  0.0000E+00  0.0000E+00  0.0000E+00  0.0000E+00  0.0000E+00  0.0000E+00  0.0000E+00  0.0000E+00  0.0000E+00  0.0000E+00  0.0000E+00  0.0000E+00  0.0000E+00  0.0000E+00  0.0000E+00  0.0000E+00  0.0000E+00  0.0000E+00  0.0000E+00  0.0000E+00  0.5020E-10  0.1051E-09  0.1648E-09  0.2051E-09  0.2754E-09  0.3525E-09  0.4056E-09  0.4933E-09  0.5550E-09  0.6526E-09  0.7219E-09  0.8281E-09  0.9033E-09  0.9812E-09  0.1095E-08  0.1138E-08  0.1254E-08  0.1331E-08  0.1367E-08  0.1399E-08  0.1547E-08  0.1577E-08  0.1617E-08  0.1674E-08  0.1750E-08  0.1844E-08  0.1958E-08  0.2174E-08  0.2352E-08  0.2581E-08  0.2941E-08  0.3264E-08  0.3593E-08  0.4077E-08  0.4393E-08  0.4531E-08  0.4809E-08  0.5227E-08  0.5321E-08  0.5392E-08  0.5441E-08  0.5468E-08  0.5898E-08  0.5890E-08  0.5861E-08  0.5674E-08  0.5472E-08  0.5257E-08  0.5005E-08  0.4748E-08  0.4292E-08  0.4005E-08  0.3720E-08  0.3414E-08  0.3047E-08
  0.0000E+00  0.0000E+00  0.0000E+00  0.0000E+00  0.0000E+00  0.0000E+00  0.0000E+00  0.0000E+00  0.0000E+00  0.0000E+00  0.0000E+00  0.0000E+00  0.0000E+00  0.0000E+00  0.0000E+00  0.0000E+00  0.0000E+00  0.0000E+00  0.0000E+00  0.0000E+00  0.0000E+00  0.0000E+00  0.4988E-10  0.1050E-09  0.1655E-09  0.2336E-09  0.2802E-09  0.3610E-09  0.4481E-09  0.5414E-09  0.6127E-09  0.7191E-09  0.8009E-09  0.9196E-09  0.1011E-08  0.1140E-08  0.1239E-08  0.1376E-08  0.1439E-08  0.1582E-08  0.1683E-08  0.1783E-08  0.1923E-08  0.1973E-08  0.2016E-08  0.2159E-08  0.2272E-08  0.2358E-08  0.2463E-08  0.2587E-08  0.2733E-08  0.2898E-08  0.3461E-08  0.3855E-08  0.4433E-08  0.4835E-08  0.5222E-08  0.5767E-08  0.5964E-08  0.6133E-08  0.6598E-08  0.6881E-08  0.6979E-08  0.7047E-08  0.7085E-08  0.7239E-08  0.7510E-08  0.7473E-08  0.7268E-08  0.7044E-08  0.6802E-08  0.6517E-08  0.6224E-08  0.5725E-08  0.5395E-08  0.5066E-08  0.4713E-08  0.4367E-08  0.3787E-08
  0.0000E+00  0.0000E+00  0.0000E+00  0.0000E+00  0.0000E+00  0.0000E+00  0.0000E+00  0.0000E+00  0.0000E+00  0.0000E+00  0.0000E+00  0.0000E+00  0.0000E+00  0.0000E+00  0.0000E+00  0.0000E+00  0.0000E+00  0.0000E+00  0.0000E+00  0.0000E+00  0.4864E-10  0.7791E-10  0.1387E-09  0.2058E-09  0.2795E-09  0.3625E-09  0.4527E-09  0.5505E-09  0.6276E-09  0.7416E-09  0.8658E-09  0.9627E-09  0.1103E-08  0.1212E-08  0.1367E-08  0.1528E-08  0.1654E-08  0.1783E-08  0.1958E-08  0.2089E-08  0.2267E-08  0.2397E-08  0.2475E-08  0.2924E-08  0.3197E-08  0.3299E-08  0.3415E-08  0.3548E-08  0.3697E-08  0.3864E-08  0.4051E-08  0.4476E-08  0.5142E-08  0.5638E-08  0.6310E-08  0.6614E-08  0.7244E-08  0.7680E-08  0.7913E-08  0.8273E-08  0.8760E-08  0.8892E-08  0.8984E-08  0.9037E-08  0.9052E-08  0.9466E-08  0.9417E-08  0.9192E-08  0.8940E-08  0.8665E-08  0.8341E-08  0.8003E-08  0.7452E-08  0.7071E-08  0.6886E-08  0.6278E-08  0.5874E-08  0.5229E-08  0.4821E-08
  0.0000E+00  0.0000E+00  0.0000E+00  0.0000E+00  0.0000E+00  0.0000E+00  0.0000E+00  0.0000E+00  0.0000E+00  0.0000E+00  0.0000E+00  0.0000E+00  0.0000E+00  0.0000E+00  0.0000E+00  0.0000E+00  0.0000E+00  0.0000E+00  0.2399E-10  0.7502E-10  0.1342E-09  0.2003E-09  0.2736E-09  0.3293E-09  0.4192E-09  0.5201E-09  0.6300E-09  0.7492E-09  0.8806E-09  0.9866E-09  0.1138E-08  0.1300E-08  0.1471E-08  0.1614E-08  0.1803E-08  0.2003E-08  0.2166E-08  0.2379E-08  0.2549E-08  0.3046E-08  0.3375E-08  0.3523E-08  0.3853E-08  0.4370E-08  0.4525E-08  0.4688E-08  0.4863E-08  0.5051E-08  0.5252E-08  0.5468E-08  0.5918E-08  0.6468E-08  0.7085E-08  0.7881E-08  0.8474E-08  0.9032E-08  0.9731E-08  0.1005E-07  0.1031E-07  0.1086E-07  0.1119E-07  0.1132E-07  0.1139E-07  0.1141E-07  0.1139E-07  0.1176E-07  0.1151E-07  0.1123E-07  0.1106E-07  0.1054E-07  0.1014E-07  0.9738E-08  0.9291E-08  0.8840E-08  0.8159E-08  0.7684E-08  0.6963E-08  0.6482E-08  0.5738E-08
  0.0000E+00  0.0000E+00  0.0000E+00  0.0000E+00  0.0000E+00  0.0000E+00  0.0000E+00  0.0000E+00  0.0000E+00  0.0000E+00  0.0000E+00  0.0000E+00  0.0000E+00  0.0000E+00  0.0000E+00  0.0000E+00  0.0000E+00  0.4877E-10  0.1040E-09  0.1662E-09  0.2381E-09  0.3183E-09  0.4075E-09  0.5085E-09  0.5886E-09  0.7112E-09  0.8450E-09  0.9902E-09  0.1150E-08  0.1323E-08  0.1507E-08  0.1707E-08  0.1878E-08  0.2103E-08  0.2338E-08  0.2584E-08  0.2934E-08  0.3485E-08  0.3884E-08  0.4478E-08  0.4718E-08  0.4945E-08  0.5552E-08  0.5969E-08  0.6200E-08  0.6438E-08  0.6684E-08  0.6937E-08  0.7198E-08  0.7473E-08  0.8076E-08  0.9005E-08  0.9759E-08  0.1068E-07  0.1118E-07  0.1200E-07  0.1260E-07  0.1295E-07  0.1340E-07  0.1396E-07  0.1412E-07  0.1422E-07  0.1425E-07  0.1422E-07  0.1443E-07  0.1430E-07  0.1412E-07  0.1376E-07  0.1318E-07  0.1272E-07  0.1224E-07  0.1172E-07  0.1119E-07  0.1042E-07  0.9856E-08  0.9041E-08  0.8473E-08  0.7635E-08  0.7077E-08
  0.0000E+00  0.0000E+00  0.0000E+00  0.0000E+00  0.0000E+00  0.0000E+00  0.0000E+00  0.0000E+00  0.0000E+00  0.0000E+00  0.0000E+00  0.0000E+00  0.0000E+00  0.0000E+00  0.0000E+00  0.0000E+00  0.5070E-10  0.1084E-09  0.1737E-09  0.2498E-09  0.3351E-09  0.4598E-09  0.5391E-09  0.6594E-09  0.7920E-09  0.9408E-09  0.1103E-08  0.1280E-08  0.1475E-08  0.1685E-08  0.1911E-08  0.2155E-08  0.2416E-08  0.2691E-08  0.3078E-08  0.3678E-08  0.4328E-08  0.4820E-08  0.5525E-08  0.6057E-08  0.6399E-08  0.6925E-08  0.7639E-08  0.7967E-08  0.8294E-08  0.8623E-08  0.8953E-08  0.9282E-08  0.9614E-08  0.1023E-07  0.1105E-07  0.1218E-07  0.1308E-07  0.1393E-07  0.1472E-07  0.1562E-07  0.1608E-07  0.1645E-07  0.1709E-07  0.1747E-07  0.1760E-07  0.1764E-07  0.1761E-07  0.1751E-07  0.1779E-07  0.1742E-07  0.1699E-07  0.1634E-07  0.1580E-07  0.1524E-07  0.1462E-07  0.1399E-07  0.1311E-07  0.1245E-07  0.1152E-07  0.1085E-07  0.9899E-08  0.9524E-08  0.8878E-08
  0.0000E+00  0.0000E+00  0.0000E+00  0.0000E+00  0.0000E+00  0.0000E+00  0.0000E+00  0.0000E+00  0.0000E+00  0.0000E+00  0.0000E+00  0.0000E+00  0.0000E+00  0.0000E+00  0.2409E-10  0.7597E-10  0.1375E-09  0.2075E-09  0.2868E-09  0.3787E-09  0.4819E-09  0.5971E-09  0.7285E-09  0.8740E-09  0.1035E-08  0.1215E-08  0.1411E-08  0.1626E-08  0.1863E-08  0.2119E-08  0.2394E-08  0.2694E-08  0.3151E-08  0.3783E-08  0.4490E-08  0.5244E-08  0.6040E-08  0.6686E-08  0.7538E-08  0.8024E-08  0.8493E-08  0.9353E-08  0.1001E-07  0.1046E-07  0.1090E-07  0.1134E-07  0.1177E-07  0.1219E-07  0.1261E-07  0.1370E-07  0.1480E-07  0.1611E-07  0.1717E-07  0.1795E-07  0.1901E-07  0.1980E-07  0.2029E-07  0.2084E-07  0.2146E-07  0.2163E-07  0.2170E-07  0.2167E-07  0.2154E-07  0.2134E-07  0.2136E-07  0.2086E-07  0.2012E-07  0.1949E-07  0.1900E-07  0.1809E-07  0.1734E-07  0.1634E-07  0.1555E-07  0.1449E-07  0.1395E-07  0.1316E-07  0.1210E-07  0.1133E-07  0.1028E-07
  0.0000E+00  0.0000E+00  0.0000E+00  0.0000E+00  0.0000E+00  0.0000E+00  0.0000E+00  0.0000E+00  0.0000E+00  0.0000E+00  0.0000E+00  0.0000E+00  0.0000E+00  0.2460E-10  0.7774E-10  0.1412E-09  0.2396E-09  0.3241E-09  0.4198E-09  0.5304E-09  0.6547E-09  0.7936E-09  0.9516E-09  0.1127E-08  0.1321E-08  0.1538E-08  0.1776E-08  0.2035E-08  0.2323E-08  0.2634E-08  0.2969E-08  0.3622E-08  0.4534E-08  0.5342E-08  0.6215E-08  0.7155E-08  0.7943E-08  0.8962E-08  0.9806E-08  0.1045E-07  0.1129E-07  0.1232E-07  0.1293E-07  0.1353E-07  0.1411E-07  0.1468E-07  0.1523E-07  0.1575E-07  0.1662E-07  0.1805E-07  0.1944E-07  0.2093E-07  0.2194E-07  0.2302E-07  0.2417E-07  0.2481E-07  0.2530E-07  0.2601E-07  0.2642E-07  0.2651E-07  0.2648E-07  0.2634E-07  0.2609E-07  0.2574E-07  0.2546E-07  0.2481E-07  0.2406E-07  0.2326E-07  0.2221E-07  0.2132E-07  0.2017E-07  0.1923E-07  0.1853E-07  0.1733E-07  0.1638E-07  0.1517E-07  0.1425E-07  0.1304E-07  0.1217E-07
  0.0000E+00  0.0000E+00  0.0000E+00  0.0000E+00  0.0000E+00  0.0000E+00  0.0000E+00  0.0000E+00  0.0000E+00  0.0000E+00  0.0000E+00  0.2253E-10  0.7061E-10  0.1508E-09  0.2162E-09  0.3400E-09  0.4516E-09  0.5518E-09  0.6677E-09  0.7979E-09  0.9437E-09  0.1110E-08  0.1285E-08  0.1494E-08  0.1702E-08  0.1962E-08  0.2226E-08  0.2517E-08  0.2864E-08  0.3380E-08  0.4283E-08  0.5296E-08  0.6217E-08  0.7238E-08  0.8329E-08  0.9481E-08  0.1049E-07  0.1173E-07  0.1259E-07  0.1344E-07  0.1489E-07  0.1572E-07  0.1652E-07  0.1730E-07  0.1806E-07  0.1877E-07  0.1945E-07  0.2014E-07  0.2165E-07  0.2329E-07  0.2510E-07  0.2659E-07  0.2793E-07  0.2911E-07  0.3012E-07  0.3076E-07  0.3141E-07  0.3207E-07  0.3221E-07  0.3219E-07  0.3202E-07  0.3172E-07  0.3130E-07  0.3093E-07  0.3015E-07  0.2927E-07  0.2833E-07  0.2711E-07  0.2605E-07  0.2497E-07  0.2384E-07  0.2272E-07  0.2132E-07  0.2020E-07  0.1879E-07  0.1769E-07  0.1630E-07  0.1526E-07  0.1391E-07
  0.0000E+00  0.0000E+00  0.0000E+00  0.0000E+00  0.0000E+00  0.0000E+00  0.0000E+00  0.4589E-10  0.7115E-10  0.1446E-09  0.1501E-09  0.2052E-09  0.3394E-09  0.4111E-09  0.5203E-09  0.6403E-09  0.7469E-09  0.8945E-09  0.1062E-08  0.1218E-08  0.1392E-08  0.1589E-08  0.1783E-08  0.2026E-08  0.2275E-08  0.2577E-08  0.2906E-08  0.3253E-08  0.3896E-08  0.4832E-08  0.5922E-08  0.7139E-08  0.8281E-08  0.9539E-08  0.1089E-07  0.1211E-07  0.1359E-07  0.1489E-07  0.1601E-07  0.1753E-07  0.1882E-07  0.1988E-07  0.2092E-07  0.2192E-07  0.2287E-07  0.2376E-07  0.2460E-07  0.2590E-07  0.2793E-07  0.2992E-07  0.3197E-07  0.3343E-07  0.3508E-07  0.3633E-07  0.3717E-07  0.3778E-07  0.3855E-07  0.3893E-07  0.3893E-07  0.3874E-07  0.3839E-07  0.3788E-07  0.3724E-07  0.3649E-07  0.3544E-07  0.3432E-07  0.3291E-07  0.3165E-07  0.3036E-07  0.2902E-07  0.2767E-07  0.2605E-07  0.2471E-07  0.2307E-07  0.2176E-07  0.2016E-07  0.1891E-07  0.1735E-07  0.1619E-07
  0.0000E+00  0.0000E+00  0.0000E+00  0.0000E+00  0.6991E-10  0.1210E-09  0.1520E-09  0.2095E-09  0.2451E-09  0.2824E-09  0.3720E-09  0.4648E-09  0.6252E-09  0.7174E-09  0.8489E-09  0.9926E-09  0.1152E-08  0.1330E-08  0.1495E-08  0.1709E-08  0.1916E-08  0.2146E-08  0.2441E-08  0.2696E-08  0.2990E-08  0.3345E-08  0.3709E-08  0.4565E-08  0.5763E-08  0.6921E-08  0.8255E-08  0.9487E-08  0.1086E-07  0.1240E-07  0.1401E-07  0.1552E-07  0.1731E-07  0.1873E-07  0.2037E-07  0.2219E-07  0.2358E-07  0.2494E-07  0.2625E-07  0.2750E-07  0.2869E-07  0.2978E-07  0.3113E-07  0.3304E-07  0.3542E-07  0.3791E-07  0.3997E-07  0.4178E-07  0.4352E-07  0.4461E-07  0.4541E-07  0.4614E-07  0.4678E-07  0.4682E-07  0.4662E-07  0.4622E-07  0.4562E-07  0.4485E-07  0.4394E-07  0.4271E-07  0.4138E-07  0.3974E-07  0.3824E-07  0.3693E-07  0.3511E-07  0.3351E-07  0.3162E-07  0.3001E-07  0.2811E-07  0.2655E-07  0.2469E-07  0.2320E-07  0.2140E-07  0.2001E-07  0.1829E-07
  0.0000E+00  0.6891E-10  0.7390E-10  0.1532E-09  0.2376E-09  0.2527E-09  0.3470E-09  0.3665E-09  0.4695E-09  0.5172E-09  0.7065E-09  0.7969E-09  0.9606E-09  0.1106E-08  0.1265E-08  0.1441E-08  0.1663E-08  0.1841E-08  0.2072E-08  0.2292E-08  0.2569E-08  0.2877E-08  0.3178E-08  0.3481E-08  0.3853E-08  0.4229E-08  0.5143E-08  0.6392E-08  0.7812E-08  0.9260E-08  0.1085E-07  0.1241E-07  0.1412E-07  0.1595E-07  0.1770E-07  0.1972E-07  0.2164E-07  0.2338E-07  0.2561E-07  0.2760E-07  0.2935E-07  0.3105E-07  0.3269E-07  0.3425E-07  0.3570E-07  0.3703E-07  0.3922E-07  0.4188E-07  0.4469E-07  0.4745E-07  0.4949E-07  0.5163E-07  0.5322E-07  0.5428E-07  0.5500E-07  0.5577E-07  0.5605E-07  0.5586E-07  0.5540E-07  0.5470E-07  0.5379E-07  0.5270E-07  0.5126E-07  0.4969E-07  0.4802E-07  0.4624E-07  0.4440E-07  0.4227E-07  0.4036E-07  0.3816E-07  0.3625E-07  0.3404E-07  0.3217E-07  0.3000E-07  0.2823E-07  0.2614E-07  0.2448E-07  0.2250E-07  0.2097E-07
  0.1478E-09  0.1595E-09  0.2493E-09  0.3456E-09  0.3700E-09  0.4789E-09  0.5093E-09  0.6300E-09  0.7204E-09  0.8741E-09  0.1043E-08  0.1219E-08  0.1383E-08  0.1596E-08  0.1757E-08  0.2007E-08  0.2269E-08  0.2483E-08  0.2760E-08  0.3059E-08  0.3345E-08  0.3701E-08  0.4055E-08  0.4444E-08  0.4873E-08  0.5804E-08  0.7313E-08  0.8805E-08  0.1054E-07  0.1206E-07  0.1383E-07  0.1595E-07  0.1800E-07  0.2025E-07  0.2239E-07  0.2485E-07  0.2697E-07  0.2934E-07  0.3194E-07  0.3409E-07  0.3627E-07  0.3838E-07  0.4040E-07  0.4231E-07  0.4406E-07  0.4611E-07  0.4893E-07  0.5253E-07  0.5569E-07  0.5849E-07  0.6089E-07  0.6309E-07  0.6447E-07  0.6543E-07  0.6618E-07  0.6675E-07  0.6658E-07  0.6607E-07  0.6528E-07  0.6421E-07  0.6292E-07  0.6124E-07  0.5939E-07  0.5742E-07  0.5532E-07  0.5314E-07  0.5066E-07  0.4839E-07  0.4581E-07  0.4354E-07  0.4096E-07  0.3874E-07  0.3622E-07  0.3411E-07  0.3168E-07  0.2971E-07  0.2742E-07  0.2560E-07  0.2342E-07
  0.2571E-08  0.2027E-08  0.1497E-08  0.1007E-08  0.8228E-09  0.6730E-09  0.8142E-09  0.9866E-09  0.1097E-08  0.1323E-08  0.1461E-08  0.1747E-08  0.1915E-08  0.2215E-08  0.2417E-08  0.2717E-08  0.3030E-08  0.3293E-08  0.3982E-08  0.4301E-08  0.4844E-08  0.5263E-08  0.5675E-08  0.6121E-08  0.7099E-08  0.8633E-08  0.1024E-07  0.1172E-07  0.1361E-07  0.1553E-07  0.1784E-07  0.2017E-07  0.2271E-07  0.2517E-07  0.2804E-07  0.3079E-07  0.3339E-07  0.3647E-07  0.3936E-07  0.4199E-07  0.4460E-07  0.4713E-07  0.4959E-07  0.5190E-07  0.5403E-07  0.5722E-07  0.6103E-07  0.6515E-07  0.6862E-07  0.7140E-07  0.7411E-07  0.7612E-07  0.7740E-07  0.7819E-07  0.7890E-07  0.7897E-07  0.7844E-07  0.7755E-07  0.7632E-07  0.7481E-07  0.7286E-07  0.7070E-07  0.6839E-07  0.6591E-07  0.6334E-07  0.6044E-07  0.5775E-07  0.5475E-07  0.5205E-07  0.4904E-07  0.4675E-07  0.4418E-07  0.4133E-07  0.3851E-07  0.3619E-07  0.3352E-07  0.3098E-07  0.2846E-07  0.2640E-07
  0.7363E-08  0.6837E-08  0.6407E-08  0.5921E-08  0.5457E-08  0.4864E-08  0.4533E-08  0.4123E-08  0.3927E-08  0.3701E-08  0.3815E-08  0.3478E-08  0.3316E-08  0.3131E-08  0.3743E-08  0.4048E-08  0.4368E-08  0.4947E-08  0.5514E-08  0.6103E-08  0.6520E-08  0.7006E-08  0.7480E-08  0.8469E-08  0.1001E-07  0.1166E-07  0.1341E-07  0.1522E-07  0.1753E-07  0.2010E-07  0.2294E-07  0.2562E-07  0.2831E-07  0.3136E-07  0.3476E-07  0.3787E-07  0.4129E-07  0.4499E-07  0.4823E-07  0.5147E-07  0.5462E-07  0.5764E-07  0.6054E-07  0.6325E-07  0.6638E-07  0.7073E-07  0.7543E-07  0.7994E-07  0.8346E-07  0.8660E-07  0.8935E-07  0.9105E-07  0.9215E-07  0.9286E-07  0.9324E-07  0.9271E-07  0.9173E-07  0.9034E-07  0.8860E-07  0.8634E-07  0.8384E-07  0.8113E-07  0.7822E-07  0.7520E-07  0.7182E-07  0.6865E-07  0.6514E-07  0.6227E-07  0.5912E-07  0.5568E-07  0.5264E-07  0.4931E-07  0.4644E-07  0.4328E-07  0.4019E-07  0.3766E-07  0.3474E-07  0.3190E-07  0.2909E-07
  0.1425E-07  0.1444E-07  0.1439E-07  0.1436E-07  0.1426E-07  0.1393E-07  0.1335E-07  0.1279E-07  0.1173E-07  0.1019E-07  0.9036E-08  0.8132E-08  0.7375E-08  0.7158E-08  0.6989E-08  0.6680E-08  0.6412E-08  0.6726E-08  0.7422E-08  0.8094E-08  0.8584E-08  0.9100E-08  0.9970E-08  0.1169E-07  0.1355E-07  0.1536E-07  0.1767E-07  0.1989E-07  0.2264E-07  0.2569E-07  0.2864E-07  0.3189E-07  0.3518E-07  0.3914E-07  0.4288E-07  0.4632E-07  0.5063E-07  0.5480E-07  0.5873E-07  0.6265E-07  0.6645E-07  0.7009E-07  0.7353E-07  0.7673E-07  0.8131E-07  0.8666E-07  0.9219E-07  0.9684E-07  0.1005E-06  0.1040E-06  0.1064E-06  0.1080E-06  0.1088E-06  0.1093E-06  0.1090E-06  0.1080E-06  0.1064E-06  0.1044E-06  0.1019E-06  0.9919E-07  0.9604E-07  0.9244E-07  0.8891E-07  0.8498E-07  0.8125E-07  0.7779E-07  0.7374E-07  0.7002E-07  0.6601E-07  0.6242E-07  0.5855E-07  0.5516E-07  0.5149E-07  0.4834E-07  0.4490E-07  0.4153E-07  0.3826E-07  0.3503E-07  0.3228E-07
  0.2253E-07  0.2279E-07  0.2351E-07  0.2360E-07  0.2381E-07  0.2303E-07  0.2209E-07  0.2063E-07  0.1962E-07  0.1839E-07  0.1745E-07  0.1576E-07  0.1470E-07  0.1386E-07  0.1267E-07  0.1206E-07  0.1149E-07  0.1114E-07  0.1088E-07  0.1071E-07  0.1113E-07  0.1186E-07  0.1320E-07  0.1525E-07  0.1746E-07  0.2004E-07  0.2236E-07  0.2525E-07  0.2850E-07  0.3192E-07  0.3546E-07  0.3913E-07  0.4353E-07  0.4802E-07  0.5208E-07  0.5696E-07  0.6201E-07  0.6642E-07  0.7114E-07  0.7584E-07  0.8038E-07  0.8471E-07  0.8873E-07  0.9332E-07  0.9935E-07  0.1056E-06  0.1116E-06  0.1163E-06  0.1203E-06  0.1237E-06  0.1258E-06  0.1270E-06  0.1276E-06  0.1276E-06  0.1265E-06  0.1248E-06  0.1226E-06  0.1199E-06  0.1166E-06  0.1130E-06  0.1088E-06  0.1047E-06  0.1005E-06  0.9610E-07  0.9171E-07  0.8699E-07  0.8262E-07  0.7795E-07  0.7372E-07  0.6922E-07  0.6522E-07  0.6096E-07  0.5725E-07  0.5326E-07  0.4981E-07  0.4603E-07  0.4232E-07  0.3869E-07  0.3515E-07
  0.3050E-07  0.3181E-07  0.3259E-07  0.3278E-07  0.3231E-07  0.3132E-07  0.3067E-07  0.2935E-07  0.2874E-07  0.2743E-07  0.2639E-07  0.2496E-07  0.2448E-07  0.2351E-07  0.2283E-07  0.2205E-07  0.2158E-07  0.2092E-07  0.2004E-07  0.1902E-07  0.1812E-07  0.1767E-07  0.1858E-07  0.2019E-07  0.2261E-07  0.2523E-07  0.2845E-07  0.3187E-07  0.3570E-07  0.3909E-07  0.4356E-07  0.4816E-07  0.5316E-07  0.5824E-07  0.6336E-07  0.6936E-07  0.7489E-07  0.8045E-07  0.8601E-07  0.9126E-07  0.9660E-07  0.1017E-06  0.1069E-06  0.1131E-06  0.1203E-06  0.1275E-06  0.1335E-06  0.1386E-06  0.1428E-06  0.1456E-06  0.1473E-06  0.1481E-06  0.1483E-06  0.1475E-06  0.1457E-06  0.1433E-06  0.1402E-06  0.1365E-06  0.1323E-06  0.1276E-06  0.1228E-06  0.1179E-06  0.1128E-06  0.1077E-06  0.1022E-06  0.9709E-07  0.9167E-07  0.8671E-07  0.8148E-07  0.7679E-07  0.7184E-07  0.6749E-07  0.6286E-07  0.5882E-07  0.5447E-07  0.5027E-07  0.4639E-07  0.4256E-07  0.3934E-07
  0.4009E-07  0.4079E-07  0.4137E-07  0.4103E-07  0.4087E-07  0.4030E-07  0.3975E-07  0.3942E-07  0.3835E-07  0.3807E-07  0.3719E-07  0.3633E-07  0.3591E-07  0.3484E-07  0.3405E-07  0.3319E-07  0.3250E-07  0.3182E-07  0.3083E-07  0.2958E-07  0.2898E-07  0.2905E-07  0.2998E-07  0.3033E-07  0.3096E-07  0.3308E-07  0.3592E-07  0.3951E-07  0.4354E-07  0.4832E-07  0.5311E-07  0.5878E-07  0.6448E-07  0.7027E-07  0.7681E-07  0.8345E-07  0.8996E-07  0.9656E-07  0.1031E-06  0.1096E-06  0.1156E-06  0.1214E-06  0.1284E-06  0.1364E-06  0.1448E-06  0.1525E-06  0.1585E-06  0.1637E-06  0.1675E-06  0.1700E-06  0.1712E-06  0.1716E-06  0.1711E-06  0.1693E-06  0.1666E-06  0.1633E-06  0.1590E-06  0.1543E-06  0.1490E-06  0.1435E-06  0.1378E-06  0.1319E-06  0.1259E-06  0.1196E-06  0.1137E-06  0.1074E-06  0.1016E-06  0.9554E-07  0.9005E-07  0.8432E-07  0.7928E-07  0.7420E-07  0.6980E-07  0.6512E-07  0.6055E-07  0.5654E-07  0.5216E-07  0.4802E-07  0.4406E-07
  0.5035E-07  0.5078E-07  0.5074E-07  0.5082E-07  0.5051E-07  0.5034E-07  0.4967E-07  0.4960E-07  0.4901E-07  0.4911E-07  0.4852E-07  0.4869E-07  0.4815E-07  0.4759E-07  0.4677E-07  0.4607E-07  0.4532E-07  0.4439E-07  0.4310E-07  0.4206E-07  0.4186E-07  0.4261E-07  0.4314E-07  0.4358E-07  0.4444E-07  0.4604E-07  0.4790E-07  0.5044E-07  0.5399E-07  0.5867E-07  0.6459E-07  0.7103E-07  0.7751E-07  0.8457E-07  0.9229E-07  0.9984E-07  0.1077E-06  0.1153E-06  0.1230E-06  0.1306E-06  0.1376E-06  0.1451E-06  0.1538E-06  0.1635E-06  0.1726E-06  0.1804E-06  0.1867E-06  0.1918E-06  0.1951E-06  0.1969E-06  0.1975E-06  0.1973E-06  0.1957E-06  0.1929E-06  0.1892E-06  0.1846E-06  0.1796E-06  0.1736E-06  0.1678E-06  0.1613E-06  0.1542E-06  0.1473E-06  0.1401E-06  0.1330E-06  0.1257E-06  0.1188E-06  0.1117E-06  0.1055E-06  0.9915E-07  0.9364E-07  0.8787E-07  0.8274E-07  0.7734E-07  0.7260E-07  0.6752E-07  0.6257E-07  0.5783E-07  0.5323E-07  0.4933E-07
  0.6089E-07  0.6153E-07  0.6209E-07  0.6216E-07  0.6214E-07  0.6205E-07  0.6203E-07  0.6162E-07  0.6155E-07  0.6109E-07  0.6046E-07  0.6057E-07  0.6008E-07  0.5957E-07  0.5907E-07  0.5895E-07  0.5871E-07  0.5794E-07  0.5709E-07  0.5662E-07  0.5729E-07  0.5790E-07  0.5844E-07  0.5875E-07  0.6000E-07  0.6174E-07  0.6359E-07  0.6583E-07  0.6889E-07  0.7358E-07  0.7892E-07  0.8563E-07  0.9290E-07  0.1012E-06  0.1102E-06  0.1190E-06  0.1280E-06  0.1369E-06  0.1459E-06  0.1545E-06  0.1631E-06  0.1726E-06  0.1835E-06  0.1944E-06  0.2038E-06  0.2114E-06  0.2180E-06  0.2226E-06  0.2253E-06  0.2264E-06  0.2260E-06  0.2253E-06  0.2229E-06  0.2193E-06  0.2145E-06  0.2089E-06  0.2025E-06  0.1955E-06  0.1882E-06  0.1802E-06  0.1723E-06  0.1639E-06  0.1559E-06  0.1475E-06  0.1395E-06  0.1313E-06  0.1238E-06  0.1163E-06  0.1099E-06  0.1033E-06  0.9739E-07  0.9119E-07  0.8568E-07  0.7989E-07  0.7417E-07  0.6862E-07  0.6327E-07  0.5864E-07  0.5381E-07
  0.7333E-07  0.7416E-07  0.7511E-07  0.7560E-07  0.7607E-07  0.7612E-07  0.7651E-07  0.7617E-07  0.7625E-07  0.7570E-07  0.7554E-07  0.7505E-07  0.7451E-07  0.7391E-07  0.7364E-07  0.7314E-07  0.7305E-07  0.7270E-07  0.7215E-07  0.7291E-07  0.7381E-07  0.7448E-07  0.7550E-07  0.7677E-07  0.7810E-07  0.7995E-07  0.8177E-07  0.8429E-07  0.8808E-07  0.9266E-07  0.9782E-07  0.1044E-06  0.1119E-06  0.1207E-06  0.1307E-06  0.1409E-06  0.1512E-06  0.1619E-06  0.1721E-06  0.1822E-06  0.1925E-06  0.2047E-06  0.2173E-06  0.2291E-06  0.2384E-06  0.2462E-06  0.2524E-06  0.2562E-06  0.2586E-06  0.2595E-06  0.2590E-06  0.2567E-06  0.2528E-06  0.2476E-06  0.2414E-06  0.2344E-06  0.2266E-06  0.2183E-06  0.2092E-06  0.2002E-06  0.1908E-06  0.1815E-06  0.1720E-06  0.1633E-06  0.1543E-06  0.1452E-06  0.1365E-06  0.1284E-06  0.1212E-06  0.1139E-06  0.1067E-06  0.1003E-06  0.9351E-07  0.8696E-07  0.8112E-07  0.7505E-07  0.6928E-07  0.6378E-07  0.5858E-07
  0.8805E-07  0.8937E-07  0.9036E-07  0.9142E-07  0.9221E-07  0.9308E-07  0.9359E-07  0.9407E-07  0.9378E-07  0.9326E-07  0.9348E-07  0.9277E-07  0.9201E-07  0.9132E-07  0.9085E-07  0.9052E-07  0.9004E-07  0.8964E-07  0.9005E-07  0.9165E-07  0.9300E-07  0.9352E-07  0.9483E-07  0.9636E-07  0.9815E-07  0.1003E-06  0.1032E-06  0.1064E-06  0.1106E-06  0.1160E-06  0.1221E-06  0.1294E-06  0.1373E-06  0.1457E-06  0.1554E-06  0.1661E-06  0.1781E-06  0.1900E-06  0.2020E-06  0.2139E-06  0.2267E-06  0.2412E-06  0.2552E-06  0.2672E-06  0.2766E-06  0.2843E-06  0.2905E-06  0.2945E-06  0.2959E-06  0.2954E-06  0.2936E-06  0.2895E-06  0.2838E-06  0.2770E-06  0.2692E-06  0.2605E-06  0.2512E-06  0.2411E-06  0.2309E-06  0.2202E-06  0.2102E-06  0.1997E-06  0.1890E-06  0.1788E-06  0.1685E-06  0.1590E-06  0.1498E-06  0.1411E-06  0.1328E-06  0.1244E-06  0.1170E-06  0.1092E-06  0.1021E-06  0.9491E-07  0.8798E-07  0.8142E-07  0.7519E-07  0.6927E-07  0.6369E-07
  0.1080E-06  0.1094E-06  0.1106E-06  0.1117E-06  0.1126E-06  0.1143E-06  0.1152E-06  0.1164E-06  0.1164E-06  0.1166E-06  0.1162E-06  0.1152E-06  0.1143E-06  0.1129E-06  0.1120E-06  0.1111E-06  0.1108E-06  0.1109E-06  0.1120E-06  0.1147E-06  0.1159E-06  0.1174E-06  0.1174E-06  0.1190E-06  0.1208E-06  0.1233E-06  0.1268E-06  0.1313E-06  0.1363E-06  0.1428E-06  0.1501E-06  0.1581E-06  0.1672E-06  0.1773E-06  0.1870E-06  0.1980E-06  0.2100E-06  0.2225E-06  0.2358E-06  0.2498E-06  0.2663E-06  0.2822E-06  0.2970E-06  0.3088E-06  0.3197E-06  0.3281E-06  0.3326E-06  0.3347E-06  0.3347E-06  0.3326E-06  0.3293E-06  0.3234E-06  0.3161E-06  0.3076E-06  0.2981E-06  0.2878E-06  0.2765E-06  0.2652E-06  0.2536E-06  0.2417E-06  0.2299E-06  0.2177E-06  0.2061E-06  0.1943E-06  0.1837E-06  0.1734E-06  0.1643E-06  0.1548E-06  0.1455E-06  0.1364E-06  0.1276E-06  0.1196E-06  0.1114E-06  0.1034E-06  0.9576E-07  0.8854E-07  0.8166E-07  0.7569E-07  0.6961E-07
  0.1312E-06  0.1332E-06  0.1357E-06  0.1374E-06  0.1397E-06  0.1421E-06  0.1440E-06  0.1453E-06  0.1456E-06  0.1463E-06  0.1460E-06  0.1453E-06  0.1439E-06  0.1425E-06  0.1415E-06  0.1404E-06  0.1387E-06  0.1384E-06  0.1403E-06  0.1420E-06  0.1435E-06  0.1435E-06  0.1450E-06  0.1469E-06  0.1490E-06  0.1502E-06  0.1541E-06  0.1590E-06  0.1653E-06  0.1728E-06  0.1815E-06  0.1909E-06  0.2018E-06  0.2129E-06  0.2244E-06  0.2367E-06  0.2487E-06  0.2620E-06  0.2761E-06  0.2926E-06  0.3103E-06  0.3280E-06  0.3441E-06  0.3570E-06  0.3665E-06  0.3731E-06  0.3765E-06  0.3773E-06  0.3757E-06  0.3725E-06  0.3668E-06  0.3592E-06  0.3503E-06  0.3396E-06  0.3283E-06  0.3159E-06  0.3036E-06  0.2906E-06  0.2770E-06  0.2636E-06  0.2499E-06  0.2367E-06  0.2237E-06  0.2117E-06  0.2000E-06  0.1896E-06  0.1791E-06  0.1687E-06  0.1585E-06  0.1491E-06  0.1396E-06  0.1304E-06  0.1214E-06  0.1129E-06  0.1051E-06  0.9730E-07  0.8973E-07  0.8264E-07  0.7604E-07
  0.1575E-06  0.1608E-06  0.1644E-06  0.1676E-06  0.1715E-06  0.1743E-06  0.1776E-06  0.1793E-06  0.1808E-06  0.1810E-06  0.1805E-06  0.1800E-06  0.1798E-06  0.1799E-06  0.1777E-06  0.1774E-06  0.1755E-06  0.1754E-06  0.1770E-06  0.1772E-06  0.1761E-06  0.1768E-06  0.1780E-06  0.1792E-06  0.1806E-06  0.1835E-06  0.1877E-06  0.1924E-06  0.1984E-06  0.2067E-06  0.2158E-06  0.2274E-06  0.2401E-06  0.2530E-06  0.2664E-06  0.2801E-06  0.2940E-06  0.3075E-06  0.3234E-06  0.3419E-06  0.3625E-06  0.3809E-06  0.3951E-06  0.4068E-06  0.4158E-06  0.4208E-06  0.4231E-06  0.4224E-06  0.4190E-06  0.4140E-06  0.4062E-06  0.3966E-06  0.3853E-06  0.3729E-06  0.3596E-06  0.3456E-06  0.3311E-06  0.3160E-06  0.3011E-06  0.2857E-06  0.2711E-06  0.2565E-06  0.2430E-06  0.2298E-06  0.2180E-06  0.2062E-06  0.1952E-06  0.1839E-06  0.1729E-06  0.1622E-06  0.1518E-06  0.1424E-06  0.1328E-06  0.1236E-06  0.1148E-06  0.1065E-06  0.9837E-07  0.9067E-07  0.8350E-07
  0.1879E-06  0.1929E-06  0.1973E-06  0.2024E-06  0.2076E-06  0.2117E-06  0.2139E-06  0.2166E-06  0.2196E-06  0.2211E-06  0.2219E-06  0.2230E-06  0.2239E-06  0.2245E-06  0.2232E-06  0.2208E-06  0.2194E-06  0.2197E-06  0.2205E-06  0.2192E-06  0.2193E-06  0.2196E-06  0.2189E-06  0.2184E-06  0.2190E-06  0.2218E-06  0.2254E-06  0.2300E-06  0.2373E-06  0.2458E-06  0.2554E-06  0.2686E-06  0.2824E-06  0.2976E-06  0.3132E-06  0.3288E-06  0.3446E-06  0.3606E-06  0.3797E-06  0.4007E-06  0.4203E-06  0.4370E-06  0.4505E-06  0.4610E-06  0.4678E-06  0.4718E-06  0.4721E-06  0.4695E-06  0.4644E-06  0.4569E-06  0.4469E-06  0.4349E-06  0.4216E-06  0.4072E-06  0.3918E-06  0.3758E-06  0.3590E-06  0.3424E-06  0.3255E-06  0.3095E-06  0.2932E-06  0.2779E-06  0.2630E-06  0.2496E-06  0.2363E-06  0.2237E-06  0.2111E-06  0.1989E-06  0.1872E-06  0.1758E-06  0.1654E-06  0.1548E-06  0.1447E-06  0.1349E-06  0.1254E-06  0.1164E-06  0.1078E-06  0.9967E-07  0.9185E-07
  0.2210E-06  0.2276E-06  0.2341E-06  0.2404E-06  0.2459E-06  0.2513E-06  0.2556E-06  0.2600E-06  0.2637E-06  0.2673E-06  0.2700E-06  0.2735E-06  0.2740E-06  0.2750E-06  0.2756E-06  0.2738E-06  0.2722E-06  0.2735E-06  0.2718E-06  0.2707E-06  0.2701E-06  0.2693E-06  0.2679E-06  0.2668E-06  0.2674E-06  0.2679E-06  0.2698E-06  0.2747E-06  0.2816E-06  0.2898E-06  0.3016E-06  0.3154E-06  0.3294E-06  0.3466E-06  0.3645E-06  0.3830E-06  0.4010E-06  0.4220E-06  0.4440E-06  0.4648E-06  0.4826E-06  0.4978E-06  0.5105E-06  0.5195E-06  0.5241E-06  0.5249E-06  0.5233E-06  0.5187E-06  0.5114E-06  0.5013E-06  0.4885E-06  0.4748E-06  0.4593E-06  0.4422E-06  0.4247E-06  0.4062E-06  0.3879E-06  0.3695E-06  0.3516E-06  0.3336E-06  0.3166E-06  0.2998E-06  0.2844E-06  0.2691E-06  0.2550E-06  0.2409E-06  0.2273E-06  0.2147E-06  0.2021E-06  0.1900E-06  0.1785E-06  0.1674E-06  0.1568E-06  0.1466E-06  0.1367E-06  0.1274E-06  0.1182E-06  0.1099E-06  0.1015E-06
  0.2594E-06  0.2680E-06  0.2760E-06  0.2841E-06  0.2912E-06  0.2981E-06  0.3040E-06  0.3099E-06  0.3155E-06  0.3212E-06  0.3260E-06  0.3315E-06  0.3351E-06  0.3357E-06  0.3354E-06  0.3327E-06  0.3321E-06  0.3315E-06  0.3318E-06  0.3317E-06  0.3311E-06  0.3289E-06  0.3265E-06  0.3254E-06  0.3242E-06  0.3235E-06  0.3251E-06  0.3283E-06  0.3330E-06  0.3421E-06  0.3543E-06  0.3668E-06  0.3839E-06  0.4025E-06  0.4224E-06  0.4428E-06  0.4647E-06  0.4896E-06  0.5138E-06  0.5347E-06  0.5511E-06  0.5638E-06  0.5743E-06  0.5810E-06  0.5838E-06  0.5825E-06  0.5771E-06  0.5693E-06  0.5597E-06  0.5467E-06  0.5318E-06  0.5151E-06  0.4968E-06  0.4779E-06  0.4577E-06  0.4379E-06  0.4175E-06  0.3979E-06  0.3780E-06  0.3592E-06  0.3400E-06  0.3224E-06  0.3053E-06  0.2896E-06  0.2739E-06  0.2593E-06  0.2447E-06  0.2307E-06  0.2172E-06  0.2047E-06  0.1926E-06  0.1809E-06  0.1703E-06  0.1591E-06  0.1495E-06  0.1396E-06  0.1298E-06  0.1205E-06  0.1123E-06
  0.3034E-06  0.3138E-06  0.3248E-06  0.3342E-06  0.3437E-06  0.3520E-06  0.3596E-06  0.3675E-06  0.3768E-06  0.3840E-06  0.3929E-06  0.3989E-06  0.4042E-06  0.4054E-06  0.4042E-06  0.4016E-06  0.4025E-06  0.4031E-06  0.4024E-06  0.4019E-06  0.3991E-06  0.3968E-06  0.3948E-06  0.3934E-06  0.3911E-06  0.3903E-06  0.3903E-06  0.3922E-06  0.3962E-06  0.4043E-06  0.4135E-06  0.4280E-06  0.4456E-06  0.4660E-06  0.4873E-06  0.5097E-06  0.5355E-06  0.5633E-06  0.5880E-06  0.6093E-06  0.6250E-06  0.6360E-06  0.6422E-06  0.6456E-06  0.6457E-06  0.6416E-06  0.6340E-06  0.6227E-06  0.6086E-06  0.5931E-06  0.5755E-06  0.5556E-06  0.5352E-06  0.5136E-06  0.4922E-06  0.4701E-06  0.4490E-06  0.4271E-06  0.4063E-06  0.3850E-06  0.3648E-06  0.3458E-06  0.3283E-06  0.3109E-06  0.2946E-06  0.2784E-06  0.2629E-06  0.2481E-06  0.2338E-06  0.2206E-06  0.2084E-06  0.1960E-06  0.1842E-06  0.1730E-06  0.1621E-06  0.1514E-06  0.1420E-06  0.1326E-06  0.1229E-06
  0.3523E-06  0.3657E-06  0.3792E-06  0.3908E-06  0.4031E-06  0.4128E-06  0.4232E-06  0.4348E-06  0.4469E-06  0.4599E-06  0.4706E-06  0.4805E-06  0.4834E-06  0.4862E-06  0.4854E-06  0.4837E-06  0.4865E-06  0.4861E-06  0.4847E-06  0.4812E-06  0.4784E-06  0.4761E-06  0.4746E-06  0.4698E-06  0.4681E-06  0.4665E-06  0.4660E-06  0.4673E-06  0.4710E-06  0.4758E-06  0.4854E-06  0.4986E-06  0.5162E-06  0.5373E-06  0.5594E-06  0.5857E-06  0.6142E-06  0.6417E-06  0.6675E-06  0.6876E-06  0.7023E-06  0.7118E-06  0.7151E-06  0.7137E-06  0.7096E-06  0.7029E-06  0.6919E-06  0.6776E-06  0.6601E-06  0.6401E-06  0.6188E-06  0.5970E-06  0.5742E-06  0.5511E-06  0.5277E-06  0.5041E-06  0.4810E-06  0.4568E-06  0.4339E-06  0.4119E-06  0.3908E-06  0.3709E-06  0.3517E-06  0.3338E-06  0.3158E-06  0.2986E-06  0.2824E-06  0.2673E-06  0.2523E-06  0.2384E-06  0.2250E-06  0.2119E-06  0.1994E-06  0.1873E-06  0.1753E-06  0.1648E-06  0.1543E-06  0.1438E-06  0.1340E-06
  0.4081E-06  0.4244E-06  0.4396E-06  0.4546E-06  0.4682E-06  0.4820E-06  0.4984E-06  0.5137E-06  0.5316E-06  0.5477E-06  0.5595E-06  0.5706E-06  0.5767E-06  0.5795E-06  0.5796E-06  0.5801E-06  0.5834E-06  0.5819E-06  0.5782E-06  0.5746E-06  0.5722E-06  0.5690E-06  0.5635E-06  0.5605E-06  0.5569E-06  0.5532E-06  0.5527E-06  0.5538E-06  0.5556E-06  0.5612E-06  0.5697E-06  0.5818E-06  0.5978E-06  0.6170E-06  0.6422E-06  0.6704E-06  0.6994E-06  0.7281E-06  0.7517E-06  0.7694E-06  0.7834E-06  0.7905E-06  0.7908E-06  0.7857E-06  0.7766E-06  0.7649E-06  0.7509E-06  0.7330E-06  0.7119E-06  0.6884E-06  0.6635E-06  0.6388E-06  0.6136E-06  0.5891E-06  0.5633E-06  0.5380E-06  0.5120E-06  0.4868E-06  0.4622E-06  0.4393E-06  0.4176E-06  0.3973E-06  0.3769E-06  0.3572E-06  0.3382E-06  0.3208E-06  0.3041E-06  0.2877E-06  0.2720E-06  0.2571E-06  0.2431E-06  0.2293E-06  0.2159E-06  0.2031E-06  0.1908E-06  0.1789E-06  0.1671E-06  0.1558E-06  0.1458E-06
  0.4703E-06  0.4903E-06  0.5091E-06  0.5274E-06  0.5455E-06  0.5647E-06  0.5851E-06  0.6066E-06  0.6282E-06  0.6464E-06  0.6623E-06  0.6739E-06  0.6834E-06  0.6881E-06  0.6888E-06  0.6917E-06  0.6942E-06  0.6911E-06  0.6878E-06  0.6847E-06  0.6805E-06  0.6739E-06  0.6690E-06  0.6646E-06  0.6578E-06  0.6545E-06  0.6520E-06  0.6497E-06  0.6522E-06  0.6578E-06  0.6660E-06  0.6772E-06  0.6908E-06  0.7100E-06  0.7353E-06  0.7637E-06  0.7939E-06  0.8206E-06  0.8404E-06  0.8566E-06  0.8665E-06  0.8703E-06  0.8681E-06  0.8597E-06  0.8458E-06  0.8288E-06  0.8097E-06  0.7880E-06  0.7637E-06  0.7379E-06  0.7100E-06  0.6813E-06  0.6544E-06  0.6267E-06  0.5989E-06  0.5711E-06  0.5441E-06  0.5172E-06  0.4925E-06  0.4688E-06  0.4462E-06  0.4243E-06  0.4023E-06  0.3820E-06  0.3628E-06  0.3446E-06  0.3271E-06  0.3100E-06  0.2935E-06  0.2779E-06  0.2628E-06  0.2482E-06  0.2340E-06  0.2202E-06  0.2070E-06  0.1934E-06  0.1810E-06  0.1697E-06  0.1578E-06
  0.5408E-06  0.5643E-06  0.5879E-06  0.6097E-06  0.6337E-06  0.6596E-06  0.6847E-06  0.7119E-06  0.7365E-06  0.7592E-06  0.7799E-06  0.7951E-06  0.8059E-06  0.8122E-06  0.8130E-06  0.8201E-06  0.8212E-06  0.8190E-06  0.8149E-06  0.8099E-06  0.8025E-06  0.7970E-06  0.7909E-06  0.7831E-06  0.7759E-06  0.7707E-06  0.7656E-06  0.7623E-06  0.7632E-06  0.7669E-06  0.7745E-06  0.7837E-06  0.7978E-06  0.8163E-06  0.8402E-06  0.8686E-06  0.8956E-06  0.9177E-06  0.9355E-06  0.9465E-06  0.9528E-06  0.9522E-06  0.9462E-06  0.9341E-06  0.9161E-06  0.8935E-06  0.8688E-06  0.8437E-06  0.8161E-06  0.7868E-06  0.7565E-06  0.7263E-06  0.6943E-06  0.6641E-06  0.6340E-06  0.6052E-06  0.5764E-06  0.5497E-06  0.5240E-06  0.4993E-06  0.4754E-06  0.4529E-06  0.4304E-06  0.4091E-06  0.3895E-06  0.3708E-06  0.3526E-06  0.3347E-06  0.3174E-06  0.3011E-06  0.2845E-06  0.2691E-06  0.2538E-06  0.2389E-06  0.2237E-06  0.2103E-06  0.1968E-06  0.1831E-06  0.1704E-06
  0.6204E-06  0.6485E-06  0.6768E-06  0.7053E-06  0.7366E-06  0.7665E-06  0.8021E-06  0.8342E-06  0.8637E-06  0.8887E-06  0.9134E-06  0.9322E-06  0.9443E-06  0.9532E-06  0.9590E-06  0.9673E-06  0.9679E-06  0.9653E-06  0.9603E-06  0.9525E-06  0.9454E-06  0.9376E-06  0.9280E-06  0.9190E-06  0.9105E-06  0.9030E-06  0.8944E-06  0.8909E-06  0.8898E-06  0.8908E-06  0.8942E-06  0.9033E-06  0.9167E-06  0.9346E-06  0.9598E-06  0.9846E-06  0.1005E-05  0.1023E-05  0.1034E-05  0.1042E-05  0.1042E-05  0.1036E-05  0.1025E-05  0.1009E-05  0.9867E-06  0.9595E-06  0.9292E-06  0.8981E-06  0.8678E-06  0.8360E-06  0.8036E-06  0.7694E-06  0.7352E-06  0.7015E-06  0.6700E-06  0.6395E-06  0.6111E-06  0.5835E-06  0.5580E-06  0.5326E-06  0.5078E-06  0.4836E-06  0.4606E-06  0.4394E-06  0.4195E-06  0.4006E-06  0.3811E-06  0.3629E-06  0.3445E-06  0.3259E-06  0.3084E-06  0.2918E-06  0.2749E-06  0.2589E-06  0.2431E-06  0.2278E-06  0.2123E-06  0.1979E-06  0.1850E-06
  0.7081E-06  0.7431E-06  0.7769E-06  0.8116E-06  0.8494E-06  0.8920E-06  0.9319E-06  0.9707E-06  0.1008E-05  0.1040E-05  0.1065E-05  0.1089E-05  0.1106E-05  0.1117E-05  0.1127E-05  0.1137E-05  0.1137E-05  0.1133E-05  0.1126E-05  0.1117E-05  0.1108E-05  0.1096E-05  0.1085E-05  0.1074E-05  0.1064E-05  0.1051E-05  0.1043E-05  0.1036E-05  0.1032E-05  0.1029E-05  0.1031E-05  0.1038E-05  0.1047E-05  0.1067E-05  0.1090E-05  0.1110E-05  0.1124E-05  0.1133E-05  0.1139E-05  0.1139E-05  0.1133E-05  0.1121E-05  0.1105E-05  0.1083E-05  0.1056E-05  0.1026E-05  0.9897E-06  0.9532E-06  0.9187E-06  0.8847E-06  0.8483E-06  0.8127E-06  0.7764E-06  0.7411E-06  0.7059E-06  0.6759E-06  0.6470E-06  0.6202E-06  0.5936E-06  0.5675E-06  0.5419E-06  0.5173E-06  0.4952E-06  0.4741E-06  0.4536E-06  0.4334E-06  0.4135E-06  0.3935E-06  0.3732E-06  0.3544E-06  0.3354E-06  0.3162E-06  0.2980E-06  0.2803E-06  0.2629E-06  0.2458E-06  0.2298E-06  0.2141E-06  0.1997E-06
  0.8059E-06  0.8462E-06  0.8887E-06  0.9344E-06  0.9833E-06  0.1035E-05  0.1083E-05  0.1129E-05  0.1170E-05  0.1209E-05  0.1242E-05  0.1269E-05  0.1291E-05  0.1304E-05  0.1317E-05  0.1328E-05  0.1329E-05  0.1325E-05  0.1317E-05  0.1306E-05  0.1291E-05  0.1278E-05  0.1264E-05  0.1250E-05  0.1234E-05  0.1221E-05  0.1210E-05  0.1200E-05  0.1191E-05  0.1186E-05  0.1185E-05  0.1186E-05  0.1196E-05  0.1211E-05  0.1228E-05  0.1243E-05  0.1251E-05  0.1254E-05  0.1248E-05  0.1240E-05  0.1228E-05  0.1209E-05  0.1186E-05  0.1159E-05  0.1127E-05  0.1091E-05  0.1051E-05  0.1009E-05  0.9684E-06  0.9303E-06  0.8930E-06  0.8554E-06  0.8180E-06  0.7810E-06  0.7452E-06  0.7137E-06  0.6860E-06  0.6585E-06  0.6317E-06  0.6054E-06  0.5802E-06  0.5561E-06  0.5339E-06  0.5125E-06  0.4914E-06  0.4702E-06  0.4490E-06  0.4269E-06  0.4062E-06  0.3851E-06  0.3637E-06  0.3433E-06  0.3232E-06  0.3035E-06  0.2841E-06  0.2658E-06  0.2479E-06  0.2314E-06  0.2146E-06
  0.9162E-06  0.9641E-06  0.1016E-05  0.1075E-05  0.1136E-05  0.1196E-05  0.1252E-05  0.1308E-05  0.1359E-05  0.1402E-05  0.1442E-05  0.1474E-05  0.1498E-05  0.1515E-05  0.1535E-05  0.1546E-05  0.1547E-05  0.1542E-05  0.1532E-05  0.1518E-05  0.1501E-05  0.1484E-05  0.1466E-05  0.1446E-05  0.1429E-05  0.1413E-05  0.1398E-05  0.1381E-05  0.1370E-05  0.1360E-05  0.1353E-05  0.1354E-05  0.1359E-05  0.1369E-05  0.1377E-05  0.1382E-05  0.1384E-05  0.1377E-05  0.1365E-05  0.1345E-05  0.1323E-05  0.1298E-05  0.1268E-05  0.1234E-05  0.1197E-05  0.1157E-05  0.1113E-05  0.1066E-05  0.1019E-05  0.9764E-06  0.9366E-06  0.8982E-06  0.8593E-06  0.8222E-06  0.7869E-06  0.7554E-06  0.7269E-06  0.7005E-06  0.6739E-06  0.6476E-06  0.6225E-06  0.5995E-06  0.5778E-06  0.5559E-06  0.5339E-06  0.5113E-06  0.4883E-06  0.4650E-06  0.4417E-06  0.4178E-06  0.3948E-06  0.3727E-06  0.3499E-06  0.3277E-06  0.3065E-06  0.2865E-06  0.2670E-06  0.2484E-06  0.2301E-06
  0.1037E-05  0.1098E-05  0.1163E-05  0.1232E-05  0.1305E-05  0.1376E-05  0.1444E-05  0.1509E-05  0.1570E-05  0.1623E-05  0.1670E-05  0.1704E-05  0.1733E-05  0.1757E-05  0.1782E-05  0.1792E-05  0.1793E-05  0.1788E-05  0.1776E-05  0.1758E-05  0.1737E-05  0.1715E-05  0.1690E-05  0.1668E-05  0.1646E-05  0.1625E-05  0.1602E-05  0.1585E-05  0.1568E-05  0.1553E-05  0.1543E-05  0.1538E-05  0.1538E-05  0.1540E-05  0.1537E-05  0.1532E-05  0.1521E-05  0.1506E-05  0.1483E-05  0.1456E-05  0.1423E-05  0.1388E-05  0.1350E-05  0.1310E-05  0.1266E-05  0.1220E-05  0.1174E-05  0.1126E-05  0.1074E-05  0.1023E-05  0.9790E-06  0.9386E-06  0.9009E-06  0.8656E-06  0.8322E-06  0.8008E-06  0.7720E-06  0.7455E-06  0.7195E-06  0.6943E-06  0.6711E-06  0.6494E-06  0.6276E-06  0.6048E-06  0.5812E-06  0.5568E-06  0.5317E-06  0.5060E-06  0.4795E-06  0.4537E-06  0.4287E-06  0.4028E-06  0.3776E-06  0.3533E-06  0.3310E-06  0.3081E-06  0.2868E-06  0.2661E-06  0.2474E-06
  0.1172E-05  0.1247E-05  0.1326E-05  0.1410E-05  0.1494E-05  0.1581E-05  0.1663E-05  0.1739E-05  0.1809E-05  0.1873E-05  0.1923E-05  0.1967E-05  0.2003E-05  0.2034E-05  0.2058E-05  0.2071E-05  0.2072E-05  0.2064E-05  0.2048E-05  0.2028E-05  0.2002E-05  0.1972E-05  0.1943E-05  0.1916E-05  0.1889E-05  0.1858E-05  0.1834E-05  0.1809E-05  0.1787E-05  0.1767E-05  0.1751E-05  0.1741E-05  0.1732E-05  0.1720E-05  0.1706E-05  0.1687E-05  0.1666E-05  0.1638E-05  0.1607E-05  0.1569E-05  0.1526E-05  0.1480E-05  0.1432E-05  0.1384E-05  0.1334E-05  0.1283E-05  0.1233E-05  0.1183E-05  0.1129E-05  0.1075E-05  0.1023E-05  0.9803E-06  0.9434E-06  0.9098E-06  0.8788E-06  0.8502E-06  0.8218E-06  0.7951E-06  0.7709E-06  0.7480E-06  0.7270E-06  0.7060E-06  0.6842E-06  0.6594E-06  0.6334E-06  0.6069E-06  0.5790E-06  0.5497E-06  0.5215E-06  0.4925E-06  0.4632E-06  0.4345E-06  0.4070E-06  0.3812E-06  0.3550E-06  0.3306E-06  0.3068E-06  0.2855E-06  0.2652E-06
  0.1324E-05  0.1409E-05  0.1507E-05  0.1609E-05  0.1715E-05  0.1813E-05  0.1908E-05  0.1999E-05  0.2079E-05  0.2150E-05  0.2214E-05  0.2266E-05  0.2306E-05  0.2342E-05  0.2369E-05  0.2384E-05  0.2385E-05  0.2372E-05  0.2354E-05  0.2328E-05  0.2295E-05  0.2260E-05  0.2224E-05  0.2189E-05  0.2151E-05  0.2119E-05  0.2085E-05  0.2054E-05  0.2025E-05  0.1997E-05  0.1977E-05  0.1959E-05  0.1939E-05  0.1913E-05  0.1883E-05  0.1850E-05  0.1814E-05  0.1775E-05  0.1731E-05  0.1683E-05  0.1630E-05  0.1572E-05  0.1516E-05  0.1458E-05  0.1401E-05  0.1346E-05  0.1291E-05  0.1238E-05  0.1185E-05  0.1131E-05  0.1076E-05  0.1026E-05  0.9877E-06  0.9568E-06  0.9288E-06  0.9027E-06  0.8772E-06  0.8514E-06  0.8300E-06  0.8093E-06  0.7904E-06  0.7703E-06  0.7458E-06  0.7194E-06  0.6914E-06  0.6603E-06  0.6293E-06  0.5978E-06  0.5651E-06  0.5319E-06  0.4993E-06  0.4684E-06  0.4382E-06  0.4084E-06  0.3804E-06  0.3530E-06  0.3285E-06  0.3051E-06  0.2829E-06
  0.1493E-05  0.1601E-05  0.1713E-05  0.1839E-05  0.1957E-05  0.2075E-05  0.2183E-05  0.2289E-05  0.2385E-05  0.2470E-05  0.2543E-05  0.2602E-05  0.2648E-05  0.2689E-05  0.2720E-05  0.2733E-05  0.2731E-05  0.2717E-05  0.2694E-05  0.2661E-05  0.2620E-05  0.2578E-05  0.2532E-05  0.2485E-05  0.2441E-05  0.2400E-05  0.2357E-05  0.2319E-05  0.2281E-05  0.2248E-05  0.2219E-05  0.2190E-05  0.2155E-05  0.2116E-05  0.2069E-05  0.2021E-05  0.1969E-05  0.1915E-05  0.1857E-05  0.1797E-05  0.1733E-05  0.1667E-05  0.1599E-05  0.1533E-05  0.1470E-05  0.1408E-05  0.1348E-05  0.1292E-05  0.1239E-05  0.1187E-05  0.1134E-05  0.1083E-05  0.1040E-05  0.1006E-05  0.9814E-06  0.9599E-06  0.9390E-06  0.9170E-06  0.8960E-06  0.8796E-06  0.8619E-06  0.8402E-06  0.8149E-06  0.7854E-06  0.7550E-06  0.7223E-06  0.6872E-06  0.6501E-06  0.6121E-06  0.5743E-06  0.5384E-06  0.5030E-06  0.4689E-06  0.4367E-06  0.4056E-06  0.3773E-06  0.3503E-06  0.3248E-06  0.2989E-06
  0.1684E-05  0.1813E-05  0.1952E-05  0.2091E-05  0.2228E-05  0.2366E-05  0.2497E-05  0.2617E-05  0.2730E-05  0.2828E-05  0.2912E-05  0.2978E-05  0.3031E-05  0.3080E-05  0.3109E-05  0.3121E-05  0.3117E-05  0.3099E-05  0.3067E-05  0.3024E-05  0.2976E-05  0.2923E-05  0.2865E-05  0.2808E-05  0.2754E-05  0.2699E-05  0.2650E-05  0.2600E-05  0.2555E-05  0.2513E-05  0.2475E-05  0.2430E-05  0.2381E-05  0.2325E-05  0.2263E-05  0.2196E-05  0.2127E-05  0.2057E-05  0.1986E-05  0.1911E-05  0.1838E-05  0.1763E-05  0.1686E-05  0.1610E-05  0.1538E-05  0.1471E-05  0.1408E-05  0.1347E-05  0.1292E-05  0.1241E-05  0.1194E-05  0.1146E-05  0.1104E-05  0.1067E-05  0.1039E-05  0.1022E-05  0.1006E-05  0.9912E-06  0.9737E-06  0.9584E-06  0.9399E-06  0.9180E-06  0.8920E-06  0.8621E-06  0.8301E-06  0.7943E-06  0.7552E-06  0.7118E-06  0.6687E-06  0.6260E-06  0.5838E-06  0.5422E-06  0.5029E-06  0.4658E-06  0.4322E-06  0.4014E-06  0.3721E-06  0.3425E-06  0.3153E-06
  0.1894E-05  0.2048E-05  0.2214E-05  0.2375E-05  0.2539E-05  0.2694E-05  0.2849E-05  0.2991E-05  0.3117E-05  0.3231E-05  0.3324E-05  0.3400E-05  0.3464E-05  0.3514E-05  0.3540E-05  0.3551E-05  0.3543E-05  0.3517E-05  0.3473E-05  0.3422E-05  0.3362E-05  0.3294E-05  0.3224E-05  0.3155E-05  0.3085E-05  0.3021E-05  0.2957E-05  0.2897E-05  0.2842E-05  0.2792E-05  0.2738E-05  0.2678E-05  0.2613E-05  0.2539E-05  0.2459E-05  0.2376E-05  0.2289E-05  0.2202E-05  0.2117E-05  0.2030E-05  0.1944E-05  0.1858E-05  0.1774E-05  0.1690E-05  0.1610E-05  0.1536E-05  0.1468E-05  0.1405E-05  0.1348E-05  0.1297E-05  0.1255E-05  0.1215E-05  0.1176E-05  0.1141E-05  0.1111E-05  0.1091E-05  0.1083E-05  0.1074E-05  0.1062E-05  0.1045E-05  0.1029E-05  0.1008E-05  0.9813E-06  0.9519E-06  0.9193E-06  0.8816E-06  0.8361E-06  0.7879E-06  0.7374E-06  0.6877E-06  0.6377E-06  0.5888E-06  0.5426E-06  0.5003E-06  0.4617E-06  0.4244E-06  0.3915E-06  0.3603E-06  0.3318E-06
  0.2135E-05  0.2310E-05  0.2504E-05  0.2697E-05  0.2888E-05  0.3072E-05  0.3243E-05  0.3406E-05  0.3553E-05  0.3682E-05  0.3789E-05  0.3875E-05  0.3947E-05  0.3995E-05  0.4022E-05  0.4025E-05  0.4008E-05  0.3968E-05  0.3917E-05  0.3852E-05  0.3774E-05  0.3691E-05  0.3606E-05  0.3518E-05  0.3436E-05  0.3353E-05  0.3279E-05  0.3207E-05  0.3141E-05  0.3076E-05  0.3007E-05  0.2931E-05  0.2847E-05  0.2755E-05  0.2658E-05  0.2556E-05  0.2454E-05  0.2351E-05  0.2249E-05  0.2152E-05  0.2053E-05  0.1957E-05  0.1863E-05  0.1773E-05  0.1686E-05  0.1606E-05  0.1532E-05  0.1466E-05  0.1409E-05  0.1359E-05  0.1319E-05  0.1285E-05  0.1258E-05  0.1227E-05  0.1200E-05  0.1179E-05  0.1169E-05  0.1167E-05  0.1162E-05  0.1148E-05  0.1133E-05  0.1113E-05  0.1090E-05  0.1068E-05  0.1041E-05  0.1000E-05  0.9505E-06  0.8882E-06  0.8280E-06  0.7634E-06  0.7027E-06  0.6449E-06  0.5929E-06  0.5428E-06  0.4935E-06  0.4528E-06  0.4130E-06  0.3788E-06  0.3468E-06
  0.2405E-05  0.2613E-05  0.2838E-05  0.3060E-05  0.3275E-05  0.3487E-05  0.3689E-05  0.3876E-05  0.4045E-05  0.4186E-05  0.4308E-05  0.4404E-05  0.4480E-05  0.4529E-05  0.4549E-05  0.4543E-05  0.4510E-05  0.4459E-05  0.4391E-05  0.4305E-05  0.4210E-05  0.4108E-05  0.4001E-05  0.3895E-05  0.3791E-05  0.3695E-05  0.3604E-05  0.3521E-05  0.3442E-05  0.3362E-05  0.3276E-05  0.3183E-05  0.3080E-05  0.2972E-05  0.2856E-05  0.2738E-05  0.2619E-05  0.2501E-05  0.2387E-05  0.2275E-05  0.2167E-05  0.2061E-05  0.1958E-05  0.1860E-05  0.1767E-05  0.1680E-05  0.1601E-05  0.1534E-05  0.1475E-05  0.1429E-05  0.1392E-05  0.1362E-05  0.1341E-05  0.1328E-05  0.1306E-05  0.1290E-05  0.1274E-05  0.1272E-05  0.1275E-05  0.1268E-05  0.1255E-05  0.1247E-05  0.1267E-05  0.1254E-05  0.1214E-05  0.1173E-05  0.1102E-05  0.1037E-05  0.9475E-06  0.8670E-06  0.7861E-06  0.7125E-06  0.6473E-06  0.5873E-06  0.5338E-06  0.4834E-06  0.4386E-06  0.3971E-06  0.3615E-06
  0.2706E-05  0.2954E-05  0.3209E-05  0.3465E-05  0.3719E-05  0.3960E-05  0.4193E-05  0.4407E-05  0.4590E-05  0.4755E-05  0.4888E-05  0.4989E-05  0.5069E-05  0.5114E-05  0.5125E-05  0.5099E-05  0.5054E-05  0.4984E-05  0.4890E-05  0.4782E-05  0.4662E-05  0.4534E-05  0.4405E-05  0.4277E-05  0.4154E-05  0.4038E-05  0.3932E-05  0.3834E-05  0.3741E-05  0.3643E-05  0.3540E-05  0.3429E-05  0.3309E-05  0.3184E-05  0.3053E-05  0.2920E-05  0.2787E-05  0.2655E-05  0.2528E-05  0.2406E-05  0.2286E-05  0.2170E-05  0.2060E-05  0.1955E-05  0.1856E-05  0.1763E-05  0.1680E-05  0.1610E-05  0.1553E-05  0.1507E-05  0.1473E-05  0.1451E-05  0.1436E-05  0.1431E-05  0.1429E-05  0.1417E-05  0.1410E-05  0.1404E-05  0.1406E-05  0.1412E-05  0.1473E-05  0.1520E-05  0.1541E-05  0.1514E-05  0.1457E-05  0.1400E-05  0.1304E-05  0.1216E-05  0.1099E-05  0.9870E-06  0.8842E-06  0.7920E-06  0.7108E-06  0.6395E-06  0.5752E-06  0.5164E-06  0.4651E-06  0.4183E-06  0.3786E-06
  0.3037E-05  0.3336E-05  0.3625E-05  0.3925E-05  0.4218E-05  0.4495E-05  0.4760E-05  0.4993E-05  0.5207E-05  0.5388E-05  0.5528E-05  0.5639E-05  0.5717E-05  0.5751E-05  0.5741E-05  0.5701E-05  0.5631E-05  0.5530E-05  0.5409E-05  0.5271E-05  0.5120E-05  0.4963E-05  0.4806E-05  0.4654E-05  0.4508E-05  0.4373E-05  0.4249E-05  0.4136E-05  0.4025E-05  0.3911E-05  0.3791E-05  0.3664E-05  0.3531E-05  0.3391E-05  0.3247E-05  0.3101E-05  0.2954E-05  0.2811E-05  0.2675E-05  0.2541E-05  0.2414E-05  0.2290E-05  0.2170E-05  0.2061E-05  0.1956E-05  0.1859E-05  0.1772E-05  0.1700E-05  0.1642E-05  0.1598E-05  0.1569E-05  0.1551E-05  0.1546E-05  0.1552E-05  0.1568E-05  0.1619E-05  0.1617E-05  0.1636E-05  0.1703E-05  0.1799E-05  0.1904E-05  0.1952E-05  0.1984E-05  0.1927E-05  0.1823E-05  0.1714E-05  0.1566E-05  0.1413E-05  0.1280E-05  0.1133E-05  0.1003E-05  0.8845E-06  0.7833E-06  0.6952E-06  0.6173E-06  0.5531E-06  0.4953E-06  0.4434E-06  0.3986E-06
  0.3417E-05  0.3769E-05  0.4109E-05  0.4445E-05  0.4783E-05  0.5102E-05  0.5390E-05  0.5660E-05  0.5898E-05  0.6089E-05  0.6238E-05  0.6355E-05  0.6422E-05  0.6433E-05  0.6407E-05  0.6339E-05  0.6230E-05  0.6095E-05  0.5933E-05  0.5758E-05  0.5571E-05  0.5380E-05  0.5193E-05  0.5012E-05  0.4842E-05  0.4687E-05  0.4548E-05  0.4417E-05  0.4290E-05  0.4162E-05  0.4027E-05  0.3887E-05  0.3740E-05  0.3589E-05  0.3435E-05  0.3280E-05  0.3124E-05  0.2972E-05  0.2826E-05  0.2686E-05  0.2551E-05  0.2528E-05  0.2449E-05  0.2396E-05  0.2330E-05  0.2286E-05  0.2228E-05  0.2192E-05  0.2153E-05  0.2139E-05  0.2124E-05  0.2121E-05  0.2145E-05  0.2147E-05  0.2178E-05  0.2218E-05  0.2240E-05  0.2276E-05  0.2428E-05  0.2561E-05  0.2672E-05  0.2710E-05  0.2681E-05  0.2538E-05  0.2336E-05  0.2106E-05  0.1900E-05  0.1678E-05  0.1471E-05  0.1303E-05  0.1132E-05  0.9869E-06  0.8648E-06  0.7570E-06  0.6660E-06  0.5916E-06  0.5250E-06  0.4686E-06  0.4202E-06
  0.3852E-05  0.4257E-05  0.4654E-05  0.5048E-05  0.5423E-05  0.5776E-05  0.6112E-05  0.6413E-05  0.6665E-05  0.6872E-05  0.7028E-05  0.7138E-05  0.7178E-05  0.7170E-05  0.7110E-05  0.6994E-05  0.6845E-05  0.6659E-05  0.6452E-05  0.6227E-05  0.5998E-05  0.5770E-05  0.5549E-05  0.5339E-05  0.5146E-05  0.4973E-05  0.4816E-05  0.4669E-05  0.4589E-05  0.4448E-05  0.4282E-05  0.4121E-05  0.3944E-05  0.3776E-05  0.3616E-05  0.3475E-05  0.3642E-05  0.4053E-05  0.4450E-05  0.4707E-05  0.4823E-05  0.4863E-05  0.4811E-05  0.4718E-05  0.4599E-05  0.4467E-05  0.4315E-05  0.4165E-05  0.4041E-05  0.3919E-05  0.3831E-05  0.3758E-05  0.3706E-05  0.3675E-05  0.3626E-05  0.3613E-05  0.3620E-05  0.3656E-05  0.3799E-05  0.3909E-05  0.3956E-05  0.3875E-05  0.3651E-05  0.3325E-05  0.2987E-05  0.2619E-05  0.2275E-05  0.1964E-05  0.1713E-05  0.1473E-05  0.1269E-05  0.1092E-05  0.9454E-06  0.8218E-06  0.7200E-06  0.6346E-06  0.5572E-06  0.4945E-06  0.4413E-06
  0.4361E-05  0.4823E-05  0.5268E-05  0.5726E-05  0.6175E-05  0.6602E-05  0.6973E-05  0.7306E-05  0.7549E-05  0.7740E-05  0.7891E-05  0.7976E-05  0.7992E-05  0.7942E-05  0.7824E-05  0.7659E-05  0.7492E-05  0.7308E-05  0.7072E-05  0.6834E-05  0.6645E-05  0.6457E-05  0.6305E-05  0.6209E-05  0.6215E-05  0.6288E-05  0.6462E-05  0.6737E-05  0.7565E-05  0.8830E-05  0.1118E-04  0.1571E-04  0.1769E-04  0.4215E-05  0.3831E-05  0.4312E-05  0.1156E-04  0.1547E-04  0.1473E-04  0.1345E-04  0.1245E-04  0.1164E-04  0.1097E-04  0.1036E-04  0.9769E-05  0.9138E-05  0.8694E-05  0.8293E-05  0.7918E-05  0.7566E-05  0.7254E-05  0.6997E-05  0.6769E-05  0.6562E-05  0.6393E-05  0.6245E-05  0.6141E-05  0.6072E-05  0.6022E-05  0.5925E-05  0.5735E-05  0.5380E-05  0.4877E-05  0.4297E-05  0.3711E-05  0.3171E-05  0.2714E-05  0.2305E-05  0.1954E-05  0.1656E-05  0.1420E-05  0.1209E-05  0.1035E-05  0.8925E-06  0.7711E-06  0.6745E-06  0.5936E-06  0.5249E-06  0.4645E-06
  0.4925E-05  0.5458E-05  0.5977E-05  0.6522E-05  0.7059E-05  0.7568E-05  0.8004E-05  0.8399E-05  0.8705E-05  0.8909E-05  0.9011E-05  0.9022E-05  0.9063E-05  0.9002E-05  0.8897E-05  0.8775E-05  0.8622E-05  0.8472E-05  0.8358E-05  0.8325E-05  0.8351E-05  0.8504E-05  0.8932E-05  0.9676E-05  0.1082E-04  0.1258E-04  0.1539E-04  0.1978E-04  0.2630E-04  0.3343E-04  0.3565E-04  0.2004E-04  0.4788E-05  0.4416E-05  0.4150E-05  0.1139E-04  0.7506E-05  0.1086E-04  0.2141E-04  0.2685E-04  0.2609E-04  0.2287E-04  0.1968E-04  0.1718E-04  0.1538E-04  0.1407E-04  0.1317E-04  0.1246E-04  0.1186E-04  0.1134E-04  0.1091E-04  0.1051E-04  0.1016E-04  0.9930E-05  0.9710E-05  0.9518E-05  0.9358E-05  0.9072E-05  0.8657E-05  0.8271E-05  0.7751E-05  0.7031E-05  0.6177E-05  0.5312E-05  0.4497E-05  0.3799E-05  0.3186E-05  0.2656E-05  0.2216E-05  0.1864E-05  0.1563E-05  0.1319E-05  0.1123E-05  0.9643E-06  0.8293E-06  0.7205E-06  0.6285E-06  0.5526E-06  0.4874E-06
  0.5545E-05  0.6151E-05  0.6781E-05  0.7425E-05  0.8068E-05  0.8697E-05  0.9261E-05  0.9779E-05  0.1018E-04  0.1044E-04  0.1057E-04  0.1058E-04  0.1062E-04  0.1063E-04  0.1063E-04  0.1065E-04  0.1072E-04  0.1085E-04  0.1130E-04  0.1192E-04  0.1285E-04  0.1421E-04  0.1622E-04  0.1904E-04  0.2297E-04  0.2798E-04  0.3331E-04  0.3748E-04  0.3790E-04  0.2899E-04  0.1139E-04  0.5044E-05  0.5452E-05  0.4420E-05  0.4358E-05  0.8461E-05  0.2824E-04  0.1034E-04  0.8899E-05  0.1576E-04  0.2385E-04  0.2911E-04  0.3007E-04  0.2801E-04  0.2479E-04  0.2152E-04  0.1880E-04  0.1668E-04  0.1515E-04  0.1409E-04  0.1341E-04  0.1292E-04  0.1259E-04  0.1234E-04  0.1214E-04  0.1200E-04  0.1191E-04  0.1140E-04  0.1077E-04  0.1023E-04  0.9535E-05  0.8577E-05  0.7477E-05  0.6362E-05  0.5374E-05  0.4495E-05  0.3768E-05  0.3149E-05  0.2605E-05  0.2147E-05  0.1764E-05  0.1453E-05  0.1205E-05  0.1032E-05  0.8822E-06  0.7613E-06  0.6637E-06  0.5806E-06  0.5099E-06
  0.6248E-05  0.6940E-05  0.7667E-05  0.8394E-05  0.9161E-05  0.9943E-05  0.1071E-04  0.1143E-04  0.1204E-04  0.1249E-04  0.1277E-04  0.1291E-04  0.1306E-04  0.1335E-04  0.1370E-04  0.1418E-04  0.1485E-04  0.1578E-04  0.1708E-04  0.1887E-04  0.2121E-04  0.2424E-04  0.2784E-04  0.3153E-04  0.3466E-04  0.3650E-04  0.3606E-04  0.3069E-04  0.1841E-04  0.7605E-05  0.5444E-05  0.6203E-05  0.5524E-05  0.4423E-05  0.4463E-05  0.9928E-05  0.1484E-04  0.3316E-04  0.1160E-04  0.8068E-05  0.1221E-04  0.1781E-04  0.2376E-04  0.2829E-04  0.3025E-04  0.2972E-04  0.2757E-04  0.2473E-04  0.2191E-04  0.1938E-04  0.1739E-04  0.1587E-04  0.1482E-04  0.1410E-04  0.1368E-04  0.1344E-04  0.1337E-04  0.1295E-04  0.1242E-04  0.1193E-04  0.1114E-04  0.1005E-04  0.8811E-05  0.7572E-05  0.6412E-05  0.5390E-05  0.4501E-05  0.3735E-05  0.3095E-05  0.2534E-05  0.2057E-05  0.1663E-05  0.1348E-05  0.1114E-05  0.9326E-06  0.8067E-06  0.6985E-06  0.6074E-06  0.5333E-06
  0.6994E-05  0.7779E-05  0.8599E-05  0.9449E-05  0.1034E-04  0.1127E-04  0.1221E-04  0.1319E-04  0.1411E-04  0.1498E-04  0.1571E-04  0.1635E-04  0.1702E-04  0.1770E-04  0.1855E-04  0.1968E-04  0.2113E-04  0.2294E-04  0.2517E-04  0.2771E-04  0.3023E-04  0.3238E-04  0.3379E-04  0.3433E-04  0.3361E-04  0.3004E-04  0.2189E-04  0.1171E-04  0.6314E-05  0.5724E-05  0.6636E-05  0.6630E-05  0.5171E-05  0.4460E-05  0.4527E-05  0.9617E-05  0.1111E-04  0.2561E-04  0.3195E-04  0.1210E-04  0.8060E-05  0.1047E-04  0.1410E-04  0.1845E-04  0.2295E-04  0.2676E-04  0.2906E-04  0.2961E-04  0.2872E-04  0.2687E-04  0.2459E-04  0.2225E-04  0.2013E-04  0.1832E-04  0.1687E-04  0.1586E-04  0.1524E-04  0.1472E-04  0.1427E-04  0.1383E-04  0.1302E-04  0.1191E-04  0.1058E-04  0.9121E-05  0.7740E-05  0.6509E-05  0.5436E-05  0.4491E-05  0.3671E-05  0.2986E-05  0.2424E-05  0.1943E-05  0.1549E-05  0.1248E-05  0.1008E-05  0.8458E-06  0.7292E-06  0.6341E-06  0.5547E-06
  0.7810E-05  0.8679E-05  0.9556E-05  0.1048E-04  0.1146E-04  0.1261E-04  0.1384E-04  0.1516E-04  0.1657E-04  0.1798E-04  0.1930E-04  0.2064E-04  0.2216E-04  0.2333E-04  0.2469E-04  0.2618E-04  0.2800E-04  0.2970E-04  0.3111E-04  0.3200E-04  0.3234E-04  0.3218E-04  0.3136E-04  0.2880E-04  0.2323E-04  0.1517E-04  0.8512E-05  0.5851E-05  0.5889E-05  0.6839E-05  0.7347E-05  0.6239E-05  0.4898E-05  0.4503E-05  0.4544E-05  0.8509E-05  0.1272E-04  0.1378E-04  0.3269E-04  0.2911E-04  0.1206E-04  0.8168E-05  0.9657E-05  0.1215E-04  0.1515E-04  0.1858E-04  0.2214E-04  0.2532E-04  0.2775E-04  0.2901E-04  0.2916E-04  0.2835E-04  0.2688E-04  0.2503E-04  0.2310E-04  0.2129E-04  0.1991E-04  0.1886E-04  0.1803E-04  0.1719E-04  0.1606E-04  0.1467E-04  0.1306E-04  0.1132E-04  0.9603E-05  0.8027E-05  0.6639E-05  0.5431E-05  0.4386E-05  0.3519E-05  0.2807E-05  0.2236E-05  0.1765E-05  0.1394E-05  0.1110E-05  0.8980E-06  0.7620E-06  0.6604E-06  0.5735E-06
  0.8790E-05  0.9731E-05  0.1069E-04  0.1175E-04  0.1292E-04  0.1423E-04  0.1576E-04  0.1748E-04  0.1944E-04  0.2149E-04  0.2351E-04  0.2547E-04  0.2742E-04  0.2885E-04  0.2995E-04  0.3080E-04  0.3125E-04  0.3128E-04  0.3096E-04  0.3041E-04  0.2954E-04  0.2761E-04  0.2355E-04  0.1730E-04  0.1089E-04  0.6994E-05  0.5633E-05  0.5967E-05  0.6891E-05  0.7700E-05  0.7179E-05  0.5648E-05  0.4738E-05  0.4528E-05  0.4536E-05  0.7423E-05  0.1343E-04  0.1126E-04  0.1977E-04  0.3513E-04  0.2614E-04  0.1193E-04  0.8321E-05  0.9337E-05  0.1113E-04  0.1337E-04  0.1590E-04  0.1873E-04  0.2174E-04  0.2461E-04  0.2703E-04  0.2882E-04  0.2969E-04  0.2965E-04  0.2889E-04  0.2775E-04  0.2647E-04  0.2527E-04  0.2383E-04  0.2239E-04  0.2072E-04  0.1868E-04  0.1645E-04  0.1422E-04  0.1201E-04  0.9964E-05  0.8124E-05  0.6547E-05  0.5217E-05  0.4117E-05  0.3242E-05  0.2544E-05  0.1997E-05  0.1546E-05  0.1216E-05  0.9673E-06  0.7887E-06  0.6813E-06  0.5930E-06
  0.1005E-04  0.1118E-04  0.1229E-04  0.1349E-04  0.1489E-04  0.1650E-04  0.1841E-04  0.2058E-04  0.2301E-04  0.2546E-04  0.2773E-04  0.2962E-04  0.3093E-04  0.3142E-04  0.3117E-04  0.3061E-04  0.2984E-04  0.2909E-04  0.2820E-04  0.2661E-04  0.2357E-04  0.1869E-04  0.1293E-04  0.8606E-05  0.6266E-05  0.5576E-05  0.5966E-05  0.6831E-05  0.7790E-05  0.7806E-05  0.6517E-05  0.5166E-05  0.4625E-05  0.4516E-05  0.4460E-05  0.6561E-05  0.1280E-04  0.1275E-04  0.1231E-04  0.2569E-04  0.3467E-04  0.2354E-04  0.1173E-04  0.8568E-05  0.9316E-05  0.1078E-04  0.1249E-04  0.1451E-04  0.1683E-04  0.1941E-04  0.2219E-04  0.2497E-04  0.2738E-04  0.2917E-04  0.3035E-04  0.3090E-04  0.3101E-04  0.3046E-04  0.2919E-04  0.2771E-04  0.2558E-04  0.2293E-04  0.2018E-04  0.1738E-04  0.1463E-04  0.1206E-04  0.9735E-05  0.7718E-05  0.6081E-05  0.4741E-05  0.3665E-05  0.2843E-05  0.2208E-05  0.1724E-05  0.1342E-05  0.1062E-05  0.8523E-06  0.6992E-06  0.6111E-06
  0.1173E-04  0.1318E-04  0.1459E-04  0.1609E-04  0.1782E-04  0.1973E-04  0.2185E-04  0.2416E-04  0.2661E-04  0.2874E-04  0.3027E-04  0.3097E-04  0.3083E-04  0.3007E-04  0.2910E-04  0.2822E-04  0.2729E-04  0.2597E-04  0.2350E-04  0.1962E-04  0.1471E-04  0.1030E-04  0.7304E-05  0.5889E-05  0.5570E-05  0.5912E-05  0.6708E-05  0.7711E-05  0.8115E-05  0.7269E-05  0.5781E-05  0.4819E-05  0.4510E-05  0.4469E-05  0.4432E-05  0.5916E-05  0.1145E-04  0.1402E-04  0.1077E-04  0.1592E-04  0.2956E-04  0.3288E-04  0.2141E-04  0.1151E-04  0.8851E-05  0.9501E-05  0.1085E-04  0.1232E-04  0.1408E-04  0.1616E-04  0.1848E-04  0.2099E-04  0.2350E-04  0.2587E-04  0.2779E-04  0.2945E-04  0.3089E-04  0.3147E-04  0.3132E-04  0.3062E-04  0.2862E-04  0.2600E-04  0.2311E-04  0.2002E-04  0.1692E-04  0.1389E-04  0.1115E-04  0.8794E-05  0.6854E-05  0.5316E-05  0.4084E-05  0.3125E-05  0.2400E-05  0.1869E-05  0.1434E-05  0.1124E-05  0.8902E-06  0.7151E-06  0.6254E-06
  0.1377E-04  0.1568E-04  0.1755E-04  0.1947E-04  0.2138E-04  0.2328E-04  0.2519E-04  0.2699E-04  0.2847E-04  0.2948E-04  0.2982E-04  0.2947E-04  0.2868E-04  0.2768E-04  0.2676E-04  0.2555E-04  0.2353E-04  0.2033E-04  0.1613E-04  0.1193E-04  0.8626E-05  0.6574E-05  0.5642E-05  0.5527E-05  0.5818E-05  0.6533E-05  0.7524E-05  0.8183E-05  0.7786E-05  0.6454E-05  0.5173E-05  0.4566E-05  0.4410E-05  0.4386E-05  0.4371E-05  0.5412E-05  0.9968E-05  0.1440E-04  0.1191E-04  0.1107E-04  0.2020E-04  0.3152E-04  0.3064E-04  0.1968E-04  0.1143E-04  0.9236E-05  0.9854E-05  0.1123E-04  0.1270E-04  0.1423E-04  0.1612E-04  0.1822E-04  0.2038E-04  0.2248E-04  0.2402E-04  0.2572E-04  0.2748E-04  0.2874E-04  0.2964E-04  0.2981E-04  0.2874E-04  0.2686E-04  0.2435E-04  0.2145E-04  0.1827E-04  0.1509E-04  0.1214E-04  0.9556E-05  0.7449E-05  0.5743E-05  0.4406E-05  0.3355E-05  0.2565E-05  0.1983E-05  0.1549E-05  0.1213E-05  0.9586E-06  0.7715E-06  0.6374E-06
  0.1577E-04  0.1810E-04  0.2034E-04  0.2252E-04  0.2443E-04  0.2574E-04  0.2678E-04  0.2754E-04  0.2803E-04  0.2816E-04  0.2798E-04  0.2747E-04  0.2664E-04  0.2546E-04  0.2364E-04  0.2098E-04  0.1738E-04  0.1348E-04  0.1012E-04  0.7670E-05  0.6243E-05  0.5563E-05  0.5492E-05  0.5703E-05  0.6328E-05  0.7275E-05  0.8079E-05  0.8073E-05  0.7049E-05  0.5651E-05  0.4710E-05  0.4343E-05  0.4284E-05  0.4274E-05  0.4275E-05  0.5024E-05  0.8617E-05  0.1378E-04  0.1331E-04  0.1005E-04  0.1334E-04  0.2386E-04  0.3194E-04  0.2838E-04  0.1830E-04  0.1155E-04  0.9726E-05  0.1043E-04  0.1177E-04  0.1298E-04  0.1436E-04  0.1606E-04  0.1794E-04  0.1961E-04  0.2093E-04  0.2219E-04  0.2354E-04  0.2485E-04  0.2596E-04  0.2670E-04  0.2657E-04  0.2554E-04  0.2376E-04  0.2134E-04  0.1844E-04  0.1542E-04  0.1250E-04  0.9920E-05  0.7741E-05  0.6001E-05  0.4605E-05  0.3512E-05  0.2686E-05  0.2072E-05  0.1617E-05  0.1257E-05  0.9875E-06  0.7903E-06  0.6442E-06
  0.1735E-04  0.1995E-04  0.2221E-04  0.2406E-04  0.2559E-04  0.2617E-04  0.2643E-04  0.2661E-04  0.2671E-04  0.2670E-04  0.2638E-04  0.2555E-04  0.2404E-04  0.2166E-04  0.1849E-04  0.1493E-04  0.1167E-04  0.9007E-05  0.7218E-05  0.6172E-05  0.5675E-05  0.5539E-05  0.5675E-05  0.6178E-05  0.7013E-05  0.7868E-05  0.8159E-05  0.7490E-05  0.6173E-05  0.4982E-05  0.4351E-05  0.4138E-05  0.4133E-05  0.4139E-05  0.4154E-05  0.4695E-05  0.7481E-05  0.1260E-04  0.1430E-04  0.1099E-04  0.1003E-04  0.1647E-04  0.2659E-04  0.3146E-04  0.2631E-04  0.1736E-04  0.1174E-04  0.1030E-04  0.1087E-04  0.1199E-04  0.1310E-04  0.1438E-04  0.1587E-04  0.1736E-04  0.1865E-04  0.1962E-04  0.2053E-04  0.2144E-04  0.2229E-04  0.2308E-04  0.2340E-04  0.2300E-04  0.2186E-04  0.2000E-04  0.1757E-04  0.1492E-04  0.1224E-04  0.9817E-05  0.7734E-05  0.6038E-05  0.4658E-05  0.3588E-05  0.2755E-05  0.2122E-05  0.1659E-05  0.1308E-05  0.1032E-05  0.8264E-06  0.6720E-06
  0.1818E-04  0.2075E-04  0.2279E-04  0.2419E-04  0.2511E-04  0.2547E-04  0.2555E-04  0.2567E-04  0.2565E-04  0.2529E-04  0.2424E-04  0.2233E-04  0.1963E-04  0.1639E-04  0.1325E-04  0.1053E-04  0.8501E-05  0.7169E-05  0.6282E-05  0.5958E-05  0.5784E-05  0.5790E-05  0.6113E-05  0.6827E-05  0.7663E-05  0.8120E-05  0.7770E-05  0.6656E-05  0.5366E-05  0.4459E-05  0.4062E-05  0.3963E-05  0.3970E-05  0.3988E-05  0.4015E-05  0.4419E-05  0.6560E-05  0.1123E-04  0.1442E-04  0.1231E-04  0.9402E-05  0.1161E-04  0.1961E-04  0.2827E-04  0.3042E-04  0.2456E-04  0.1666E-04  0.1204E-04  0.1072E-04  0.1117E-04  0.1205E-04  0.1305E-04  0.1429E-04  0.1563E-04  0.1681E-04  0.1764E-04  0.1833E-04  0.1890E-04  0.1945E-04  0.1999E-04  0.2026E-04  0.2011E-04  0.1935E-04  0.1796E-04  0.1603E-04  0.1382E-04  0.1150E-04  0.9354E-05  0.7470E-05  0.5882E-05  0.4602E-05  0.3561E-05  0.2747E-05  0.2137E-05  0.1677E-05  0.1331E-05  0.1058E-05  0.8457E-06  0.6922E-06
  0.1842E-04  0.2086E-04  0.2273E-04  0.2392E-04  0.2462E-04  0.2486E-04  0.2493E-04  0.2472E-04  0.2402E-04  0.2263E-04  0.2044E-04  0.1764E-04  0.1468E-04  0.1201E-04  0.9877E-05  0.8360E-05  0.7358E-05  0.6726E-05  0.6414E-05  0.6202E-05  0.6140E-05  0.6291E-05  0.6741E-05  0.7474E-05  0.8057E-05  0.7951E-05  0.7075E-05  0.5792E-05  0.4685E-05  0.4056E-05  0.3808E-05  0.3783E-05  0.3798E-05  0.3825E-05  0.3872E-05  0.4181E-05  0.5818E-05  0.9863E-05  0.1388E-04  0.1348E-04  0.1014E-04  0.9218E-05  0.1398E-04  0.2230E-04  0.2911E-04  0.2923E-04  0.2319E-04  0.1631E-04  0.1232E-04  0.1103E-04  0.1125E-04  0.1200E-04  0.1303E-04  0.1418E-04  0.1524E-04  0.1600E-04  0.1657E-04  0.1687E-04  0.1721E-04  0.1751E-04  0.1760E-04  0.1741E-04  0.1683E-04  0.1574E-04  0.1422E-04  0.1240E-04  0.1049E-04  0.8642E-05  0.7003E-05  0.5599E-05  0.4410E-05  0.3444E-05  0.2689E-05  0.2104E-05  0.1668E-05  0.1334E-05  0.1069E-05  0.8634E-06  0.7028E-06
  0.1839E-04  0.2070E-04  0.2249E-04  0.2366E-04  0.2437E-04  0.2422E-04  0.2367E-04  0.2254E-04  0.2077E-04  0.1843E-04  0.1579E-04  0.1325E-04  0.1107E-04  0.9440E-05  0.8323E-05  0.7574E-05  0.7138E-05  0.6866E-05  0.6656E-05  0.6559E-05  0.6596E-05  0.6802E-05  0.7179E-05  0.7628E-05  0.7865E-05  0.7441E-05  0.6253E-05  0.5013E-05  0.4144E-05  0.3734E-05  0.3590E-05  0.3601E-05  0.3627E-05  0.3668E-05  0.3733E-05  0.3972E-05  0.5243E-05  0.8615E-05  0.1293E-04  0.1412E-04  0.1134E-04  0.8842E-05  0.1041E-04  0.1657E-04  0.2445E-04  0.2935E-04  0.2807E-04  0.2211E-04  0.1597E-04  0.1241E-04  0.1111E-04  0.1121E-04  0.1198E-04  0.1291E-04  0.1383E-04  0.1452E-04  0.1500E-04  0.1527E-04  0.1539E-04  0.1546E-04  0.1540E-04  0.1511E-04  0.1454E-04  0.1364E-04  0.1240E-04  0.1093E-04  0.9351E-05  0.7831E-05  0.6433E-05  0.5221E-05  0.4161E-05  0.3303E-05  0.2594E-05  0.2050E-05  0.1640E-05  0.1321E-05  0.1070E-05  0.8638E-06  0.7095E-06
  0.1808E-04  0.2030E-04  0.2189E-04  0.2281E-04  0.2309E-04  0.2244E-04  0.2086E-04  0.1883E-04  0.1647E-04  0.1415E-04  0.1202E-04  0.1031E-04  0.9079E-05  0.8238E-05  0.7647E-05  0.7365E-05  0.7119E-05  0.6940E-05  0.6828E-05  0.6803E-05  0.6885E-05  0.7058E-05  0.7275E-05  0.7397E-05  0.7208E-05  0.6534E-05  0.5437E-05  0.4373E-05  0.3737E-05  0.3463E-05  0.3408E-05  0.3429E-05  0.3462E-05  0.3517E-05  0.3596E-05  0.3779E-05  0.4784E-05  0.7563E-05  0.1178E-04  0.1417E-04  0.1253E-04  0.9451E-05  0.8723E-05  0.1229E-04  0.1903E-04  0.2599E-04  0.2921E-04  0.2689E-04  0.2105E-04  0.1552E-04  0.1226E-04  0.1105E-04  0.1119E-04  0.1179E-04  0.1254E-04  0.1316E-04  0.1357E-04  0.1380E-04  0.1385E-04  0.1374E-04  0.1356E-04  0.1319E-04  0.1261E-04  0.1179E-04  0.1076E-04  0.9552E-05  0.8264E-05  0.7001E-05  0.5837E-05  0.4787E-05  0.3878E-05  0.3104E-05  0.2478E-05  0.1978E-05  0.1601E-05  0.1299E-05  0.1058E-05  0.8636E-06  0.7140E-06
  0.1728E-04  0.1924E-04  0.2047E-04  0.2082E-04  0.2031E-04  0.1906E-04  0.1689E-04  0.1473E-04  0.1268E-04  0.1096E-04  0.9632E-05  0.8695E-05  0.8055E-05  0.7637E-05  0.7386E-05  0.7165E-05  0.6991E-05  0.6865E-05  0.6800E-05  0.6800E-05  0.6872E-05  0.6960E-05  0.7000E-05  0.6874E-05  0.6458E-05  0.5704E-05  0.4753E-05  0.3908E-05  0.3415E-05  0.3236E-05  0.3235E-05  0.3260E-05  0.3305E-05  0.3378E-05  0.3468E-05  0.3611E-05  0.4424E-05  0.6686E-05  0.1058E-04  0.1375E-04  0.1344E-04  0.1051E-04  0.8435E-05  0.9614E-05  0.1444E-04  0.2119E-04  0.2702E-04  0.2876E-04  0.2566E-04  0.2001E-04  0.1496E-04  0.1202E-04  0.1094E-04  0.1100E-04  0.1143E-04  0.1193E-04  0.1227E-04  0.1243E-04  0.1242E-04  0.1228E-04  0.1194E-04  0.1156E-04  0.1096E-04  0.1023E-04  0.9331E-05  0.8323E-05  0.7269E-05  0.6226E-05  0.5257E-05  0.4362E-05  0.3570E-05  0.2891E-05  0.2337E-05  0.1891E-05  0.1548E-05  0.1266E-05  0.1041E-05  0.8571E-06  0.7090E-06
  0.1581E-04  0.1735E-04  0.1808E-04  0.1783E-04  0.1675E-04  0.1502E-04  0.1310E-04  0.1138E-04  0.9989E-05  0.8982E-05  0.8268E-05  0.7724E-05  0.7470E-05  0.7239E-05  0.7044E-05  0.6871E-05  0.6733E-05  0.6637E-05  0.6586E-05  0.6559E-05  0.6566E-05  0.6553E-05  0.6457E-05  0.6192E-05  0.5701E-05  0.4997E-05  0.4222E-05  0.3578E-05  0.3197E-05  0.3051E-05  0.3070E-05  0.3106E-05  0.3165E-05  0.3248E-05  0.3351E-05  0.3471E-05  0.4144E-05  0.5976E-05  0.9447E-05  0.1301E-04  0.1390E-04  0.1165E-04  0.8969E-05  0.8361E-05  0.1109E-04  0.1653E-04  0.2297E-04  0.2749E-04  0.2796E-04  0.2433E-04  0.1891E-04  0.1434E-04  0.1168E-04  0.1068E-04  0.1060E-04  0.1083E-04  0.1109E-04  0.1120E-04  0.1114E-04  0.1095E-04  0.1063E-04  0.1015E-04  0.9614E-05  0.8911E-05  0.8132E-05  0.7280E-05  0.6400E-05  0.5543E-05  0.4724E-05  0.3951E-05  0.3264E-05  0.2681E-05  0.2186E-05  0.1798E-05  0.1487E-05  0.1224E-05  0.1018E-05  0.8444E-06  0.7062E-06
  0.1379E-04  0.1485E-04  0.1511E-04  0.1451E-04  0.1325E-04  0.1173E-04  0.1022E-04  0.9097E-05  0.8301E-05  0.7776E-05  0.7401E-05  0.7174E-05  0.6976E-05  0.6791E-05  0.6630E-05  0.6493E-05  0.6367E-05  0.6277E-05  0.6205E-05  0.6139E-05  0.6086E-05  0.5981E-05  0.5788E-05  0.5466E-05  0.4993E-05  0.4396E-05  0.3787E-05  0.3289E-05  0.3000E-05  0.2895E-05  0.2920E-05  0.2960E-05  0.3033E-05  0.3128E-05  0.3240E-05  0.3375E-05  0.3918E-05  0.5396E-05  0.8413E-05  0.1207E-04  0.1392E-04  0.1265E-04  0.9817E-05  0.8150E-05  0.8950E-05  0.1281E-04  0.1856E-04  0.2420E-04  0.2747E-04  0.2688E-04  0.2294E-04  0.1782E-04  0.1364E-04  0.1122E-04  0.1022E-04  0.9992E-05  0.1002E-04  0.1008E-04  0.9995E-05  0.9761E-05  0.9442E-05  0.9007E-05  0.8437E-05  0.7820E-05  0.7125E-05  0.6393E-05  0.5664E-05  0.4942E-05  0.4248E-05  0.3591E-05  0.2993E-05  0.2475E-05  0.2045E-05  0.1706E-05  0.1416E-05  0.1185E-05  0.9905E-06  0.8311E-06  0.6991E-06
  0.1153E-04  0.1217E-04  0.1216E-04  0.1149E-04  0.1045E-04  0.9310E-05  0.8345E-05  0.7649E-05  0.7207E-05  0.6953E-05  0.6774E-05  0.6615E-05  0.6459E-05  0.6314E-05  0.6176E-05  0.6054E-05  0.5941E-05  0.5832E-05  0.5737E-05  0.5639E-05  0.5522E-05  0.5357E-05  0.5118E-05  0.4792E-05  0.4364E-05  0.3883E-05  0.3414E-05  0.3048E-05  0.2835E-05  0.2747E-05  0.2779E-05  0.2834E-05  0.2915E-05  0.3016E-05  0.3139E-05  0.3284E-05  0.3717E-05  0.4927E-05  0.7492E-05  0.1104E-04  0.1356E-04  0.1332E-04  0.1084E-04  0.8519E-05  0.8033E-05  0.1013E-04  0.1457E-04  0.2015E-04  0.2494E-04  0.2708E-04  0.2567E-04  0.2154E-04  0.1670E-04  0.1288E-04  0.1059E-04  0.9569E-05  0.9214E-05  0.9060E-05  0.8958E-05  0.8720E-05  0.8396E-05  0.7972E-05  0.7448E-05  0.6886E-05  0.6269E-05  0.5654E-05  0.5034E-05  0.4425E-05  0.3827E-05  0.3256E-05  0.2743E-05  0.2289E-05  0.1919E-05  0.1612E-05  0.1355E-05  0.1139E-05  0.9574E-06  0.8112E-06  0.6896E-06
  0.9369E-05  0.9732E-05  0.9628E-05  0.9121E-05  0.8394E-05  0.7674E-05  0.7077E-05  0.6645E-05  0.6479E-05  0.6317E-05  0.6182E-05  0.6049E-05  0.5930E-05  0.5814E-05  0.5696E-05  0.5583E-05  0.5474E-05  0.5357E-05  0.5240E-05  0.5113E-05  0.4959E-05  0.4766E-05  0.4510E-05  0.4204E-05  0.3841E-05  0.3464E-05  0.3109E-05  0.2838E-05  0.2674E-05  0.2620E-05  0.2650E-05  0.2715E-05  0.2803E-05  0.2912E-05  0.3041E-05  0.3191E-05  0.3552E-05  0.4541E-05  0.6701E-05  0.1000E-04  0.1294E-04  0.1363E-04  0.1183E-04  0.9233E-05  0.7811E-05  0.8428E-05  0.1145E-04  0.1621E-04  0.2136E-04  0.2521E-04  0.2636E-04  0.2433E-04  0.2014E-04  0.1557E-04  0.1211E-04  0.9946E-05  0.8827E-05  0.8322E-05  0.8031E-05  0.7794E-05  0.7472E-05  0.7070E-05  0.6618E-05  0.6099E-05  0.5571E-05  0.5029E-05  0.4504E-05  0.3977E-05  0.3463E-05  0.2965E-05  0.2520E-05  0.2123E-05  0.1796E-05  0.1524E-05  0.1289E-05  0.1091E-05  0.9229E-06  0.7898E-06  0.6719E-06
  0.7553E-05  0.7770E-05  0.7687E-05  0.7356E-05  0.6917E-05  0.6506E-05  0.6138E-05  0.5994E-05  0.5855E-05  0.5728E-05  0.5624E-05  0.5514E-05  0.5420E-05  0.5318E-05  0.5222E-05  0.5110E-05  0.5003E-05  0.4877E-05  0.4742E-05  0.4606E-05  0.4432E-05  0.4227E-05  0.3988E-05  0.3708E-05  0.3410E-05  0.3115E-05  0.2849E-05  0.2653E-05  0.2532E-05  0.2496E-05  0.2528E-05  0.2600E-05  0.2695E-05  0.2808E-05  0.2942E-05  0.3099E-05  0.3393E-05  0.4212E-05  0.6023E-05  0.9015E-05  0.1215E-04  0.1362E-04  0.1260E-04  0.1011E-04  0.8099E-05  0.7684E-05  0.9296E-05  0.1285E-04  0.1758E-04  0.2217E-04  0.2515E-04  0.2544E-04  0.2295E-04  0.1889E-04  0.1468E-04  0.1135E-04  0.9227E-05  0.8036E-05  0.7370E-05  0.6945E-05  0.6662E-05  0.6288E-05  0.5891E-05  0.5439E-05  0.4980E-05  0.4524E-05  0.4061E-05  0.3596E-05  0.3134E-05  0.2704E-05  0.2312E-05  0.1968E-05  0.1685E-05  0.1433E-05  0.1225E-05  0.1046E-05  0.8965E-06  0.7634E-06  0.6550E-06
  0.6139E-05  0.6293E-05  0.6256E-05  0.6082E-05  0.5853E-05  0.5627E-05  0.5494E-05  0.5396E-05  0.5299E-05  0.5207E-05  0.5118E-05  0.5036E-05  0.4946E-05  0.4850E-05  0.4760E-05  0.4654E-05  0.4546E-05  0.4423E-05  0.4285E-05  0.4138E-05  0.3965E-05  0.3765E-05  0.3540E-05  0.3300E-05  0.3055E-05  0.2827E-05  0.2628E-05  0.2482E-05  0.2395E-05  0.2374E-05  0.2414E-05  0.2490E-05  0.2588E-05  0.2707E-05  0.2844E-05  0.2999E-05  0.3242E-05  0.3923E-05  0.5451E-05  0.8110E-05  0.1127E-04  0.1332E-04  0.1300E-04  0.1090E-04  0.8702E-05  0.7613E-05  0.8091E-05  0.1038E-04  0.1419E-04  0.1870E-04  0.2265E-04  0.2455E-04  0.2415E-04  0.2159E-04  0.1767E-04  0.1367E-04  0.1048E-04  0.8429E-05  0.7196E-05  0.6488E-05  0.5965E-05  0.5628E-05  0.5249E-05  0.4867E-05  0.4474E-05  0.4068E-05  0.3661E-05  0.3255E-05  0.2846E-05  0.2466E-05  0.2123E-05  0.1826E-05  0.1575E-05  0.1354E-05  0.1164E-05  0.9982E-06  0.8594E-06  0.7406E-06  0.6394E-06
  0.5039E-05  0.5184E-05  0.5200E-05  0.5144E-05  0.5051E-05  0.4960E-05  0.4913E-05  0.4854E-05  0.4794E-05  0.4729E-05  0.4664E-05  0.4591E-05  0.4509E-05  0.4426E-05  0.4335E-05  0.4228E-05  0.4118E-05  0.3998E-05  0.3861E-05  0.3716E-05  0.3544E-05  0.3364E-05  0.3163E-05  0.2960E-05  0.2763E-05  0.2585E-05  0.2434E-05  0.2320E-05  0.2264E-05  0.2258E-05  0.2304E-05  0.2383E-05  0.2483E-05  0.2601E-05  0.2737E-05  0.2889E-05  0.3083E-05  0.3689E-05  0.4976E-05  0.7310E-05  0.1018E-04  0.1221E-04  0.1245E-04  0.1112E-04  0.9193E-05  0.7798E-05  0.7493E-05  0.8622E-05  0.1149E-04  0.1540E-04  0.1906E-04  0.2195E-04  0.2337E-04  0.2278E-04  0.2018E-04  0.1640E-04  0.1257E-04  0.9587E-05  0.7627E-05  0.6463E-05  0.5712E-05  0.5174E-05  0.4731E-05  0.4384E-05  0.4038E-05  0.3674E-05  0.3320E-05  0.2958E-05  0.2600E-05  0.2266E-05  0.1956E-05  0.1700E-05  0.1471E-05  0.1280E-05  0.1103E-05  0.9542E-06  0.8262E-06  0.7126E-06  0.6200E-06
  0.4221E-05  0.4345E-05  0.4409E-05  0.4415E-05  0.4404E-05  0.4415E-05  0.4397E-05  0.4371E-05  0.4335E-05  0.4293E-05  0.4246E-05  0.4189E-05  0.4117E-05  0.4039E-05  0.3945E-05  0.3846E-05  0.3737E-05  0.3612E-05  0.3481E-05  0.3340E-05  0.3185E-05  0.3017E-05  0.2844E-05  0.2675E-05  0.2515E-05  0.2369E-05  0.2255E-05  0.2179E-05  0.2136E-05  0.2147E-05  0.2196E-05  0.2275E-05  0.2373E-05  0.2490E-05  0.2626E-05  0.2774E-05  0.2937E-05  0.3530E-05  0.4685E-05  0.6653E-05  0.9059E-05  0.1097E-04  0.1161E-04  0.1089E-04  0.9403E-05  0.7956E-05  0.7222E-05  0.7633E-05  0.9484E-05  0.1245E-04  0.1571E-04  0.1876E-04  0.2116E-04  0.2222E-04  0.2136E-04  0.1867E-04  0.1500E-04  0.1140E-04  0.8719E-05  0.6905E-05  0.5736E-05  0.4976E-05  0.4429E-05  0.4004E-05  0.3643E-05  0.3327E-05  0.3007E-05  0.2688E-05  0.2374E-05  0.2081E-05  0.1812E-05  0.1579E-05  0.1377E-05  0.1203E-05  0.1047E-05  0.9104E-06  0.7896E-06  0.6916E-06  0.6044E-06
  0.3610E-05  0.3730E-05  0.3804E-05  0.3858E-05  0.3901E-05  0.3925E-05  0.3934E-05  0.3929E-05  0.3918E-05  0.3895E-05  0.3861E-05  0.3812E-05  0.3756E-05  0.3682E-05  0.3598E-05  0.3503E-05  0.3397E-05  0.3277E-05  0.3153E-05  0.3015E-05  0.2875E-05  0.2726E-05  0.2577E-05  0.2434E-05  0.2303E-05  0.2190E-05  0.2102E-05  0.2041E-05  0.2015E-05  0.2034E-05  0.2087E-05  0.2166E-05  0.2262E-05  0.2377E-05  0.2506E-05  0.2646E-05  0.2854E-05  0.3400E-05  0.4420E-05  0.6056E-05  0.8051E-05  0.9752E-05  0.1053E-04  0.1022E-04  0.9155E-05  0.7860E-05  0.6992E-05  0.7033E-05  0.8143E-05  0.1031E-04  0.1297E-04  0.1574E-04  0.1830E-04  0.2025E-04  0.2089E-04  0.1971E-04  0.1666E-04  0.1312E-04  0.1002E-04  0.7673E-05  0.6023E-05  0.4954E-05  0.4245E-05  0.3724E-05  0.3332E-05  0.3017E-05  0.2733E-05  0.2447E-05  0.2169E-05  0.1911E-05  0.1678E-05  0.1470E-05  0.1295E-05  0.1131E-05  0.9923E-06  0.8658E-06  0.7598E-06  0.6665E-06  0.5821E-06
  0.3142E-05  0.3260E-05  0.3354E-05  0.3425E-05  0.3480E-05  0.3512E-05  0.3536E-05  0.3546E-05  0.3541E-05  0.3530E-05  0.3506E-05  0.3470E-05  0.3418E-05  0.3356E-05  0.3278E-05  0.3191E-05  0.3090E-05  0.2975E-05  0.2862E-05  0.2741E-05  0.2609E-05  0.2478E-05  0.2351E-05  0.2232E-05  0.2126E-05  0.2031E-05  0.1960E-05  0.1912E-05  0.1899E-05  0.1928E-05  0.1981E-05  0.2057E-05  0.2148E-05  0.2257E-05  0.2379E-05  0.2515E-05  0.2740E-05  0.3232E-05  0.4123E-05  0.5481E-05  0.7085E-05  0.8491E-05  0.9249E-05  0.9186E-05  0.8470E-05  0.7474E-05  0.6660E-05  0.6548E-05  0.7213E-05  0.8678E-05  0.1082E-04  0.1309E-04  0.1533E-04  0.1744E-04  0.1887E-04  0.1866E-04  0.1682E-04  0.1398E-04  0.1096E-04  0.8344E-05  0.6355E-05  0.5011E-05  0.4122E-05  0.3513E-05  0.3087E-05  0.2754E-05  0.2485E-05  0.2229E-05  0.1986E-05  0.1752E-05  0.1553E-05  0.1370E-05  0.1214E-05  0.1070E-05  0.9397E-06  0.8262E-06  0.7277E-06  0.6386E-06  0.5651E-06
  0.2810E-05  0.2917E-05  0.3005E-05  0.3071E-05  0.3127E-05  0.3168E-05  0.3196E-05  0.3212E-05  0.3218E-05  0.3210E-05  0.3193E-05  0.3162E-05  0.3119E-05  0.3060E-05  0.2988E-05  0.2909E-05  0.2813E-05  0.2718E-05  0.2611E-05  0.2498E-05  0.2383E-05  0.2269E-05  0.2159E-05  0.2057E-05  0.1967E-05  0.1890E-05  0.1830E-05  0.1794E-05  0.1798E-05  0.1825E-05  0.1873E-05  0.1946E-05  0.2033E-05  0.2135E-05  0.2250E-05  0.2374E-05  0.2617E-05  0.3058E-05  0.3805E-05  0.4876E-05  0.6127E-05  0.7220E-05  0.7872E-05  0.7931E-05  0.7498E-05  0.6799E-05  0.6175E-05  0.5999E-05  0.6441E-05  0.7518E-05  0.9082E-05  0.1086E-04  0.1259E-04  0.1438E-04  0.1587E-04  0.1642E-04  0.1559E-04  0.1359E-04  0.1101E-04  0.8504E-05  0.6466E-05  0.4983E-05  0.3998E-05  0.3335E-05  0.2868E-05  0.2531E-05  0.2268E-05  0.2041E-05  0.1824E-05  0.1622E-05  0.1437E-05  0.1278E-05  0.1138E-05  0.1007E-05  0.8901E-06  0.7875E-06  0.6937E-06  0.6154E-06  0.5450E-06
