DSAA
          79         109
    318.3670    342.0670
   7336.5760   7369.2760
  0.0000E+00  0.4479E-04
  0.0000E+00  0.0000E+00  0.0000E+00  0.0000E+00  0.0000E+00  0.0000E+00  0.0000E+00  0.0000E+00  0.0000E+00  0.0000E+00  0.0000E+00  0.0000E+00  0.0000E+00  0.0000E+00  0.0000E+00  0.0000E+00  0.0000E+00  0.0000E+00  0.0000E+00  0.0000E+00  0.0000E+00  0.0000E+00  0.0000E+00  0.0000E+00  0.0000E+00  0.0000E+00  0.0000E+00  0.0000E+00  0.0000E+00  0.0000E+00  0.0000E+00  0.0000E+00  0.0000E+00  0.0000E+00  0.0000E+00  0.0000E+00  0.0000E+00  0.0000E+00  0.0000E+00  0.0000E+00  0.0000E+00  0.0000E+00  0.0000E+00  0.0000E+00  0.0000E+00  0.0000E+00  0.0000E+00  0.0000E+00  0.0000E+00  0.0000E+00  0.0000E+00  0.0000E+00  0.0000E+00  0.0000E+00  0.0000E+00  0.0000E+00  0.0000E+00  0.0000E+00  0.0000E+00  0.0000E+00  0.0000E+00  0.0000E+00  0.0000E+00  0.0000E+00  0.0000E+00  0.0000E+00  0.0000E+00  0.0000E+00  0.0000E+00  0.0000E+00  0.0000E+00  0.0000E+00  0.0000E+00  0.0000E+00  0.0000E+00  0.0000E+00  0.0000E+00  0.0000E+00  0.0000E+00
  0.0000E+00  0.0000E+00  0.0000E+00  0.0000E+00  0.0000E+00  0.0000E+00  0.0000E+00  0.0000E+00  0.0000E+00  0.0000E+00  0.0000E+00  0.0000E+00  0.0000E+00  0.0000E+00  0.0000E+00  0.0000E+00  0.0000E+00  0.0000E+00  0.0000E+00  0.0000E+00  0.0000E+00  0.0000E+00  0.0000E+00  0.0000E+00  0.0000E+00  0.0000E+00  0.0000E+00  0.0000E+00  0.0000E+00  0.0000E+00  0.0000E+00  0.0000E+00  0.0000E+00  0.0000E+00  0.0000E+00  0.0000E+00  0.0000E+00  0.0000E+00  0.0000E+00  0.0000E+00  0.0000E+00  0.0000E+00  0.0000E+00  0.0000E+00  0.0000E+00  0.0000E+00  0.0000E+00  0.0000E+00  0.0000E+00  0.0000E+00  0.0000E+00  0.0000E+00  0.0000E+00  0.0000E+00  0.0000E+00  0.0000E+00  0.0000E+00  0.0000E+00  0.0000E+00  0.0000E+00  0.0000E+00  0.0000E+00  0.0000E+00  0.0000E+00  0.0000E+00  0.0000E+00  0.0000E+00  0.0000E+00  0.0000E+00  0.0000E+00  0.0000E+00  0.0000E+00  0.0000E+00  0.0000E+00  0.0000E+00  0.0000E+00  0.0000E+00  0.0000E+00  0.0000E+00
  0.0000E+00  0.0000E+00  0.0000E+00  0.0000E+00  0.0000E+00  0.0000E+00  0.0000E+00  0.0000E+00  0.0000E+00  0.0000E+00  0.0000E+00  0.0000E+00  0.0000E+00  0.0000E+00  0.0000E+00  0.0000E+00  0.0000E+00  0.0000E+00  0.0000E+00  0.0000E+00  0.0000E+00  0.0000E+00  0.0000E+00  0.0000E+00  0.0000E+00  0.0000E+00  0.0000E+00  0.0000E+00  0.0000E+00  0.0000E+00  0.0000E+00  0.0000E+00  0.0000E+00  0.0000E+00  0.0000E+00  0.0000E+00  0.0000E+00  0.0000E+00  0.0000E+00  0.0000E+00  0.0000E+00  0.0000E+00  0.0000E+00  0.0000E+00  0.0000E+00  0.0000E+00  0.0000E+00  0.0000E+00  0.0000E+00  0.0000E+00  0.0000E+00  0.0000E+00  0.0000E+00  0.0000E+00  0.0000E+00  0.0000E+00  0.0000E+00  0.0000E+00  0.0000E+00  0.0000E+00  0.0000E+00  0.0000E+00  0.0000E+00  0.0000E+00  0.0000E+00  0.0000E+00  0.0000E+00  0.0000E+00  0.0000E+00  0.0000E+00  0.0000E+00  0.0000E+00  0.0000E+00  0.0000E+00  0.0000E+00  0.0000E+00  0.0000E+00  0.0000E+00  0.0000E+00
  0.0000E+00  0.0000E+00  0.0000E+00  0.0000E+00  0.0000E+00  0.0000E+00  0.0000E+00  0.0000E+00  0.0000E+00  0.0000E+00  0.0000E+00  0.0000E+00  0.0000E+00  0.0000E+00  0.0000E+00  0.0000E+00  0.0000E+00  0.0000E+00  0.0000E+00  0.0000E+00  0.0000E+00  0.0000E+00  0.0000E+00  0.0000E+00  0.0000E+00  0.0000E+00  0.0000E+00  0.0000E+00  0.0000E+00  0.0000E+00  0.0000E+00  0.0000E+00  0.0000E+00  0.0000E+00  0.0000E+00  0.0000E+00  0.0000E+00  0.0000E+00  0.0000E+00  0.0000E+00  0.0000E+00  0.0000E+00  0.0000E+00  0.0000E+00  0.0000E+00  0.0000E+00  0.0000E+00  0.0000E+00  0.0000E+00  0.0000E+00  0.0000E+00  0.0000E+00  0.0000E+00  0.0000E+00  0.0000E+00  0.0000E+00  0.0000E+00  0.0000E+00  0.0000E+00  0.0000E+00  0.0000E+00  0.0000E+00  0.0000E+00  0.0000E+00  0.0000E+00  0.0000E+00  0.0000E+00  0.0000E+00  0.0000E+00  0.0000E+00  0.0000E+00  0.0000E+00  0.0000E+00  0.0000E+00  0.0000E+00  0.0000E+00  0.0000E+00  0.0000E+00  0.0000E+00
  0.0000E+00  0.0000E+00  0.0000E+00  0.0000E+00  0.0000E+00  0.0000E+00  0.0000E+00  0.0000E+00  0.0000E+00  0.0000E+00  0.0000E+00  0.0000E+00  0.0000E+00  0.0000E+00  0.0000E+00  0.0000E+00  0.0000E+00  0.0000E+00  0.0000E+00  0.0000E+00  0.0000E+00  0.0000E+00  0.0000E+00  0.0000E+00  0.0000E+00  0.0000E+00  0.0000E+00  0.0000E+00  0.0000E+00  0.0000E+00  0.0000E+00  0.0000E+00  0.0000E+00  0.0000E+00  0.0000E+00  0.0000E+00  0.0000E+00  0.0000E+00  0.0000E+00  0.0000E+00  0.0000E+00  0.0000E+00  0.0000E+00  0.0000E+00  0.0000E+00  0.0000E+00  0.0000E+00  0.0000E+00  0.0000E+00  0.0000E+00  0.0000E+00  0.0000E+00  0.0000E+00  0.0000E+00  0.0000E+00  0.0000E+00  0.0000E+00  0.0000E+00  0.0000E+00  0.0000E+00  0.0000E+00  0.0000E+00  0.0000E+00  0.0000E+00  0.0000E+00  0.0000E+00  0.0000E+00  0.0000E+00  0.0000E+00  0.0000E+00  0.0000E+00  0.0000E+00  0.0000E+00  0.0000E+00  0.0000E+00  0.0000E+00  0.0000E+00  0.0000E+00  0.0000E+00
  0.0000E+00  0.0000E+00  0.0000E+00  0.0000E+00  0.0000E+00  0.0000E+00  0.0000E+00  0.0000E+00  0.0000E+00  0.0000E+00  0.0000E+00  0.0000E+00  0.0000E+00  0.0000E+00  0.0000E+00  0.0000E+00  0.0000E+00  0.0000E+00  0.0000E+00  0.0000E+00  0.0000E+00  0.0000E+00  0.0000E+00  0.0000E+00  0.0000E+00  0.0000E+00  0.0000E+00  0.0000E+00  0.0000E+00  0.0000E+00  0.0000E+00  0.0000E+00  0.0000E+00  0.0000E+00  0.0000E+00  0.0000E+00  0.0000E+00  0.0000E+00  0.0000E+00  0.0000E+00  0.0000E+00  0.0000E+00  0.0000E+00  0.0000E+00  0.0000E+00  0.0000E+00  0.0000E+00  0.0000E+00  0.0000E+00  0.0000E+00  0.0000E+00  0.0000E+00  0.0000E+00  0.0000E+00  0.0000E+00  0.0000E+00  0.0000E+00  0.0000E+00  0.0000E+00  0.0000E+00  0.0000E+00  0.0000E+00  0.0000E+00  0.0000E+00  0.0000E+00  0.0000E+00  0.0000E+00  0.0000E+00  0.0000E+00  0.0000E+00  0.0000E+00  0.0000E+00  0.0000E+00  0.0000E+00  0.0000E+00  0.0000E+00  0.0000E+00  0.0000E+00  0.0000E+00
  0.0000E+00  0.0000E+00  0.0000E+00  0.0000E+00  0.0000E+00  0.0000E+00  0.0000E+00  0.0000E+00  0.0000E+00  0.0000E+00  0.0000E+00  0.0000E+00  0.0000E+00  0.0000E+00  0.0000E+00  0.0000E+00  0.0000E+00  0.0000E+00  0.0000E+00  0.0000E+00  0.0000E+00  0.0000E+00  0.0000E+00  0.0000E+00  0.0000E+00  0.0000E+00  0.0000E+00  0.0000E+00  0.0000E+00  0.0000E+00  0.0000E+00  0.0000E+00  0.0000E+00  0.0000E+00  0.0000E+00  0.0000E+00  0.0000E+00  0.0000E+00  0.0000E+00  0.0000E+00  0.0000E+00  0.0000E+00  0.0000E+00  0.0000E+00  0.0000E+00  0.0000E+00  0.0000E+00  0.0000E+00  0.0000E+00  0.0000E+00  0.0000E+00  0.0000E+00  0.0000E+00  0.0000E+00  0.0000E+00  0.0000E+00  0.0000E+00  0.0000E+00  0.0000E+00  0.0000E+00  0.0000E+00  0.0000E+00  0.0000E+00  0.0000E+00  0.0000E+00  0.0000E+00  0.0000E+00  0.0000E+00  0.0000E+00  0.0000E+00  0.0000E+00  0.0000E+00  0.0000E+00  0.0000E+00  0.0000E+00  0.0000E+00  0.0000E+00  0.0000E+00  0.0000E+00
  0.0000E+00  0.0000E+00  0.0000E+00  0.0000E+00  0.0000E+00  0.0000E+00  0.0000E+00  0.0000E+00  0.0000E+00  0.0000E+00  0.0000E+00  0.0000E+00  0.0000E+00  0.0000E+00  0.0000E+00  0.0000E+00  0.0000E+00  0.0000E+00  0.0000E+00  0.0000E+00  0.0000E+00  0.0000E+00  0.0000E+00  0.0000E+00  0.0000E+00  0.0000E+00  0.0000E+00  0.0000E+00  0.0000E+00  0.0000E+00  0.0000E+00  0.0000E+00  0.0000E+00  0.0000E+00  0.0000E+00  0.0000E+00  0.0000E+00  0.0000E+00  0.0000E+00  0.0000E+00  0.0000E+00  0.0000E+00  0.0000E+00  0.0000E+00  0.0000E+00  0.0000E+00  0.0000E+00  0.0000E+00  0.0000E+00  0.0000E+00  0.0000E+00  0.0000E+00  0.0000E+00  0.0000E+00  0.0000E+00  0.0000E+00  0.0000E+00  0.0000E+00  0.0000E+00  0.0000E+00  0.0000E+00  0.0000E+00  0.0000E+00  0.0000E+00  0.0000E+00  0.0000E+00  0.0000E+00  0.0000E+00  0.0000E+00  0.0000E+00  0.0000E+00  0.0000E+00  0.0000E+00  0.0000E+00  0.0000E+00  0.0000E+00  0.0000E+00  0.0000E+00  0.0000E+00
  0.0000E+00  0.0000E+00  0.0000E+00  0.0000E+00  0.0000E+00  0.0000E+00  0.0000E+00  0.0000E+00  0.0000E+00  0.0000E+00  0.0000E+00  0.0000E+00  0.0000E+00  0.0000E+00  0.0000E+00  0.0000E+00  0.0000E+00  0.0000E+00  0.0000E+00  0.0000E+00  0.0000E+00  0.0000E+00  0.0000E+00  0.0000E+00  0.0000E+00  0.0000E+00  0.0000E+00  0.0000E+00  0.0000E+00  0.0000E+00  0.0000E+00  0.0000E+00  0.0000E+00  0.0000E+00  0.0000E+00  0.0000E+00  0.0000E+00  0.0000E+00  0.0000E+00  0.0000E+00  0.0000E+00  0.0000E+00  0.0000E+00  0.0000E+00  0.0000E+00  0.0000E+00  0.0000E+00  0.0000E+00  0.0000E+00  0.0000E+00  0.0000E+00  0.0000E+00  0.0000E+00  0.0000E+00  0.0000E+00  0.0000E+00  0.0000E+00  0.0000E+00  0.0000E+00  0.0000E+00  0.0000E+00  0.0000E+00  0.0000E+00  0.0000E+00  0.0000E+00  0.0000E+00  0.0000E+00  0.0000E+00  0.0000E+00  0.0000E+00  0.0000E+00  0.0000E+00  0.0000E+00  0.0000E+00  0.0000E+00  0.0000E+00  0.0000E+00  0.0000E+00  0.0000E+00
  0.0000E+00  0.0000E+00  0.0000E+00  0.0000E+00  0.0000E+00  0.0000E+00  0.0000E+00  0.0000E+00  0.0000E+00  0.0000E+00  0.0000E+00  0.0000E+00  0.0000E+00  0.0000E+00  0.0000E+00  0.0000E+00  0.0000E+00  0.0000E+00  0.0000E+00  0.0000E+00  0.0000E+00  0.0000E+00  0.0000E+00  0.0000E+00  0.0000E+00  0.0000E+00  0.0000E+00  0.0000E+00  0.0000E+00  0.0000E+00  0.0000E+00  0.0000E+00  0.0000E+00  0.0000E+00  0.0000E+00  0.0000E+00  0.0000E+00  0.0000E+00  0.0000E+00  0.0000E+00  0.0000E+00  0.0000E+00  0.0000E+00  0.0000E+00  0.0000E+00  0.0000E+00  0.0000E+00  0.0000E+00  0.0000E+00  0.0000E+00  0.0000E+00  0.0000E+00  0.0000E+00  0.0000E+00  0.0000E+00  0.0000E+00  0.0000E+00  0.0000E+00  0.0000E+00  0.0000E+00  0.0000E+00  0.0000E+00  0.0000E+00  0.0000E+00  0.0000E+00  0.0000E+00  0.0000E+00  0.0000E+00  0.0000E+00  0.0000E+00  0.0000E+00  0.0000E+00  0.0000E+00  0.0000E+00  0.0000E+00  0.0000E+00  0.0000E+00  0.0000E+00  0.0000E+00
  0.0000E+00  0.0000E+00  0.0000E+00  0.0000E+00  0.0000E+00  0.0000E+00  0.0000E+00  0.0000E+00  0.0000E+00  0.0000E+00  0.0000E+00  0.0000E+00  0.0000E+00  0.0000E+00  0.0000E+00  0.0000E+00  0.0000E+00  0.0000E+00  0.0000E+00  0.0000E+00  0.0000E+00  0.0000E+00  0.0000E+00  0.0000E+00  0.0000E+00  0.0000E+00  0.0000E+00  0.0000E+00  0.0000E+00  0.0000E+00  0.0000E+00  0.0000E+00  0.0000E+00  0.0000E+00  0.0000E+00  0.0000E+00  0.0000E+00  0.0000E+00  0.0000E+00  0.0000E+00  0.0000E+00  0.0000E+00  0.0000E+00  0.0000E+00  0.0000E+00  0.0000E+00  0.0000E+00  0.0000E+00  0.0000E+00  0.0000E+00  0.0000E+00  0.0000E+00  0.0000E+00  0.0000E+00  0.0000E+00  0.0000E+00  0.0000E+00  0.0000E+00  0.0000E+00  0.0000E+00  0.0000E+00  0.0000E+00  0.0000E+00  0.0000E+00  0.0000E+00  0.0000E+00  0.0000E+00  0.0000E+00  0.0000E+00  0.0000E+00  0.0000E+00  0.0000E+00  0.0000E+00  0.0000E+00  0.0000E+00  0.0000E+00  0.0000E+00  0.0000E+00  0.0000E+00
  0.0000E+00  0.0000E+00  0.0000E+00  0.0000E+00  0.0000E+00  0.0000E+00  0.0000E+00  0.0000E+00  0.0000E+00  0.0000E+00  0.0000E+00  0.0000E+00  0.0000E+00  0.0000E+00  0.0000E+00  0.0000E+00  0.0000E+00  0.0000E+00  0.0000E+00  0.0000E+00  0.0000E+00  0.0000E+00  0.0000E+00  0.0000E+00  0.0000E+00  0.0000E+00  0.0000E+00  0.0000E+00  0.0000E+00  0.0000E+00  0.0000E+00  0.0000E+00  0.0000E+00  0.0000E+00  0.0000E+00  0.0000E+00  0.0000E+00  0.0000E+00  0.0000E+00  0.0000E+00  0.0000E+00  0.0000E+00  0.0000E+00  0.0000E+00  0.0000E+00  0.0000E+00  0.0000E+00  0.0000E+00  0.0000E+00  0.0000E+00  0.0000E+00  0.0000E+00  0.0000E+00  0.0000E+00  0.0000E+00  0.0000E+00  0.0000E+00  0.0000E+00  0.0000E+00  0.0000E+00  0.0000E+00  0.0000E+00  0.0000E+00  0.0000E+00  0.0000E+00  0.0000E+00  0.0000E+00  0.0000E+00  0.0000E+00  0.0000E+00  0.0000E+00  0.0000E+00  0.0000E+00  0.0000E+00  0.0000E+00  0.0000E+00  0.0000E+00  0.0000E+00  0.0000E+00
  0.0000E+00  0.0000E+00  0.0000E+00  0.0000E+00  0.0000E+00  0.0000E+00  0.0000E+00  0.0000E+00  0.0000E+00  0.0000E+00  0.0000E+00  0.0000E+00  0.0000E+00  0.0000E+00  0.0000E+00  0.0000E+00  0.0000E+00  0.0000E+00  0.0000E+00  0.0000E+00  0.0000E+00  0.0000E+00  0.0000E+00  0.0000E+00  0.0000E+00  0.0000E+00  0.0000E+00  0.0000E+00  0.0000E+00  0.0000E+00  0.0000E+00  0.0000E+00  0.0000E+00  0.0000E+00  0.0000E+00  0.0000E+00  0.0000E+00  0.0000E+00  0.0000E+00  0.0000E+00  0.0000E+00  0.0000E+00  0.0000E+00  0.0000E+00  0.0000E+00  0.0000E+00  0.0000E+00  0.0000E+00  0.0000E+00  0.0000E+00  0.0000E+00  0.0000E+00  0.0000E+00  0.0000E+00  0.0000E+00  0.0000E+00  0.0000E+00  0.0000E+00  0.0000E+00  0.0000E+00  0.0000E+00  0.0000E+00  0.0000E+00  0.0000E+00  0.0000E+00  0.0000E+00  0.0000E+00  0.0000E+00  0.0000E+00  0.0000E+00  0.0000E+00  0.0000E+00  0.0000E+00  0.0000E+00  0.0000E+00  0.0000E+00  0.0000E+00  0.0000E+00  0.0000E+00
  0.0000E+00  0.0000E+00  0.0000E+00  0.0000E+00  0.0000E+00  0.0000E+00  0.0000E+00  0.0000E+00  0.0000E+00  0.0000E+00  0.0000E+00  0.0000E+00  0.0000E+00  0.0000E+00  0.0000E+00  0.0000E+00  0.0000E+00  0.0000E+00  0.0000E+00  0.0000E+00  0.0000E+00  0.0000E+00  0.0000E+00  0.0000E+00  0.0000E+00  0.0000E+00  0.0000E+00  0.0000E+00  0.0000E+00  0.0000E+00  0.0000E+00  0.0000E+00  0.0000E+00  0.0000E+00  0.0000E+00  0.0000E+00  0.0000E+00  0.0000E+00  0.0000E+00  0.0000E+00  0.0000E+00  0.0000E+00  0.0000E+00  0.0000E+00  0.0000E+00  0.0000E+00  0.0000E+00  0.0000E+00  0.0000E+00  0.0000E+00  0.0000E+00  0.0000E+00  0.0000E+00  0.0000E+00  0.0000E+00  0.0000E+00  0.0000E+00  0.0000E+00  0.0000E+00  0.0000E+00  0.0000E+00  0.0000E+00  0.0000E+00  0.0000E+00  0.0000E+00  0.0000E+00  0.0000E+00  0.0000E+00  0.0000E+00  0.0000E+00  0.0000E+00  0.0000E+00  0.0000E+00  0.0000E+00  0.0000E+00  0.0000E+00  0.0000E+00  0.0000E+00  0.0000E+00
  0.0000E+00  0.0000E+00  0.0000E+00  0.0000E+00  0.0000E+00  0.0000E+00  0.0000E+00  0.0000E+00  0.0000E+00  0.0000E+00  0.0000E+00  0.0000E+00  0.0000E+00  0.0000E+00  0.0000E+00  0.0000E+00  0.0000E+00  0.0000E+00  0.0000E+00  0.0000E+00  0.0000E+00  0.0000E+00  0.0000E+00  0.0000E+00  0.0000E+00  0.0000E+00  0.0000E+00  0.0000E+00  0.0000E+00  0.0000E+00  0.0000E+00  0.0000E+00  0.0000E+00  0.0000E+00  0.0000E+00  0.0000E+00  0.0000E+00  0.0000E+00  0.0000E+00  0.0000E+00  0.0000E+00  0.0000E+00  0.0000E+00  0.0000E+00  0.0000E+00  0.0000E+00  0.0000E+00  0.0000E+00  0.0000E+00  0.0000E+00  0.0000E+00  0.0000E+00  0.0000E+00  0.0000E+00  0.0000E+00  0.0000E+00  0.0000E+00  0.0000E+00  0.0000E+00  0.0000E+00  0.0000E+00  0.0000E+00  0.0000E+00  0.0000E+00  0.0000E+00  0.0000E+00  0.0000E+00  0.0000E+00  0.0000E+00  0.0000E+00  0.0000E+00  0.0000E+00  0.0000E+00  0.0000E+00  0.0000E+00  0.0000E+00  0.0000E+00  0.0000E+00  0.0000E+00
  0.0000E+00  0.0000E+00  0.0000E+00  0.0000E+00  0.0000E+00  0.0000E+00  0.0000E+00  0.0000E+00  0.0000E+00  0.0000E+00  0.0000E+00  0.0000E+00  0.0000E+00  0.0000E+00  0.0000E+00  0.0000E+00  0.0000E+00  0.0000E+00  0.0000E+00  0.0000E+00  0.0000E+00  0.0000E+00  0.0000E+00  0.0000E+00  0.0000E+00  0.0000E+00  0.0000E+00  0.0000E+00  0.0000E+00  0.0000E+00  0.0000E+00  0.0000E+00  0.0000E+00  0.0000E+00  0.0000E+00  0.0000E+00  0.0000E+00  0.0000E+00  0.0000E+00  0.0000E+00  0.0000E+00  0.0000E+00  0.0000E+00  0.0000E+00  0.0000E+00  0.0000E+00  0.0000E+00  0.0000E+00  0.0000E+00  0.0000E+00  0.0000E+00  0.0000E+00  0.0000E+00  0.0000E+00  0.0000E+00  0.0000E+00  0.0000E+00  0.0000E+00  0.0000E+00  0.0000E+00  0.0000E+00  0.0000E+00  0.0000E+00  0.0000E+00  0.0000E+00  0.0000E+00  0.0000E+00  0.0000E+00  0.0000E+00  0.0000E+00  0.0000E+00  0.0000E+00  0.0000E+00  0.0000E+00  0.0000E+00  0.0000E+00  0.0000E+00  0.0000E+00  0.0000E+00
  0.0000E+00  0.0000E+00  0.0000E+00  0.0000E+00  0.0000E+00  0.0000E+00  0.0000E+00  0.0000E+00  0.0000E+00  0.0000E+00  0.0000E+00  0.0000E+00  0.0000E+00  0.0000E+00  0.0000E+00  0.0000E+00  0.0000E+00  0.0000E+00  0.0000E+00  0.0000E+00  0.0000E+00  0.0000E+00  0.0000E+00  0.0000E+00  0.0000E+00  0.0000E+00  0.0000E+00  0.0000E+00  0.0000E+00  0.0000E+00  0.0000E+00  0.0000E+00  0.0000E+00  0.0000E+00  0.0000E+00  0.0000E+00  0.0000E+00  0.0000E+00  0.0000E+00  0.0000E+00  0.0000E+00  0.0000E+00  0.0000E+00  0.0000E+00  0.0000E+00  0.0000E+00  0.0000E+00  0.0000E+00  0.0000E+00  0.0000E+00  0.0000E+00  0.0000E+00  0.0000E+00  0.0000E+00  0.0000E+00  0.0000E+00  0.0000E+00  0.0000E+00  0.0000E+00  0.0000E+00  0.0000E+00  0.0000E+00  0.0000E+00  0.0000E+00  0.0000E+00  0.0000E+00  0.0000E+00  0.0000E+00  0.0000E+00  0.0000E+00  0.0000E+00  0.0000E+00  0.0000E+00  0.0000E+00  0.0000E+00  0.0000E+00  0.0000E+00  0.0000E+00  0.0000E+00
  0.0000E+00  0.0000E+00  0.0000E+00  0.0000E+00  0.0000E+00  0.0000E+00  0.0000E+00  0.0000E+00  0.0000E+00  0.0000E+00  0.0000E+00  0.0000E+00  0.0000E+00  0.0000E+00  0.0000E+00  0.0000E+00  0.0000E+00  0.0000E+00  0.0000E+00  0.0000E+00  0.0000E+00  0.0000E+00  0.0000E+00  0.0000E+00  0.0000E+00  0.0000E+00  0.0000E+00  0.0000E+00  0.0000E+00  0.0000E+00  0.0000E+00  0.0000E+00  0.0000E+00  0.0000E+00  0.0000E+00  0.0000E+00  0.0000E+00  0.0000E+00  0.0000E+00  0.0000E+00  0.0000E+00  0.0000E+00  0.0000E+00  0.0000E+00  0.0000E+00  0.0000E+00  0.0000E+00  0.0000E+00  0.0000E+00  0.0000E+00  0.0000E+00  0.0000E+00  0.0000E+00  0.0000E+00  0.0000E+00  0.0000E+00  0.0000E+00  0.0000E+00  0.0000E+00  0.0000E+00  0.0000E+00  0.0000E+00  0.0000E+00  0.0000E+00  0.0000E+00  0.0000E+00  0.0000E+00  0.0000E+00  0.0000E+00  0.0000E+00  0.0000E+00  0.0000E+00  0.0000E+00  0.0000E+00  0.0000E+00  0.0000E+00  0.0000E+00  0.0000E+00  0.0000E+00
  0.0000E+00  0.0000E+00  0.0000E+00  0.0000E+00  0.0000E+00  0.0000E+00  0.0000E+00  0.0000E+00  0.0000E+00  0.0000E+00  0.0000E+00  0.0000E+00  0.0000E+00  0.0000E+00  0.0000E+00  0.0000E+00  0.0000E+00  0.0000E+00  0.0000E+00  0.0000E+00  0.0000E+00  0.0000E+00  0.0000E+00  0.0000E+00  0.0000E+00  0.0000E+00  0.0000E+00  0.0000E+00  0.0000E+00  0.0000E+00  0.0000E+00  0.0000E+00  0.0000E+00  0.0000E+00  0.0000E+00  0.0000E+00  0.0000E+00  0.0000E+00  0.0000E+00  0.0000E+00  0.0000E+00  0.0000E+00  0.0000E+00  0.0000E+00  0.0000E+00  0.0000E+00  0.0000E+00  0.0000E+00  0.0000E+00  0.0000E+00  0.0000E+00  0.0000E+00  0.0000E+00  0.0000E+00  0.0000E+00  0.0000E+00  0.0000E+00  0.0000E+00  0.0000E+00  0.0000E+00  0.0000E+00  0.0000E+00  0.0000E+00  0.0000E+00  0.0000E+00  0.0000E+00  0.0000E+00  0.0000E+00  0.0000E+00  0.0000E+00  0.0000E+00  0.0000E+00  0.0000E+00  0.0000E+00  0.0000E+00  0.0000E+00  0.0000E+00  0.0000E+00  0.0000E+00
  0.0000E+00  0.0000E+00  0.0000E+00  0.0000E+00  0.0000E+00  0.0000E+00  0.0000E+00  0.0000E+00  0.0000E+00  0.0000E+00  0.0000E+00  0.0000E+00  0.0000E+00  0.0000E+00  0.0000E+00  0.0000E+00  0.0000E+00  0.0000E+00  0.0000E+00  0.0000E+00  0.0000E+00  0.0000E+00  0.0000E+00  0.0000E+00  0.0000E+00  0.0000E+00  0.0000E+00  0.0000E+00  0.0000E+00  0.0000E+00  0.0000E+00  0.0000E+00  0.0000E+00  0.0000E+00  0.0000E+00  0.0000E+00  0.0000E+00  0.0000E+00  0.0000E+00  0.0000E+00  0.0000E+00  0.0000E+00  0.0000E+00  0.0000E+00  0.0000E+00  0.0000E+00  0.0000E+00  0.0000E+00  0.0000E+00  0.0000E+00  0.0000E+00  0.0000E+00  0.0000E+00  0.0000E+00  0.0000E+00  0.0000E+00  0.0000E+00  0.0000E+00  0.0000E+00  0.0000E+00  0.0000E+00  0.0000E+00  0.0000E+00  0.0000E+00  0.0000E+00  0.0000E+00  0.0000E+00  0.0000E+00  0.0000E+00  0.0000E+00  0.0000E+00  0.0000E+00  0.0000E+00  0.0000E+00  0.0000E+00  0.0000E+00  0.0000E+00  0.0000E+00  0.0000E+00
  0.0000E+00  0.0000E+00  0.0000E+00  0.0000E+00  0.0000E+00  0.0000E+00  0.0000E+00  0.0000E+00  0.0000E+00  0.0000E+00  0.0000E+00  0.0000E+00  0.0000E+00  0.0000E+00  0.0000E+00  0.0000E+00  0.0000E+00  0.0000E+00  0.0000E+00  0.0000E+00  0.0000E+00  0.0000E+00  0.0000E+00  0.0000E+00  0.0000E+00  0.0000E+00  0.0000E+00  0.0000E+00  0.0000E+00  0.0000E+00  0.0000E+00  0.0000E+00  0.0000E+00  0.0000E+00  0.0000E+00  0.0000E+00  0.0000E+00  0.0000E+00  0.0000E+00  0.0000E+00  0.0000E+00  0.0000E+00  0.0000E+00  0.0000E+00  0.0000E+00  0.0000E+00  0.0000E+00  0.0000E+00  0.0000E+00  0.0000E+00  0.0000E+00  0.0000E+00  0.0000E+00  0.0000E+00  0.0000E+00  0.0000E+00  0.0000E+00  0.0000E+00  0.0000E+00  0.0000E+00  0.0000E+00  0.0000E+00  0.0000E+00  0.0000E+00  0.0000E+00  0.0000E+00  0.0000E+00  0.0000E+00  0.0000E+00  0.0000E+00  0.0000E+00  0.0000E+00  0.0000E+00  0.0000E+00  0.0000E+00  0.0000E+00  0.0000E+00  0.0000E+00  0.0000E+00
  0.0000E+00  0.0000E+00  0.0000E+00  0.0000E+00  0.0000E+00  0.0000E+00  0.0000E+00  0.0000E+00  0.0000E+00  0.0000E+00  0.0000E+00  0.0000E+00  0.0000E+00  0.0000E+00  0.0000E+00  0.0000E+00  0.0000E+00  0.0000E+00  0.0000E+00  0.0000E+00  0.0000E+00  0.0000E+00  0.0000E+00  0.0000E+00  0.0000E+00  0.0000E+00  0.0000E+00  0.0000E+00  0.0000E+00  0.0000E+00  0.0000E+00  0.0000E+00  0.0000E+00  0.0000E+00  0.0000E+00  0.0000E+00  0.0000E+00  0.0000E+00  0.0000E+00  0.0000E+00  0.0000E+00  0.0000E+00  0.0000E+00  0.0000E+00  0.0000E+00  0.0000E+00  0.0000E+00  0.0000E+00  0.0000E+00  0.0000E+00  0.0000E+00  0.0000E+00  0.0000E+00  0.0000E+00  0.0000E+00  0.0000E+00  0.0000E+00  0.0000E+00  0.0000E+00  0.0000E+00  0.0000E+00  0.0000E+00  0.0000E+00  0.0000E+00  0.0000E+00  0.0000E+00  0.0000E+00  0.0000E+00  0.0000E+00  0.0000E+00  0.0000E+00  0.0000E+00  0.0000E+00  0.0000E+00  0.0000E+00  0.0000E+00  0.0000E+00  0.0000E+00  0.0000E+00
  0.0000E+00  0.0000E+00  0.0000E+00  0.0000E+00  0.0000E+00  0.0000E+00  0.0000E+00  0.0000E+00  0.0000E+00  0.0000E+00  0.0000E+00  0.0000E+00  0.0000E+00  0.0000E+00  0.0000E+00  0.0000E+00  0.0000E+00  0.0000E+00  0.0000E+00  0.0000E+00  0.0000E+00  0.0000E+00  0.0000E+00  0.0000E+00  0.0000E+00  0.0000E+00  0.0000E+00  0.0000E+00  0.0000E+00  0.0000E+00  0.0000E+00  0.0000E+00  0.0000E+00  0.0000E+00  0.0000E+00  0.0000E+00  0.0000E+00  0.0000E+00  0.0000E+00  0.0000E+00  0.0000E+00  0.0000E+00  0.0000E+00  0.0000E+00  0.0000E+00  0.0000E+00  0.0000E+00  0.0000E+00  0.0000E+00  0.0000E+00  0.0000E+00  0.0000E+00  0.0000E+00  0.0000E+00  0.0000E+00  0.0000E+00  0.0000E+00  0.0000E+00  0.0000E+00  0.0000E+00  0.0000E+00  0.0000E+00  0.0000E+00  0.0000E+00  0.0000E+00  0.0000E+00  0.0000E+00  0.0000E+00  0.0000E+00  0.0000E+00  0.0000E+00  0.0000E+00  0.0000E+00  0.0000E+00  0.0000E+00  0.0000E+00  0.0000E+00  0.0000E+00  0.0000E+00
  0.0000E+00  0.0000E+00  0.0000E+00  0.0000E+00  0.0000E+00  0.0000E+00  0.0000E+00  0.0000E+00  0.0000E+00  0.0000E+00  0.0000E+00  0.0000E+00  0.0000E+00  0.0000E+00  0.0000E+00  0.0000E+00  0.0000E+00  0.0000E+00  0.0000E+00  0.0000E+00  0.0000E+00  0.0000E+00  0.0000E+00  0.0000E+00  0.0000E+00  0.0000E+00  0.0000E+00  0.0000E+00  0.0000E+00  0.0000E+00  0.0000E+00  0.0000E+00  0.0000E+00  0.0000E+00  0.0000E+00  0.0000E+00  0.0000E+00  0.0000E+00  0.0000E+00  0.0000E+00  0.0000E+00  0.0000E+00  0.0000E+00  0.0000E+00  0.0000E+00  0.0000E+00  0.0000E+00  0.0000E+00  0.0000E+00  0.0000E+00  0.0000E+00  0.0000E+00  0.0000E+00  0.0000E+00  0.0000E+00  0.0000E+00  0.0000E+00  0.0000E+00  0.0000E+00  0.0000E+00  0.0000E+00  0.0000E+00  0.0000E+00  0.0000E+00  0.0000E+00  0.0000E+00  0.0000E+00  0.0000E+00  0.0000E+00  0.0000E+00  0.0000E+00  0.0000E+00  0.0000E+00  0.0000E+00  0.0000E+00  0.0000E+00  0.0000E+00  0.0000E+00  0.0000E+00
  0.0000E+00  0.0000E+00  0.0000E+00  0.0000E+00  0.0000E+00  0.0000E+00  0.0000E+00  0.0000E+00  0.0000E+00  0.0000E+00  0.0000E+00  0.0000E+00  0.0000E+00  0.0000E+00  0.0000E+00  0.0000E+00  0.0000E+00  0.0000E+00  0.0000E+00  0.0000E+00  0.0000E+00  0.0000E+00  0.0000E+00  0.0000E+00  0.0000E+00  0.0000E+00  0.0000E+00  0.0000E+00  0.0000E+00  0.0000E+00  0.0000E+00  0.0000E+00  0.0000E+00  0.0000E+00  0.0000E+00  0.0000E+00  0.0000E+00  0.0000E+00  0.0000E+00  0.0000E+00  0.0000E+00  0.0000E+00  0.0000E+00  0.0000E+00  0.0000E+00  0.0000E+00  0.0000E+00  0.0000E+00  0.0000E+00  0.0000E+00  0.0000E+00  0.0000E+00  0.0000E+00  0.0000E+00  0.0000E+00  0.0000E+00  0.0000E+00  0.0000E+00  0.0000E+00  0.0000E+00  0.0000E+00  0.0000E+00  0.0000E+00  0.0000E+00  0.0000E+00  0.0000E+00  0.0000E+00  0.0000E+00  0.0000E+00  0.0000E+00  0.0000E+00  0.0000E+00  0.0000E+00  0.0000E+00  0.0000E+00  0.0000E+00  0.0000E+00  0.0000E+00  0.0000E+00
  0.0000E+00  0.0000E+00  0.0000E+00  0.0000E+00  0.0000E+00  0.0000E+00  0.0000E+00  0.0000E+00  0.0000E+00  0.0000E+00  0.0000E+00  0.0000E+00  0.0000E+00  0.0000E+00  0.0000E+00  0.0000E+00  0.0000E+00  0.0000E+00  0.0000E+00  0.0000E+00  0.0000E+00  0.0000E+00  0.0000E+00  0.0000E+00  0.0000E+00  0.0000E+00  0.0000E+00  0.0000E+00  0.0000E+00  0.0000E+00  0.0000E+00  0.0000E+00  0.0000E+00  0.0000E+00  0.0000E+00  0.0000E+00  0.0000E+00  0.0000E+00  0.0000E+00  0.0000E+00  0.0000E+00  0.0000E+00  0.0000E+00  0.0000E+00  0.0000E+00  0.0000E+00  0.0000E+00  0.0000E+00  0.0000E+00  0.0000E+00  0.0000E+00  0.0000E+00  0.0000E+00  0.0000E+00  0.0000E+00  0.0000E+00  0.0000E+00  0.0000E+00  0.0000E+00  0.0000E+00  0.0000E+00  0.0000E+00  0.0000E+00  0.0000E+00  0.0000E+00  0.0000E+00  0.0000E+00  0.0000E+00  0.0000E+00  0.0000E+00  0.0000E+00  0.0000E+00  0.0000E+00  0.0000E+00  0.0000E+00  0.0000E+00  0.0000E+00  0.0000E+00  0.0000E+00
  0.0000E+00  0.0000E+00  0.0000E+00  0.0000E+00  0.0000E+00  0.0000E+00  0.0000E+00  0.0000E+00  0.0000E+00  0.0000E+00  0.0000E+00  0.0000E+00  0.0000E+00  0.0000E+00  0.0000E+00  0.0000E+00  0.0000E+00  0.0000E+00  0.0000E+00  0.0000E+00  0.0000E+00  0.0000E+00  0.0000E+00  0.0000E+00  0.0000E+00  0.0000E+00  0.0000E+00  0.0000E+00  0.0000E+00  0.0000E+00  0.0000E+00  0.0000E+00  0.0000E+00  0.0000E+00  0.0000E+00  0.0000E+00  0.0000E+00  0.0000E+00  0.0000E+00  0.0000E+00  0.0000E+00  0.0000E+00  0.0000E+00  0.0000E+00  0.0000E+00  0.0000E+00  0.0000E+00  0.0000E+00  0.0000E+00  0.0000E+00  0.0000E+00  0.0000E+00  0.0000E+00  0.0000E+00  0.0000E+00  0.0000E+00  0.0000E+00  0.0000E+00  0.0000E+00  0.0000E+00  0.0000E+00  0.0000E+00  0.0000E+00  0.0000E+00  0.0000E+00  0.0000E+00  0.0000E+00  0.0000E+00  0.0000E+00  0.0000E+00  0.0000E+00  0.0000E+00  0.0000E+00  0.0000E+00  0.0000E+00  0.0000E+00  0.0000E+00  0.0000E+00  0.0000E+00
  0.0000E+00  0.0000E+00  0.0000E+00  0.0000E+00  0.0000E+00  0.0000E+00  0.0000E+00  0.0000E+00  0.0000E+00  0.0000E+00  0.0000E+00  0.0000E+00  0.0000E+00  0.0000E+00  0.0000E+00  0.0000E+00  0.0000E+00  0.0000E+00  0.0000E+00  0.0000E+00  0.0000E+00  0.0000E+00  0.0000E+00  0.0000E+00  0.0000E+00  0.0000E+00  0.0000E+00  0.0000E+00  0.0000E+00  0.0000E+00  0.0000E+00  0.0000E+00  0.0000E+00  0.0000E+00  0.0000E+00  0.0000E+00  0.0000E+00  0.0000E+00  0.0000E+00  0.0000E+00  0.0000E+00  0.0000E+00  0.0000E+00  0.0000E+00  0.0000E+00  0.0000E+00  0.0000E+00  0.0000E+00  0.0000E+00  0.0000E+00  0.0000E+00  0.0000E+00  0.0000E+00  0.0000E+00  0.0000E+00  0.0000E+00  0.0000E+00  0.0000E+00  0.0000E+00  0.0000E+00  0.0000E+00  0.0000E+00  0.0000E+00  0.0000E+00  0.0000E+00  0.0000E+00  0.0000E+00  0.0000E+00  0.0000E+00  0.0000E+00  0.0000E+00  0.0000E+00  0.0000E+00  0.0000E+00  0.0000E+00  0.0000E+00  0.0000E+00  0.0000E+00  0.0000E+00
  0.0000E+00  0.0000E+00  0.0000E+00  0.0000E+00  0.0000E+00  0.0000E+00  0.0000E+00  0.0000E+00  0.0000E+00  0.0000E+00  0.0000E+00  0.0000E+00  0.0000E+00  0.0000E+00  0.0000E+00  0.0000E+00  0.0000E+00  0.0000E+00  0.0000E+00  0.0000E+00  0.0000E+00  0.0000E+00  0.0000E+00  0.0000E+00  0.0000E+00  0.0000E+00  0.0000E+00  0.0000E+00  0.0000E+00  0.0000E+00  0.0000E+00  0.0000E+00  0.0000E+00  0.0000E+00  0.0000E+00  0.0000E+00  0.0000E+00  0.0000E+00  0.0000E+00  0.0000E+00  0.0000E+00  0.0000E+00  0.0000E+00  0.0000E+00  0.0000E+00  0.0000E+00  0.0000E+00  0.0000E+00  0.0000E+00  0.0000E+00  0.0000E+00  0.0000E+00  0.0000E+00  0.0000E+00  0.0000E+00  0.0000E+00  0.0000E+00  0.0000E+00  0.0000E+00  0.0000E+00  0.0000E+00  0.0000E+00  0.0000E+00  0.0000E+00  0.0000E+00  0.0000E+00  0.0000E+00  0.0000E+00  0.0000E+00  0.0000E+00  0.0000E+00  0.0000E+00  0.0000E+00  0.0000E+00  0.0000E+00  0.0000E+00  0.0000E+00  0.0000E+00  0.0000E+00
  0.0000E+00  0.0000E+00  0.0000E+00  0.0000E+00  0.0000E+00  0.0000E+00  0.0000E+00  0.0000E+00  0.0000E+00  0.0000E+00  0.0000E+00  0.0000E+00  0.0000E+00  0.0000E+00  0.0000E+00  0.0000E+00  0.0000E+00  0.0000E+00  0.0000E+00  0.0000E+00  0.0000E+00  0.0000E+00  0.0000E+00  0.0000E+00  0.0000E+00  0.0000E+00  0.0000E+00  0.0000E+00  0.0000E+00  0.0000E+00  0.0000E+00  0.0000E+00  0.0000E+00  0.0000E+00  0.0000E+00  0.0000E+00  0.0000E+00  0.0000E+00  0.0000E+00  0.0000E+00  0.0000E+00  0.0000E+00  0.0000E+00  0.0000E+00  0.0000E+00  0.0000E+00  0.0000E+00  0.0000E+00  0.0000E+00  0.0000E+00  0.0000E+00  0.0000E+00  0.0000E+00  0.0000E+00  0.0000E+00  0.0000E+00  0.0000E+00  0.0000E+00  0.0000E+00  0.0000E+00  0.0000E+00  0.0000E+00  0.0000E+00  0.0000E+00  0.0000E+00  0.0000E+00  0.0000E+00  0.0000E+00  0.0000E+00  0.0000E+00  0.0000E+00  0.0000E+00  0.0000E+00  0.0000E+00  0.0000E+00  0.0000E+00  0.0000E+00  0.0000E+00  0.0000E+00
  0.0000E+00  0.0000E+00  0.0000E+00  0.0000E+00  0.0000E+00  0.0000E+00  0.0000E+00  0.0000E+00  0.0000E+00  0.0000E+00  0.0000E+00  0.0000E+00  0.0000E+00  0.0000E+00  0.0000E+00  0.0000E+00  0.0000E+00  0.0000E+00  0.0000E+00  0.0000E+00  0.0000E+00  0.0000E+00  0.0000E+00  0.0000E+00  0.0000E+00  0.0000E+00  0.0000E+00  0.0000E+00  0.0000E+00  0.0000E+00  0.0000E+00  0.0000E+00  0.0000E+00  0.0000E+00  0.0000E+00  0.0000E+00  0.0000E+00  0.0000E+00  0.0000E+00  0.0000E+00  0.0000E+00  0.0000E+00  0.0000E+00  0.0000E+00  0.0000E+00  0.0000E+00  0.0000E+00  0.0000E+00  0.0000E+00  0.0000E+00  0.0000E+00  0.0000E+00  0.0000E+00  0.0000E+00  0.0000E+00  0.0000E+00  0.0000E+00  0.0000E+00  0.0000E+00  0.0000E+00  0.0000E+00  0.0000E+00  0.0000E+00  0.0000E+00  0.0000E+00  0.0000E+00  0.0000E+00  0.0000E+00  0.0000E+00  0.0000E+00  0.0000E+00  0.0000E+00  0.0000E+00  0.0000E+00  0.0000E+00  0.0000E+00  0.0000E+00  0.0000E+00  0.0000E+00
  0.0000E+00  0.0000E+00  0.0000E+00  0.0000E+00  0.0000E+00  0.0000E+00  0.0000E+00  0.0000E+00  0.0000E+00  0.0000E+00  0.0000E+00  0.0000E+00  0.0000E+00  0.0000E+00  0.0000E+00  0.0000E+00  0.0000E+00  0.0000E+00  0.0000E+00  0.0000E+00  0.0000E+00  0.0000E+00  0.0000E+00  0.0000E+00  0.0000E+00  0.0000E+00  0.0000E+00  0.0000E+00  0.0000E+00  0.0000E+00  0.0000E+00  0.0000E+00  0.0000E+00  0.0000E+00  0.0000E+00  0.0000E+00  0.0000E+00  0.0000E+00  0.0000E+00  0.0000E+00  0.0000E+00  0.0000E+00  0.0000E+00  0.0000E+00  0.0000E+00  0.0000E+00  0.0000E+00  0.0000E+00  0.0000E+00  0.0000E+00  0.0000E+00  0.0000E+00  0.0000E+00  0.0000E+00  0.0000E+00  0.0000E+00  0.0000E+00  0.0000E+00  0.0000E+00  0.0000E+00  0.0000E+00  0.0000E+00  0.0000E+00  0.0000E+00  0.0000E+00  0.0000E+00  0.0000E+00  0.0000E+00  0.0000E+00  0.0000E+00  0.0000E+00  0.0000E+00  0.0000E+00  0.0000E+00  0.0000E+00  0.0000E+00  0.0000E+00  0.0000E+00  0.0000E+00
  0.0000E+00  0.0000E+00  0.0000E+00  0.0000E+00  0.0000E+00  0.0000E+00  0.0000E+00  0.0000E+00  0.0000E+00  0.0000E+00  0.0000E+00  0.0000E+00  0.0000E+00  0.0000E+00  0.0000E+00  0.0000E+00  0.0000E+00  0.0000E+00  0.0000E+00  0.0000E+00  0.0000E+00  0.0000E+00  0.0000E+00  0.0000E+00  0.0000E+00  0.0000E+00  0.0000E+00  0.0000E+00  0.0000E+00  0.0000E+00  0.0000E+00  0.0000E+00  0.0000E+00  0.0000E+00  0.0000E+00  0.0000E+00  0.0000E+00  0.0000E+00  0.0000E+00  0.0000E+00  0.0000E+00  0.0000E+00  0.0000E+00  0.0000E+00  0.0000E+00  0.0000E+00  0.0000E+00  0.0000E+00  0.0000E+00  0.0000E+00  0.0000E+00  0.0000E+00  0.0000E+00  0.0000E+00  0.0000E+00  0.0000E+00  0.0000E+00  0.0000E+00  0.0000E+00  0.0000E+00  0.0000E+00  0.0000E+00  0.0000E+00  0.0000E+00  0.0000E+00  0.0000E+00  0.0000E+00  0.0000E+00  0.0000E+00  0.0000E+00  0.0000E+00  0.0000E+00  0.0000E+00  0.0000E+00  0.0000E+00  0.0000E+00  0.0000E+00  0.0000E+00  0.0000E+00
  0.0000E+00  0.0000E+00  0.0000E+00  0.0000E+00  0.0000E+00  0.0000E+00  0.0000E+00  0.0000E+00  0.0000E+00  0.0000E+00  0.0000E+00  0.0000E+00  0.0000E+00  0.0000E+00  0.0000E+00  0.0000E+00  0.0000E+00  0.0000E+00  0.0000E+00  0.0000E+00  0.0000E+00  0.0000E+00  0.0000E+00  0.0000E+00  0.0000E+00  0.0000E+00  0.0000E+00  0.0000E+00  0.0000E+00  0.0000E+00  0.0000E+00  0.0000E+00  0.0000E+00  0.0000E+00  0.0000E+00  0.0000E+00  0.0000E+00  0.0000E+00  0.0000E+00  0.0000E+00  0.0000E+00  0.0000E+00  0.0000E+00  0.0000E+00  0.0000E+00  0.0000E+00  0.0000E+00  0.0000E+00  0.0000E+00  0.0000E+00  0.0000E+00  0.0000E+00  0.0000E+00  0.0000E+00  0.0000E+00  0.0000E+00  0.0000E+00  0.0000E+00  0.0000E+00  0.0000E+00  0.0000E+00  0.0000E+00  0.0000E+00  0.0000E+00  0.0000E+00  0.0000E+00  0.0000E+00  0.0000E+00  0.0000E+00  0.0000E+00  0.0000E+00  0.0000E+00  0.0000E+00  0.0000E+00  0.0000E+00  0.0000E+00  0.4217E-10  0.8620E-10  0.1740E-09
  0.0000E+00  0.0000E+00  0.0000E+00  0.0000E+00  0.0000E+00  0.0000E+00  0.0000E+00  0.0000E+00  0.0000E+00  0.0000E+00  0.0000E+00  0.0000E+00  0.0000E+00  0.0000E+00  0.0000E+00  0.0000E+00  0.0000E+00  0.0000E+00  0.0000E+00  0.0000E+00  0.0000E+00  0.0000E+00  0.0000E+00  0.0000E+00  0.0000E+00  0.0000E+00  0.0000E+00  0.0000E+00  0.0000E+00  0.0000E+00  0.0000E+00  0.0000E+00  0.0000E+00  0.0000E+00  0.0000E+00  0.0000E+00  0.0000E+00  0.0000E+00  0.0000E+00  0.0000E+00  0.0000E+00  0.0000E+00  0.0000E+00  0.0000E+00  0.0000E+00  0.0000E+00  0.0000E+00  0.0000E+00  0.0000E+00  0.0000E+00  0.0000E+00  0.0000E+00  0.0000E+00  0.0000E+00  0.0000E+00  0.0000E+00  0.0000E+00  0.0000E+00  0.0000E+00  0.0000E+00  0.0000E+00  0.0000E+00  0.0000E+00  0.0000E+00  0.0000E+00  0.0000E+00  0.0000E+00  0.0000E+00  0.0000E+00  0.0000E+00  0.0000E+00  0.0000E+00  0.4741E-10  0.1450E-09  0.1988E-09  0.3028E-09  0.4086E-09  0.4683E-09  0.5284E-09
  0.0000E+00  0.0000E+00  0.0000E+00  0.0000E+00  0.0000E+00  0.0000E+00  0.0000E+00  0.0000E+00  0.0000E+00  0.0000E+00  0.0000E+00  0.0000E+00  0.0000E+00  0.0000E+00  0.0000E+00  0.0000E+00  0.0000E+00  0.0000E+00  0.0000E+00  0.0000E+00  0.0000E+00  0.0000E+00  0.0000E+00  0.0000E+00  0.0000E+00  0.0000E+00  0.0000E+00  0.0000E+00  0.0000E+00  0.0000E+00  0.0000E+00  0.0000E+00  0.0000E+00  0.0000E+00  0.0000E+00  0.0000E+00  0.0000E+00  0.0000E+00  0.0000E+00  0.0000E+00  0.0000E+00  0.0000E+00  0.0000E+00  0.0000E+00  0.0000E+00  0.0000E+00  0.0000E+00  0.0000E+00  0.0000E+00  0.0000E+00  0.0000E+00  0.0000E+00  0.0000E+00  0.0000E+00  0.0000E+00  0.0000E+00  0.0000E+00  0.0000E+00  0.0000E+00  0.0000E+00  0.0000E+00  0.0000E+00  0.0000E+00  0.0000E+00  0.0000E+00  0.0000E+00  0.0000E+00  0.0000E+00  0.0000E+00  0.1076E-09  0.2218E-09  0.3415E-09  0.4657E-09  0.5932E-09  0.6691E-09  0.8000E-09  0.8769E-09  0.1008E-08  0.1136E-08
  0.0000E+00  0.0000E+00  0.0000E+00  0.0000E+00  0.0000E+00  0.0000E+00  0.0000E+00  0.0000E+00  0.0000E+00  0.0000E+00  0.0000E+00  0.0000E+00  0.0000E+00  0.0000E+00  0.0000E+00  0.0000E+00  0.0000E+00  0.0000E+00  0.0000E+00  0.0000E+00  0.0000E+00  0.0000E+00  0.0000E+00  0.0000E+00  0.0000E+00  0.0000E+00  0.0000E+00  0.0000E+00  0.0000E+00  0.0000E+00  0.0000E+00  0.0000E+00  0.0000E+00  0.0000E+00  0.0000E+00  0.0000E+00  0.0000E+00  0.0000E+00  0.0000E+00  0.0000E+00  0.0000E+00  0.0000E+00  0.0000E+00  0.0000E+00  0.0000E+00  0.0000E+00  0.0000E+00  0.0000E+00  0.0000E+00  0.0000E+00  0.0000E+00  0.0000E+00  0.0000E+00  0.0000E+00  0.0000E+00  0.0000E+00  0.0000E+00  0.0000E+00  0.0000E+00  0.0000E+00  0.0000E+00  0.0000E+00  0.0000E+00  0.0000E+00  0.0000E+00  0.5839E-10  0.1818E-09  0.3149E-09  0.4563E-09  0.6050E-09  0.7593E-09  0.9179E-09  0.1079E-08  0.1180E-08  0.1342E-08  0.1503E-08  0.1600E-08  0.1693E-08  0.1843E-08
  0.0000E+00  0.0000E+00  0.0000E+00  0.0000E+00  0.0000E+00  0.0000E+00  0.0000E+00  0.0000E+00  0.0000E+00  0.0000E+00  0.0000E+00  0.0000E+00  0.0000E+00  0.0000E+00  0.0000E+00  0.0000E+00  0.0000E+00  0.0000E+00  0.0000E+00  0.0000E+00  0.0000E+00  0.0000E+00  0.0000E+00  0.0000E+00  0.0000E+00  0.0000E+00  0.0000E+00  0.0000E+00  0.0000E+00  0.0000E+00  0.0000E+00  0.0000E+00  0.0000E+00  0.0000E+00  0.0000E+00  0.0000E+00  0.0000E+00  0.0000E+00  0.0000E+00  0.0000E+00  0.0000E+00  0.0000E+00  0.0000E+00  0.0000E+00  0.0000E+00  0.0000E+00  0.0000E+00  0.0000E+00  0.0000E+00  0.0000E+00  0.0000E+00  0.0000E+00  0.0000E+00  0.0000E+00  0.0000E+00  0.0000E+00  0.0000E+00  0.0000E+00  0.0000E+00  0.0000E+00  0.0000E+00  0.0000E+00  0.6452E-10  0.2659E-09  0.4201E-09  0.5868E-09  0.7645E-09  0.9518E-09  0.1147E-08  0.1347E-08  0.1551E-08  0.1757E-08  0.1962E-08  0.2093E-08  0.2218E-08  0.2765E-08  0.2816E-08  0.2855E-08  0.3095E-08
  0.0000E+00  0.0000E+00  0.0000E+00  0.0000E+00  0.0000E+00  0.0000E+00  0.0000E+00  0.0000E+00  0.0000E+00  0.0000E+00  0.0000E+00  0.0000E+00  0.0000E+00  0.0000E+00  0.0000E+00  0.0000E+00  0.0000E+00  0.0000E+00  0.0000E+00  0.0000E+00  0.0000E+00  0.0000E+00  0.0000E+00  0.0000E+00  0.0000E+00  0.0000E+00  0.0000E+00  0.0000E+00  0.0000E+00  0.0000E+00  0.0000E+00  0.0000E+00  0.0000E+00  0.0000E+00  0.0000E+00  0.0000E+00  0.0000E+00  0.0000E+00  0.0000E+00  0.0000E+00  0.0000E+00  0.0000E+00  0.0000E+00  0.0000E+00  0.0000E+00  0.0000E+00  0.0000E+00  0.0000E+00  0.0000E+00  0.0000E+00  0.0000E+00  0.0000E+00  0.0000E+00  0.0000E+00  0.0000E+00  0.0000E+00  0.0000E+00  0.0000E+00  0.0000E+00  0.6927E-10  0.2205E-09  0.4618E-09  0.6535E-09  0.8620E-09  0.1164E-08  0.1403E-08  0.1652E-08  0.1989E-08  0.2171E-08  0.2435E-08  0.2901E-08  0.3294E-08  0.3391E-08  0.3724E-08  0.4053E-08  0.4117E-08  0.4163E-08  0.4411E-08  0.4650E-08
  0.0000E+00  0.0000E+00  0.0000E+00  0.0000E+00  0.0000E+00  0.0000E+00  0.0000E+00  0.0000E+00  0.0000E+00  0.0000E+00  0.0000E+00  0.0000E+00  0.0000E+00  0.0000E+00  0.0000E+00  0.0000E+00  0.0000E+00  0.0000E+00  0.0000E+00  0.0000E+00  0.0000E+00  0.0000E+00  0.0000E+00  0.0000E+00  0.0000E+00  0.0000E+00  0.0000E+00  0.0000E+00  0.0000E+00  0.0000E+00  0.0000E+00  0.0000E+00  0.0000E+00  0.0000E+00  0.0000E+00  0.0000E+00  0.0000E+00  0.0000E+00  0.0000E+00  0.0000E+00  0.0000E+00  0.0000E+00  0.0000E+00  0.0000E+00  0.0000E+00  0.0000E+00  0.0000E+00  0.0000E+00  0.0000E+00  0.0000E+00  0.0000E+00  0.0000E+00  0.0000E+00  0.0000E+00  0.0000E+00  0.0000E+00  0.0000E+00  0.2315E-09  0.4173E-09  0.7070E-09  0.9465E-09  0.1296E-08  0.1582E-08  0.1975E-08  0.2298E-08  0.2632E-08  0.2973E-08  0.3797E-08  0.3973E-08  0.4420E-08  0.4868E-08  0.5003E-08  0.5369E-08  0.5724E-08  0.5798E-08  0.5845E-08  0.6316E-08  0.6327E-08  0.6316E-08
  0.0000E+00  0.0000E+00  0.0000E+00  0.0000E+00  0.0000E+00  0.0000E+00  0.0000E+00  0.5399E-09  0.1326E-08  0.1981E-08  0.2695E-08  0.3726E-08  0.4599E-08  0.5556E-08  0.6022E-08  0.6117E-08  0.6197E-08  0.6262E-08  0.6310E-08  0.6341E-08  0.6414E-08  0.6412E-08  0.6392E-08  0.6354E-08  0.6300E-08  0.6228E-08  0.6141E-08  0.5628E-08  0.4774E-08  0.3855E-08  0.2867E-08  0.1804E-08  0.6608E-09  0.0000E+00  0.0000E+00  0.0000E+00  0.0000E+00  0.0000E+00  0.0000E+00  0.0000E+00  0.0000E+00  0.0000E+00  0.0000E+00  0.1564E-09  0.1619E-09  0.3306E-09  0.3387E-09  0.5143E-09  0.5211E-09  0.5247E-09  0.5249E-09  0.5218E-09  0.5155E-09  0.5060E-09  0.3286E-09  0.3460E-09  0.6559E-09  0.9178E-09  0.1303E-08  0.1732E-08  0.2097E-08  0.2589E-08  0.3007E-08  0.3812E-08  0.4450E-08  0.4715E-08  0.5647E-08  0.5903E-08  0.6424E-08  0.6932E-08  0.7105E-08  0.7504E-08  0.7880E-08  0.7956E-08  0.7995E-08  0.8462E-08  0.8449E-08  0.8407E-08  0.8339E-08
  0.0000E+00  0.0000E+00  0.5448E-09  0.1142E-08  0.1797E-08  0.2515E-08  0.3304E-08  0.4170E-08  0.5123E-08  0.6173E-08  0.6411E-08  0.6582E-08  0.6741E-08  0.6944E-08  0.7075E-08  0.7189E-08  0.7285E-08  0.7362E-08  0.7420E-08  0.7523E-08  0.7542E-08  0.7540E-08  0.7518E-08  0.7475E-08  0.7411E-08  0.7328E-08  0.7226E-08  0.7105E-08  0.6967E-08  0.6750E-08  0.6582E-08  0.6400E-08  0.6032E-08  0.4918E-08  0.3659E-08  0.2364E-08  0.9590E-09  0.0000E+00  0.0000E+00  0.1608E-09  0.3360E-09  0.5251E-09  0.6418E-09  0.7624E-09  0.9826E-09  0.1019E-08  0.1250E-08  0.1385E-08  0.1721E-08  0.1746E-08  0.1760E-08  0.1975E-08  0.1965E-08  0.1939E-08  0.1825E-08  0.1784E-08  0.1722E-08  0.2244E-08  0.2710E-08  0.3325E-08  0.3869E-08  0.5065E-08  0.5458E-08  0.6627E-08  0.7023E-08  0.8085E-08  0.8434E-08  0.9037E-08  0.9609E-08  0.9819E-08  0.1025E-07  0.1063E-07  0.1070E-07  0.1072E-07  0.1116E-07  0.1111E-07  0.1102E-07  0.1089E-07  0.1074E-07
  0.1590E-08  0.2299E-08  0.2846E-08  0.3690E-08  0.4619E-08  0.5358E-08  0.6468E-08  0.6769E-08  0.7005E-08  0.7232E-08  0.7507E-08  0.7711E-08  0.7899E-08  0.8134E-08  0.8290E-08  0.8425E-08  0.8540E-08  0.8700E-08  0.8772E-08  0.8821E-08  0.8845E-08  0.8845E-08  0.8820E-08  0.8771E-08  0.8697E-08  0.8601E-08  0.8482E-08  0.8340E-08  0.8179E-08  0.7997E-08  0.7798E-08  0.7517E-08  0.7289E-08  0.7048E-08  0.6796E-08  0.6473E-08  0.5839E-08  0.4816E-08  0.3450E-08  0.2291E-08  0.1005E-08  0.1170E-08  0.1341E-08  0.1836E-08  0.2145E-08  0.2358E-08  0.2569E-08  0.2898E-08  0.2982E-08  0.3303E-08  0.3353E-08  0.4285E-08  0.4303E-08  0.4317E-08  0.4390E-08  0.4530E-08  0.4749E-08  0.4189E-08  0.5542E-08  0.6104E-08  0.7535E-08  0.8133E-08  0.9503E-08  0.1006E-07  0.1127E-07  0.1173E-07  0.1242E-07  0.1306E-07  0.1330E-07  0.1375E-07  0.1413E-07  0.1417E-07  0.1415E-07  0.1455E-07  0.1443E-07  0.1426E-07  0.1406E-07  0.1381E-07  0.1396E-07
  0.3502E-08  0.4434E-08  0.5184E-08  0.6302E-08  0.6957E-08  0.7257E-08  0.7551E-08  0.7898E-08  0.8177E-08  0.8444E-08  0.8763E-08  0.9004E-08  0.9226E-08  0.9499E-08  0.9683E-08  0.9845E-08  0.9982E-08  0.1017E-07  0.1025E-07  0.1031E-07  0.1034E-07  0.1034E-07  0.1032E-07  0.1026E-07  0.1018E-07  0.1007E-07  0.9927E-08  0.9763E-08  0.9574E-08  0.9362E-08  0.9129E-08  0.8876E-08  0.8535E-08  0.8331E-08  0.8208E-08  0.8097E-08  0.7938E-08  0.7866E-08  0.7718E-08  0.7280E-08  0.6173E-08  0.4912E-08  0.3327E-08  0.2959E-08  0.3387E-08  0.3702E-08  0.4817E-08  0.5048E-08  0.5246E-08  0.6314E-08  0.6469E-08  0.6569E-08  0.6647E-08  0.6774E-08  0.6964E-08  0.7229E-08  0.7592E-08  0.7735E-08  0.9048E-08  0.1078E-07  0.1163E-07  0.1325E-07  0.1400E-07  0.1539E-07  0.1597E-07  0.1676E-07  0.1746E-07  0.1772E-07  0.1817E-07  0.1853E-07  0.1852E-07  0.1842E-07  0.1876E-07  0.1854E-07  0.1826E-07  0.1794E-07  0.1779E-07  0.1761E-07  0.1719E-07
  0.5717E-08  0.6610E-08  0.7322E-08  0.7678E-08  0.8090E-08  0.8442E-08  0.8787E-08  0.9188E-08  0.9516E-08  0.9898E-08  0.1020E-07  0.1048E-07  0.1082E-07  0.1106E-07  0.1128E-07  0.1147E-07  0.1171E-07  0.1185E-07  0.1195E-07  0.1203E-07  0.1206E-07  0.1207E-07  0.1212E-07  0.1206E-07  0.1196E-07  0.1184E-07  0.1167E-07  0.1148E-07  0.1118E-07  0.1093E-07  0.1066E-07  0.1044E-07  0.1030E-07  0.1009E-07  0.9978E-08  0.9881E-08  0.9808E-08  0.9693E-08  0.9787E-08  0.9750E-08  0.9822E-08  0.9872E-08  0.9133E-08  0.8558E-08  0.6776E-08  0.6836E-08  0.7259E-08  0.7641E-08  0.8908E-08  0.9226E-08  0.9466E-08  0.9663E-08  0.9892E-08  0.1017E-07  0.1052E-07  0.1096E-07  0.1166E-07  0.1288E-07  0.1498E-07  0.1617E-07  0.1808E-07  0.1906E-07  0.2065E-07  0.2137E-07  0.2226E-07  0.2301E-07  0.2329E-07  0.2371E-07  0.2403E-07  0.2393E-07  0.2372E-07  0.2395E-07  0.2359E-07  0.2316E-07  0.2268E-07  0.2259E-07  0.2203E-07  0.2145E-07  0.2084E-07
  0.7607E-08  0.8017E-08  0.8490E-08  0.8905E-08  0.9381E-08  0.9793E-08  0.1020E-07  0.1066E-07  0.1105E-07  0.1149E-07  0.1184E-07  0.1218E-07  0.1256E-07  0.1285E-07  0.1311E-07  0.1334E-07  0.1362E-07  0.1378E-07  0.1391E-07  0.1399E-07  0.1404E-07  0.1414E-07  0.1411E-07  0.1404E-07  0.1393E-07  0.1378E-07  0.1360E-07  0.1337E-07  0.1312E-07  0.1283E-07  0.1259E-07  0.1253E-07  0.1239E-07  0.1227E-07  0.1209E-07  0.1202E-07  0.1208E-07  0.1202E-07  0.1207E-07  0.1218E-07  0.1227E-07  0.1318E-07  0.1412E-07  0.1432E-07  0.1506E-07  0.1378E-07  0.1205E-07  0.1207E-07  0.1263E-07  0.1309E-07  0.1348E-07  0.1388E-07  0.1432E-07  0.1481E-07  0.1536E-07  0.1620E-07  0.1781E-07  0.2038E-07  0.2197E-07  0.2424E-07  0.2551E-07  0.2733E-07  0.2820E-07  0.2919E-07  0.2998E-07  0.3024E-07  0.3061E-07  0.3084E-07  0.3061E-07  0.3025E-07  0.3032E-07  0.2976E-07  0.2913E-07  0.2844E-07  0.2814E-07  0.2737E-07  0.2656E-07  0.2574E-07  0.2491E-07
  0.8790E-08  0.9268E-08  0.9811E-08  0.1030E-07  0.1078E-07  0.1132E-07  0.1180E-07  0.1233E-07  0.1278E-07  0.1329E-07  0.1371E-07  0.1410E-07  0.1455E-07  0.1489E-07  0.1519E-07  0.1555E-07  0.1579E-07  0.1598E-07  0.1613E-07  0.1624E-07  0.1640E-07  0.1642E-07  0.1639E-07  0.1631E-07  0.1618E-07  0.1601E-07  0.1580E-07  0.1554E-07  0.1540E-07  0.1526E-07  0.1511E-07  0.1487E-07  0.1475E-07  0.1464E-07  0.1477E-07  0.1466E-07  0.1469E-07  0.1477E-07  0.1484E-07  0.1572E-07  0.1670E-07  0.1745E-07  0.1825E-07  0.1965E-07  0.2012E-07  0.2064E-07  0.2187E-07  0.2059E-07  0.1846E-07  0.1819E-07  0.1886E-07  0.1955E-07  0.2026E-07  0.2100E-07  0.2202E-07  0.2403E-07  0.2673E-07  0.2928E-07  0.3199E-07  0.3359E-07  0.3568E-07  0.3671E-07  0.3779E-07  0.3862E-07  0.3882E-07  0.3911E-07  0.3919E-07  0.3878E-07  0.3821E-07  0.3805E-07  0.3724E-07  0.3634E-07  0.3537E-07  0.3481E-07  0.3375E-07  0.3267E-07  0.3158E-07  0.3048E-07  0.2938E-07
  0.1007E-07  0.1068E-07  0.1124E-07  0.1187E-07  0.1243E-07  0.1306E-07  0.1361E-07  0.1423E-07  0.1475E-07  0.1534E-07  0.1583E-07  0.1629E-07  0.1681E-07  0.1721E-07  0.1757E-07  0.1803E-07  0.1836E-07  0.1859E-07  0.1878E-07  0.1911E-07  0.1920E-07  0.1922E-07  0.1909E-07  0.1900E-07  0.1886E-07  0.1857E-07  0.1832E-07  0.1820E-07  0.1814E-07  0.1799E-07  0.1785E-07  0.1772E-07  0.1771E-07  0.1754E-07  0.1751E-07  0.1766E-07  0.1767E-07  0.1816E-07  0.1952E-07  0.2032E-07  0.2120E-07  0.2281E-07  0.2443E-07  0.2531E-07  0.2612E-07  0.2797E-07  0.2874E-07  0.2941E-07  0.2969E-07  0.2832E-07  0.2602E-07  0.2706E-07  0.2810E-07  0.2937E-07  0.3182E-07  0.3521E-07  0.3839E-07  0.4162E-07  0.4362E-07  0.4602E-07  0.4723E-07  0.4840E-07  0.4923E-07  0.4935E-07  0.4949E-07  0.4938E-07  0.4871E-07  0.4785E-07  0.4739E-07  0.4625E-07  0.4501E-07  0.4368E-07  0.4277E-07  0.4136E-07  0.3993E-07  0.3849E-07  0.3706E-07  0.3564E-07  0.3400E-07
  0.1157E-07  0.1227E-07  0.1292E-07  0.1364E-07  0.1429E-07  0.1502E-07  0.1565E-07  0.1636E-07  0.1698E-07  0.1757E-07  0.1832E-07  0.1897E-07  0.1968E-07  0.2021E-07  0.2070E-07  0.2126E-07  0.2166E-07  0.2200E-07  0.2240E-07  0.2257E-07  0.2268E-07  0.2272E-07  0.2268E-07  0.2258E-07  0.2254E-07  0.2227E-07  0.2215E-07  0.2198E-07  0.2161E-07  0.2126E-07  0.2103E-07  0.2103E-07  0.2095E-07  0.2103E-07  0.2096E-07  0.2108E-07  0.2193E-07  0.2298E-07  0.2441E-07  0.2601E-07  0.2792E-07  0.2944E-07  0.3123E-07  0.3247E-07  0.3481E-07  0.3615E-07  0.3738E-07  0.3850E-07  0.3956E-07  0.4055E-07  0.4090E-07  0.3913E-07  0.3870E-07  0.4167E-07  0.4587E-07  0.4981E-07  0.5322E-07  0.5614E-07  0.5846E-07  0.6029E-07  0.6153E-07  0.6233E-07  0.6229E-07  0.6219E-07  0.6181E-07  0.6080E-07  0.5956E-07  0.5871E-07  0.5712E-07  0.5541E-07  0.5363E-07  0.5229E-07  0.5044E-07  0.4853E-07  0.4664E-07  0.4478E-07  0.4316E-07  0.4093E-07  0.3896E-07
  0.1325E-07  0.1406E-07  0.1481E-07  0.1563E-07  0.1639E-07  0.1722E-07  0.1801E-07  0.1887E-07  0.1980E-07  0.2056E-07  0.2144E-07  0.2216E-07  0.2300E-07  0.2364E-07  0.2424E-07  0.2490E-07  0.2539E-07  0.2582E-07  0.2630E-07  0.2659E-07  0.2673E-07  0.2686E-07  0.2683E-07  0.2759E-07  0.2757E-07  0.2743E-07  0.2723E-07  0.2694E-07  0.2676E-07  0.2645E-07  0.2551E-07  0.2523E-07  0.2502E-07  0.2479E-07  0.2473E-07  0.2613E-07  0.2795E-07  0.2954E-07  0.3161E-07  0.3382E-07  0.3547E-07  0.3811E-07  0.4007E-07  0.4293E-07  0.4494E-07  0.4678E-07  0.4852E-07  0.5025E-07  0.5292E-07  0.5446E-07  0.5544E-07  0.5652E-07  0.5778E-07  0.5880E-07  0.6366E-07  0.6783E-07  0.7132E-07  0.7404E-07  0.7608E-07  0.7737E-07  0.7807E-07  0.7786E-07  0.7751E-07  0.7676E-07  0.7532E-07  0.7359E-07  0.7219E-07  0.7008E-07  0.6783E-07  0.6550E-07  0.6357E-07  0.6114E-07  0.5869E-07  0.5626E-07  0.5386E-07  0.5172E-07  0.4926E-07  0.4683E-07  0.4416E-07
  0.1514E-07  0.1599E-07  0.1692E-07  0.1779E-07  0.1884E-07  0.1986E-07  0.2093E-07  0.2191E-07  0.2292E-07  0.2388E-07  0.2493E-07  0.2578E-07  0.2678E-07  0.2756E-07  0.2835E-07  0.2916E-07  0.2976E-07  0.3030E-07  0.3165E-07  0.3236E-07  0.3296E-07  0.3312E-07  0.3315E-07  0.3412E-07  0.3413E-07  0.3405E-07  0.3390E-07  0.3369E-07  0.3187E-07  0.3170E-07  0.3135E-07  0.3106E-07  0.3083E-07  0.3064E-07  0.3176E-07  0.3279E-07  0.3524E-07  0.3810E-07  0.4017E-07  0.4279E-07  0.4602E-07  0.4859E-07  0.5221E-07  0.5491E-07  0.5760E-07  0.6016E-07  0.6370E-07  0.6628E-07  0.6861E-07  0.7082E-07  0.7304E-07  0.7604E-07  0.8037E-07  0.8625E-07  0.8630E-07  0.8954E-07  0.9268E-07  0.9498E-07  0.9592E-07  0.9696E-07  0.9649E-07  0.9577E-07  0.9457E-07  0.9251E-07  0.9017E-07  0.8820E-07  0.8539E-07  0.8240E-07  0.7933E-07  0.7673E-07  0.7360E-07  0.7049E-07  0.6745E-07  0.6444E-07  0.6174E-07  0.5869E-07  0.5567E-07  0.5246E-07  0.4998E-07
  0.1724E-07  0.1822E-07  0.1939E-07  0.2060E-07  0.2182E-07  0.2291E-07  0.2415E-07  0.2530E-07  0.2655E-07  0.2763E-07  0.2886E-07  0.2995E-07  0.3114E-07  0.3209E-07  0.3298E-07  0.3537E-07  0.3616E-07  0.3774E-07  0.3876E-07  0.3965E-07  0.4006E-07  0.4031E-07  0.4058E-07  0.4072E-07  0.4075E-07  0.4067E-07  0.4050E-07  0.4025E-07  0.3946E-07  0.3916E-07  0.3887E-07  0.3859E-07  0.3803E-07  0.3913E-07  0.3997E-07  0.4251E-07  0.4516E-07  0.4821E-07  0.5116E-07  0.5537E-07  0.5847E-07  0.6295E-07  0.6647E-07  0.7002E-07  0.7364E-07  0.7826E-07  0.8176E-07  0.8520E-07  0.8833E-07  0.9134E-07  0.9574E-07  0.1009E-06  0.1074E-06  0.1129E-06  0.1173E-06  0.1183E-06  0.1174E-06  0.1185E-06  0.1195E-06  0.1187E-06  0.1175E-06  0.1157E-06  0.1130E-06  0.1102E-06  0.1070E-06  0.1032E-06  0.9938E-07  0.9547E-07  0.9206E-07  0.8812E-07  0.8423E-07  0.8040E-07  0.7666E-07  0.7324E-07  0.6951E-07  0.6586E-07  0.6234E-07  0.5893E-07  0.5531E-07
  0.1961E-07  0.2102E-07  0.2237E-07  0.2362E-07  0.2502E-07  0.2636E-07  0.2781E-07  0.2916E-07  0.3063E-07  0.3191E-07  0.3337E-07  0.3468E-07  0.3737E-07  0.3860E-07  0.4138E-07  0.4259E-07  0.4369E-07  0.4598E-07  0.4726E-07  0.4803E-07  0.4861E-07  0.4916E-07  0.4954E-07  0.4976E-07  0.4982E-07  0.4973E-07  0.4950E-07  0.4865E-07  0.4828E-07  0.4786E-07  0.4743E-07  0.4706E-07  0.4637E-07  0.4903E-07  0.5159E-07  0.5479E-07  0.5808E-07  0.6145E-07  0.6571E-07  0.7010E-07  0.7453E-07  0.7917E-07  0.8381E-07  0.8918E-07  0.9454E-07  0.9935E-07  0.1041E-06  0.1085E-06  0.1127E-06  0.1180E-06  0.1249E-06  0.1323E-06  0.1393E-06  0.1448E-06  0.1487E-06  0.1512E-06  0.1517E-06  0.1469E-06  0.1458E-06  0.1441E-06  0.1416E-06  0.1380E-06  0.1343E-06  0.1301E-06  0.1250E-06  0.1198E-06  0.1150E-06  0.1101E-06  0.1050E-06  0.1001E-06  0.9536E-07  0.9076E-07  0.8652E-07  0.8200E-07  0.7759E-07  0.7336E-07  0.6925E-07  0.6492E-07  0.6156E-07
  0.2250E-07  0.2401E-07  0.2547E-07  0.2706E-07  0.2859E-07  0.3026E-07  0.3183E-07  0.3354E-07  0.3506E-07  0.3679E-07  0.3896E-07  0.4175E-07  0.4464E-07  0.4666E-07  0.4962E-07  0.5124E-07  0.5273E-07  0.5583E-07  0.5708E-07  0.5811E-07  0.5906E-07  0.5980E-07  0.6032E-07  0.6061E-07  0.6069E-07  0.6057E-07  0.6036E-07  0.5919E-07  0.5867E-07  0.5818E-07  0.5763E-07  0.5700E-07  0.5911E-07  0.6213E-07  0.6548E-07  0.6809E-07  0.7274E-07  0.7749E-07  0.8306E-07  0.8777E-07  0.9390E-07  0.9977E-07  0.1061E-06  0.1126E-06  0.1189E-06  0.1251E-06  0.1312E-06  0.1369E-06  0.1441E-06  0.1528E-06  0.1619E-06  0.1699E-06  0.1769E-06  0.1816E-06  0.1843E-06  0.1849E-06  0.1849E-06  0.1827E-06  0.1745E-06  0.1712E-06  0.1667E-06  0.1620E-06  0.1567E-06  0.1505E-06  0.1443E-06  0.1382E-06  0.1320E-06  0.1258E-06  0.1195E-06  0.1134E-06  0.1074E-06  0.1018E-06  0.9615E-07  0.9086E-07  0.8584E-07  0.8095E-07  0.7630E-07  0.7184E-07  0.6711E-07
  0.2561E-07  0.2725E-07  0.2904E-07  0.3087E-07  0.3265E-07  0.3458E-07  0.3642E-07  0.3842E-07  0.4088E-07  0.4433E-07  0.4726E-07  0.5014E-07  0.5331E-07  0.5627E-07  0.5950E-07  0.6164E-07  0.6537E-07  0.6725E-07  0.6889E-07  0.7033E-07  0.7157E-07  0.7253E-07  0.7327E-07  0.7364E-07  0.7373E-07  0.7354E-07  0.7236E-07  0.7176E-07  0.7103E-07  0.7028E-07  0.6914E-07  0.7140E-07  0.7433E-07  0.7820E-07  0.8132E-07  0.8588E-07  0.9159E-07  0.9772E-07  0.1032E-06  0.1103E-06  0.1173E-06  0.1250E-06  0.1330E-06  0.1411E-06  0.1484E-06  0.1570E-06  0.1657E-06  0.1746E-06  0.1846E-06  0.1950E-06  0.2046E-06  0.2130E-06  0.2180E-06  0.2218E-06  0.2224E-06  0.2221E-06  0.2194E-06  0.2157E-06  0.2108E-06  0.1993E-06  0.1935E-06  0.1869E-06  0.1794E-06  0.1719E-06  0.1648E-06  0.1570E-06  0.1493E-06  0.1417E-06  0.1345E-06  0.1279E-06  0.1209E-06  0.1139E-06  0.1071E-06  0.1006E-06  0.9433E-07  0.8869E-07  0.8340E-07  0.7791E-07  0.7313E-07
  0.2899E-07  0.3098E-07  0.3302E-07  0.3503E-07  0.3721E-07  0.3932E-07  0.4188E-07  0.4471E-07  0.4863E-07  0.5247E-07  0.5689E-07  0.6074E-07  0.6444E-07  0.6843E-07  0.7137E-07  0.7454E-07  0.7859E-07  0.8101E-07  0.8313E-07  0.8506E-07  0.8664E-07  0.8785E-07  0.8877E-07  0.8920E-07  0.8926E-07  0.8906E-07  0.8770E-07  0.8691E-07  0.8502E-07  0.8423E-07  0.8643E-07  0.8970E-07  0.9300E-07  0.9716E-07  0.1019E-06  0.1079E-06  0.1135E-06  0.1200E-06  0.1285E-06  0.1367E-06  0.1457E-06  0.1553E-06  0.1652E-06  0.1760E-06  0.1871E-06  0.1964E-06  0.2074E-06  0.2196E-06  0.2319E-06  0.2431E-06  0.2531E-06  0.2591E-06  0.2636E-06  0.2644E-06  0.2639E-06  0.2606E-06  0.2560E-06  0.2501E-06  0.2426E-06  0.2347E-06  0.2207E-06  0.2120E-06  0.2028E-06  0.1942E-06  0.1850E-06  0.1759E-06  0.1667E-06  0.1579E-06  0.1500E-06  0.1417E-06  0.1337E-06  0.1258E-06  0.1185E-06  0.1113E-06  0.1042E-06  0.9739E-07  0.9084E-07  0.8506E-07  0.7923E-07
  0.3284E-07  0.3511E-07  0.3735E-07  0.3978E-07  0.4216E-07  0.4532E-07  0.4942E-07  0.5390E-07  0.5872E-07  0.6348E-07  0.6749E-07  0.7266E-07  0.7688E-07  0.8180E-07  0.8596E-07  0.8994E-07  0.9443E-07  0.9752E-07  0.1004E-06  0.1028E-06  0.1048E-06  0.1063E-06  0.1073E-06  0.1078E-06  0.1079E-06  0.1075E-06  0.1060E-06  0.1041E-06  0.1032E-06  0.1036E-06  0.1073E-06  0.1114E-06  0.1150E-06  0.1205E-06  0.1268E-06  0.1322E-06  0.1397E-06  0.1489E-06  0.1571E-06  0.1684E-06  0.1795E-06  0.1925E-06  0.2054E-06  0.2185E-06  0.2304E-06  0.2435E-06  0.2576E-06  0.2714E-06  0.2851E-06  0.2973E-06  0.3047E-06  0.3100E-06  0.3113E-06  0.3108E-06  0.3069E-06  0.3014E-06  0.2942E-06  0.2854E-06  0.2760E-06  0.2656E-06  0.2545E-06  0.2376E-06  0.2271E-06  0.2163E-06  0.2054E-06  0.1945E-06  0.1842E-06  0.1747E-06  0.1650E-06  0.1556E-06  0.1463E-06  0.1377E-06  0.1295E-06  0.1215E-06  0.1138E-06  0.1066E-06  0.9955E-07  0.9202E-07  0.8545E-07
  0.3704E-07  0.3951E-07  0.4219E-07  0.4498E-07  0.4871E-07  0.5359E-07  0.5859E-07  0.6370E-07  0.6921E-07  0.7545E-07  0.8119E-07  0.8684E-07  0.9287E-07  0.9782E-07  0.1034E-06  0.1080E-06  0.1135E-06  0.1175E-06  0.1211E-06  0.1242E-06  0.1266E-06  0.1285E-06  0.1296E-06  0.1301E-06  0.1301E-06  0.1276E-06  0.1268E-06  0.1259E-06  0.1251E-06  0.1291E-06  0.1322E-06  0.1370E-06  0.1424E-06  0.1480E-06  0.1539E-06  0.1622E-06  0.1719E-06  0.1808E-06  0.1932E-06  0.2073E-06  0.2216E-06  0.2364E-06  0.2518E-06  0.2662E-06  0.2820E-06  0.2980E-06  0.3151E-06  0.3313E-06  0.3453E-06  0.3549E-06  0.3616E-06  0.3633E-06  0.3627E-06  0.3584E-06  0.3521E-06  0.3437E-06  0.3333E-06  0.3221E-06  0.3099E-06  0.2968E-06  0.2834E-06  0.2702E-06  0.2527E-06  0.2386E-06  0.2259E-06  0.2138E-06  0.2025E-06  0.1908E-06  0.1797E-06  0.1689E-06  0.1593E-06  0.1493E-06  0.1402E-06  0.1315E-06  0.1233E-06  0.1154E-06  0.1073E-06  0.1001E-06  0.9316E-07
  0.4154E-07  0.4448E-07  0.4754E-07  0.5196E-07  0.5691E-07  0.6337E-07  0.6955E-07  0.7626E-07  0.8305E-07  0.8918E-07  0.9706E-07  0.1033E-06  0.1107E-06  0.1177E-06  0.1238E-06  0.1296E-06  0.1362E-06  0.1413E-06  0.1457E-06  0.1495E-06  0.1525E-06  0.1546E-06  0.1560E-06  0.1556E-06  0.1556E-06  0.1543E-06  0.1536E-06  0.1528E-06  0.1551E-06  0.1586E-06  0.1635E-06  0.1685E-06  0.1743E-06  0.1799E-06  0.1881E-06  0.1974E-06  0.2073E-06  0.2207E-06  0.2374E-06  0.2520E-06  0.2692E-06  0.2865E-06  0.3053E-06  0.3242E-06  0.3431E-06  0.3624E-06  0.3799E-06  0.3969E-06  0.4096E-06  0.4172E-06  0.4201E-06  0.4196E-06  0.4150E-06  0.4079E-06  0.3984E-06  0.3865E-06  0.3735E-06  0.3593E-06  0.3440E-06  0.3283E-06  0.3129E-06  0.2971E-06  0.2816E-06  0.2621E-06  0.2467E-06  0.2335E-06  0.2204E-06  0.2071E-06  0.1947E-06  0.1828E-06  0.1713E-06  0.1607E-06  0.1507E-06  0.1412E-06  0.1322E-06  0.1231E-06  0.1157E-06  0.1075E-06  0.1003E-06
  0.4660E-07  0.4993E-07  0.5468E-07  0.6038E-07  0.6774E-07  0.7458E-07  0.8209E-07  0.8988E-07  0.9822E-07  0.1070E-06  0.1150E-06  0.1228E-06  0.1323E-06  0.1406E-06  0.1482E-06  0.1554E-06  0.1635E-06  0.1698E-06  0.1753E-06  0.1798E-06  0.1834E-06  0.1848E-06  0.1865E-06  0.1873E-06  0.1865E-06  0.1863E-06  0.1858E-06  0.1838E-06  0.1896E-06  0.1944E-06  0.1997E-06  0.2038E-06  0.2099E-06  0.2177E-06  0.2267E-06  0.2375E-06  0.2532E-06  0.2688E-06  0.2850E-06  0.3037E-06  0.3241E-06  0.3450E-06  0.3671E-06  0.3893E-06  0.4125E-06  0.4337E-06  0.4526E-06  0.4671E-06  0.4778E-06  0.4820E-06  0.4819E-06  0.4768E-06  0.4690E-06  0.4584E-06  0.4448E-06  0.4300E-06  0.4137E-06  0.3962E-06  0.3781E-06  0.3603E-06  0.3421E-06  0.3241E-06  0.3062E-06  0.2885E-06  0.2691E-06  0.2528E-06  0.2379E-06  0.2233E-06  0.2092E-06  0.1963E-06  0.1842E-06  0.1722E-06  0.1613E-06  0.1510E-06  0.1413E-06  0.1321E-06  0.1227E-06  0.1146E-06  0.1069E-06
  0.5211E-07  0.5726E-07  0.6392E-07  0.7140E-07  0.8025E-07  0.8835E-07  0.9745E-07  0.1074E-06  0.1160E-06  0.1269E-06  0.1364E-06  0.1478E-06  0.1580E-06  0.1678E-06  0.1772E-06  0.1862E-06  0.1946E-06  0.2036E-06  0.2089E-06  0.2145E-06  0.2188E-06  0.2220E-06  0.2243E-06  0.2254E-06  0.2252E-06  0.2251E-06  0.2233E-06  0.2256E-06  0.2320E-06  0.2366E-06  0.2403E-06  0.2459E-06  0.2531E-06  0.2612E-06  0.2740E-06  0.2873E-06  0.3026E-06  0.3207E-06  0.3408E-06  0.3632E-06  0.3868E-06  0.4120E-06  0.4377E-06  0.4644E-06  0.4890E-06  0.5119E-06  0.5292E-06  0.5424E-06  0.5476E-06  0.5491E-06  0.5447E-06  0.5354E-06  0.5237E-06  0.5087E-06  0.4919E-06  0.4734E-06  0.4535E-06  0.4328E-06  0.4124E-06  0.3917E-06  0.3711E-06  0.3509E-06  0.3310E-06  0.3126E-06  0.2930E-06  0.2725E-06  0.2549E-06  0.2393E-06  0.2241E-06  0.2099E-06  0.1959E-06  0.1835E-06  0.1717E-06  0.1606E-06  0.1501E-06  0.1395E-06  0.1302E-06  0.1214E-06  0.1124E-06
  0.6188E-07  0.6928E-07  0.7770E-07  0.8718E-07  0.9658E-07  0.1067E-06  0.1173E-06  0.1289E-06  0.1399E-06  0.1523E-06  0.1640E-06  0.1776E-06  0.1892E-06  0.2008E-06  0.2121E-06  0.2230E-06  0.2332E-06  0.2425E-06  0.2506E-06  0.2573E-06  0.2626E-06  0.2665E-06  0.2692E-06  0.2701E-06  0.2709E-06  0.2695E-06  0.2684E-06  0.2759E-06  0.2811E-06  0.2841E-06  0.2896E-06  0.2956E-06  0.3031E-06  0.3142E-06  0.3265E-06  0.3419E-06  0.3599E-06  0.3815E-06  0.4047E-06  0.4305E-06  0.4576E-06  0.4878E-06  0.5181E-06  0.5465E-06  0.5731E-06  0.5941E-06  0.6099E-06  0.6179E-06  0.6208E-06  0.6160E-06  0.6076E-06  0.5939E-06  0.5775E-06  0.5590E-06  0.5383E-06  0.5159E-06  0.4927E-06  0.4695E-06  0.4459E-06  0.4226E-06  0.3997E-06  0.3780E-06  0.3561E-06  0.3354E-06  0.3152E-06  0.2935E-06  0.2726E-06  0.2552E-06  0.2387E-06  0.2224E-06  0.2085E-06  0.1945E-06  0.1820E-06  0.1701E-06  0.1582E-06  0.1476E-06  0.1377E-06  0.1284E-06  0.1197E-06
  0.7469E-07  0.8471E-07  0.9480E-07  0.1047E-06  0.1172E-06  0.1290E-06  0.1412E-06  0.1553E-06  0.1699E-06  0.1837E-06  0.1981E-06  0.2142E-06  0.2287E-06  0.2425E-06  0.2560E-06  0.2687E-06  0.2803E-06  0.2906E-06  0.2998E-06  0.3078E-06  0.3143E-06  0.3193E-06  0.3228E-06  0.3228E-06  0.3241E-06  0.3243E-06  0.3231E-06  0.3327E-06  0.3360E-06  0.3399E-06  0.3449E-06  0.3508E-06  0.3602E-06  0.3715E-06  0.3860E-06  0.4036E-06  0.4242E-06  0.4494E-06  0.4768E-06  0.5064E-06  0.5398E-06  0.5729E-06  0.6061E-06  0.6367E-06  0.6617E-06  0.6812E-06  0.6920E-06  0.6961E-06  0.6928E-06  0.6844E-06  0.6700E-06  0.6523E-06  0.6316E-06  0.6083E-06  0.5834E-06  0.5580E-06  0.5322E-06  0.5056E-06  0.4793E-06  0.4534E-06  0.4290E-06  0.4043E-06  0.3808E-06  0.3578E-06  0.3356E-06  0.3144E-06  0.2925E-06  0.2708E-06  0.2528E-06  0.2363E-06  0.2203E-06  0.2056E-06  0.1921E-06  0.1795E-06  0.1675E-06  0.1555E-06  0.1450E-06  0.1351E-06  0.1250E-06
  0.9025E-07  0.1017E-06  0.1139E-06  0.1261E-06  0.1396E-06  0.1543E-06  0.1701E-06  0.1861E-06  0.2033E-06  0.2205E-06  0.2397E-06  0.2572E-06  0.2747E-06  0.2918E-06  0.3082E-06  0.3237E-06  0.3376E-06  0.3499E-06  0.3603E-06  0.3688E-06  0.3759E-06  0.3816E-06  0.3849E-06  0.3876E-06  0.3886E-06  0.3876E-06  0.3939E-06  0.3984E-06  0.4017E-06  0.4038E-06  0.4084E-06  0.4157E-06  0.4242E-06  0.4379E-06  0.4537E-06  0.4730E-06  0.4979E-06  0.5261E-06  0.5575E-06  0.5938E-06  0.6305E-06  0.6677E-06  0.7014E-06  0.7316E-06  0.7551E-06  0.7692E-06  0.7756E-06  0.7736E-06  0.7656E-06  0.7511E-06  0.7319E-06  0.7095E-06  0.6847E-06  0.6566E-06  0.6279E-06  0.5997E-06  0.5702E-06  0.5409E-06  0.5120E-06  0.4844E-06  0.4567E-06  0.4305E-06  0.4048E-06  0.3798E-06  0.3564E-06  0.3340E-06  0.3112E-06  0.2885E-06  0.2674E-06  0.2494E-06  0.2322E-06  0.2164E-06  0.2020E-06  0.1886E-06  0.1751E-06  0.1633E-06  0.1521E-06  0.1409E-06  0.1311E-06
  0.1059E-06  0.1185E-06  0.1327E-06  0.1474E-06  0.1647E-06  0.1819E-06  0.2019E-06  0.2240E-06  0.2448E-06  0.2668E-06  0.2902E-06  0.3119E-06  0.3336E-06  0.3544E-06  0.3741E-06  0.3913E-06  0.4079E-06  0.4204E-06  0.4331E-06  0.4433E-06  0.4503E-06  0.4564E-06  0.4595E-06  0.4612E-06  0.4609E-06  0.4569E-06  0.4685E-06  0.4706E-06  0.4710E-06  0.4740E-06  0.4789E-06  0.4855E-06  0.4962E-06  0.5112E-06  0.5289E-06  0.5540E-06  0.5810E-06  0.6144E-06  0.6527E-06  0.6920E-06  0.7319E-06  0.7691E-06  0.8037E-06  0.8308E-06  0.8497E-06  0.8579E-06  0.8585E-06  0.8503E-06  0.8366E-06  0.8158E-06  0.7929E-06  0.7646E-06  0.7354E-06  0.7033E-06  0.6721E-06  0.6397E-06  0.6075E-06  0.5755E-06  0.5449E-06  0.5141E-06  0.4847E-06  0.4561E-06  0.4287E-06  0.4021E-06  0.3770E-06  0.3525E-06  0.3292E-06  0.3060E-06  0.2833E-06  0.2630E-06  0.2446E-06  0.2280E-06  0.2123E-06  0.1969E-06  0.1836E-06  0.1711E-06  0.1584E-06  0.1475E-06  0.1372E-06
  0.1238E-06  0.1387E-06  0.1563E-06  0.1769E-06  0.1973E-06  0.2208E-06  0.2445E-06  0.2706E-06  0.2972E-06  0.3233E-06  0.3513E-06  0.3777E-06  0.4035E-06  0.4288E-06  0.4511E-06  0.4733E-06  0.4921E-06  0.5099E-06  0.5235E-06  0.5330E-06  0.5398E-06  0.5447E-06  0.5466E-06  0.5444E-06  0.5410E-06  0.5435E-06  0.5498E-06  0.5482E-06  0.5493E-06  0.5514E-06  0.5551E-06  0.5628E-06  0.5743E-06  0.5908E-06  0.6141E-06  0.6401E-06  0.6733E-06  0.7118E-06  0.7556E-06  0.8003E-06  0.8423E-06  0.8812E-06  0.9123E-06  0.9358E-06  0.9458E-06  0.9478E-06  0.9406E-06  0.9269E-06  0.9054E-06  0.8809E-06  0.8510E-06  0.8188E-06  0.7849E-06  0.7504E-06  0.7141E-06  0.6787E-06  0.6438E-06  0.6100E-06  0.5762E-06  0.5437E-06  0.5126E-06  0.4817E-06  0.4522E-06  0.4244E-06  0.3971E-06  0.3711E-06  0.3469E-06  0.3235E-06  0.2996E-06  0.2769E-06  0.2571E-06  0.2391E-06  0.2214E-06  0.2063E-06  0.1919E-06  0.1776E-06  0.1653E-06  0.1538E-06  0.1420E-06
  0.1455E-06  0.1664E-06  0.1887E-06  0.2129E-06  0.2394E-06  0.2682E-06  0.2962E-06  0.3283E-06  0.3599E-06  0.3919E-06  0.4259E-06  0.4574E-06  0.4885E-06  0.5175E-06  0.5457E-06  0.5717E-06  0.5947E-06  0.6114E-06  0.6279E-06  0.6386E-06  0.6455E-06  0.6478E-06  0.6455E-06  0.6404E-06  0.6331E-06  0.6370E-06  0.6369E-06  0.6361E-06  0.6333E-06  0.6351E-06  0.6399E-06  0.6479E-06  0.6611E-06  0.6815E-06  0.7053E-06  0.7372E-06  0.7757E-06  0.8228E-06  0.8695E-06  0.9166E-06  0.9584E-06  0.9944E-06  0.1023E-05  0.1039E-05  0.1044E-05  0.1038E-05  0.1026E-05  0.1002E-05  0.9749E-06  0.9422E-06  0.9080E-06  0.8707E-06  0.8336E-06  0.7941E-06  0.7552E-06  0.7167E-06  0.6800E-06  0.6430E-06  0.6075E-06  0.5732E-06  0.5394E-06  0.5074E-06  0.4767E-06  0.4460E-06  0.4172E-06  0.3903E-06  0.3650E-06  0.3403E-06  0.3150E-06  0.2920E-06  0.2700E-06  0.2490E-06  0.2315E-06  0.2154E-06  0.1993E-06  0.1853E-06  0.1721E-06  0.1592E-06  0.1477E-06
  0.1775E-06  0.2031E-06  0.2299E-06  0.2596E-06  0.2914E-06  0.3243E-06  0.3606E-06  0.3974E-06  0.4361E-06  0.4746E-06  0.5148E-06  0.5528E-06  0.5911E-06  0.6268E-06  0.6593E-06  0.6871E-06  0.7119E-06  0.7325E-06  0.7475E-06  0.7581E-06  0.7634E-06  0.7618E-06  0.7580E-06  0.7496E-06  0.7380E-06  0.7410E-06  0.7373E-06  0.7300E-06  0.7276E-06  0.7284E-06  0.7321E-06  0.7412E-06  0.7564E-06  0.7783E-06  0.8077E-06  0.8463E-06  0.8924E-06  0.9415E-06  0.9921E-06  0.1039E-05  0.1080E-05  0.1112E-05  0.1133E-05  0.1141E-05  0.1139E-05  0.1126E-05  0.1105E-05  0.1077E-05  0.1044E-05  0.1005E-05  0.9650E-06  0.9213E-06  0.8796E-06  0.8365E-06  0.7954E-06  0.7550E-06  0.7153E-06  0.6769E-06  0.6394E-06  0.6024E-06  0.5671E-06  0.5332E-06  0.4999E-06  0.4682E-06  0.4384E-06  0.4103E-06  0.3829E-06  0.3563E-06  0.3317E-06  0.3070E-06  0.2834E-06  0.2619E-06  0.2423E-06  0.2237E-06  0.2093E-06  0.1931E-06  0.1784E-06  0.1650E-06  0.1529E-06
  0.2161E-06  0.2453E-06  0.2775E-06  0.3136E-06  0.3523E-06  0.3921E-06  0.4374E-06  0.4814E-06  0.5277E-06  0.5743E-06  0.6248E-06  0.6736E-06  0.7191E-06  0.7582E-06  0.7946E-06  0.8252E-06  0.8506E-06  0.8721E-06  0.8860E-06  0.8922E-06  0.8948E-06  0.8926E-06  0.8843E-06  0.8666E-06  0.8632E-06  0.8578E-06  0.8459E-06  0.8367E-06  0.8304E-06  0.8274E-06  0.8321E-06  0.8425E-06  0.8601E-06  0.8842E-06  0.9217E-06  0.9668E-06  0.1017E-05  0.1070E-05  0.1121E-05  0.1168E-05  0.1204E-05  0.1230E-05  0.1243E-05  0.1243E-05  0.1232E-05  0.1211E-05  0.1182E-05  0.1148E-05  0.1108E-05  0.1065E-05  0.1020E-05  0.9745E-06  0.9280E-06  0.8828E-06  0.8385E-06  0.7944E-06  0.7531E-06  0.7128E-06  0.6733E-06  0.6352E-06  0.5986E-06  0.5630E-06  0.5289E-06  0.4948E-06  0.4630E-06  0.4315E-06  0.4023E-06  0.3747E-06  0.3477E-06  0.3218E-06  0.2975E-06  0.2742E-06  0.2527E-06  0.2345E-06  0.2165E-06  0.1998E-06  0.1849E-06  0.1711E-06  0.1568E-06
  0.2607E-06  0.2971E-06  0.3372E-06  0.3785E-06  0.4257E-06  0.4746E-06  0.5295E-06  0.5834E-06  0.6445E-06  0.7008E-06  0.7598E-06  0.8163E-06  0.8687E-06  0.9153E-06  0.9563E-06  0.9889E-06  0.1015E-05  0.1035E-05  0.1045E-05  0.1052E-05  0.1046E-05  0.1036E-05  0.1019E-05  0.9990E-06  0.9940E-06  0.9814E-06  0.9677E-06  0.9525E-06  0.9426E-06  0.9391E-06  0.9402E-06  0.9522E-06  0.9713E-06  0.1005E-05  0.1046E-05  0.1097E-05  0.1152E-05  0.1206E-05  0.1257E-05  0.1299E-05  0.1330E-05  0.1348E-05  0.1351E-05  0.1343E-05  0.1323E-05  0.1293E-05  0.1258E-05  0.1215E-05  0.1171E-05  0.1122E-05  0.1073E-05  0.1023E-05  0.9739E-06  0.9262E-06  0.8783E-06  0.8335E-06  0.7892E-06  0.7466E-06  0.7059E-06  0.6666E-06  0.6279E-06  0.5913E-06  0.5551E-06  0.5207E-06  0.4873E-06  0.4557E-06  0.4253E-06  0.3950E-06  0.3660E-06  0.3376E-06  0.3113E-06  0.2867E-06  0.2640E-06  0.2427E-06  0.2238E-06  0.2082E-06  0.1915E-06  0.1757E-06  0.1625E-06
  0.3137E-06  0.3572E-06  0.4051E-06  0.4582E-06  0.5136E-06  0.5768E-06  0.6451E-06  0.7159E-06  0.7842E-06  0.8562E-06  0.9270E-06  0.9924E-06  0.1051E-05  0.1104E-05  0.1148E-05  0.1180E-05  0.1204E-05  0.1222E-05  0.1230E-05  0.1224E-05  0.1214E-05  0.1198E-05  0.1171E-05  0.1153E-05  0.1136E-05  0.1119E-05  0.1100E-05  0.1083E-05  0.1071E-05  0.1065E-05  0.1066E-05  0.1074E-05  0.1099E-05  0.1134E-05  0.1184E-05  0.1238E-05  0.1295E-05  0.1349E-05  0.1397E-05  0.1432E-05  0.1456E-05  0.1462E-05  0.1457E-05  0.1438E-05  0.1409E-05  0.1372E-05  0.1329E-05  0.1281E-05  0.1231E-05  0.1178E-05  0.1125E-05  0.1072E-05  0.1021E-05  0.9691E-06  0.9196E-06  0.8736E-06  0.8268E-06  0.7827E-06  0.7405E-06  0.6993E-06  0.6599E-06  0.6209E-06  0.5844E-06  0.5474E-06  0.5129E-06  0.4793E-06  0.4459E-06  0.4147E-06  0.3846E-06  0.3569E-06  0.3289E-06  0.3016E-06  0.2753E-06  0.2524E-06  0.2334E-06  0.2145E-06  0.1971E-06  0.1822E-06  0.1682E-06
  0.3786E-06  0.4317E-06  0.4884E-06  0.5543E-06  0.6266E-06  0.7070E-06  0.7904E-06  0.8735E-06  0.9610E-06  0.1048E-05  0.1130E-05  0.1205E-05  0.1273E-05  0.1330E-05  0.1373E-05  0.1405E-05  0.1427E-05  0.1440E-05  0.1436E-05  0.1425E-05  0.1408E-05  0.1379E-05  0.1345E-05  0.1325E-05  0.1301E-05  0.1273E-05  0.1248E-05  0.1226E-05  0.1211E-05  0.1203E-05  0.1204E-05  0.1217E-05  0.1242E-05  0.1283E-05  0.1335E-05  0.1391E-05  0.1447E-05  0.1498E-05  0.1538E-05  0.1567E-05  0.1577E-05  0.1575E-05  0.1558E-05  0.1530E-05  0.1492E-05  0.1448E-05  0.1398E-05  0.1345E-05  0.1289E-05  0.1232E-05  0.1177E-05  0.1121E-05  0.1068E-05  0.1015E-05  0.9645E-06  0.9160E-06  0.8699E-06  0.8230E-06  0.7777E-06  0.7353E-06  0.6946E-06  0.6543E-06  0.6143E-06  0.5769E-06  0.5404E-06  0.5035E-06  0.4688E-06  0.4356E-06  0.4042E-06  0.3742E-06  0.3452E-06  0.3162E-06  0.2900E-06  0.2660E-06  0.2417E-06  0.2213E-06  0.2042E-06  0.1886E-06  0.1733E-06
  0.4539E-06  0.5190E-06  0.5908E-06  0.6735E-06  0.7664E-06  0.8644E-06  0.9661E-06  0.1072E-05  0.1179E-05  0.1282E-05  0.1378E-05  0.1466E-05  0.1543E-05  0.1602E-05  0.1646E-05  0.1678E-05  0.1698E-05  0.1697E-05  0.1685E-05  0.1665E-05  0.1631E-05  0.1593E-05  0.1552E-05  0.1521E-05  0.1487E-05  0.1451E-05  0.1416E-05  0.1385E-05  0.1365E-05  0.1354E-05  0.1357E-05  0.1373E-05  0.1405E-05  0.1446E-05  0.1500E-05  0.1555E-05  0.1609E-05  0.1652E-05  0.1685E-05  0.1698E-05  0.1699E-05  0.1682E-05  0.1654E-05  0.1618E-05  0.1571E-05  0.1520E-05  0.1464E-05  0.1407E-05  0.1347E-05  0.1288E-05  0.1230E-05  0.1172E-05  0.1117E-05  0.1063E-05  0.1011E-05  0.9623E-06  0.9156E-06  0.8690E-06  0.8221E-06  0.7756E-06  0.7327E-06  0.6898E-06  0.6492E-06  0.6095E-06  0.5689E-06  0.5310E-06  0.4938E-06  0.4579E-06  0.4249E-06  0.3926E-06  0.3609E-06  0.3309E-06  0.3045E-06  0.2772E-06  0.2529E-06  0.2315E-06  0.2128E-06  0.1945E-06  0.1779E-06
  0.5427E-06  0.6215E-06  0.7163E-06  0.8211E-06  0.9340E-06  0.1057E-05  0.1183E-05  0.1318E-05  0.1447E-05  0.1572E-05  0.1688E-05  0.1791E-05  0.1874E-05  0.1936E-05  0.1983E-05  0.2013E-05  0.2020E-05  0.2008E-05  0.1985E-05  0.1943E-05  0.1898E-05  0.1843E-05  0.1793E-05  0.1745E-05  0.1695E-05  0.1645E-05  0.1602E-05  0.1562E-05  0.1537E-05  0.1523E-05  0.1527E-05  0.1543E-05  0.1581E-05  0.1626E-05  0.1676E-05  0.1727E-05  0.1774E-05  0.1808E-05  0.1827E-05  0.1829E-05  0.1816E-05  0.1788E-05  0.1749E-05  0.1703E-05  0.1648E-05  0.1590E-05  0.1530E-05  0.1467E-05  0.1404E-05  0.1343E-05  0.1283E-05  0.1225E-05  0.1169E-05  0.1115E-05  0.1062E-05  0.1013E-05  0.9653E-06  0.9189E-06  0.8753E-06  0.8249E-06  0.7746E-06  0.7312E-06  0.6883E-06  0.6452E-06  0.6034E-06  0.5610E-06  0.5222E-06  0.4848E-06  0.4471E-06  0.4114E-06  0.3785E-06  0.3475E-06  0.3169E-06  0.2887E-06  0.2652E-06  0.2423E-06  0.2217E-06  0.2020E-06  0.1850E-06
  0.6493E-06  0.7527E-06  0.8721E-06  0.1001E-05  0.1148E-05  0.1299E-05  0.1463E-05  0.1625E-05  0.1785E-05  0.1936E-05  0.2073E-05  0.2189E-05  0.2279E-05  0.2345E-05  0.2389E-05  0.2405E-05  0.2396E-05  0.2370E-05  0.2327E-05  0.2267E-05  0.2200E-05  0.2118E-05  0.2059E-05  0.1989E-05  0.1922E-05  0.1860E-05  0.1800E-05  0.1755E-05  0.1724E-05  0.1708E-05  0.1709E-05  0.1733E-05  0.1772E-05  0.1821E-05  0.1866E-05  0.1907E-05  0.1943E-05  0.1965E-05  0.1969E-05  0.1956E-05  0.1930E-05  0.1890E-05  0.1842E-05  0.1785E-05  0.1724E-05  0.1659E-05  0.1594E-05  0.1527E-05  0.1463E-05  0.1399E-05  0.1339E-05  0.1280E-05  0.1224E-05  0.1171E-05  0.1118E-05  0.1070E-05  0.1021E-05  0.9746E-06  0.9299E-06  0.8836E-06  0.8312E-06  0.7772E-06  0.7313E-06  0.6858E-06  0.6395E-06  0.5959E-06  0.5541E-06  0.5113E-06  0.4704E-06  0.4325E-06  0.3978E-06  0.3633E-06  0.3307E-06  0.3033E-06  0.2766E-06  0.2520E-06  0.2300E-06  0.2112E-06  0.1930E-06
  0.7812E-06  0.9217E-06  0.1071E-05  0.1236E-05  0.1418E-05  0.1614E-05  0.1814E-05  0.2013E-05  0.2207E-05  0.2381E-05  0.2537E-05  0.2664E-05  0.2754E-05  0.2817E-05  0.2845E-05  0.2842E-05  0.2818E-05  0.2769E-05  0.2699E-05  0.2616E-05  0.2521E-05  0.2432E-05  0.2342E-05  0.2252E-05  0.2165E-05  0.2088E-05  0.2016E-05  0.1962E-05  0.1924E-05  0.1909E-05  0.1913E-05  0.1939E-05  0.1979E-05  0.2025E-05  0.2066E-05  0.2101E-05  0.2115E-05  0.2119E-05  0.2105E-05  0.2081E-05  0.2040E-05  0.1992E-05  0.1934E-05  0.1867E-05  0.1799E-05  0.1729E-05  0.1661E-05  0.1590E-05  0.1525E-05  0.1459E-05  0.1399E-05  0.1339E-05  0.1283E-05  0.1232E-05  0.1180E-05  0.1132E-05  0.1084E-05  0.1037E-05  0.9914E-06  0.9454E-06  0.8953E-06  0.8359E-06  0.7794E-06  0.7297E-06  0.6819E-06  0.6354E-06  0.5872E-06  0.5406E-06  0.4986E-06  0.4566E-06  0.4176E-06  0.3817E-06  0.3485E-06  0.3170E-06  0.2879E-06  0.2621E-06  0.2406E-06  0.2193E-06  0.2000E-06
  0.9666E-06  0.1135E-05  0.1323E-05  0.1530E-05  0.1763E-05  0.2001E-05  0.2243E-05  0.2479E-05  0.2703E-05  0.2903E-05  0.3069E-05  0.3192E-05  0.3278E-05  0.3328E-05  0.3336E-05  0.3313E-05  0.3264E-05  0.3185E-05  0.3090E-05  0.2982E-05  0.2858E-05  0.2750E-05  0.2637E-05  0.2525E-05  0.2421E-05  0.2323E-05  0.2243E-05  0.2180E-05  0.2141E-05  0.2122E-05  0.2132E-05  0.2158E-05  0.2199E-05  0.2235E-05  0.2270E-05  0.2292E-05  0.2293E-05  0.2273E-05  0.2245E-05  0.2204E-05  0.2150E-05  0.2091E-05  0.2026E-05  0.1958E-05  0.1886E-05  0.1817E-05  0.1745E-05  0.1679E-05  0.1615E-05  0.1553E-05  0.1493E-05  0.1434E-05  0.1377E-05  0.1317E-05  0.1254E-05  0.1201E-05  0.1154E-05  0.1106E-05  0.1060E-05  0.1013E-05  0.9637E-06  0.9064E-06  0.8394E-06  0.7796E-06  0.7292E-06  0.6762E-06  0.6252E-06  0.5757E-06  0.5274E-06  0.4820E-06  0.4403E-06  0.4024E-06  0.3653E-06  0.3311E-06  0.3005E-06  0.2750E-06  0.2497E-06  0.2268E-06  0.2060E-06
  0.1192E-05  0.1398E-05  0.1638E-05  0.1901E-05  0.2183E-05  0.2475E-05  0.2764E-05  0.3038E-05  0.3291E-05  0.3502E-05  0.3663E-05  0.3768E-05  0.3843E-05  0.3871E-05  0.3850E-05  0.3802E-05  0.3718E-05  0.3613E-05  0.3489E-05  0.3347E-05  0.3205E-05  0.3071E-05  0.2933E-05  0.2802E-05  0.2675E-05  0.2569E-05  0.2476E-05  0.2409E-05  0.2367E-05  0.2352E-05  0.2362E-05  0.2392E-05  0.2422E-05  0.2456E-05  0.2475E-05  0.2478E-05  0.2463E-05  0.2430E-05  0.2384E-05  0.2328E-05  0.2265E-05  0.2194E-05  0.2123E-05  0.2047E-05  0.1974E-05  0.1903E-05  0.1833E-05  0.1769E-05  0.1708E-05  0.1660E-05  0.1618E-05  0.1570E-05  0.1519E-05  0.1465E-05  0.1407E-05  0.1347E-05  0.1283E-05  0.1216E-05  0.1146E-05  0.1087E-05  0.1037E-05  0.9821E-06  0.9174E-06  0.8443E-06  0.7774E-06  0.7214E-06  0.6665E-06  0.6109E-06  0.5598E-06  0.5111E-06  0.4664E-06  0.4236E-06  0.3836E-06  0.3467E-06  0.3158E-06  0.2861E-06  0.2590E-06  0.2340E-06  0.2121E-06
  0.1463E-05  0.1727E-05  0.2018E-05  0.2345E-05  0.2686E-05  0.3034E-05  0.3366E-05  0.3678E-05  0.3945E-05  0.4165E-05  0.4316E-05  0.4421E-05  0.4463E-05  0.4433E-05  0.4373E-05  0.4286E-05  0.4172E-05  0.4036E-05  0.3876E-05  0.3703E-05  0.3541E-05  0.3382E-05  0.3220E-05  0.3069E-05  0.2925E-05  0.2811E-05  0.2711E-05  0.2641E-05  0.2599E-05  0.2590E-05  0.2601E-05  0.2626E-05  0.2654E-05  0.2673E-05  0.2676E-05  0.2660E-05  0.2629E-05  0.2585E-05  0.2523E-05  0.2454E-05  0.2382E-05  0.2303E-05  0.2226E-05  0.2147E-05  0.2073E-05  0.2001E-05  0.1936E-05  0.1881E-05  0.1846E-05  0.1825E-05  0.1788E-05  0.1744E-05  0.1701E-05  0.1654E-05  0.1605E-05  0.1547E-05  0.1483E-05  0.1419E-05  0.1351E-05  0.1286E-05  0.1221E-05  0.1156E-05  0.1076E-05  0.9737E-06  0.8589E-06  0.7696E-06  0.7084E-06  0.6501E-06  0.5952E-06  0.5436E-06  0.4934E-06  0.4471E-06  0.4036E-06  0.3655E-06  0.3297E-06  0.2976E-06  0.2682E-06  0.2419E-06  0.2196E-06
  0.1792E-05  0.2116E-05  0.2481E-05  0.2868E-05  0.3274E-05  0.3678E-05  0.4059E-05  0.4392E-05  0.4675E-05  0.4884E-05  0.5024E-05  0.5102E-05  0.5108E-05  0.5060E-05  0.4951E-05  0.4805E-05  0.4614E-05  0.4438E-05  0.4248E-05  0.4046E-05  0.3865E-05  0.3677E-05  0.3496E-05  0.3324E-05  0.3175E-05  0.3047E-05  0.2947E-05  0.2873E-05  0.2849E-05  0.2850E-05  0.2862E-05  0.2878E-05  0.2887E-05  0.2887E-05  0.2868E-05  0.2840E-05  0.2793E-05  0.2736E-05  0.2668E-05  0.2586E-05  0.2505E-05  0.2424E-05  0.2343E-05  0.2263E-05  0.2187E-05  0.2120E-05  0.2080E-05  0.2070E-05  0.2072E-05  0.2053E-05  0.2028E-05  0.2001E-05  0.1971E-05  0.1936E-05  0.1901E-05  0.1857E-05  0.1792E-05  0.1717E-05  0.1623E-05  0.1526E-05  0.1433E-05  0.1343E-05  0.1246E-05  0.1133E-05  0.1012E-05  0.8963E-06  0.7831E-06  0.6925E-06  0.6338E-06  0.5760E-06  0.5225E-06  0.4730E-06  0.4272E-06  0.3838E-06  0.3446E-06  0.3095E-06  0.2783E-06  0.2514E-06  0.2271E-06
  0.2178E-05  0.2583E-05  0.3022E-05  0.3489E-05  0.3959E-05  0.4418E-05  0.4837E-05  0.5197E-05  0.5471E-05  0.5680E-05  0.5804E-05  0.5845E-05  0.5815E-05  0.5729E-05  0.5584E-05  0.5391E-05  0.5170E-05  0.4916E-05  0.4640E-05  0.4416E-05  0.4224E-05  0.4030E-05  0.3861E-05  0.3699E-05  0.3573E-05  0.3522E-05  0.3717E-05  0.4322E-05  0.4986E-05  0.5128E-05  0.4714E-05  0.4123E-05  0.3471E-05  0.3128E-05  0.3105E-05  0.3017E-05  0.2958E-05  0.2889E-05  0.2813E-05  0.2731E-05  0.2638E-05  0.2559E-05  0.2483E-05  0.2411E-05  0.2371E-05  0.2357E-05  0.2386E-05  0.2419E-05  0.2433E-05  0.2428E-05  0.2429E-05  0.2427E-05  0.2419E-05  0.2402E-05  0.2377E-05  0.2335E-05  0.2267E-05  0.2177E-05  0.2057E-05  0.1915E-05  0.1767E-05  0.1624E-05  0.1482E-05  0.1333E-05  0.1179E-05  0.1031E-05  0.8994E-06  0.7886E-06  0.6865E-06  0.6103E-06  0.5531E-06  0.5001E-06  0.4497E-06  0.4024E-06  0.3611E-06  0.3234E-06  0.2906E-06  0.2613E-06  0.2341E-06
  0.2644E-05  0.3126E-05  0.3651E-05  0.4194E-05  0.4737E-05  0.5249E-05  0.5704E-05  0.6082E-05  0.6361E-05  0.6560E-05  0.6669E-05  0.6687E-05  0.6625E-05  0.6502E-05  0.6322E-05  0.6098E-05  0.5839E-05  0.5577E-05  0.5298E-05  0.5074E-05  0.4880E-05  0.4709E-05  0.4603E-05  0.4550E-05  0.4543E-05  0.4748E-05  0.6037E-05  0.9939E-05  0.1513E-04  0.1729E-04  0.1451E-04  0.1002E-04  0.5310E-05  0.3777E-05  0.3569E-05  0.3468E-05  0.3424E-05  0.3376E-05  0.3324E-05  0.3258E-05  0.3180E-05  0.3109E-05  0.3064E-05  0.3053E-05  0.3061E-05  0.3076E-05  0.3118E-05  0.3148E-05  0.3161E-05  0.3162E-05  0.3165E-05  0.3161E-05  0.3157E-05  0.3139E-05  0.3107E-05  0.3056E-05  0.2971E-05  0.2854E-05  0.2697E-05  0.2499E-05  0.2276E-05  0.2041E-05  0.1822E-05  0.1608E-05  0.1399E-05  0.1207E-05  0.1037E-05  0.8881E-06  0.7694E-06  0.6707E-06  0.5895E-06  0.5259E-06  0.4718E-06  0.4221E-06  0.3779E-06  0.3368E-06  0.3031E-06  0.2708E-06  0.2423E-06
  0.3182E-05  0.3754E-05  0.4370E-05  0.4998E-05  0.5607E-05  0.6168E-05  0.6649E-05  0.7041E-05  0.7343E-05  0.7545E-05  0.7645E-05  0.7657E-05  0.7595E-05  0.7466E-05  0.7286E-05  0.7067E-05  0.6847E-05  0.6612E-05  0.6418E-05  0.6265E-05  0.6177E-05  0.6158E-05  0.6250E-05  0.6403E-05  0.6614E-05  0.7045E-05  0.8994E-05  0.1459E-04  0.2125E-04  0.2123E-04  0.1386E-04  0.8147E-05  0.7241E-05  0.8715E-05  0.6241E-05  0.5335E-05  0.5369E-05  0.5357E-05  0.5331E-05  0.5216E-05  0.5039E-05  0.4878E-05  0.4748E-05  0.4674E-05  0.4652E-05  0.4635E-05  0.4613E-05  0.4595E-05  0.4551E-05  0.4495E-05  0.4438E-05  0.4373E-05  0.4309E-05  0.4243E-05  0.4162E-05  0.4063E-05  0.3939E-05  0.3769E-05  0.3558E-05  0.3291E-05  0.2980E-05  0.2637E-05  0.2297E-05  0.1982E-05  0.1691E-05  0.1430E-05  0.1208E-05  0.1016E-05  0.8610E-06  0.7371E-06  0.6414E-06  0.5610E-06  0.4952E-06  0.4414E-06  0.3942E-06  0.3534E-06  0.3156E-06  0.2815E-06  0.2508E-06
  0.3797E-05  0.4471E-05  0.5176E-05  0.5874E-05  0.6543E-05  0.7148E-05  0.7660E-05  0.8085E-05  0.8406E-05  0.8614E-05  0.8747E-05  0.8791E-05  0.8761E-05  0.8676E-05  0.8559E-05  0.8436E-05  0.8333E-05  0.8269E-05  0.8268E-05  0.8323E-05  0.8416E-05  0.8563E-05  0.8774E-05  0.8989E-05  0.9158E-05  0.9338E-05  0.1035E-04  0.1378E-04  0.1915E-04  0.2251E-04  0.2108E-04  0.1731E-04  0.2111E-04  0.1367E-04  0.1080E-04  0.8405E-05  0.8508E-05  0.8718E-05  0.9069E-05  0.9255E-05  0.9086E-05  0.8703E-05  0.8266E-05  0.7909E-05  0.7605E-05  0.7354E-05  0.7105E-05  0.6900E-05  0.6697E-05  0.6482E-05  0.6267E-05  0.6057E-05  0.5858E-05  0.5667E-05  0.5481E-05  0.5296E-05  0.5087E-05  0.4854E-05  0.4567E-05  0.4231E-05  0.3830E-05  0.3384E-05  0.2911E-05  0.2460E-05  0.2057E-05  0.1707E-05  0.1413E-05  0.1177E-05  0.9764E-06  0.8167E-06  0.6932E-06  0.6034E-06  0.5271E-06  0.4621E-06  0.4130E-06  0.3686E-06  0.3282E-06  0.2920E-06  0.2596E-06
  0.4491E-05  0.5259E-05  0.6044E-05  0.6810E-05  0.7525E-05  0.8154E-05  0.8702E-05  0.9158E-05  0.9505E-05  0.9767E-05  0.9940E-05  0.1003E-04  0.1007E-04  0.1007E-04  0.1008E-04  0.1012E-04  0.1024E-04  0.1044E-04  0.1065E-04  0.1082E-04  0.1090E-04  0.1096E-04  0.1099E-04  0.1093E-04  0.1084E-04  0.1073E-04  0.1115E-04  0.1356E-04  0.1904E-04  0.2578E-04  0.3029E-04  0.3505E-04  0.2410E-04  0.1707E-04  0.1310E-04  0.9458E-05  0.9383E-05  0.9800E-05  0.1062E-04  0.1168E-04  0.1247E-04  0.1272E-04  0.1245E-04  0.1190E-04  0.1126E-04  0.1062E-04  0.1006E-04  0.9543E-05  0.9028E-05  0.8582E-05  0.8136E-05  0.7766E-05  0.7423E-05  0.7103E-05  0.6809E-05  0.6523E-05  0.6242E-05  0.5937E-05  0.5589E-05  0.5187E-05  0.4724E-05  0.4195E-05  0.3614E-05  0.3029E-05  0.2489E-05  0.2027E-05  0.1654E-05  0.1355E-05  0.1118E-05  0.9207E-06  0.7595E-06  0.6447E-06  0.5607E-06  0.4920E-06  0.4314E-06  0.3829E-06  0.3406E-06  0.3024E-06  0.2686E-06
  0.5265E-05  0.6110E-05  0.6947E-05  0.7753E-05  0.8494E-05  0.9149E-05  0.9726E-05  0.1019E-04  0.1059E-04  0.1089E-04  0.1111E-04  0.1127E-04  0.1137E-04  0.1147E-04  0.1158E-04  0.1177E-04  0.1202E-04  0.1237E-04  0.1268E-04  0.1278E-04  0.1271E-04  0.1258E-04  0.1251E-04  0.1264E-04  0.1318E-04  0.1414E-04  0.1513E-04  0.1637E-04  0.1869E-04  0.2441E-04  0.3678E-04  0.3980E-04  0.3040E-04  0.2341E-04  0.1651E-04  0.1035E-04  0.8575E-05  0.8585E-05  0.9195E-05  0.1033E-04  0.1183E-04  0.1322E-04  0.1412E-04  0.1431E-04  0.1395E-04  0.1327E-04  0.1242E-04  0.1158E-04  0.1085E-04  0.1014E-04  0.9535E-05  0.9015E-05  0.8553E-05  0.8119E-05  0.7789E-05  0.7475E-05  0.7158E-05  0.6821E-05  0.6448E-05  0.6024E-05  0.5531E-05  0.4955E-05  0.4313E-05  0.3626E-05  0.2965E-05  0.2387E-05  0.1924E-05  0.1557E-05  0.1270E-05  0.1046E-05  0.8505E-06  0.7024E-06  0.5982E-06  0.5205E-06  0.4543E-06  0.3986E-06  0.3527E-06  0.3132E-06  0.2779E-06
  0.6082E-05  0.6976E-05  0.7842E-05  0.8648E-05  0.9385E-05  0.1006E-04  0.1063E-04  0.1113E-04  0.1154E-04  0.1186E-04  0.1211E-04  0.1228E-04  0.1241E-04  0.1257E-04  0.1275E-04  0.1300E-04  0.1334E-04  0.1372E-04  0.1402E-04  0.1423E-04  0.1443E-04  0.1487E-04  0.1559E-04  0.1641E-04  0.1683E-04  0.1656E-04  0.1554E-04  0.1432E-04  0.1501E-04  0.2314E-04  0.3715E-04  0.4082E-04  0.4152E-04  0.3524E-04  0.2630E-04  0.1749E-04  0.1200E-04  0.9921E-05  0.9088E-05  0.9026E-05  0.9750E-05  0.1105E-04  0.1251E-04  0.1373E-04  0.1436E-04  0.1432E-04  0.1381E-04  0.1303E-04  0.1211E-04  0.1125E-04  0.1049E-04  0.9825E-05  0.9291E-05  0.8848E-05  0.8473E-05  0.8149E-05  0.7835E-05  0.7513E-05  0.7152E-05  0.6734E-05  0.6240E-05  0.5659E-05  0.4983E-05  0.4241E-05  0.3487E-05  0.2798E-05  0.2238E-05  0.1808E-05  0.1461E-05  0.1187E-05  0.9702E-06  0.7842E-06  0.6437E-06  0.5479E-06  0.4769E-06  0.4169E-06  0.3659E-06  0.3238E-06  0.2877E-06
  0.6890E-05  0.7792E-05  0.8647E-05  0.9433E-05  0.1016E-04  0.1080E-04  0.1137E-04  0.1186E-04  0.1225E-04  0.1259E-04  0.1285E-04  0.1309E-04  0.1330E-04  0.1354E-04  0.1382E-04  0.1421E-04  0.1473E-04  0.1544E-04  0.1623E-04  0.1702E-04  0.1763E-04  0.1793E-04  0.1771E-04  0.1694E-04  0.1570E-04  0.1413E-04  0.1272E-04  0.1212E-04  0.1453E-04  0.2324E-04  0.3266E-04  0.3954E-04  0.4479E-04  0.4305E-04  0.3755E-04  0.2954E-04  0.2126E-04  0.1678E-04  0.1416E-04  0.1227E-04  0.1111E-04  0.1082E-04  0.1128E-04  0.1224E-04  0.1328E-04  0.1402E-04  0.1427E-04  0.1404E-04  0.1342E-04  0.1261E-04  0.1176E-04  0.1097E-04  0.1029E-04  0.9752E-05  0.9332E-05  0.8949E-05  0.8688E-05  0.8374E-05  0.8011E-05  0.7585E-05  0.7073E-05  0.6466E-05  0.5756E-05  0.4964E-05  0.4118E-05  0.3300E-05  0.2610E-05  0.2071E-05  0.1653E-05  0.1336E-05  0.1083E-05  0.8763E-06  0.7087E-06  0.5784E-06  0.4992E-06  0.4355E-06  0.3815E-06  0.3346E-06  0.2969E-06
  0.7626E-05  0.8500E-05  0.9311E-05  0.1005E-04  0.1072E-04  0.1133E-04  0.1189E-04  0.1239E-04  0.1285E-04  0.1327E-04  0.1364E-04  0.1404E-04  0.1449E-04  0.1502E-04  0.1571E-04  0.1660E-04  0.1760E-04  0.1848E-04  0.1896E-04  0.1891E-04  0.1824E-04  0.1705E-04  0.1560E-04  0.1414E-04  0.1300E-04  0.1246E-04  0.1270E-04  0.1382E-04  0.1609E-04  0.2030E-04  0.2503E-04  0.3106E-04  0.3748E-04  0.4121E-04  0.4207E-04  0.3840E-04  0.3032E-04  0.2466E-04  0.2169E-04  0.1930E-04  0.1703E-04  0.1520E-04  0.1401E-04  0.1355E-04  0.1365E-04  0.1413E-04  0.1461E-04  0.1487E-04  0.1480E-04  0.1435E-04  0.1368E-04  0.1291E-04  0.1211E-04  0.1140E-04  0.1084E-04  0.1039E-04  0.1000E-04  0.9612E-05  0.9169E-05  0.8662E-05  0.8071E-05  0.7397E-05  0.6615E-05  0.5753E-05  0.4811E-05  0.3878E-05  0.3052E-05  0.2394E-05  0.1887E-05  0.1502E-05  0.1208E-05  0.9769E-06  0.7854E-06  0.6257E-06  0.5200E-06  0.4536E-06  0.3966E-06  0.3474E-06  0.3057E-06
  0.8198E-05  0.9004E-05  0.9743E-05  0.1046E-04  0.1115E-04  0.1179E-04  0.1243E-04  0.1305E-04  0.1368E-04  0.1436E-04  0.1508E-04  0.1590E-04  0.1687E-04  0.1789E-04  0.1885E-04  0.1952E-04  0.1974E-04  0.1942E-04  0.1851E-04  0.1719E-04  0.1565E-04  0.1417E-04  0.1317E-04  0.1285E-04  0.1327E-04  0.1429E-04  0.1521E-04  0.1547E-04  0.1493E-04  0.1472E-04  0.1609E-04  0.2015E-04  0.2646E-04  0.3343E-04  0.3916E-04  0.4060E-04  0.3495E-04  0.2861E-04  0.2583E-04  0.2456E-04  0.2314E-04  0.2143E-04  0.1968E-04  0.1824E-04  0.1726E-04  0.1675E-04  0.1659E-04  0.1667E-04  0.1670E-04  0.1655E-04  0.1612E-04  0.1543E-04  0.1462E-04  0.1383E-04  0.1313E-04  0.1251E-04  0.1194E-04  0.1138E-04  0.1079E-04  0.1012E-04  0.9414E-05  0.8573E-05  0.7625E-05  0.6597E-05  0.5525E-05  0.4472E-05  0.3514E-05  0.2732E-05  0.2140E-05  0.1677E-05  0.1328E-05  0.1076E-05  0.8631E-06  0.6856E-06  0.5513E-06  0.4699E-06  0.4108E-06  0.3591E-06  0.3148E-06
  0.8532E-05  0.9331E-05  0.1012E-04  0.1089E-04  0.1170E-04  0.1252E-04  0.1341E-04  0.1439E-04  0.1545E-04  0.1661E-04  0.1782E-04  0.1893E-04  0.1978E-04  0.2025E-04  0.2024E-04  0.1970E-04  0.1870E-04  0.1733E-04  0.1583E-04  0.1444E-04  0.1346E-04  0.1322E-04  0.1365E-04  0.1465E-04  0.1558E-04  0.1593E-04  0.1526E-04  0.1353E-04  0.1142E-04  0.1007E-04  0.1032E-04  0.1277E-04  0.1766E-04  0.2459E-04  0.3236E-04  0.3780E-04  0.3585E-04  0.2939E-04  0.2546E-04  0.2468E-04  0.2492E-04  0.2478E-04  0.2411E-04  0.2315E-04  0.2209E-04  0.2127E-04  0.2065E-04  0.2027E-04  0.2003E-04  0.1973E-04  0.1925E-04  0.1857E-04  0.1776E-04  0.1690E-04  0.1608E-04  0.1530E-04  0.1454E-04  0.1378E-04  0.1296E-04  0.1210E-04  0.1109E-04  0.9963E-05  0.8757E-05  0.7514E-05  0.6279E-05  0.5089E-05  0.4007E-05  0.3117E-05  0.2412E-05  0.1884E-05  0.1468E-05  0.1160E-05  0.9200E-06  0.7328E-06  0.5828E-06  0.4847E-06  0.4231E-06  0.3709E-06  0.3247E-06
  0.8884E-05  0.9800E-05  0.1077E-04  0.1179E-04  0.1292E-04  0.1421E-04  0.1559E-04  0.1698E-04  0.1830E-04  0.1942E-04  0.2022E-04  0.2058E-04  0.2046E-04  0.1981E-04  0.1876E-04  0.1740E-04  0.1599E-04  0.1473E-04  0.1394E-04  0.1381E-04  0.1417E-04  0.1492E-04  0.1581E-04  0.1614E-04  0.1565E-04  0.1413E-04  0.1198E-04  0.9873E-05  0.8408E-05  0.7795E-05  0.7978E-05  0.9201E-05  0.1221E-04  0.1771E-04  0.2540E-04  0.3301E-04  0.3489E-04  0.2983E-04  0.2415E-04  0.2189E-04  0.2224E-04  0.2341E-04  0.2436E-04  0.2482E-04  0.2492E-04  0.2472E-04  0.2452E-04  0.2426E-04  0.2400E-04  0.2362E-04  0.2306E-04  0.2230E-04  0.2142E-04  0.2050E-04  0.1957E-04  0.1864E-04  0.1769E-04  0.1670E-04  0.1560E-04  0.1440E-04  0.1301E-04  0.1153E-04  0.1002E-04  0.8531E-05  0.7094E-05  0.5744E-05  0.4549E-05  0.3505E-05  0.2686E-05  0.2073E-05  0.1604E-05  0.1246E-05  0.9749E-06  0.7697E-06  0.6187E-06  0.5030E-06  0.4335E-06  0.3798E-06  0.3328E-06
  0.9598E-05  0.1098E-04  0.1249E-04  0.1403E-04  0.1551E-04  0.1685E-04  0.1796E-04  0.1878E-04  0.1923E-04  0.1930E-04  0.1900E-04  0.1839E-04  0.1753E-04  0.1654E-04  0.1555E-04  0.1475E-04  0.1431E-04  0.1438E-04  0.1478E-04  0.1550E-04  0.1606E-04  0.1633E-04  0.1587E-04  0.1454E-04  0.1259E-04  0.1040E-04  0.8538E-05  0.7431E-05  0.7123E-05  0.7150E-05  0.7140E-05  0.7483E-05  0.9077E-05  0.1294E-04  0.1956E-04  0.2790E-04  0.3302E-04  0.3079E-04  0.2451E-04  0.1994E-04  0.1845E-04  0.1922E-04  0.2081E-04  0.2255E-04  0.2393E-04  0.2499E-04  0.2564E-04  0.2606E-04  0.2620E-04  0.2610E-04  0.2571E-04  0.2517E-04  0.2445E-04  0.2365E-04  0.2277E-04  0.2185E-04  0.2088E-04  0.1972E-04  0.1836E-04  0.1676E-04  0.1504E-04  0.1324E-04  0.1144E-04  0.9677E-05  0.8007E-05  0.6483E-05  0.5100E-05  0.3921E-05  0.2980E-05  0.2277E-05  0.1738E-05  0.1336E-05  0.1046E-05  0.8179E-06  0.6452E-06  0.5210E-06  0.4437E-06  0.3878E-06  0.3399E-06
  0.1113E-04  0.1275E-04  0.1424E-04  0.1549E-04  0.1646E-04  0.1713E-04  0.1751E-04  0.1762E-04  0.1742E-04  0.1705E-04  0.1652E-04  0.1590E-04  0.1527E-04  0.1484E-04  0.1472E-04  0.1495E-04  0.1548E-04  0.1609E-04  0.1662E-04  0.1671E-04  0.1619E-04  0.1498E-04  0.1320E-04  0.1105E-04  0.9019E-05  0.7467E-05  0.6716E-05  0.6734E-05  0.7036E-05  0.7015E-05  0.6630E-05  0.6376E-05  0.7116E-05  0.9700E-05  0.1501E-04  0.2297E-04  0.3018E-04  0.3146E-04  0.2658E-04  0.2056E-04  0.1667E-04  0.1547E-04  0.1618E-04  0.1789E-04  0.1987E-04  0.2173E-04  0.2331E-04  0.2436E-04  0.2515E-04  0.2560E-04  0.2575E-04  0.2575E-04  0.2555E-04  0.2520E-04  0.2474E-04  0.2408E-04  0.2321E-04  0.2210E-04  0.2061E-04  0.1884E-04  0.1691E-04  0.1492E-04  0.1289E-04  0.1090E-04  0.8995E-05  0.7255E-05  0.5691E-05  0.4360E-05  0.3292E-05  0.2476E-05  0.1875E-05  0.1432E-05  0.1102E-05  0.8457E-06  0.6625E-06  0.5354E-06  0.4501E-06  0.3941E-06  0.3456E-06
  0.1156E-04  0.1291E-04  0.1401E-04  0.1485E-04  0.1541E-04  0.1572E-04  0.1582E-04  0.1569E-04  0.1549E-04  0.1516E-04  0.1492E-04  0.1478E-04  0.1493E-04  0.1538E-04  0.1599E-04  0.1669E-04  0.1725E-04  0.1727E-04  0.1680E-04  0.1547E-04  0.1383E-04  0.1178E-04  0.9750E-05  0.7939E-05  0.6703E-05  0.6238E-05  0.6496E-05  0.6905E-05  0.6939E-05  0.6545E-05  0.5980E-05  0.5601E-05  0.5871E-05  0.7516E-05  0.1151E-04  0.1847E-04  0.2654E-04  0.3083E-04  0.2874E-04  0.2316E-04  0.1786E-04  0.1438E-04  0.1320E-04  0.1377E-04  0.1528E-04  0.1719E-04  0.1898E-04  0.2062E-04  0.2192E-04  0.2297E-04  0.2377E-04  0.2437E-04  0.2476E-04  0.2499E-04  0.2501E-04  0.2479E-04  0.2424E-04  0.2328E-04  0.2193E-04  0.2024E-04  0.1831E-04  0.1625E-04  0.1416E-04  0.1203E-04  0.9967E-05  0.8025E-05  0.6308E-05  0.4813E-05  0.3608E-05  0.2681E-05  0.2003E-05  0.1526E-05  0.1156E-05  0.8822E-06  0.6790E-06  0.5431E-06  0.4571E-06  0.3997E-06  0.3501E-06
  0.1108E-04  0.1211E-04  0.1293E-04  0.1355E-04  0.1396E-04  0.1420E-04  0.1428E-04  0.1433E-04  0.1436E-04  0.1451E-04  0.1491E-04  0.1549E-04  0.1625E-04  0.1709E-04  0.1764E-04  0.1787E-04  0.1741E-04  0.1612E-04  0.1451E-04  0.1254E-04  0.1057E-04  0.8676E-05  0.7204E-05  0.6242E-05  0.5952E-05  0.6277E-05  0.6658E-05  0.6751E-05  0.6492E-05  0.6011E-05  0.5472E-05  0.5094E-05  0.5106E-05  0.6047E-05  0.8922E-05  0.1461E-04  0.2249E-04  0.2876E-04  0.2975E-04  0.2604E-04  0.2078E-04  0.1613E-04  0.1297E-04  0.1177E-04  0.1211E-04  0.1341E-04  0.1506E-04  0.1674E-04  0.1834E-04  0.1976E-04  0.2099E-04  0.2202E-04  0.2284E-04  0.2353E-04  0.2398E-04  0.2416E-04  0.2394E-04  0.2330E-04  0.2219E-04  0.2073E-04  0.1900E-04  0.1706E-04  0.1500E-04  0.1289E-04  0.1076E-04  0.8719E-05  0.6852E-05  0.5249E-05  0.3917E-05  0.2882E-05  0.2128E-05  0.1594E-05  0.1203E-05  0.9136E-06  0.6915E-06  0.5482E-06  0.4617E-06  0.4023E-06  0.3531E-06
  0.1037E-04  0.1120E-04  0.1191E-04  0.1245E-04  0.1286E-04  0.1324E-04  0.1361E-04  0.1401E-04  0.1462E-04  0.1533E-04  0.1626E-04  0.1709E-04  0.1784E-04  0.1810E-04  0.1785E-04  0.1693E-04  0.1531E-04  0.1339E-04  0.1142E-04  0.9569E-05  0.7972E-05  0.6739E-05  0.5996E-05  0.5849E-05  0.6138E-05  0.6468E-05  0.6587E-05  0.6414E-05  0.6037E-05  0.5559E-05  0.5106E-05  0.4752E-05  0.4623E-05  0.5136E-05  0.7109E-05  0.1152E-04  0.1852E-04  0.2566E-04  0.2909E-04  0.2788E-04  0.2391E-04  0.1926E-04  0.1506E-04  0.1221E-04  0.1100E-04  0.1116E-04  0.1230E-04  0.1374E-04  0.1531E-04  0.1684E-04  0.1823E-04  0.1949E-04  0.2055E-04  0.2149E-04  0.2222E-04  0.2267E-04  0.2274E-04  0.2236E-04  0.2159E-04  0.2043E-04  0.1895E-04  0.1726E-04  0.1535E-04  0.1331E-04  0.1124E-04  0.9190E-05  0.7283E-05  0.5591E-05  0.4192E-05  0.3070E-05  0.2244E-05  0.1651E-05  0.1242E-05  0.9331E-06  0.7067E-06  0.5488E-06  0.4624E-06  0.4050E-06  0.3544E-06
  0.9818E-05  0.1062E-04  0.1133E-04  0.1200E-04  0.1269E-04  0.1336E-04  0.1413E-04  0.1502E-04  0.1595E-04  0.1697E-04  0.1779E-04  0.1823E-04  0.1811E-04  0.1738E-04  0.1609E-04  0.1425E-04  0.1232E-04  0.1043E-04  0.8809E-05  0.7438E-05  0.6477E-05  0.5910E-05  0.5832E-05  0.6073E-05  0.6329E-05  0.6429E-05  0.6298E-05  0.5997E-05  0.5600E-05  0.5182E-05  0.4803E-05  0.4470E-05  0.4291E-05  0.4527E-05  0.5886E-05  0.9180E-05  0.1500E-04  0.2202E-04  0.2699E-04  0.2805E-04  0.2595E-04  0.2239E-04  0.1831E-04  0.1453E-04  0.1187E-04  0.1070E-04  0.1080E-04  0.1173E-04  0.1301E-04  0.1443E-04  0.1580E-04  0.1709E-04  0.1828E-04  0.1932E-04  0.2018E-04  0.2078E-04  0.2104E-04  0.2089E-04  0.2038E-04  0.1952E-04  0.1834E-04  0.1686E-04  0.1518E-04  0.1331E-04  0.1134E-04  0.9392E-05  0.7523E-05  0.5829E-05  0.4383E-05  0.3217E-05  0.2332E-05  0.1697E-05  0.1252E-05  0.9500E-06  0.7133E-06  0.5472E-06  0.4610E-06  0.4050E-06  0.3558E-06
  0.9682E-05  0.1054E-04  0.1146E-04  0.1240E-04  0.1330E-04  0.1428E-04  0.1519E-04  0.1609E-04  0.1679E-04  0.1730E-04  0.1741E-04  0.1709E-04  0.1624E-04  0.1487E-04  0.1307E-04  0.1130E-04  0.9559E-05  0.8171E-05  0.7081E-05  0.6290E-05  0.5861E-05  0.5819E-05  0.5991E-05  0.6178E-05  0.6257E-05  0.6153E-05  0.5904E-05  0.5565E-05  0.5192E-05  0.4845E-05  0.4523E-05  0.4245E-05  0.4052E-05  0.4150E-05  0.5091E-05  0.7517E-05  0.1218E-04  0.1848E-04  0.2402E-04  0.2670E-04  0.2642E-04  0.2437E-04  0.2126E-04  0.1762E-04  0.1424E-04  0.1177E-04  0.1071E-04  0.1075E-04  0.1144E-04  0.1257E-04  0.1381E-04  0.1506E-04  0.1624E-04  0.1728E-04  0.1816E-04  0.1881E-04  0.1915E-04  0.1918E-04  0.1886E-04  0.1825E-04  0.1730E-04  0.1608E-04  0.1460E-04  0.1294E-04  0.1115E-04  0.9314E-05  0.7551E-05  0.5908E-05  0.4468E-05  0.3288E-05  0.2393E-05  0.1733E-05  0.1269E-05  0.9529E-06  0.7199E-06  0.5431E-06  0.4594E-06  0.4026E-06  0.3545E-06
  0.9916E-05  0.1100E-04  0.1203E-04  0.1310E-04  0.1409E-04  0.1494E-04  0.1567E-04  0.1610E-04  0.1629E-04  0.1611E-04  0.1556E-04  0.1464E-04  0.1341E-04  0.1185E-04  0.1034E-04  0.8916E-05  0.7749E-05  0.6833E-05  0.6155E-05  0.5805E-05  0.5737E-05  0.5837E-05  0.5984E-05  0.6031E-05  0.5951E-05  0.5752E-05  0.5479E-05  0.5160E-05  0.4832E-05  0.4540E-05  0.4272E-05  0.4039E-05  0.3836E-05  0.3896E-05  0.4544E-05  0.6360E-05  0.1006E-04  0.1545E-04  0.2090E-04  0.2434E-04  0.2530E-04  0.2462E-04  0.2299E-04  0.2038E-04  0.1711E-04  0.1406E-04  0.1185E-04  0.1081E-04  0.1081E-04  0.1136E-04  0.1224E-04  0.1335E-04  0.1444E-04  0.1545E-04  0.1629E-04  0.1694E-04  0.1732E-04  0.1744E-04  0.1726E-04  0.1678E-04  0.1604E-04  0.1501E-04  0.1375E-04  0.1228E-04  0.1067E-04  0.9017E-05  0.7364E-05  0.5833E-05  0.4460E-05  0.3307E-05  0.2405E-05  0.1746E-05  0.1269E-05  0.9345E-06  0.7112E-06  0.5337E-06  0.4557E-06  0.3993E-06  0.3516E-06
  0.1032E-04  0.1144E-04  0.1254E-04  0.1346E-04  0.1426E-04  0.1478E-04  0.1510E-04  0.1507E-04  0.1475E-04  0.1418E-04  0.1333E-04  0.1221E-04  0.1084E-04  0.9594E-05  0.8382E-05  0.7424E-05  0.6623E-05  0.6021E-05  0.5708E-05  0.5607E-05  0.5644E-05  0.5723E-05  0.5754E-05  0.5698E-05  0.5549E-05  0.5324E-05  0.5054E-05  0.4771E-05  0.4496E-05  0.4248E-05  0.4033E-05  0.3846E-05  0.3689E-05  0.3707E-05  0.4185E-05  0.5553E-05  0.8520E-05  0.1307E-04  0.1814E-04  0.2187E-04  0.2343E-04  0.2352E-04  0.2298E-04  0.2171E-04  0.1948E-04  0.1667E-04  0.1394E-04  0.1197E-04  0.1098E-04  0.1087E-04  0.1132E-04  0.1204E-04  0.1291E-04  0.1383E-04  0.1461E-04  0.1521E-04  0.1561E-04  0.1575E-04  0.1565E-04  0.1529E-04  0.1467E-04  0.1382E-04  0.1272E-04  0.1145E-04  0.1002E-04  0.8520E-05  0.7037E-05  0.5616E-05  0.4336E-05  0.3259E-05  0.2392E-05  0.1725E-05  0.1256E-05  0.9202E-06  0.6904E-06  0.5253E-06  0.4476E-06  0.3947E-06  0.3478E-06
  0.1042E-04  0.1152E-04  0.1245E-04  0.1318E-04  0.1366E-04  0.1384E-04  0.1378E-04  0.1346E-04  0.1290E-04  0.1208E-04  0.1116E-04  0.1005E-04  0.8979E-05  0.7959E-05  0.7139E-05  0.6437E-05  0.5901E-05  0.5560E-05  0.5398E-05  0.5406E-05  0.5444E-05  0.5445E-05  0.5392E-05  0.5286E-05  0.5118E-05  0.4895E-05  0.4662E-05  0.4418E-05  0.4214E-05  0.4011E-05  0.3827E-05  0.3653E-05  0.3536E-05  0.3538E-05  0.3897E-05  0.4942E-05  0.7378E-05  0.1124E-04  0.1588E-04  0.1969E-04  0.2154E-04  0.2195E-04  0.2183E-04  0.2151E-04  0.2054E-04  0.1863E-04  0.1617E-04  0.1376E-04  0.1198E-04  0.1105E-04  0.1088E-04  0.1121E-04  0.1178E-04  0.1243E-04  0.1311E-04  0.1365E-04  0.1403E-04  0.1417E-04  0.1412E-04  0.1384E-04  0.1331E-04  0.1258E-04  0.1162E-04  0.1053E-04  0.9260E-05  0.7932E-05  0.6587E-05  0.5315E-05  0.4149E-05  0.3137E-05  0.2336E-05  0.1697E-05  0.1220E-05  0.8937E-06  0.6761E-06  0.5157E-06  0.4411E-06  0.3874E-06  0.3425E-06
  0.1005E-04  0.1101E-04  0.1174E-04  0.1227E-04  0.1249E-04  0.1244E-04  0.1218E-04  0.1169E-04  0.1103E-04  0.1026E-04  0.9277E-05  0.8429E-05  0.7542E-05  0.6845E-05  0.6242E-05  0.5739E-05  0.5393E-05  0.5202E-05  0.5158E-05  0.5143E-05  0.5121E-05  0.5088E-05  0.4997E-05  0.4864E-05  0.4698E-05  0.4518E-05  0.4309E-05  0.4111E-05  0.3929E-05  0.3766E-05  0.3622E-05  0.3495E-05  0.3379E-05  0.3387E-05  0.3651E-05  0.4503E-05  0.6445E-05  0.9757E-05  0.1401E-04  0.1785E-04  0.1998E-04  0.2052E-04  0.2042E-04  0.2038E-04  0.2023E-04  0.1938E-04  0.1773E-04  0.1559E-04  0.1348E-04  0.1188E-04  0.1101E-04  0.1077E-04  0.1098E-04  0.1139E-04  0.1185E-04  0.1227E-04  0.1259E-04  0.1273E-04  0.1269E-04  0.1246E-04  0.1199E-04  0.1136E-04  0.1054E-04  0.9550E-05  0.8456E-05  0.7274E-05  0.6086E-05  0.4942E-05  0.3895E-05  0.2983E-05  0.2227E-05  0.1642E-05  0.1185E-05  0.8618E-06  0.6562E-06  0.5106E-06  0.4291E-06  0.3806E-06  0.3361E-06
  0.9321E-05  0.1006E-04  0.1062E-04  0.1096E-04  0.1105E-04  0.1090E-04  0.1054E-04  0.1002E-04  0.9353E-05  0.8621E-05  0.7880E-05  0.7156E-05  0.6545E-05  0.5998E-05  0.5530E-05  0.5207E-05  0.4983E-05  0.4909E-05  0.4863E-05  0.4829E-05  0.4774E-05  0.4701E-05  0.4600E-05  0.4474E-05  0.4325E-05  0.4150E-05  0.3977E-05  0.3835E-05  0.3685E-05  0.3542E-05  0.3423E-05  0.3322E-05  0.3243E-05  0.3249E-05  0.3472E-05  0.4212E-05  0.5794E-05  0.8577E-05  0.1218E-04  0.1576E-04  0.1816E-04  0.1911E-04  0.1921E-04  0.1919E-04  0.1925E-04  0.1908E-04  0.1822E-04  0.1675E-04  0.1489E-04  0.1303E-04  0.1163E-04  0.1079E-04  0.1052E-04  0.1059E-04  0.1083E-04  0.1109E-04  0.1130E-04  0.1141E-04  0.1136E-04  0.1115E-04  0.1075E-04  0.1018E-04  0.9467E-05  0.8601E-05  0.7636E-05  0.6606E-05  0.5548E-05  0.4539E-05  0.3611E-05  0.2784E-05  0.2108E-05  0.1554E-05  0.1133E-05  0.8353E-06  0.6369E-06  0.5021E-06  0.4175E-06  0.3692E-06  0.3284E-06
  0.8378E-05  0.8957E-05  0.9345E-05  0.9559E-05  0.9583E-05  0.9378E-05  0.9051E-05  0.8555E-05  0.7963E-05  0.7376E-05  0.6756E-05  0.6232E-05  0.5761E-05  0.5329E-05  0.5026E-05  0.4811E-05  0.4686E-05  0.4609E-05  0.4545E-05  0.4482E-05  0.4425E-05  0.4341E-05  0.4239E-05  0.4112E-05  0.3977E-05  0.3840E-05  0.3710E-05  0.3579E-05  0.3460E-05  0.3356E-05  0.3251E-05  0.3164E-05  0.3103E-05  0.3110E-05  0.3350E-05  0.4047E-05  0.5403E-05  0.7682E-05  0.1069E-04  0.1377E-04  0.1624E-04  0.1755E-04  0.1798E-04  0.1806E-04  0.1811E-04  0.1818E-04  0.1793E-04  0.1705E-04  0.1571E-04  0.1403E-04  0.1240E-04  0.1115E-04  0.1038E-04  0.1004E-04  0.9997E-05  0.1007E-04  0.1017E-04  0.1021E-04  0.1015E-04  0.9947E-05  0.9598E-05  0.9075E-05  0.8447E-05  0.7692E-05  0.6833E-05  0.5934E-05  0.5013E-05  0.4127E-05  0.3299E-05  0.2582E-05  0.1952E-05  0.1458E-05  0.1077E-05  0.7930E-06  0.6183E-06  0.4871E-06  0.4065E-06  0.3582E-06  0.3191E-06
  0.7402E-05  0.7831E-05  0.8115E-05  0.8264E-05  0.8213E-05  0.8036E-05  0.7702E-05  0.7294E-05  0.6835E-05  0.6345E-05  0.5910E-05  0.5506E-05  0.5132E-05  0.4822E-05  0.4608E-05  0.4458E-05  0.4370E-05  0.4290E-05  0.4234E-05  0.4159E-05  0.4084E-05  0.3996E-05  0.3902E-05  0.3795E-05  0.3681E-05  0.3559E-05  0.3447E-05  0.3347E-05  0.3254E-05  0.3163E-05  0.3083E-05  0.3010E-05  0.2962E-05  0.2989E-05  0.3217E-05  0.3859E-05  0.5047E-05  0.6968E-05  0.9451E-05  0.1216E-04  0.1446E-04  0.1595E-04  0.1661E-04  0.1682E-04  0.1690E-04  0.1701E-04  0.1702E-04  0.1667E-04  0.1575E-04  0.1451E-04  0.1299E-04  0.1155E-04  0.1042E-04  0.9714E-05  0.9346E-05  0.9218E-05  0.9167E-05  0.9140E-05  0.9044E-05  0.8836E-05  0.8516E-05  0.8066E-05  0.7488E-05  0.6830E-05  0.6077E-05  0.5293E-05  0.4497E-05  0.3718E-05  0.2999E-05  0.2349E-05  0.1798E-05  0.1350E-05  0.1012E-05  0.7657E-06  0.5928E-06  0.4693E-06  0.3937E-06  0.3448E-06  0.3074E-06
  0.6455E-05  0.6786E-05  0.6986E-05  0.7074E-05  0.7012E-05  0.6859E-05  0.6572E-05  0.6268E-05  0.5904E-05  0.5554E-05  0.5234E-05  0.4907E-05  0.4613E-05  0.4398E-05  0.4238E-05  0.4144E-05  0.4066E-05  0.3994E-05  0.3922E-05  0.3851E-05  0.3771E-05  0.3695E-05  0.3610E-05  0.3507E-05  0.3402E-05  0.3317E-05  0.3230E-05  0.3144E-05  0.3053E-05  0.2976E-05  0.2914E-05  0.2867E-05  0.2824E-05  0.2863E-05  0.3116E-05  0.3695E-05  0.4712E-05  0.6324E-05  0.8417E-05  0.1073E-04  0.1279E-04  0.1428E-04  0.1510E-04  0.1544E-04  0.1558E-04  0.1570E-04  0.1579E-04  0.1569E-04  0.1524E-04  0.1431E-04  0.1311E-04  0.1175E-04  0.1048E-04  0.9483E-05  0.8836E-05  0.8478E-05  0.8302E-05  0.8179E-05  0.8040E-05  0.7832E-05  0.7522E-05  0.7125E-05  0.6611E-05  0.6029E-05  0.5384E-05  0.4679E-05  0.3995E-05  0.3320E-05  0.2683E-05  0.2111E-05  0.1632E-05  0.1241E-05  0.9505E-06  0.7272E-06  0.5713E-06  0.4520E-06  0.3791E-06  0.3331E-06  0.2962E-06
  0.5636E-05  0.5864E-05  0.6030E-05  0.6063E-05  0.6025E-05  0.5889E-05  0.5671E-05  0.5435E-05  0.5169E-05  0.4911E-05  0.4652E-05  0.4387E-05  0.4181E-05  0.4018E-05  0.3936E-05  0.3857E-05  0.3776E-05  0.3703E-05  0.3635E-05  0.3572E-05  0.3500E-05  0.3424E-05  0.3335E-05  0.3253E-05  0.3179E-05  0.3104E-05  0.3025E-05  0.2950E-05  0.2875E-05  0.2814E-05  0.2752E-05  0.2713E-05  0.2688E-05  0.2753E-05  0.3012E-05  0.3526E-05  0.4409E-05  0.5687E-05  0.7468E-05  0.9405E-05  0.1117E-04  0.1254E-04  0.1342E-04  0.1386E-04  0.1408E-04  0.1423E-04  0.1439E-04  0.1440E-04  0.1419E-04  0.1361E-04  0.1268E-04  0.1152E-04  0.1029E-04  0.9193E-05  0.8361E-05  0.7824E-05  0.7512E-05  0.7316E-05  0.7142E-05  0.6924E-05  0.6633E-05  0.6272E-05  0.5817E-05  0.5295E-05  0.4736E-05  0.4133E-05  0.3525E-05  0.2941E-05  0.2362E-05  0.1894E-05  0.1472E-05  0.1148E-05  0.8887E-06  0.6856E-06  0.5461E-06  0.4326E-06  0.3619E-06  0.3173E-06  0.2835E-06
  0.4895E-05  0.5090E-05  0.5196E-05  0.5241E-05  0.5199E-05  0.5096E-05  0.4951E-05  0.4768E-05  0.4564E-05  0.4372E-05  0.4144E-05  0.3959E-05  0.3822E-05  0.3726E-05  0.3643E-05  0.3576E-05  0.3502E-05  0.3435E-05  0.3377E-05  0.3311E-05  0.3244E-05  0.3175E-05  0.3106E-05  0.3037E-05  0.2963E-05  0.2896E-05  0.2825E-05  0.2757E-05  0.2698E-05  0.2644E-05  0.2605E-05  0.2564E-05  0.2556E-05  0.2631E-05  0.2897E-05  0.3341E-05  0.4090E-05  0.5170E-05  0.6576E-05  0.8105E-05  0.9547E-05  0.1076E-04  0.1162E-04  0.1210E-04  0.1241E-04  0.1262E-04  0.1279E-04  0.1290E-04  0.1281E-04  0.1245E-04  0.1180E-04  0.1084E-04  0.9786E-05  0.8725E-05  0.7829E-05  0.7187E-05  0.6792E-05  0.6526E-05  0.6329E-05  0.6102E-05  0.5837E-05  0.5499E-05  0.5096E-05  0.4631E-05  0.4143E-05  0.3622E-05  0.3060E-05  0.2568E-05  0.2109E-05  0.1684E-05  0.1345E-05  0.1058E-05  0.8216E-06  0.6411E-06  0.5177E-06  0.4159E-06  0.3466E-06  0.3037E-06  0.2707E-06
