DSAA
          79         109
    318.3670    342.0670
   7336.5760   7369.2760
  0.0000E+00  0.1143E-04
  0.0000E+00  0.0000E+00  0.0000E+00  0.0000E+00  0.0000E+00  0.0000E+00  0.0000E+00  0.0000E+00  0.0000E+00  0.0000E+00  0.0000E+00  0.0000E+00  0.0000E+00  0.0000E+00  0.0000E+00  0.0000E+00  0.0000E+00  0.0000E+00  0.0000E+00  0.0000E+00  0.0000E+00  0.0000E+00  0.0000E+00  0.0000E+00  0.0000E+00  0.0000E+00  0.0000E+00  0.0000E+00  0.0000E+00  0.0000E+00  0.0000E+00  0.0000E+00  0.0000E+00  0.0000E+00  0.0000E+00  0.0000E+00  0.0000E+00  0.0000E+00  0.0000E+00  0.0000E+00  0.0000E+00  0.0000E+00  0.0000E+00  0.0000E+00  0.0000E+00  0.0000E+00  0.0000E+00  0.0000E+00  0.0000E+00  0.0000E+00  0.0000E+00  0.0000E+00  0.0000E+00  0.0000E+00  0.0000E+00  0.0000E+00  0.0000E+00  0.0000E+00  0.0000E+00  0.0000E+00  0.0000E+00  0.0000E+00  0.0000E+00  0.0000E+00  0.0000E+00  0.0000E+00  0.0000E+00  0.0000E+00  0.0000E+00  0.0000E+00  0.0000E+00  0.0000E+00  0.0000E+00  0.0000E+00  0.0000E+00  0.0000E+00  0.0000E+00  0.0000E+00  0.0000E+00
  0.0000E+00  0.0000E+00  0.0000E+00  0.0000E+00  0.0000E+00  0.0000E+00  0.0000E+00  0.0000E+00  0.0000E+00  0.0000E+00  0.0000E+00  0.0000E+00  0.0000E+00  0.0000E+00  0.0000E+00  0.0000E+00  0.0000E+00  0.0000E+00  0.0000E+00  0.0000E+00  0.0000E+00  0.0000E+00  0.0000E+00  0.0000E+00  0.0000E+00  0.0000E+00  0.0000E+00  0.0000E+00  0.0000E+00  0.0000E+00  0.0000E+00  0.0000E+00  0.0000E+00  0.0000E+00  0.0000E+00  0.0000E+00  0.0000E+00  0.0000E+00  0.0000E+00  0.0000E+00  0.0000E+00  0.0000E+00  0.0000E+00  0.0000E+00  0.0000E+00  0.0000E+00  0.0000E+00  0.0000E+00  0.0000E+00  0.0000E+00  0.0000E+00  0.0000E+00  0.0000E+00  0.0000E+00  0.0000E+00  0.0000E+00  0.0000E+00  0.0000E+00  0.0000E+00  0.0000E+00  0.0000E+00  0.0000E+00  0.0000E+00  0.0000E+00  0.0000E+00  0.0000E+00  0.0000E+00  0.0000E+00  0.0000E+00  0.0000E+00  0.0000E+00  0.0000E+00  0.0000E+00  0.0000E+00  0.0000E+00  0.0000E+00  0.0000E+00  0.0000E+00  0.0000E+00
  0.0000E+00  0.0000E+00  0.0000E+00  0.0000E+00  0.0000E+00  0.0000E+00  0.0000E+00  0.0000E+00  0.0000E+00  0.0000E+00  0.0000E+00  0.0000E+00  0.0000E+00  0.0000E+00  0.0000E+00  0.0000E+00  0.0000E+00  0.0000E+00  0.0000E+00  0.0000E+00  0.0000E+00  0.0000E+00  0.0000E+00  0.0000E+00  0.0000E+00  0.0000E+00  0.0000E+00  0.0000E+00  0.0000E+00  0.0000E+00  0.0000E+00  0.0000E+00  0.0000E+00  0.0000E+00  0.0000E+00  0.0000E+00  0.0000E+00  0.0000E+00  0.0000E+00  0.0000E+00  0.0000E+00  0.0000E+00  0.0000E+00  0.0000E+00  0.0000E+00  0.0000E+00  0.0000E+00  0.0000E+00  0.0000E+00  0.0000E+00  0.0000E+00  0.0000E+00  0.0000E+00  0.0000E+00  0.0000E+00  0.0000E+00  0.0000E+00  0.0000E+00  0.0000E+00  0.0000E+00  0.0000E+00  0.0000E+00  0.0000E+00  0.0000E+00  0.0000E+00  0.0000E+00  0.0000E+00  0.0000E+00  0.0000E+00  0.0000E+00  0.0000E+00  0.0000E+00  0.0000E+00  0.0000E+00  0.0000E+00  0.0000E+00  0.0000E+00  0.0000E+00  0.0000E+00
  0.0000E+00  0.0000E+00  0.0000E+00  0.0000E+00  0.0000E+00  0.0000E+00  0.0000E+00  0.0000E+00  0.0000E+00  0.0000E+00  0.0000E+00  0.0000E+00  0.0000E+00  0.0000E+00  0.0000E+00  0.0000E+00  0.0000E+00  0.0000E+00  0.0000E+00  0.0000E+00  0.0000E+00  0.0000E+00  0.0000E+00  0.0000E+00  0.0000E+00  0.0000E+00  0.0000E+00  0.0000E+00  0.0000E+00  0.0000E+00  0.0000E+00  0.0000E+00  0.0000E+00  0.0000E+00  0.0000E+00  0.0000E+00  0.0000E+00  0.0000E+00  0.0000E+00  0.0000E+00  0.0000E+00  0.0000E+00  0.0000E+00  0.0000E+00  0.0000E+00  0.0000E+00  0.0000E+00  0.0000E+00  0.0000E+00  0.0000E+00  0.0000E+00  0.0000E+00  0.0000E+00  0.0000E+00  0.0000E+00  0.0000E+00  0.0000E+00  0.0000E+00  0.0000E+00  0.0000E+00  0.0000E+00  0.0000E+00  0.0000E+00  0.0000E+00  0.0000E+00  0.0000E+00  0.0000E+00  0.0000E+00  0.0000E+00  0.0000E+00  0.0000E+00  0.0000E+00  0.0000E+00  0.0000E+00  0.0000E+00  0.0000E+00  0.0000E+00  0.0000E+00  0.0000E+00
  0.0000E+00  0.0000E+00  0.0000E+00  0.0000E+00  0.0000E+00  0.0000E+00  0.0000E+00  0.0000E+00  0.0000E+00  0.0000E+00  0.0000E+00  0.0000E+00  0.0000E+00  0.0000E+00  0.0000E+00  0.0000E+00  0.0000E+00  0.0000E+00  0.0000E+00  0.0000E+00  0.0000E+00  0.0000E+00  0.0000E+00  0.0000E+00  0.0000E+00  0.0000E+00  0.0000E+00  0.0000E+00  0.0000E+00  0.0000E+00  0.0000E+00  0.0000E+00  0.0000E+00  0.0000E+00  0.0000E+00  0.0000E+00  0.0000E+00  0.0000E+00  0.0000E+00  0.0000E+00  0.0000E+00  0.0000E+00  0.0000E+00  0.0000E+00  0.0000E+00  0.0000E+00  0.0000E+00  0.0000E+00  0.0000E+00  0.0000E+00  0.0000E+00  0.0000E+00  0.0000E+00  0.0000E+00  0.0000E+00  0.0000E+00  0.0000E+00  0.0000E+00  0.0000E+00  0.0000E+00  0.0000E+00  0.0000E+00  0.0000E+00  0.0000E+00  0.0000E+00  0.0000E+00  0.0000E+00  0.0000E+00  0.0000E+00  0.0000E+00  0.0000E+00  0.0000E+00  0.0000E+00  0.0000E+00  0.0000E+00  0.0000E+00  0.0000E+00  0.0000E+00  0.0000E+00
  0.0000E+00  0.0000E+00  0.0000E+00  0.0000E+00  0.0000E+00  0.0000E+00  0.0000E+00  0.0000E+00  0.0000E+00  0.0000E+00  0.0000E+00  0.0000E+00  0.0000E+00  0.0000E+00  0.0000E+00  0.0000E+00  0.0000E+00  0.0000E+00  0.0000E+00  0.0000E+00  0.0000E+00  0.0000E+00  0.0000E+00  0.0000E+00  0.0000E+00  0.0000E+00  0.0000E+00  0.0000E+00  0.0000E+00  0.0000E+00  0.0000E+00  0.0000E+00  0.0000E+00  0.0000E+00  0.0000E+00  0.0000E+00  0.0000E+00  0.0000E+00  0.0000E+00  0.0000E+00  0.0000E+00  0.0000E+00  0.0000E+00  0.0000E+00  0.0000E+00  0.0000E+00  0.0000E+00  0.0000E+00  0.0000E+00  0.0000E+00  0.0000E+00  0.0000E+00  0.0000E+00  0.0000E+00  0.0000E+00  0.0000E+00  0.0000E+00  0.0000E+00  0.0000E+00  0.0000E+00  0.0000E+00  0.0000E+00  0.0000E+00  0.0000E+00  0.0000E+00  0.0000E+00  0.0000E+00  0.0000E+00  0.0000E+00  0.0000E+00  0.0000E+00  0.0000E+00  0.0000E+00  0.0000E+00  0.0000E+00  0.0000E+00  0.0000E+00  0.0000E+00  0.0000E+00
  0.0000E+00  0.0000E+00  0.0000E+00  0.0000E+00  0.0000E+00  0.0000E+00  0.0000E+00  0.0000E+00  0.0000E+00  0.0000E+00  0.0000E+00  0.0000E+00  0.0000E+00  0.0000E+00  0.0000E+00  0.0000E+00  0.0000E+00  0.0000E+00  0.0000E+00  0.0000E+00  0.0000E+00  0.0000E+00  0.0000E+00  0.0000E+00  0.0000E+00  0.0000E+00  0.0000E+00  0.0000E+00  0.0000E+00  0.0000E+00  0.0000E+00  0.0000E+00  0.0000E+00  0.0000E+00  0.0000E+00  0.0000E+00  0.0000E+00  0.0000E+00  0.0000E+00  0.0000E+00  0.0000E+00  0.0000E+00  0.0000E+00  0.0000E+00  0.0000E+00  0.0000E+00  0.0000E+00  0.0000E+00  0.0000E+00  0.0000E+00  0.0000E+00  0.0000E+00  0.0000E+00  0.0000E+00  0.0000E+00  0.0000E+00  0.0000E+00  0.0000E+00  0.0000E+00  0.0000E+00  0.0000E+00  0.0000E+00  0.0000E+00  0.0000E+00  0.0000E+00  0.0000E+00  0.0000E+00  0.0000E+00  0.0000E+00  0.0000E+00  0.0000E+00  0.0000E+00  0.0000E+00  0.0000E+00  0.0000E+00  0.0000E+00  0.0000E+00  0.0000E+00  0.0000E+00
  0.0000E+00  0.0000E+00  0.0000E+00  0.0000E+00  0.0000E+00  0.0000E+00  0.0000E+00  0.0000E+00  0.0000E+00  0.0000E+00  0.0000E+00  0.0000E+00  0.0000E+00  0.0000E+00  0.0000E+00  0.0000E+00  0.0000E+00  0.0000E+00  0.0000E+00  0.0000E+00  0.0000E+00  0.0000E+00  0.0000E+00  0.0000E+00  0.0000E+00  0.0000E+00  0.0000E+00  0.0000E+00  0.0000E+00  0.0000E+00  0.0000E+00  0.0000E+00  0.0000E+00  0.0000E+00  0.0000E+00  0.0000E+00  0.0000E+00  0.0000E+00  0.0000E+00  0.0000E+00  0.0000E+00  0.0000E+00  0.0000E+00  0.0000E+00  0.0000E+00  0.0000E+00  0.0000E+00  0.0000E+00  0.0000E+00  0.0000E+00  0.0000E+00  0.0000E+00  0.0000E+00  0.0000E+00  0.0000E+00  0.0000E+00  0.0000E+00  0.0000E+00  0.0000E+00  0.0000E+00  0.0000E+00  0.0000E+00  0.0000E+00  0.0000E+00  0.0000E+00  0.0000E+00  0.0000E+00  0.0000E+00  0.0000E+00  0.0000E+00  0.0000E+00  0.0000E+00  0.0000E+00  0.0000E+00  0.0000E+00  0.0000E+00  0.0000E+00  0.0000E+00  0.0000E+00
  0.0000E+00  0.0000E+00  0.0000E+00  0.0000E+00  0.0000E+00  0.0000E+00  0.0000E+00  0.0000E+00  0.0000E+00  0.0000E+00  0.0000E+00  0.0000E+00  0.0000E+00  0.0000E+00  0.0000E+00  0.0000E+00  0.0000E+00  0.0000E+00  0.0000E+00  0.0000E+00  0.0000E+00  0.0000E+00  0.0000E+00  0.0000E+00  0.0000E+00  0.0000E+00  0.0000E+00  0.0000E+00  0.0000E+00  0.0000E+00  0.0000E+00  0.0000E+00  0.0000E+00  0.0000E+00  0.0000E+00  0.0000E+00  0.0000E+00  0.0000E+00  0.0000E+00  0.0000E+00  0.0000E+00  0.0000E+00  0.0000E+00  0.0000E+00  0.0000E+00  0.0000E+00  0.0000E+00  0.0000E+00  0.0000E+00  0.0000E+00  0.0000E+00  0.0000E+00  0.0000E+00  0.0000E+00  0.0000E+00  0.0000E+00  0.0000E+00  0.0000E+00  0.0000E+00  0.0000E+00  0.0000E+00  0.0000E+00  0.0000E+00  0.0000E+00  0.0000E+00  0.0000E+00  0.0000E+00  0.0000E+00  0.0000E+00  0.0000E+00  0.0000E+00  0.0000E+00  0.0000E+00  0.0000E+00  0.0000E+00  0.0000E+00  0.0000E+00  0.0000E+00  0.0000E+00
  0.0000E+00  0.0000E+00  0.0000E+00  0.0000E+00  0.0000E+00  0.0000E+00  0.0000E+00  0.0000E+00  0.0000E+00  0.0000E+00  0.0000E+00  0.0000E+00  0.0000E+00  0.0000E+00  0.0000E+00  0.0000E+00  0.0000E+00  0.0000E+00  0.0000E+00  0.0000E+00  0.0000E+00  0.0000E+00  0.0000E+00  0.0000E+00  0.0000E+00  0.0000E+00  0.0000E+00  0.0000E+00  0.0000E+00  0.0000E+00  0.0000E+00  0.0000E+00  0.0000E+00  0.0000E+00  0.0000E+00  0.0000E+00  0.0000E+00  0.0000E+00  0.0000E+00  0.0000E+00  0.0000E+00  0.0000E+00  0.0000E+00  0.0000E+00  0.0000E+00  0.0000E+00  0.0000E+00  0.0000E+00  0.0000E+00  0.0000E+00  0.0000E+00  0.0000E+00  0.0000E+00  0.0000E+00  0.0000E+00  0.0000E+00  0.0000E+00  0.0000E+00  0.0000E+00  0.0000E+00  0.0000E+00  0.0000E+00  0.0000E+00  0.0000E+00  0.0000E+00  0.0000E+00  0.0000E+00  0.0000E+00  0.0000E+00  0.0000E+00  0.0000E+00  0.0000E+00  0.0000E+00  0.0000E+00  0.0000E+00  0.0000E+00  0.0000E+00  0.0000E+00  0.0000E+00
  0.0000E+00  0.0000E+00  0.0000E+00  0.0000E+00  0.0000E+00  0.0000E+00  0.0000E+00  0.0000E+00  0.0000E+00  0.0000E+00  0.0000E+00  0.0000E+00  0.0000E+00  0.0000E+00  0.0000E+00  0.0000E+00  0.0000E+00  0.0000E+00  0.0000E+00  0.0000E+00  0.0000E+00  0.0000E+00  0.0000E+00  0.0000E+00  0.0000E+00  0.0000E+00  0.0000E+00  0.0000E+00  0.0000E+00  0.0000E+00  0.0000E+00  0.0000E+00  0.0000E+00  0.0000E+00  0.0000E+00  0.0000E+00  0.0000E+00  0.0000E+00  0.0000E+00  0.0000E+00  0.0000E+00  0.0000E+00  0.0000E+00  0.0000E+00  0.0000E+00  0.0000E+00  0.0000E+00  0.0000E+00  0.0000E+00  0.0000E+00  0.0000E+00  0.0000E+00  0.0000E+00  0.0000E+00  0.0000E+00  0.0000E+00  0.0000E+00  0.0000E+00  0.0000E+00  0.0000E+00  0.0000E+00  0.0000E+00  0.0000E+00  0.0000E+00  0.0000E+00  0.0000E+00  0.0000E+00  0.0000E+00  0.0000E+00  0.0000E+00  0.0000E+00  0.0000E+00  0.0000E+00  0.0000E+00  0.0000E+00  0.0000E+00  0.0000E+00  0.0000E+00  0.0000E+00
  0.0000E+00  0.0000E+00  0.0000E+00  0.0000E+00  0.0000E+00  0.0000E+00  0.0000E+00  0.0000E+00  0.0000E+00  0.0000E+00  0.0000E+00  0.0000E+00  0.0000E+00  0.0000E+00  0.0000E+00  0.0000E+00  0.0000E+00  0.0000E+00  0.0000E+00  0.0000E+00  0.0000E+00  0.0000E+00  0.0000E+00  0.0000E+00  0.0000E+00  0.0000E+00  0.0000E+00  0.0000E+00  0.0000E+00  0.0000E+00  0.0000E+00  0.0000E+00  0.0000E+00  0.0000E+00  0.0000E+00  0.0000E+00  0.0000E+00  0.0000E+00  0.0000E+00  0.0000E+00  0.0000E+00  0.0000E+00  0.0000E+00  0.0000E+00  0.0000E+00  0.0000E+00  0.0000E+00  0.0000E+00  0.0000E+00  0.0000E+00  0.0000E+00  0.0000E+00  0.0000E+00  0.0000E+00  0.0000E+00  0.0000E+00  0.0000E+00  0.0000E+00  0.0000E+00  0.0000E+00  0.0000E+00  0.0000E+00  0.0000E+00  0.0000E+00  0.0000E+00  0.0000E+00  0.0000E+00  0.0000E+00  0.0000E+00  0.0000E+00  0.0000E+00  0.0000E+00  0.0000E+00  0.0000E+00  0.0000E+00  0.0000E+00  0.0000E+00  0.0000E+00  0.0000E+00
  0.0000E+00  0.0000E+00  0.0000E+00  0.0000E+00  0.0000E+00  0.0000E+00  0.0000E+00  0.0000E+00  0.0000E+00  0.0000E+00  0.0000E+00  0.0000E+00  0.0000E+00  0.0000E+00  0.0000E+00  0.0000E+00  0.0000E+00  0.0000E+00  0.0000E+00  0.0000E+00  0.0000E+00  0.0000E+00  0.0000E+00  0.0000E+00  0.0000E+00  0.0000E+00  0.0000E+00  0.0000E+00  0.0000E+00  0.0000E+00  0.0000E+00  0.0000E+00  0.0000E+00  0.0000E+00  0.0000E+00  0.0000E+00  0.0000E+00  0.0000E+00  0.0000E+00  0.0000E+00  0.0000E+00  0.0000E+00  0.0000E+00  0.0000E+00  0.0000E+00  0.0000E+00  0.0000E+00  0.0000E+00  0.0000E+00  0.0000E+00  0.0000E+00  0.0000E+00  0.0000E+00  0.0000E+00  0.0000E+00  0.0000E+00  0.0000E+00  0.0000E+00  0.0000E+00  0.0000E+00  0.0000E+00  0.0000E+00  0.0000E+00  0.0000E+00  0.0000E+00  0.0000E+00  0.0000E+00  0.0000E+00  0.0000E+00  0.0000E+00  0.0000E+00  0.0000E+00  0.0000E+00  0.0000E+00  0.0000E+00  0.0000E+00  0.0000E+00  0.0000E+00  0.0000E+00
  0.0000E+00  0.0000E+00  0.0000E+00  0.0000E+00  0.0000E+00  0.0000E+00  0.0000E+00  0.0000E+00  0.0000E+00  0.0000E+00  0.0000E+00  0.0000E+00  0.0000E+00  0.0000E+00  0.0000E+00  0.0000E+00  0.0000E+00  0.0000E+00  0.0000E+00  0.0000E+00  0.0000E+00  0.0000E+00  0.0000E+00  0.0000E+00  0.0000E+00  0.0000E+00  0.0000E+00  0.0000E+00  0.0000E+00  0.0000E+00  0.0000E+00  0.0000E+00  0.0000E+00  0.0000E+00  0.0000E+00  0.0000E+00  0.0000E+00  0.0000E+00  0.0000E+00  0.0000E+00  0.0000E+00  0.0000E+00  0.0000E+00  0.0000E+00  0.0000E+00  0.0000E+00  0.0000E+00  0.0000E+00  0.0000E+00  0.0000E+00  0.0000E+00  0.0000E+00  0.0000E+00  0.0000E+00  0.0000E+00  0.0000E+00  0.0000E+00  0.0000E+00  0.0000E+00  0.0000E+00  0.0000E+00  0.0000E+00  0.0000E+00  0.0000E+00  0.0000E+00  0.0000E+00  0.0000E+00  0.0000E+00  0.0000E+00  0.0000E+00  0.0000E+00  0.0000E+00  0.0000E+00  0.0000E+00  0.0000E+00  0.0000E+00  0.0000E+00  0.0000E+00  0.0000E+00
  0.0000E+00  0.0000E+00  0.0000E+00  0.0000E+00  0.0000E+00  0.0000E+00  0.0000E+00  0.0000E+00  0.0000E+00  0.0000E+00  0.0000E+00  0.0000E+00  0.0000E+00  0.0000E+00  0.0000E+00  0.0000E+00  0.0000E+00  0.0000E+00  0.0000E+00  0.0000E+00  0.0000E+00  0.0000E+00  0.0000E+00  0.0000E+00  0.0000E+00  0.0000E+00  0.0000E+00  0.0000E+00  0.0000E+00  0.0000E+00  0.0000E+00  0.0000E+00  0.0000E+00  0.0000E+00  0.0000E+00  0.0000E+00  0.0000E+00  0.0000E+00  0.0000E+00  0.0000E+00  0.0000E+00  0.0000E+00  0.0000E+00  0.0000E+00  0.0000E+00  0.0000E+00  0.0000E+00  0.0000E+00  0.0000E+00  0.0000E+00  0.0000E+00  0.0000E+00  0.0000E+00  0.0000E+00  0.0000E+00  0.0000E+00  0.0000E+00  0.0000E+00  0.0000E+00  0.0000E+00  0.0000E+00  0.0000E+00  0.0000E+00  0.0000E+00  0.0000E+00  0.0000E+00  0.0000E+00  0.0000E+00  0.0000E+00  0.0000E+00  0.0000E+00  0.0000E+00  0.0000E+00  0.0000E+00  0.0000E+00  0.0000E+00  0.0000E+00  0.0000E+00  0.0000E+00
  0.0000E+00  0.0000E+00  0.0000E+00  0.0000E+00  0.0000E+00  0.0000E+00  0.0000E+00  0.0000E+00  0.0000E+00  0.0000E+00  0.0000E+00  0.0000E+00  0.0000E+00  0.0000E+00  0.0000E+00  0.0000E+00  0.0000E+00  0.0000E+00  0.0000E+00  0.0000E+00  0.0000E+00  0.0000E+00  0.0000E+00  0.0000E+00  0.0000E+00  0.0000E+00  0.0000E+00  0.0000E+00  0.0000E+00  0.0000E+00  0.0000E+00  0.0000E+00  0.0000E+00  0.0000E+00  0.0000E+00  0.0000E+00  0.0000E+00  0.0000E+00  0.0000E+00  0.0000E+00  0.0000E+00  0.0000E+00  0.0000E+00  0.0000E+00  0.0000E+00  0.0000E+00  0.0000E+00  0.0000E+00  0.0000E+00  0.0000E+00  0.0000E+00  0.0000E+00  0.0000E+00  0.0000E+00  0.0000E+00  0.0000E+00  0.0000E+00  0.0000E+00  0.0000E+00  0.0000E+00  0.0000E+00  0.0000E+00  0.0000E+00  0.0000E+00  0.0000E+00  0.0000E+00  0.0000E+00  0.0000E+00  0.0000E+00  0.0000E+00  0.0000E+00  0.0000E+00  0.0000E+00  0.0000E+00  0.0000E+00  0.0000E+00  0.0000E+00  0.0000E+00  0.0000E+00
  0.0000E+00  0.0000E+00  0.0000E+00  0.0000E+00  0.0000E+00  0.0000E+00  0.0000E+00  0.0000E+00  0.0000E+00  0.0000E+00  0.0000E+00  0.0000E+00  0.0000E+00  0.0000E+00  0.0000E+00  0.0000E+00  0.0000E+00  0.0000E+00  0.0000E+00  0.0000E+00  0.0000E+00  0.0000E+00  0.0000E+00  0.0000E+00  0.0000E+00  0.0000E+00  0.0000E+00  0.0000E+00  0.0000E+00  0.0000E+00  0.0000E+00  0.0000E+00  0.0000E+00  0.0000E+00  0.0000E+00  0.0000E+00  0.0000E+00  0.0000E+00  0.0000E+00  0.0000E+00  0.0000E+00  0.0000E+00  0.0000E+00  0.0000E+00  0.0000E+00  0.0000E+00  0.0000E+00  0.0000E+00  0.0000E+00  0.0000E+00  0.0000E+00  0.0000E+00  0.0000E+00  0.0000E+00  0.0000E+00  0.0000E+00  0.0000E+00  0.0000E+00  0.0000E+00  0.0000E+00  0.0000E+00  0.0000E+00  0.0000E+00  0.0000E+00  0.0000E+00  0.0000E+00  0.0000E+00  0.0000E+00  0.0000E+00  0.0000E+00  0.0000E+00  0.0000E+00  0.0000E+00  0.0000E+00  0.0000E+00  0.0000E+00  0.0000E+00  0.0000E+00  0.0000E+00
  0.0000E+00  0.0000E+00  0.0000E+00  0.0000E+00  0.0000E+00  0.0000E+00  0.0000E+00  0.0000E+00  0.0000E+00  0.0000E+00  0.0000E+00  0.0000E+00  0.0000E+00  0.0000E+00  0.0000E+00  0.0000E+00  0.0000E+00  0.0000E+00  0.0000E+00  0.0000E+00  0.0000E+00  0.0000E+00  0.0000E+00  0.0000E+00  0.0000E+00  0.0000E+00  0.0000E+00  0.0000E+00  0.0000E+00  0.0000E+00  0.0000E+00  0.0000E+00  0.0000E+00  0.0000E+00  0.0000E+00  0.0000E+00  0.0000E+00  0.0000E+00  0.0000E+00  0.0000E+00  0.0000E+00  0.0000E+00  0.0000E+00  0.0000E+00  0.0000E+00  0.0000E+00  0.0000E+00  0.0000E+00  0.0000E+00  0.0000E+00  0.0000E+00  0.0000E+00  0.0000E+00  0.0000E+00  0.0000E+00  0.0000E+00  0.0000E+00  0.0000E+00  0.0000E+00  0.0000E+00  0.0000E+00  0.0000E+00  0.0000E+00  0.0000E+00  0.0000E+00  0.0000E+00  0.0000E+00  0.0000E+00  0.0000E+00  0.0000E+00  0.0000E+00  0.0000E+00  0.0000E+00  0.0000E+00  0.0000E+00  0.0000E+00  0.0000E+00  0.0000E+00  0.0000E+00
  0.0000E+00  0.0000E+00  0.0000E+00  0.0000E+00  0.0000E+00  0.0000E+00  0.0000E+00  0.0000E+00  0.0000E+00  0.0000E+00  0.0000E+00  0.0000E+00  0.0000E+00  0.0000E+00  0.0000E+00  0.0000E+00  0.0000E+00  0.0000E+00  0.0000E+00  0.0000E+00  0.0000E+00  0.0000E+00  0.0000E+00  0.0000E+00  0.0000E+00  0.0000E+00  0.0000E+00  0.0000E+00  0.0000E+00  0.0000E+00  0.0000E+00  0.0000E+00  0.0000E+00  0.0000E+00  0.0000E+00  0.0000E+00  0.0000E+00  0.0000E+00  0.0000E+00  0.0000E+00  0.0000E+00  0.0000E+00  0.0000E+00  0.0000E+00  0.0000E+00  0.0000E+00  0.0000E+00  0.0000E+00  0.0000E+00  0.0000E+00  0.0000E+00  0.0000E+00  0.0000E+00  0.0000E+00  0.0000E+00  0.0000E+00  0.0000E+00  0.0000E+00  0.0000E+00  0.0000E+00  0.0000E+00  0.0000E+00  0.0000E+00  0.0000E+00  0.0000E+00  0.0000E+00  0.0000E+00  0.0000E+00  0.0000E+00  0.0000E+00  0.0000E+00  0.0000E+00  0.0000E+00  0.0000E+00  0.0000E+00  0.0000E+00  0.0000E+00  0.0000E+00  0.0000E+00
  0.0000E+00  0.0000E+00  0.0000E+00  0.0000E+00  0.0000E+00  0.0000E+00  0.0000E+00  0.0000E+00  0.0000E+00  0.0000E+00  0.0000E+00  0.0000E+00  0.0000E+00  0.0000E+00  0.0000E+00  0.0000E+00  0.0000E+00  0.0000E+00  0.0000E+00  0.0000E+00  0.0000E+00  0.0000E+00  0.0000E+00  0.0000E+00  0.0000E+00  0.0000E+00  0.0000E+00  0.0000E+00  0.0000E+00  0.0000E+00  0.0000E+00  0.0000E+00  0.0000E+00  0.0000E+00  0.0000E+00  0.0000E+00  0.0000E+00  0.0000E+00  0.0000E+00  0.0000E+00  0.0000E+00  0.0000E+00  0.0000E+00  0.0000E+00  0.0000E+00  0.0000E+00  0.0000E+00  0.0000E+00  0.0000E+00  0.0000E+00  0.0000E+00  0.0000E+00  0.0000E+00  0.0000E+00  0.0000E+00  0.0000E+00  0.0000E+00  0.0000E+00  0.0000E+00  0.0000E+00  0.0000E+00  0.0000E+00  0.0000E+00  0.0000E+00  0.0000E+00  0.0000E+00  0.0000E+00  0.0000E+00  0.0000E+00  0.0000E+00  0.0000E+00  0.0000E+00  0.0000E+00  0.0000E+00  0.0000E+00  0.0000E+00  0.0000E+00  0.0000E+00  0.0000E+00
  0.0000E+00  0.0000E+00  0.0000E+00  0.0000E+00  0.0000E+00  0.0000E+00  0.0000E+00  0.0000E+00  0.0000E+00  0.0000E+00  0.0000E+00  0.0000E+00  0.0000E+00  0.0000E+00  0.0000E+00  0.0000E+00  0.8687E-10  0.8366E-10  0.8019E-10  0.7646E-10  0.1431E-09  0.1350E-09  0.1882E-09  0.1751E-09  0.1617E-09  0.1481E-09  0.1346E-09  0.1212E-09  0.7343E-10  0.6496E-10  0.0000E+00  0.0000E+00  0.0000E+00  0.0000E+00  0.0000E+00  0.0000E+00  0.0000E+00  0.0000E+00  0.0000E+00  0.0000E+00  0.0000E+00  0.0000E+00  0.0000E+00  0.0000E+00  0.0000E+00  0.0000E+00  0.0000E+00  0.0000E+00  0.0000E+00  0.0000E+00  0.0000E+00  0.0000E+00  0.0000E+00  0.0000E+00  0.0000E+00  0.0000E+00  0.0000E+00  0.0000E+00  0.0000E+00  0.0000E+00  0.0000E+00  0.0000E+00  0.0000E+00  0.0000E+00  0.0000E+00  0.0000E+00  0.0000E+00  0.0000E+00  0.0000E+00  0.0000E+00  0.0000E+00  0.0000E+00  0.0000E+00  0.0000E+00  0.0000E+00  0.0000E+00  0.0000E+00  0.0000E+00  0.0000E+00
  0.0000E+00  0.0000E+00  0.0000E+00  0.0000E+00  0.0000E+00  0.0000E+00  0.0000E+00  0.0000E+00  0.0000E+00  0.0000E+00  0.0000E+00  0.0000E+00  0.9753E-10  0.1013E-09  0.1049E-09  0.2009E-09  0.2920E-09  0.2822E-09  0.3581E-09  0.4262E-09  0.4061E-09  0.4590E-09  0.4317E-09  0.4033E-09  0.3740E-09  0.3441E-09  0.3140E-09  0.2840E-09  0.2543E-09  0.2255E-09  0.1677E-09  0.8993E-10  0.0000E+00  0.0000E+00  0.0000E+00  0.0000E+00  0.0000E+00  0.0000E+00  0.0000E+00  0.0000E+00  0.0000E+00  0.0000E+00  0.0000E+00  0.0000E+00  0.0000E+00  0.0000E+00  0.0000E+00  0.0000E+00  0.0000E+00  0.0000E+00  0.0000E+00  0.0000E+00  0.0000E+00  0.0000E+00  0.0000E+00  0.0000E+00  0.0000E+00  0.0000E+00  0.0000E+00  0.0000E+00  0.0000E+00  0.0000E+00  0.0000E+00  0.0000E+00  0.0000E+00  0.0000E+00  0.0000E+00  0.0000E+00  0.0000E+00  0.0000E+00  0.0000E+00  0.0000E+00  0.0000E+00  0.0000E+00  0.0000E+00  0.0000E+00  0.0000E+00  0.0000E+00  0.0000E+00
  0.0000E+00  0.0000E+00  0.0000E+00  0.0000E+00  0.0000E+00  0.0000E+00  0.0000E+00  0.0000E+00  0.0000E+00  0.9726E-10  0.1020E-09  0.2030E-09  0.3153E-09  0.3283E-09  0.4392E-09  0.5508E-09  0.6539E-09  0.6344E-09  0.7094E-09  0.7754E-09  0.8304E-09  0.7887E-09  0.7443E-09  0.6977E-09  0.6492E-09  0.6622E-09  0.6064E-09  0.5503E-09  0.4945E-09  0.4398E-09  0.3159E-09  0.2116E-09  0.9443E-10  0.0000E+00  0.0000E+00  0.0000E+00  0.0000E+00  0.0000E+00  0.0000E+00  0.0000E+00  0.0000E+00  0.0000E+00  0.0000E+00  0.0000E+00  0.0000E+00  0.0000E+00  0.0000E+00  0.0000E+00  0.0000E+00  0.0000E+00  0.0000E+00  0.0000E+00  0.0000E+00  0.0000E+00  0.0000E+00  0.0000E+00  0.0000E+00  0.0000E+00  0.0000E+00  0.0000E+00  0.0000E+00  0.0000E+00  0.0000E+00  0.0000E+00  0.0000E+00  0.0000E+00  0.0000E+00  0.0000E+00  0.0000E+00  0.0000E+00  0.0000E+00  0.0000E+00  0.0000E+00  0.0000E+00  0.0000E+00  0.0000E+00  0.0000E+00  0.0000E+00  0.0000E+00
  0.0000E+00  0.0000E+00  0.0000E+00  0.0000E+00  0.0000E+00  0.0000E+00  0.0000E+00  0.9949E-10  0.1050E-09  0.3120E-09  0.3280E-09  0.4428E-09  0.6791E-09  0.7090E-09  0.8414E-09  0.9739E-09  0.1097E-08  0.1074E-08  0.1149E-08  0.1214E-08  0.1265E-08  0.1206E-08  0.1142E-08  0.1157E-08  0.1080E-08  0.1035E-08  0.9508E-09  0.8653E-09  0.7797E-09  0.6728E-09  0.5933E-09  0.4834E-09  0.2227E-09  0.9859E-10  0.0000E+00  0.0000E+00  0.0000E+00  0.0000E+00  0.0000E+00  0.0000E+00  0.0000E+00  0.0000E+00  0.0000E+00  0.0000E+00  0.0000E+00  0.0000E+00  0.0000E+00  0.0000E+00  0.0000E+00  0.0000E+00  0.0000E+00  0.0000E+00  0.0000E+00  0.0000E+00  0.0000E+00  0.0000E+00  0.0000E+00  0.0000E+00  0.0000E+00  0.0000E+00  0.0000E+00  0.0000E+00  0.0000E+00  0.0000E+00  0.0000E+00  0.0000E+00  0.0000E+00  0.0000E+00  0.0000E+00  0.0000E+00  0.0000E+00  0.0000E+00  0.0000E+00  0.0000E+00  0.0000E+00  0.0000E+00  0.0000E+00  0.0000E+00  0.0000E+00
  0.0000E+00  0.0000E+00  0.0000E+00  0.0000E+00  0.0000E+00  0.1002E-09  0.1064E-09  0.3174E-09  0.3359E-09  0.5598E-09  0.7030E-09  0.8428E-09  0.1112E-08  0.1163E-08  0.1322E-08  0.1481E-08  0.1629E-08  0.1618E-08  0.1697E-08  0.1761E-08  0.1810E-08  0.1785E-08  0.1696E-08  0.1743E-08  0.1633E-08  0.1639E-08  0.1547E-08  0.1412E-08  0.1305E-08  0.1113E-08  0.8635E-09  0.7156E-09  0.5108E-09  0.3387E-09  0.1023E-09  0.0000E+00  0.0000E+00  0.0000E+00  0.0000E+00  0.0000E+00  0.0000E+00  0.0000E+00  0.0000E+00  0.0000E+00  0.0000E+00  0.0000E+00  0.0000E+00  0.0000E+00  0.0000E+00  0.0000E+00  0.0000E+00  0.0000E+00  0.0000E+00  0.0000E+00  0.0000E+00  0.0000E+00  0.0000E+00  0.0000E+00  0.0000E+00  0.0000E+00  0.0000E+00  0.0000E+00  0.0000E+00  0.0000E+00  0.0000E+00  0.0000E+00  0.0000E+00  0.0000E+00  0.0000E+00  0.0000E+00  0.0000E+00  0.0000E+00  0.0000E+00  0.0000E+00  0.0000E+00  0.0000E+00  0.0000E+00  0.0000E+00  0.0000E+00
  0.0000E+00  0.0000E+00  0.0000E+00  0.9939E-10  0.1062E-09  0.3179E-09  0.3385E-09  0.6746E-09  0.7160E-09  0.9721E-09  0.1146E-08  0.1207E-08  0.1502E-08  0.1704E-08  0.1777E-08  0.2086E-08  0.2265E-08  0.2272E-08  0.2438E-08  0.2508E-08  0.2619E-08  0.2576E-08  0.2630E-08  0.2547E-08  0.2546E-08  0.2422E-08  0.2240E-08  0.2090E-08  0.1895E-08  0.1699E-08  0.1450E-08  0.1020E-08  0.7587E-09  0.5367E-09  0.3527E-09  0.1391E-09  0.0000E+00  0.0000E+00  0.0000E+00  0.0000E+00  0.0000E+00  0.0000E+00  0.0000E+00  0.0000E+00  0.0000E+00  0.0000E+00  0.0000E+00  0.0000E+00  0.0000E+00  0.0000E+00  0.0000E+00  0.0000E+00  0.0000E+00  0.0000E+00  0.0000E+00  0.0000E+00  0.0000E+00  0.0000E+00  0.0000E+00  0.0000E+00  0.0000E+00  0.0000E+00  0.0000E+00  0.0000E+00  0.0000E+00  0.0000E+00  0.0000E+00  0.0000E+00  0.0000E+00  0.0000E+00  0.0000E+00  0.0000E+00  0.0000E+00  0.0000E+00  0.0000E+00  0.0000E+00  0.0000E+00  0.0000E+00  0.0000E+00
  0.0000E+00  0.9704E-10  0.1043E-09  0.3132E-09  0.3357E-09  0.6712E-09  0.7171E-09  0.9783E-09  0.1160E-08  0.1341E-08  0.1665E-08  0.1759E-08  0.2098E-08  0.2341E-08  0.2448E-08  0.2890E-08  0.3106E-08  0.3217E-08  0.3419E-08  0.3738E-08  0.3703E-08  0.3639E-08  0.3684E-08  0.3693E-08  0.3546E-08  0.3482E-08  0.3231E-08  0.3015E-08  0.2742E-08  0.2501E-08  0.2166E-08  0.1723E-08  0.1319E-08  0.8876E-09  0.5600E-09  0.3644E-09  0.1425E-09  0.0000E+00  0.0000E+00  0.0000E+00  0.0000E+00  0.0000E+00  0.0000E+00  0.0000E+00  0.0000E+00  0.0000E+00  0.0000E+00  0.0000E+00  0.0000E+00  0.0000E+00  0.0000E+00  0.0000E+00  0.0000E+00  0.0000E+00  0.0000E+00  0.0000E+00  0.0000E+00  0.0000E+00  0.0000E+00  0.0000E+00  0.0000E+00  0.0000E+00  0.0000E+00  0.0000E+00  0.0000E+00  0.0000E+00  0.0000E+00  0.0000E+00  0.0000E+00  0.0000E+00  0.0000E+00  0.0000E+00  0.0000E+00  0.0000E+00  0.0000E+00  0.0000E+00  0.0000E+00  0.0000E+00  0.0000E+00
  0.1009E-09  0.2050E-09  0.3277E-09  0.5527E-09  0.7066E-09  0.8614E-09  0.1155E-08  0.1234E-08  0.1677E-08  0.1784E-08  0.2140E-08  0.2405E-08  0.2666E-08  0.3188E-08  0.3338E-08  0.3795E-08  0.4294E-08  0.4447E-08  0.4696E-08  0.5070E-08  0.5053E-08  0.4972E-08  0.5012E-08  0.5007E-08  0.4952E-08  0.4720E-08  0.4399E-08  0.4114E-08  0.3805E-08  0.3436E-08  0.3103E-08  0.2538E-08  0.2005E-08  0.1430E-08  0.9751E-09  0.6222E-09  0.3736E-09  0.1447E-09  0.0000E+00  0.0000E+00  0.0000E+00  0.0000E+00  0.0000E+00  0.0000E+00  0.0000E+00  0.0000E+00  0.0000E+00  0.0000E+00  0.0000E+00  0.0000E+00  0.0000E+00  0.0000E+00  0.0000E+00  0.0000E+00  0.0000E+00  0.0000E+00  0.0000E+00  0.0000E+00  0.0000E+00  0.0000E+00  0.0000E+00  0.0000E+00  0.0000E+00  0.0000E+00  0.0000E+00  0.0000E+00  0.0000E+00  0.0000E+00  0.0000E+00  0.0000E+00  0.0000E+00  0.0000E+00  0.0000E+00  0.0000E+00  0.0000E+00  0.0000E+00  0.0000E+00  0.0000E+00  0.0000E+00
  0.3147E-09  0.3406E-09  0.6847E-09  0.7388E-09  0.1131E-08  0.1216E-08  0.1659E-08  0.1777E-08  0.2144E-08  0.2425E-08  0.2706E-08  0.3254E-08  0.3443E-08  0.4125E-08  0.4595E-08  0.5031E-08  0.5715E-08  0.5925E-08  0.6237E-08  0.6682E-08  0.6701E-08  0.6631E-08  0.6671E-08  0.6657E-08  0.6582E-08  0.6292E-08  0.5961E-08  0.5527E-08  0.5239E-08  0.4803E-08  0.4300E-08  0.3758E-08  0.3044E-08  0.2268E-08  0.1574E-08  0.1013E-08  0.6394E-09  0.3793E-09  0.1456E-09  0.0000E+00  0.0000E+00  0.0000E+00  0.0000E+00  0.0000E+00  0.0000E+00  0.0000E+00  0.0000E+00  0.0000E+00  0.0000E+00  0.0000E+00  0.0000E+00  0.0000E+00  0.0000E+00  0.0000E+00  0.0000E+00  0.0000E+00  0.0000E+00  0.0000E+00  0.0000E+00  0.0000E+00  0.0000E+00  0.0000E+00  0.0000E+00  0.0000E+00  0.0000E+00  0.0000E+00  0.0000E+00  0.0000E+00  0.0000E+00  0.0000E+00  0.0000E+00  0.0000E+00  0.0000E+00  0.0000E+00  0.0000E+00  0.0000E+00  0.0000E+00  0.0000E+00  0.0000E+00
  0.4495E-09  0.7088E-09  0.8715E-09  0.1178E-08  0.1382E-08  0.1740E-08  0.1989E-08  0.2401E-08  0.2571E-08  0.3259E-08  0.3475E-08  0.4183E-08  0.4701E-08  0.5228E-08  0.6062E-08  0.6442E-08  0.7110E-08  0.7578E-08  0.8087E-08  0.8424E-08  0.8700E-08  0.8674E-08  0.8733E-08  0.8723E-08  0.8634E-08  0.8284E-08  0.7877E-08  0.7485E-08  0.6968E-08  0.6411E-08  0.5767E-08  0.5163E-08  0.4362E-08  0.3461E-08  0.2566E-08  0.1649E-08  0.1109E-08  0.6507E-09  0.3813E-09  0.1448E-09  0.0000E+00  0.0000E+00  0.0000E+00  0.0000E+00  0.0000E+00  0.0000E+00  0.0000E+00  0.0000E+00  0.0000E+00  0.0000E+00  0.0000E+00  0.0000E+00  0.0000E+00  0.0000E+00  0.0000E+00  0.0000E+00  0.0000E+00  0.0000E+00  0.0000E+00  0.0000E+00  0.0000E+00  0.0000E+00  0.0000E+00  0.0000E+00  0.0000E+00  0.0000E+00  0.0000E+00  0.0000E+00  0.0000E+00  0.0000E+00  0.0000E+00  0.0000E+00  0.0000E+00  0.0000E+00  0.0000E+00  0.0000E+00  0.0000E+00  0.0000E+00  0.0000E+00
  0.7291E-09  0.1009E-08  0.1219E-08  0.1553E-08  0.1813E-08  0.2205E-08  0.2518E-08  0.2973E-08  0.3442E-08  0.4065E-08  0.4611E-08  0.5269E-08  0.6054E-08  0.6641E-08  0.7657E-08  0.8146E-08  0.9068E-08  0.9665E-08  0.9981E-08  0.1074E-07  0.1112E-07  0.1116E-07  0.1128E-07  0.1223E-07  0.1188E-07  0.1143E-07  0.1110E-07  0.1047E-07  0.1040E-07  0.9497E-08  0.8617E-08  0.7642E-08  0.6323E-08  0.4860E-08  0.3703E-08  0.2749E-08  0.1884E-08  0.1167E-08  0.6554E-09  0.3418E-09  0.1072E-09  0.0000E+00  0.0000E+00  0.0000E+00  0.0000E+00  0.0000E+00  0.0000E+00  0.0000E+00  0.0000E+00  0.0000E+00  0.0000E+00  0.0000E+00  0.0000E+00  0.0000E+00  0.0000E+00  0.0000E+00  0.0000E+00  0.0000E+00  0.0000E+00  0.0000E+00  0.0000E+00  0.0000E+00  0.0000E+00  0.0000E+00  0.0000E+00  0.0000E+00  0.0000E+00  0.0000E+00  0.0000E+00  0.0000E+00  0.0000E+00  0.0000E+00  0.0000E+00  0.0000E+00  0.0000E+00  0.0000E+00  0.0000E+00  0.0000E+00  0.0000E+00
  0.1149E-08  0.1253E-08  0.1725E-08  0.1874E-08  0.2422E-08  0.2621E-08  0.3345E-08  0.3607E-08  0.4532E-08  0.4965E-08  0.6017E-08  0.6539E-08  0.7540E-08  0.8329E-08  0.9426E-08  0.1025E-07  0.1102E-07  0.1210E-07  0.1257E-07  0.1314E-07  0.1461E-07  0.1495E-07  0.1523E-07  0.1705E-07  0.1666E-07  0.1610E-07  0.1632E-07  0.1544E-07  0.1444E-07  0.1324E-07  0.1205E-07  0.1073E-07  0.9144E-08  0.7884E-08  0.5470E-08  0.4026E-08  0.2965E-08  0.1944E-08  0.1134E-08  0.6067E-09  0.2972E-09  0.7153E-10  0.0000E+00  0.0000E+00  0.0000E+00  0.0000E+00  0.0000E+00  0.0000E+00  0.0000E+00  0.0000E+00  0.0000E+00  0.0000E+00  0.0000E+00  0.0000E+00  0.0000E+00  0.0000E+00  0.0000E+00  0.0000E+00  0.0000E+00  0.0000E+00  0.0000E+00  0.0000E+00  0.0000E+00  0.0000E+00  0.0000E+00  0.0000E+00  0.0000E+00  0.0000E+00  0.0000E+00  0.0000E+00  0.0000E+00  0.0000E+00  0.0000E+00  0.0000E+00  0.0000E+00  0.0000E+00  0.0000E+00  0.0000E+00  0.0000E+00
  0.1388E-08  0.1765E-08  0.2042E-08  0.2494E-08  0.2837E-08  0.3467E-08  0.3986E-08  0.4727E-08  0.5450E-08  0.6320E-08  0.7165E-08  0.8168E-08  0.9140E-08  0.1028E-07  0.1117E-07  0.1256E-07  0.1344E-07  0.1457E-07  0.1621E-07  0.1720E-07  0.1977E-07  0.2026E-07  0.2279E-07  0.2378E-07  0.2341E-07  0.2273E-07  0.2273E-07  0.2158E-07  0.2023E-07  0.1872E-07  0.1696E-07  0.1488E-07  0.1315E-07  0.1033E-07  0.8573E-08  0.6014E-08  0.4372E-08  0.3080E-08  0.2029E-08  0.1175E-08  0.5535E-09  0.2482E-09  0.3554E-10  0.0000E+00  0.0000E+00  0.0000E+00  0.0000E+00  0.0000E+00  0.0000E+00  0.0000E+00  0.0000E+00  0.0000E+00  0.0000E+00  0.0000E+00  0.0000E+00  0.0000E+00  0.0000E+00  0.0000E+00  0.0000E+00  0.0000E+00  0.0000E+00  0.0000E+00  0.0000E+00  0.0000E+00  0.0000E+00  0.0000E+00  0.0000E+00  0.0000E+00  0.0000E+00  0.0000E+00  0.0000E+00  0.0000E+00  0.0000E+00  0.0000E+00  0.0000E+00  0.0000E+00  0.0000E+00  0.0000E+00  0.0000E+00
  0.1794E-08  0.2082E-08  0.2549E-08  0.3043E-08  0.3565E-08  0.4258E-08  0.4990E-08  0.5817E-08  0.6688E-08  0.7778E-08  0.8683E-08  0.9938E-08  0.1099E-07  0.1241E-07  0.1359E-07  0.1511E-07  0.1707E-07  0.1942E-07  0.2150E-07  0.2251E-07  0.2683E-07  0.2779E-07  0.3064E-07  0.3180E-07  0.3164E-07  0.3082E-07  0.3058E-07  0.2912E-07  0.2739E-07  0.2541E-07  0.2274E-07  0.2089E-07  0.1739E-07  0.1511E-07  0.1144E-07  0.9439E-08  0.6381E-08  0.4624E-08  0.3202E-08  0.2037E-08  0.1114E-08  0.4924E-09  0.2017E-09  0.0000E+00  0.0000E+00  0.0000E+00  0.0000E+00  0.0000E+00  0.0000E+00  0.0000E+00  0.0000E+00  0.0000E+00  0.0000E+00  0.0000E+00  0.0000E+00  0.0000E+00  0.0000E+00  0.0000E+00  0.0000E+00  0.0000E+00  0.0000E+00  0.0000E+00  0.0000E+00  0.0000E+00  0.0000E+00  0.0000E+00  0.0000E+00  0.0000E+00  0.0000E+00  0.0000E+00  0.0000E+00  0.0000E+00  0.0000E+00  0.0000E+00  0.0000E+00  0.0000E+00  0.0000E+00  0.0000E+00  0.0000E+00
  0.2229E-08  0.2586E-08  0.3096E-08  0.3639E-08  0.4510E-08  0.5123E-08  0.6267E-08  0.6911E-08  0.8247E-08  0.9035E-08  0.1058E-07  0.1165E-07  0.1329E-07  0.1452E-07  0.1707E-07  0.1850E-07  0.2212E-07  0.2578E-07  0.2848E-07  0.3240E-07  0.3522E-07  0.3676E-07  0.4034E-07  0.4082E-07  0.4138E-07  0.4045E-07  0.4017E-07  0.3911E-07  0.3692E-07  0.3502E-07  0.3167E-07  0.2897E-07  0.2527E-07  0.2086E-07  0.1756E-07  0.1356E-07  0.1008E-07  0.6837E-08  0.4901E-08  0.3259E-08  0.1983E-08  0.9915E-09  0.4286E-09  0.1542E-09  0.0000E+00  0.0000E+00  0.0000E+00  0.0000E+00  0.0000E+00  0.0000E+00  0.0000E+00  0.0000E+00  0.0000E+00  0.0000E+00  0.0000E+00  0.0000E+00  0.0000E+00  0.0000E+00  0.0000E+00  0.0000E+00  0.0000E+00  0.0000E+00  0.0000E+00  0.0000E+00  0.0000E+00  0.0000E+00  0.0000E+00  0.0000E+00  0.0000E+00  0.0000E+00  0.0000E+00  0.0000E+00  0.0000E+00  0.0000E+00  0.0000E+00  0.0000E+00  0.0000E+00  0.0000E+00  0.0000E+00
  0.2606E-08  0.3128E-08  0.3687E-08  0.4680E-08  0.5221E-08  0.6402E-08  0.7195E-08  0.8480E-08  0.9615E-08  0.1096E-07  0.1230E-07  0.1399E-07  0.1542E-07  0.1812E-07  0.2089E-07  0.2484E-07  0.2906E-07  0.3341E-07  0.3710E-07  0.4281E-07  0.4534E-07  0.4780E-07  0.5176E-07  0.5274E-07  0.5333E-07  0.5325E-07  0.5173E-07  0.5219E-07  0.5032E-07  0.4735E-07  0.4310E-07  0.3879E-07  0.3514E-07  0.2938E-07  0.2484E-07  0.1926E-07  0.1470E-07  0.1090E-07  0.7101E-08  0.4939E-08  0.3267E-08  0.1903E-08  0.9087E-09  0.3632E-09  0.1154E-09  0.0000E+00  0.0000E+00  0.0000E+00  0.0000E+00  0.0000E+00  0.0000E+00  0.0000E+00  0.0000E+00  0.0000E+00  0.0000E+00  0.0000E+00  0.0000E+00  0.0000E+00  0.0000E+00  0.0000E+00  0.0000E+00  0.0000E+00  0.0000E+00  0.0000E+00  0.0000E+00  0.0000E+00  0.0000E+00  0.0000E+00  0.0000E+00  0.0000E+00  0.0000E+00  0.0000E+00  0.0000E+00  0.0000E+00  0.0000E+00  0.0000E+00  0.0000E+00  0.0000E+00  0.0000E+00
  0.3136E-08  0.3708E-08  0.4715E-08  0.5279E-08  0.6488E-08  0.7316E-08  0.8647E-08  0.9838E-08  0.1136E-07  0.1267E-07  0.1446E-07  0.1637E-07  0.1888E-07  0.2303E-07  0.2724E-07  0.3200E-07  0.3718E-07  0.4364E-07  0.4722E-07  0.5406E-07  0.5772E-07  0.6076E-07  0.6557E-07  0.6761E-07  0.6763E-07  0.6967E-07  0.6963E-07  0.6798E-07  0.6572E-07  0.6248E-07  0.5706E-07  0.5205E-07  0.4603E-07  0.4058E-07  0.3284E-07  0.2744E-07  0.2091E-07  0.1576E-07  0.1138E-07  0.7295E-08  0.4991E-08  0.3117E-08  0.1800E-08  0.8345E-09  0.4139E-09  0.2417E-09  0.1056E-09  0.0000E+00  0.0000E+00  0.0000E+00  0.0000E+00  0.0000E+00  0.0000E+00  0.0000E+00  0.0000E+00  0.0000E+00  0.0000E+00  0.0000E+00  0.0000E+00  0.0000E+00  0.0000E+00  0.0000E+00  0.0000E+00  0.0000E+00  0.0000E+00  0.0000E+00  0.0000E+00  0.0000E+00  0.0000E+00  0.0000E+00  0.0000E+00  0.0000E+00  0.0000E+00  0.0000E+00  0.0000E+00  0.0000E+00  0.0000E+00  0.0000E+00  0.0000E+00
  0.3701E-08  0.4566E-08  0.5298E-08  0.6524E-08  0.7384E-08  0.8748E-08  0.9985E-08  0.1157E-07  0.1307E-07  0.1482E-07  0.1684E-07  0.2045E-07  0.2487E-07  0.2959E-07  0.3470E-07  0.4164E-07  0.4689E-07  0.5462E-07  0.5933E-07  0.6747E-07  0.7224E-07  0.7742E-07  0.8272E-07  0.8655E-07  0.8929E-07  0.8989E-07  0.9058E-07  0.8860E-07  0.8576E-07  0.8085E-07  0.7533E-07  0.6781E-07  0.6174E-07  0.5228E-07  0.4558E-07  0.3768E-07  0.3001E-07  0.2380E-07  0.1671E-07  0.1221E-07  0.7324E-08  0.4913E-08  0.2951E-08  0.1740E-08  0.9250E-09  0.5774E-09  0.2556E-09  0.1108E-09  0.0000E+00  0.0000E+00  0.0000E+00  0.0000E+00  0.0000E+00  0.0000E+00  0.0000E+00  0.0000E+00  0.0000E+00  0.0000E+00  0.0000E+00  0.0000E+00  0.0000E+00  0.0000E+00  0.0000E+00  0.0000E+00  0.0000E+00  0.0000E+00  0.0000E+00  0.0000E+00  0.0000E+00  0.0000E+00  0.0000E+00  0.0000E+00  0.0000E+00  0.0000E+00  0.0000E+00  0.0000E+00  0.0000E+00  0.0000E+00  0.0000E+00
  0.4436E-08  0.5275E-08  0.6346E-08  0.7392E-08  0.8777E-08  0.9881E-08  0.1168E-07  0.1311E-07  0.1506E-07  0.1716E-07  0.2103E-07  0.2548E-07  0.3049E-07  0.3707E-07  0.4460E-07  0.5184E-07  0.5960E-07  0.6764E-07  0.7370E-07  0.8338E-07  0.9035E-07  0.9912E-07  0.1040E-06  0.1100E-06  0.1137E-06  0.1148E-06  0.1156E-06  0.1134E-06  0.1100E-06  0.1037E-06  0.9725E-07  0.8901E-07  0.7944E-07  0.7032E-07  0.6029E-07  0.5070E-07  0.4141E-07  0.3196E-07  0.2532E-07  0.1745E-07  0.1202E-07  0.7363E-08  0.4826E-08  0.3113E-08  0.1979E-08  0.1022E-08  0.6061E-09  0.3905E-09  0.1143E-09  0.0000E+00  0.0000E+00  0.0000E+00  0.0000E+00  0.0000E+00  0.0000E+00  0.0000E+00  0.0000E+00  0.0000E+00  0.0000E+00  0.0000E+00  0.0000E+00  0.0000E+00  0.0000E+00  0.0000E+00  0.0000E+00  0.0000E+00  0.0000E+00  0.0000E+00  0.0000E+00  0.0000E+00  0.0000E+00  0.0000E+00  0.0000E+00  0.0000E+00  0.0000E+00  0.0000E+00  0.0000E+00  0.0000E+00  0.0000E+00
  0.5214E-08  0.6286E-08  0.7237E-08  0.8559E-08  0.9870E-08  0.1157E-07  0.1316E-07  0.1517E-07  0.1712E-07  0.2112E-07  0.2583E-07  0.3105E-07  0.3915E-07  0.4716E-07  0.5627E-07  0.6506E-07  0.7427E-07  0.8301E-07  0.9319E-07  0.1031E-06  0.1129E-06  0.1243E-06  0.1317E-06  0.1378E-06  0.1437E-06  0.1443E-06  0.1455E-06  0.1431E-06  0.1384E-06  0.1322E-06  0.1239E-06  0.1150E-06  0.1032E-06  0.9179E-07  0.7943E-07  0.6738E-07  0.5530E-07  0.4498E-07  0.3360E-07  0.2605E-07  0.1797E-07  0.1171E-07  0.7536E-08  0.5167E-08  0.3153E-08  0.2128E-08  0.1447E-08  0.7670E-09  0.3996E-09  0.1543E-09  0.0000E+00  0.0000E+00  0.0000E+00  0.0000E+00  0.0000E+00  0.0000E+00  0.0000E+00  0.0000E+00  0.0000E+00  0.0000E+00  0.0000E+00  0.0000E+00  0.0000E+00  0.0000E+00  0.0000E+00  0.0000E+00  0.0000E+00  0.0000E+00  0.0000E+00  0.0000E+00  0.0000E+00  0.0000E+00  0.0000E+00  0.0000E+00  0.0000E+00  0.0000E+00  0.0000E+00  0.0000E+00  0.0000E+00
  0.5929E-08  0.7135E-08  0.8458E-08  0.9667E-08  0.1130E-07  0.1293E-07  0.1515E-07  0.1715E-07  0.2021E-07  0.2591E-07  0.3127E-07  0.3948E-07  0.4916E-07  0.5898E-07  0.6868E-07  0.7906E-07  0.9166E-07  0.1011E-06  0.1140E-06  0.1275E-06  0.1403E-06  0.1538E-06  0.1644E-06  0.1705E-06  0.1778E-06  0.1807E-06  0.1810E-06  0.1777E-06  0.1737E-06  0.1654E-06  0.1573E-06  0.1448E-06  0.1333E-06  0.1181E-06  0.1040E-06  0.8887E-07  0.7450E-07  0.6017E-07  0.4819E-07  0.3539E-07  0.2754E-07  0.1851E-07  0.1366E-07  0.7849E-08  0.5246E-08  0.3646E-08  0.2525E-08  0.1810E-08  0.9984E-09  0.5403E-09  0.1546E-09  0.0000E+00  0.0000E+00  0.0000E+00  0.0000E+00  0.0000E+00  0.0000E+00  0.0000E+00  0.0000E+00  0.0000E+00  0.0000E+00  0.0000E+00  0.0000E+00  0.0000E+00  0.0000E+00  0.0000E+00  0.0000E+00  0.0000E+00  0.0000E+00  0.0000E+00  0.0000E+00  0.0000E+00  0.0000E+00  0.0000E+00  0.0000E+00  0.0000E+00  0.0000E+00  0.0000E+00  0.0000E+00
  0.6878E-08  0.7867E-08  0.9504E-08  0.1095E-07  0.1278E-07  0.1466E-07  0.1669E-07  0.2009E-07  0.2483E-07  0.3098E-07  0.4057E-07  0.5056E-07  0.6095E-07  0.7146E-07  0.8418E-07  0.9562E-07  0.1105E-06  0.1228E-06  0.1411E-06  0.1582E-06  0.1724E-06  0.1882E-06  0.2009E-06  0.2078E-06  0.2170E-06  0.2212E-06  0.2218E-06  0.2199E-06  0.2141E-06  0.2068E-06  0.1953E-06  0.1838E-06  0.1688E-06  0.1521E-06  0.1353E-06  0.1161E-06  0.9984E-07  0.8128E-07  0.6459E-07  0.5090E-07  0.3693E-07  0.2871E-07  0.1925E-07  0.1413E-07  0.8156E-08  0.5738E-08  0.4365E-08  0.2958E-08  0.2086E-08  0.1198E-08  0.6958E-09  0.1525E-09  0.0000E+00  0.0000E+00  0.0000E+00  0.0000E+00  0.0000E+00  0.0000E+00  0.0000E+00  0.0000E+00  0.0000E+00  0.0000E+00  0.0000E+00  0.0000E+00  0.0000E+00  0.0000E+00  0.0000E+00  0.0000E+00  0.0000E+00  0.0000E+00  0.0000E+00  0.0000E+00  0.0000E+00  0.0000E+00  0.0000E+00  0.0000E+00  0.0000E+00  0.0000E+00  0.0000E+00
  0.7666E-08  0.9096E-08  0.1043E-07  0.1241E-07  0.1421E-07  0.1645E-07  0.1877E-07  0.2312E-07  0.2955E-07  0.3806E-07  0.5019E-07  0.6078E-07  0.7312E-07  0.8696E-07  0.1010E-06  0.1160E-06  0.1332E-06  0.1509E-06  0.1723E-06  0.1925E-06  0.2109E-06  0.2280E-06  0.2433E-06  0.2539E-06  0.2636E-06  0.2693E-06  0.2710E-06  0.2689E-06  0.2641E-06  0.2552E-06  0.2439E-06  0.2292E-06  0.2125E-06  0.1935E-06  0.1726E-06  0.1519E-06  0.1286E-06  0.1085E-06  0.8747E-07  0.6855E-07  0.5356E-07  0.3872E-07  0.3000E-07  0.1988E-07  0.1512E-07  0.8956E-08  0.6535E-08  0.4837E-08  0.3337E-08  0.2319E-08  0.1358E-08  0.7726E-09  0.2475E-09  0.0000E+00  0.0000E+00  0.0000E+00  0.0000E+00  0.0000E+00  0.0000E+00  0.0000E+00  0.0000E+00  0.0000E+00  0.0000E+00  0.0000E+00  0.0000E+00  0.0000E+00  0.0000E+00  0.0000E+00  0.0000E+00  0.0000E+00  0.0000E+00  0.0000E+00  0.0000E+00  0.0000E+00  0.0000E+00  0.0000E+00  0.0000E+00  0.0000E+00  0.0000E+00
  0.8543E-08  0.1013E-07  0.1188E-07  0.1355E-07  0.1594E-07  0.1818E-07  0.2260E-07  0.2884E-07  0.3704E-07  0.4799E-07  0.5993E-07  0.7387E-07  0.8841E-07  0.1049E-06  0.1216E-06  0.1406E-06  0.1620E-06  0.1818E-06  0.2096E-06  0.2335E-06  0.2552E-06  0.2739E-06  0.2922E-06  0.3071E-06  0.3177E-06  0.3248E-06  0.3284E-06  0.3258E-06  0.3228E-06  0.3129E-06  0.3005E-06  0.2841E-06  0.2651E-06  0.2437E-06  0.2203E-06  0.1940E-06  0.1694E-06  0.1421E-06  0.1192E-06  0.9516E-07  0.7615E-07  0.5865E-07  0.4382E-07  0.3291E-07  0.2205E-07  0.1772E-07  0.1284E-07  0.8216E-08  0.5967E-08  0.3838E-08  0.2407E-08  0.1566E-08  0.7942E-09  0.2152E-09  0.0000E+00  0.0000E+00  0.0000E+00  0.0000E+00  0.0000E+00  0.0000E+00  0.0000E+00  0.0000E+00  0.0000E+00  0.0000E+00  0.0000E+00  0.0000E+00  0.0000E+00  0.0000E+00  0.0000E+00  0.0000E+00  0.0000E+00  0.0000E+00  0.0000E+00  0.0000E+00  0.0000E+00  0.0000E+00  0.0000E+00  0.0000E+00  0.0000E+00
  0.9649E-08  0.1119E-07  0.1312E-07  0.1506E-07  0.1734E-07  0.1999E-07  0.2568E-07  0.3376E-07  0.4440E-07  0.5811E-07  0.7229E-07  0.8876E-07  0.1062E-06  0.1242E-06  0.1438E-06  0.1689E-06  0.1937E-06  0.2230E-06  0.2513E-06  0.2805E-06  0.3059E-06  0.3265E-06  0.3484E-06  0.3666E-06  0.3795E-06  0.3895E-06  0.3933E-06  0.3939E-06  0.3896E-06  0.3823E-06  0.3678E-06  0.3513E-06  0.3306E-06  0.3056E-06  0.2788E-06  0.2499E-06  0.2175E-06  0.1891E-06  0.1574E-06  0.1317E-06  0.1053E-06  0.8415E-07  0.6541E-07  0.4968E-07  0.3747E-07  0.2861E-07  0.2121E-07  0.1596E-07  0.1112E-07  0.7996E-08  0.5840E-08  0.4030E-08  0.2316E-08  0.1008E-08  0.2304E-09  0.0000E+00  0.0000E+00  0.0000E+00  0.0000E+00  0.0000E+00  0.0000E+00  0.0000E+00  0.0000E+00  0.0000E+00  0.0000E+00  0.0000E+00  0.0000E+00  0.0000E+00  0.0000E+00  0.0000E+00  0.0000E+00  0.0000E+00  0.0000E+00  0.0000E+00  0.0000E+00  0.0000E+00  0.0000E+00  0.0000E+00  0.0000E+00
  0.1045E-07  0.1230E-07  0.1420E-07  0.1673E-07  0.1898E-07  0.2360E-07  0.3127E-07  0.4148E-07  0.5477E-07  0.7100E-07  0.8771E-07  0.1057E-06  0.1248E-06  0.1476E-06  0.1714E-06  0.2032E-06  0.2314E-06  0.2658E-06  0.3002E-06  0.3326E-06  0.3622E-06  0.3914E-06  0.4127E-06  0.4343E-06  0.4511E-06  0.4624E-06  0.4710E-06  0.4720E-06  0.4703E-06  0.4626E-06  0.4504E-06  0.4326E-06  0.4091E-06  0.3832E-06  0.3509E-06  0.3173E-06  0.2817E-06  0.2439E-06  0.2095E-06  0.1737E-06  0.1449E-06  0.1158E-06  0.9380E-07  0.7189E-07  0.5636E-07  0.4364E-07  0.3510E-07  0.2773E-07  0.2150E-07  0.1608E-07  0.1165E-07  0.8238E-08  0.5586E-08  0.3716E-08  0.2250E-08  0.1070E-08  0.1970E-09  0.0000E+00  0.0000E+00  0.0000E+00  0.0000E+00  0.0000E+00  0.0000E+00  0.0000E+00  0.0000E+00  0.0000E+00  0.0000E+00  0.0000E+00  0.0000E+00  0.0000E+00  0.0000E+00  0.0000E+00  0.0000E+00  0.0000E+00  0.0000E+00  0.0000E+00  0.0000E+00  0.0000E+00  0.0000E+00
  0.1128E-07  0.1346E-07  0.1549E-07  0.1803E-07  0.2082E-07  0.2754E-07  0.3611E-07  0.4875E-07  0.6543E-07  0.8309E-07  0.1024E-06  0.1249E-06  0.1474E-06  0.1734E-06  0.2029E-06  0.2397E-06  0.2785E-06  0.3191E-06  0.3558E-06  0.3915E-06  0.4259E-06  0.4587E-06  0.4843E-06  0.5116E-06  0.5329E-06  0.5488E-06  0.5603E-06  0.5650E-06  0.5636E-06  0.5577E-06  0.5451E-06  0.5260E-06  0.5022E-06  0.4705E-06  0.4364E-06  0.3961E-06  0.3558E-06  0.3113E-06  0.2685E-06  0.2282E-06  0.1902E-06  0.1589E-06  0.1286E-06  0.1061E-06  0.8738E-07  0.7173E-07  0.6055E-07  0.4847E-07  0.3919E-07  0.3116E-07  0.2456E-07  0.1867E-07  0.1306E-07  0.8624E-08  0.5961E-08  0.3491E-08  0.2215E-08  0.1277E-08  0.6057E-09  0.0000E+00  0.0000E+00  0.0000E+00  0.0000E+00  0.0000E+00  0.0000E+00  0.0000E+00  0.0000E+00  0.0000E+00  0.0000E+00  0.0000E+00  0.0000E+00  0.0000E+00  0.0000E+00  0.0000E+00  0.0000E+00  0.0000E+00  0.0000E+00  0.0000E+00  0.0000E+00
  0.1247E-07  0.1444E-07  0.1683E-07  0.1933E-07  0.2407E-07  0.3098E-07  0.4372E-07  0.6039E-07  0.7852E-07  0.9781E-07  0.1218E-06  0.1466E-06  0.1731E-06  0.2059E-06  0.2432E-06  0.2839E-06  0.3278E-06  0.3746E-06  0.4186E-06  0.4586E-06  0.4971E-06  0.5361E-06  0.5700E-06  0.6012E-06  0.6265E-06  0.6483E-06  0.6621E-06  0.6710E-06  0.6718E-06  0.6662E-06  0.6545E-06  0.6352E-06  0.6067E-06  0.5752E-06  0.5342E-06  0.4919E-06  0.4425E-06  0.3954E-06  0.3450E-06  0.2992E-06  0.2564E-06  0.2153E-06  0.1816E-06  0.1511E-06  0.1242E-06  0.1047E-06  0.8727E-07  0.7464E-07  0.6237E-07  0.5334E-07  0.4510E-07  0.3713E-07  0.3005E-07  0.2338E-07  0.1882E-07  0.1369E-07  0.7987E-08  0.3486E-08  0.2282E-08  0.1290E-08  0.6095E-09  0.0000E+00  0.0000E+00  0.0000E+00  0.0000E+00  0.0000E+00  0.0000E+00  0.0000E+00  0.0000E+00  0.0000E+00  0.0000E+00  0.0000E+00  0.0000E+00  0.0000E+00  0.0000E+00  0.0000E+00  0.0000E+00  0.0000E+00  0.0000E+00
  0.1333E-07  0.1561E-07  0.1820E-07  0.2085E-07  0.2673E-07  0.3753E-07  0.5087E-07  0.6970E-07  0.9056E-07  0.1142E-06  0.1406E-06  0.1695E-06  0.2013E-06  0.2406E-06  0.2869E-06  0.3354E-06  0.3847E-06  0.4385E-06  0.4873E-06  0.5355E-06  0.5789E-06  0.6247E-06  0.6655E-06  0.7016E-06  0.7338E-06  0.7586E-06  0.7786E-06  0.7891E-06  0.7945E-06  0.7916E-06  0.7791E-06  0.7600E-06  0.7318E-06  0.6941E-06  0.6525E-06  0.6013E-06  0.5514E-06  0.4952E-06  0.4437E-06  0.3905E-06  0.3403E-06  0.2916E-06  0.2492E-06  0.2087E-06  0.1752E-06  0.1460E-06  0.1254E-06  0.1059E-06  0.9093E-07  0.7580E-07  0.6626E-07  0.5751E-07  0.4925E-07  0.4123E-07  0.3549E-07  0.2962E-07  0.2281E-07  0.1565E-07  0.1054E-07  0.5292E-08  0.2047E-08  0.1285E-08  0.4031E-09  0.0000E+00  0.0000E+00  0.0000E+00  0.0000E+00  0.0000E+00  0.0000E+00  0.0000E+00  0.0000E+00  0.0000E+00  0.0000E+00  0.0000E+00  0.0000E+00  0.0000E+00  0.0000E+00  0.0000E+00  0.0000E+00
  0.1439E-07  0.1660E-07  0.1934E-07  0.2224E-07  0.3061E-07  0.4353E-07  0.6089E-07  0.8254E-07  0.1081E-06  0.1343E-06  0.1634E-06  0.1952E-06  0.2362E-06  0.2821E-06  0.3370E-06  0.3917E-06  0.4488E-06  0.5102E-06  0.5664E-06  0.6218E-06  0.6712E-06  0.7248E-06  0.7713E-06  0.8157E-06  0.8519E-06  0.8849E-06  0.9075E-06  0.9253E-06  0.9336E-06  0.9321E-06  0.9232E-06  0.9017E-06  0.8727E-06  0.8372E-06  0.7943E-06  0.7437E-06  0.6829E-06  0.6225E-06  0.5556E-06  0.4943E-06  0.4309E-06  0.3732E-06  0.3177E-06  0.2693E-06  0.2271E-06  0.1904E-06  0.1627E-06  0.1388E-06  0.1189E-06  0.1041E-06  0.9053E-07  0.7962E-07  0.7045E-07  0.6032E-07  0.5397E-07  0.4732E-07  0.3907E-07  0.3161E-07  0.2521E-07  0.1704E-07  0.1146E-07  0.5293E-08  0.1791E-08  0.1051E-08  0.1977E-09  0.0000E+00  0.0000E+00  0.0000E+00  0.0000E+00  0.0000E+00  0.0000E+00  0.0000E+00  0.0000E+00  0.0000E+00  0.0000E+00  0.0000E+00  0.0000E+00  0.0000E+00  0.0000E+00
  0.1524E-07  0.1765E-07  0.2033E-07  0.2445E-07  0.3501E-07  0.5026E-07  0.7169E-07  0.9675E-07  0.1233E-06  0.1535E-06  0.1888E-06  0.2255E-06  0.2733E-06  0.3262E-06  0.3933E-06  0.4550E-06  0.5229E-06  0.5872E-06  0.6533E-06  0.7170E-06  0.7780E-06  0.8359E-06  0.8912E-06  0.9420E-06  0.9866E-06  0.1024E-05  0.1055E-05  0.1076E-05  0.1088E-05  0.1094E-05  0.1085E-05  0.1070E-05  0.1039E-05  0.9999E-06  0.9524E-06  0.8972E-06  0.8291E-06  0.7552E-06  0.6814E-06  0.6036E-06  0.5321E-06  0.4634E-06  0.3968E-06  0.3385E-06  0.2857E-06  0.2423E-06  0.2051E-06  0.1763E-06  0.1523E-06  0.1311E-06  0.1151E-06  0.1012E-06  0.9037E-07  0.8055E-07  0.7172E-07  0.6259E-07  0.5633E-07  0.4913E-07  0.4151E-07  0.3222E-07  0.2506E-07  0.1620E-07  0.1060E-07  0.3701E-08  0.1307E-08  0.6129E-09  0.0000E+00  0.0000E+00  0.0000E+00  0.0000E+00  0.0000E+00  0.0000E+00  0.0000E+00  0.0000E+00  0.0000E+00  0.0000E+00  0.0000E+00  0.0000E+00  0.0000E+00
  0.1594E-07  0.1882E-07  0.2162E-07  0.2771E-07  0.3933E-07  0.5860E-07  0.8527E-07  0.1112E-06  0.1417E-06  0.1780E-06  0.2170E-06  0.2618E-06  0.3179E-06  0.3795E-06  0.4534E-06  0.5277E-06  0.6032E-06  0.6766E-06  0.7494E-06  0.8218E-06  0.8914E-06  0.9579E-06  0.1023E-05  0.1082E-05  0.1135E-05  0.1181E-05  0.1218E-05  0.1247E-05  0.1265E-05  0.1271E-05  0.1270E-05  0.1250E-05  0.1222E-05  0.1175E-05  0.1121E-05  0.1052E-05  0.9760E-06  0.8936E-06  0.8079E-06  0.7219E-06  0.6378E-06  0.5558E-06  0.4810E-06  0.4096E-06  0.3472E-06  0.2922E-06  0.2498E-06  0.2134E-06  0.1848E-06  0.1621E-06  0.1426E-06  0.1261E-06  0.1132E-06  0.1006E-06  0.8893E-07  0.8239E-07  0.7336E-07  0.6248E-07  0.5680E-07  0.4896E-07  0.4032E-07  0.3065E-07  0.2317E-07  0.1495E-07  0.8160E-08  0.1568E-08  0.8392E-09  0.1967E-09  0.0000E+00  0.0000E+00  0.0000E+00  0.0000E+00  0.0000E+00  0.0000E+00  0.0000E+00  0.0000E+00  0.0000E+00  0.0000E+00  0.0000E+00
  0.1693E-07  0.1974E-07  0.2253E-07  0.3209E-07  0.4579E-07  0.6648E-07  0.9730E-07  0.1269E-06  0.1637E-06  0.2020E-06  0.2468E-06  0.3005E-06  0.3671E-06  0.4398E-06  0.5253E-06  0.6053E-06  0.6926E-06  0.7751E-06  0.8557E-06  0.9365E-06  0.1017E-05  0.1095E-05  0.1168E-05  0.1239E-05  0.1300E-05  0.1355E-05  0.1401E-05  0.1434E-05  0.1459E-05  0.1468E-05  0.1463E-05  0.1443E-05  0.1407E-05  0.1359E-05  0.1294E-05  0.1221E-05  0.1135E-05  0.1044E-05  0.9462E-06  0.8490E-06  0.7521E-06  0.6609E-06  0.5720E-06  0.4898E-06  0.4141E-06  0.3506E-06  0.2963E-06  0.2534E-06  0.2183E-06  0.1899E-06  0.1672E-06  0.1501E-06  0.1355E-06  0.1231E-06  0.1121E-06  0.1002E-06  0.8836E-07  0.8190E-07  0.7361E-07  0.6112E-07  0.5552E-07  0.4715E-07  0.3638E-07  0.2801E-07  0.1770E-07  0.1224E-07  0.2029E-08  0.1070E-08  0.4008E-09  0.0000E+00  0.0000E+00  0.0000E+00  0.0000E+00  0.0000E+00  0.0000E+00  0.0000E+00  0.0000E+00  0.0000E+00  0.0000E+00
  0.1756E-07  0.2048E-07  0.2375E-07  0.3585E-07  0.5312E-07  0.7637E-07  0.1105E-06  0.1478E-06  0.1864E-06  0.2305E-06  0.2795E-06  0.3456E-06  0.4206E-06  0.5088E-06  0.6021E-06  0.6943E-06  0.7883E-06  0.8830E-06  0.9761E-06  0.1063E-05  0.1157E-05  0.1243E-05  0.1331E-05  0.1410E-05  0.1483E-05  0.1545E-05  0.1596E-05  0.1636E-05  0.1659E-05  0.1673E-05  0.1666E-05  0.1646E-05  0.1606E-05  0.1552E-05  0.1483E-05  0.1397E-05  0.1305E-05  0.1201E-05  0.1094E-05  0.9859E-06  0.8766E-06  0.7723E-06  0.6709E-06  0.5769E-06  0.4901E-06  0.4119E-06  0.3491E-06  0.2969E-06  0.2542E-06  0.2214E-06  0.1946E-06  0.1734E-06  0.1567E-06  0.1429E-06  0.1311E-06  0.1200E-06  0.1113E-06  0.1001E-06  0.8683E-07  0.8015E-07  0.6971E-07  0.5838E-07  0.5218E-07  0.4211E-07  0.3163E-07  0.2310E-07  0.1461E-07  0.2292E-08  0.1301E-08  0.4068E-09  0.0000E+00  0.0000E+00  0.0000E+00  0.0000E+00  0.0000E+00  0.0000E+00  0.0000E+00  0.0000E+00  0.0000E+00
  0.1828E-07  0.2130E-07  0.2468E-07  0.3969E-07  0.6212E-07  0.8842E-07  0.1267E-06  0.1655E-06  0.2095E-06  0.2618E-06  0.3191E-06  0.3959E-06  0.4803E-06  0.5833E-06  0.6851E-06  0.7885E-06  0.8953E-06  0.9991E-06  0.1104E-05  0.1204E-05  0.1312E-05  0.1410E-05  0.1507E-05  0.1599E-05  0.1677E-05  0.1747E-05  0.1804E-05  0.1845E-05  0.1875E-05  0.1885E-05  0.1882E-05  0.1856E-05  0.1816E-05  0.1754E-05  0.1677E-05  0.1585E-05  0.1479E-05  0.1367E-05  0.1249E-05  0.1126E-05  0.1007E-05  0.8896E-06  0.7790E-06  0.6720E-06  0.5738E-06  0.4875E-06  0.4138E-06  0.3532E-06  0.3041E-06  0.2639E-06  0.2311E-06  0.2049E-06  0.1843E-06  0.1666E-06  0.1505E-06  0.1373E-06  0.1274E-06  0.1177E-06  0.1088E-06  0.9167E-07  0.8410E-07  0.7680E-07  0.6087E-07  0.5436E-07  0.4664E-07  0.3260E-07  0.2696E-07  0.1493E-07  0.9131E-08  0.1314E-08  0.6140E-09  0.0000E+00  0.0000E+00  0.0000E+00  0.0000E+00  0.0000E+00  0.0000E+00  0.0000E+00  0.0000E+00
  0.1914E-07  0.2191E-07  0.2538E-07  0.4393E-07  0.6914E-07  0.1020E-06  0.1442E-06  0.1868E-06  0.2389E-06  0.2967E-06  0.3637E-06  0.4533E-06  0.5492E-06  0.6658E-06  0.7818E-06  0.8956E-06  0.1012E-05  0.1127E-05  0.1245E-05  0.1362E-05  0.1478E-05  0.1593E-05  0.1699E-05  0.1799E-05  0.1886E-05  0.1961E-05  0.2022E-05  0.2070E-05  0.2099E-05  0.2113E-05  0.2103E-05  0.2079E-05  0.2029E-05  0.1964E-05  0.1877E-05  0.1777E-05  0.1663E-05  0.1540E-05  0.1408E-05  0.1278E-05  0.1146E-05  0.1020E-05  0.8953E-06  0.7786E-06  0.6690E-06  0.5685E-06  0.4851E-06  0.4156E-06  0.3590E-06  0.3140E-06  0.2772E-06  0.2479E-06  0.2235E-06  0.2023E-06  0.1832E-06  0.1655E-06  0.1515E-06  0.1379E-06  0.1252E-06  0.1139E-06  0.1044E-06  0.8746E-07  0.7960E-07  0.6781E-07  0.5614E-07  0.4910E-07  0.3303E-07  0.2839E-07  0.1513E-07  0.1067E-07  0.1320E-08  0.6164E-09  0.0000E+00  0.0000E+00  0.0000E+00  0.0000E+00  0.0000E+00  0.0000E+00  0.0000E+00
  0.1961E-07  0.2244E-07  0.2599E-07  0.4829E-07  0.7857E-07  0.1190E-06  0.1616E-06  0.2125E-06  0.2677E-06  0.3333E-06  0.4158E-06  0.5158E-06  0.6286E-06  0.7566E-06  0.8821E-06  0.1011E-05  0.1139E-05  0.1266E-05  0.1400E-05  0.1528E-05  0.1661E-05  0.1786E-05  0.1906E-05  0.2014E-05  0.2109E-05  0.2192E-05  0.2255E-05  0.2307E-05  0.2335E-05  0.2347E-05  0.2336E-05  0.2302E-05  0.2250E-05  0.2172E-05  0.2080E-05  0.1969E-05  0.1846E-05  0.1713E-05  0.1574E-05  0.1432E-05  0.1289E-05  0.1149E-05  0.1015E-05  0.8836E-06  0.7621E-06  0.6534E-06  0.5582E-06  0.4799E-06  0.4181E-06  0.3682E-06  0.3273E-06  0.2935E-06  0.2658E-06  0.2422E-06  0.2211E-06  0.2002E-06  0.1831E-06  0.1679E-06  0.1510E-06  0.1359E-06  0.1225E-06  0.1084E-06  0.9427E-07  0.8137E-07  0.7021E-07  0.5695E-07  0.4961E-07  0.3342E-07  0.2863E-07  0.1495E-07  0.1019E-07  0.1318E-08  0.6155E-09  0.0000E+00  0.0000E+00  0.0000E+00  0.0000E+00  0.0000E+00  0.0000E+00
  0.2001E-07  0.2304E-07  0.2665E-07  0.5136E-07  0.8685E-07  0.1324E-06  0.1811E-06  0.2386E-06  0.3018E-06  0.3743E-06  0.4728E-06  0.5853E-06  0.7177E-06  0.8550E-06  0.9945E-06  0.1134E-05  0.1276E-05  0.1418E-05  0.1566E-05  0.1715E-05  0.1855E-05  0.1997E-05  0.2125E-05  0.2243E-05  0.2346E-05  0.2429E-05  0.2501E-05  0.2547E-05  0.2579E-05  0.2584E-05  0.2569E-05  0.2530E-05  0.2464E-05  0.2383E-05  0.2276E-05  0.2157E-05  0.2024E-05  0.1879E-05  0.1729E-05  0.1573E-05  0.1419E-05  0.1267E-05  0.1118E-05  0.9774E-06  0.8451E-06  0.7248E-06  0.6215E-06  0.5376E-06  0.4691E-06  0.4135E-06  0.3690E-06  0.3340E-06  0.3050E-06  0.2801E-06  0.2591E-06  0.2386E-06  0.2191E-06  0.2012E-06  0.1815E-06  0.1644E-06  0.1480E-06  0.1302E-06  0.1159E-06  0.9739E-07  0.8284E-07  0.7130E-07  0.5928E-07  0.4995E-07  0.3906E-07  0.2822E-07  0.1488E-07  0.8563E-08  0.1098E-08  0.4100E-09  0.0000E+00  0.0000E+00  0.0000E+00  0.0000E+00  0.0000E+00
  0.2033E-07  0.2340E-07  0.3179E-07  0.5640E-07  0.9779E-07  0.1511E-06  0.2046E-06  0.2653E-06  0.3395E-06  0.4221E-06  0.5358E-06  0.6608E-06  0.8117E-06  0.9626E-06  0.1115E-05  0.1271E-05  0.1430E-05  0.1590E-05  0.1750E-05  0.1914E-05  0.2070E-05  0.2220E-05  0.2361E-05  0.2485E-05  0.2590E-05  0.2681E-05  0.2746E-05  0.2797E-05  0.2819E-05  0.2823E-05  0.2797E-05  0.2749E-05  0.2676E-05  0.2580E-05  0.2463E-05  0.2332E-05  0.2185E-05  0.2031E-05  0.1868E-05  0.1703E-05  0.1537E-05  0.1373E-05  0.1215E-05  0.1062E-05  0.9208E-06  0.7934E-06  0.6841E-06  0.5936E-06  0.5200E-06  0.4614E-06  0.4139E-06  0.3758E-06  0.3438E-06  0.3167E-06  0.2931E-06  0.2713E-06  0.2516E-06  0.2340E-06  0.2148E-06  0.1961E-06  0.1766E-06  0.1565E-06  0.1398E-06  0.1212E-06  0.1029E-06  0.8447E-07  0.7107E-07  0.5954E-07  0.4928E-07  0.3794E-07  0.2685E-07  0.1446E-07  0.7418E-08  0.1085E-08  0.4055E-09  0.0000E+00  0.0000E+00  0.0000E+00  0.0000E+00
  0.2071E-07  0.2367E-07  0.3633E-07  0.6166E-07  0.1059E-06  0.1665E-06  0.2260E-06  0.2975E-06  0.3819E-06  0.4729E-06  0.6033E-06  0.7465E-06  0.9158E-06  0.1081E-05  0.1250E-05  0.1419E-05  0.1595E-05  0.1773E-05  0.1951E-05  0.2128E-05  0.2299E-05  0.2462E-05  0.2608E-05  0.2737E-05  0.2848E-05  0.2934E-05  0.3002E-05  0.3042E-05  0.3061E-05  0.3049E-05  0.3018E-05  0.2954E-05  0.2868E-05  0.2759E-05  0.2633E-05  0.2487E-05  0.2331E-05  0.2164E-05  0.1993E-05  0.1815E-05  0.1640E-05  0.1467E-05  0.1297E-05  0.1138E-05  0.9897E-06  0.8560E-06  0.7413E-06  0.6482E-06  0.5726E-06  0.5111E-06  0.4607E-06  0.4196E-06  0.3855E-06  0.3561E-06  0.3299E-06  0.3054E-06  0.2836E-06  0.2632E-06  0.2439E-06  0.2248E-06  0.2063E-06  0.1862E-06  0.1654E-06  0.1455E-06  0.1262E-06  0.1067E-06  0.8497E-07  0.7011E-07  0.5856E-07  0.4797E-07  0.3635E-07  0.2443E-07  0.1315E-07  0.6130E-08  0.8602E-09  0.2010E-09  0.0000E+00  0.0000E+00  0.0000E+00
  0.2067E-07  0.2399E-07  0.4144E-07  0.6536E-07  0.1189E-06  0.1859E-06  0.2573E-06  0.3335E-06  0.4265E-06  0.5297E-06  0.6790E-06  0.8422E-06  0.1029E-05  0.1214E-05  0.1397E-05  0.1584E-05  0.1774E-05  0.1974E-05  0.2165E-05  0.2363E-05  0.2545E-05  0.2715E-05  0.2871E-05  0.3000E-05  0.3112E-05  0.3194E-05  0.3255E-05  0.3285E-05  0.3289E-05  0.3269E-05  0.3217E-05  0.3142E-05  0.3041E-05  0.2920E-05  0.2780E-05  0.2624E-05  0.2456E-05  0.2279E-05  0.2094E-05  0.1911E-05  0.1725E-05  0.1547E-05  0.1371E-05  0.1206E-05  0.1052E-05  0.9151E-06  0.7990E-06  0.7037E-06  0.6302E-06  0.5706E-06  0.5192E-06  0.4761E-06  0.4387E-06  0.4054E-06  0.3699E-06  0.3431E-06  0.3187E-06  0.2955E-06  0.2730E-06  0.2521E-06  0.2315E-06  0.2121E-06  0.1931E-06  0.1720E-06  0.1496E-06  0.1299E-06  0.1082E-06  0.8740E-07  0.6828E-07  0.5708E-07  0.4593E-07  0.3417E-07  0.2225E-07  0.1136E-07  0.4878E-08  0.6369E-09  0.1969E-09  0.0000E+00  0.0000E+00
  0.2075E-07  0.2406E-07  0.4411E-07  0.7883E-07  0.1299E-06  0.2078E-06  0.2843E-06  0.3738E-06  0.4765E-06  0.6006E-06  0.7623E-06  0.9468E-06  0.1158E-05  0.1354E-05  0.1558E-05  0.1762E-05  0.1972E-05  0.2189E-05  0.2405E-05  0.2611E-05  0.2806E-05  0.2984E-05  0.3136E-05  0.3270E-05  0.3371E-05  0.3450E-05  0.3494E-05  0.3514E-05  0.3502E-05  0.3462E-05  0.3397E-05  0.3307E-05  0.3189E-05  0.3055E-05  0.2900E-05  0.2734E-05  0.2554E-05  0.2367E-05  0.2174E-05  0.1982E-05  0.1792E-05  0.1611E-05  0.1433E-05  0.1264E-05  0.1110E-05  0.9734E-06  0.8586E-06  0.7669E-06  0.7047E-06  0.6458E-06  0.5953E-06  0.5503E-06  0.5084E-06  0.4631E-06  0.4214E-06  0.3894E-06  0.3557E-06  0.3301E-06  0.3051E-06  0.2808E-06  0.2582E-06  0.2362E-06  0.2152E-06  0.1957E-06  0.1760E-06  0.1525E-06  0.1318E-06  0.1064E-06  0.8847E-07  0.6539E-07  0.5472E-07  0.4264E-07  0.3036E-07  0.1928E-07  0.8710E-08  0.3531E-08  0.6211E-09  0.0000E+00  0.0000E+00
  0.2075E-07  0.2382E-07  0.4851E-07  0.9018E-07  0.1449E-06  0.2300E-06  0.3173E-06  0.4194E-06  0.5366E-06  0.6868E-06  0.8622E-06  0.1063E-05  0.1295E-05  0.1512E-05  0.1731E-05  0.1962E-05  0.2189E-05  0.2428E-05  0.2658E-05  0.2880E-05  0.3080E-05  0.3260E-05  0.3414E-05  0.3534E-05  0.3631E-05  0.3689E-05  0.3723E-05  0.3720E-05  0.3690E-05  0.3632E-05  0.3548E-05  0.3436E-05  0.3308E-05  0.3157E-05  0.2993E-05  0.2812E-05  0.2624E-05  0.2426E-05  0.2225E-05  0.2033E-05  0.1841E-05  0.1654E-05  0.1483E-05  0.1319E-05  0.1167E-05  0.1028E-05  0.9236E-06  0.8574E-06  0.7980E-06  0.7577E-06  0.7067E-06  0.6484E-06  0.5909E-06  0.5413E-06  0.4894E-06  0.4431E-06  0.4034E-06  0.3672E-06  0.3395E-06  0.3123E-06  0.2864E-06  0.2623E-06  0.2388E-06  0.2166E-06  0.1959E-06  0.1768E-06  0.1545E-06  0.1297E-06  0.1025E-06  0.8651E-07  0.6288E-07  0.5172E-07  0.3916E-07  0.2635E-07  0.1589E-07  0.7201E-08  0.2401E-08  0.4057E-09  0.0000E+00
  0.2066E-07  0.2371E-07  0.5224E-07  0.9868E-07  0.1555E-06  0.2546E-06  0.3548E-06  0.4717E-06  0.6017E-06  0.7744E-06  0.9751E-06  0.1204E-05  0.1449E-05  0.1683E-05  0.1926E-05  0.2179E-05  0.2433E-05  0.2687E-05  0.2933E-05  0.3159E-05  0.3366E-05  0.3542E-05  0.3689E-05  0.3797E-05  0.3874E-05  0.3916E-05  0.3922E-05  0.3900E-05  0.3845E-05  0.3767E-05  0.3661E-05  0.3537E-05  0.3390E-05  0.3229E-05  0.3048E-05  0.2859E-05  0.2658E-05  0.2454E-05  0.2251E-05  0.2051E-05  0.1869E-05  0.1691E-05  0.1521E-05  0.1369E-05  0.1224E-05  0.1094E-05  0.1017E-05  0.9695E-06  0.9485E-06  0.9022E-06  0.8534E-06  0.7830E-06  0.7075E-06  0.6335E-06  0.5654E-06  0.5063E-06  0.4565E-06  0.4139E-06  0.3753E-06  0.3451E-06  0.3167E-06  0.2892E-06  0.2631E-06  0.2390E-06  0.2161E-06  0.1945E-06  0.1746E-06  0.1541E-06  0.1256E-06  0.1029E-06  0.8257E-07  0.5917E-07  0.4726E-07  0.3420E-07  0.2237E-07  0.1243E-07  0.5602E-08  0.1223E-08  0.1981E-09
  0.2049E-07  0.2350E-07  0.5634E-07  0.1088E-06  0.1805E-06  0.2895E-06  0.3958E-06  0.5280E-06  0.6761E-06  0.8743E-06  0.1099E-05  0.1356E-05  0.1620E-05  0.1877E-05  0.2141E-05  0.2415E-05  0.2697E-05  0.2966E-05  0.3224E-05  0.3456E-05  0.3655E-05  0.3824E-05  0.3950E-05  0.4044E-05  0.4094E-05  0.4110E-05  0.4092E-05  0.4039E-05  0.3964E-05  0.3864E-05  0.3740E-05  0.3600E-05  0.3438E-05  0.3262E-05  0.3072E-05  0.2869E-05  0.2662E-05  0.2448E-05  0.2244E-05  0.2051E-05  0.1883E-05  0.1720E-05  0.1569E-05  0.1424E-05  0.1296E-05  0.1191E-05  0.1143E-05  0.1149E-05  0.1150E-05  0.1127E-05  0.1050E-05  0.9692E-06  0.8668E-06  0.7646E-06  0.6720E-06  0.5868E-06  0.5214E-06  0.4584E-06  0.4193E-06  0.3802E-06  0.3478E-06  0.3175E-06  0.2894E-06  0.2623E-06  0.2369E-06  0.2133E-06  0.1916E-06  0.1705E-06  0.1497E-06  0.1198E-06  0.1000E-06  0.7798E-07  0.5386E-07  0.4181E-07  0.2980E-07  0.1782E-07  0.9682E-08  0.3941E-08  0.4160E-09
  0.2006E-07  0.2300E-07  0.6133E-07  0.1185E-06  0.2056E-06  0.3180E-06  0.4451E-06  0.5929E-06  0.7623E-06  0.9886E-06  0.1240E-05  0.1522E-05  0.1805E-05  0.2094E-05  0.2376E-05  0.2682E-05  0.2980E-05  0.3268E-05  0.3529E-05  0.3755E-05  0.3947E-05  0.4090E-05  0.4199E-05  0.4257E-05  0.4283E-05  0.4266E-05  0.4217E-05  0.4140E-05  0.4041E-05  0.3919E-05  0.3780E-05  0.3620E-05  0.3448E-05  0.3257E-05  0.3054E-05  0.2843E-05  0.2626E-05  0.2410E-05  0.2206E-05  0.2031E-05  0.1887E-05  0.1753E-05  0.1629E-05  0.1505E-05  0.1379E-05  0.1307E-05  0.1349E-05  0.1436E-05  0.1486E-05  0.1452E-05  0.1355E-05  0.1226E-05  0.1079E-05  0.9372E-06  0.8014E-06  0.6822E-06  0.5966E-06  0.5196E-06  0.4610E-06  0.4164E-06  0.3806E-06  0.3475E-06  0.3161E-06  0.2863E-06  0.2586E-06  0.2331E-06  0.2089E-06  0.1867E-06  0.1644E-06  0.1435E-06  0.1143E-06  0.9395E-07  0.7229E-07  0.4909E-07  0.3628E-07  0.2385E-07  0.1357E-07  0.7072E-08  0.2418E-08
  0.1956E-07  0.2248E-07  0.6414E-07  0.1337E-06  0.2306E-06  0.3543E-06  0.5021E-06  0.6721E-06  0.8676E-06  0.1118E-05  0.1396E-05  0.1709E-05  0.2019E-05  0.2333E-05  0.2655E-05  0.2972E-05  0.3292E-05  0.3582E-05  0.3844E-05  0.4057E-05  0.4222E-05  0.4342E-05  0.4410E-05  0.4440E-05  0.4422E-05  0.4375E-05  0.4295E-05  0.4195E-05  0.4071E-05  0.3933E-05  0.3776E-05  0.3605E-05  0.3414E-05  0.3213E-05  0.2999E-05  0.2778E-05  0.2557E-05  0.2341E-05  0.2143E-05  0.1999E-05  0.1892E-05  0.1808E-05  0.1722E-05  0.1621E-05  0.1521E-05  0.1514E-05  0.1665E-05  0.1882E-05  0.1977E-05  0.1937E-05  0.1776E-05  0.1566E-05  0.1352E-05  0.1144E-05  0.9593E-06  0.8021E-06  0.6775E-06  0.5869E-06  0.5117E-06  0.4590E-06  0.4151E-06  0.3781E-06  0.3434E-06  0.3112E-06  0.2811E-06  0.2529E-06  0.2268E-06  0.2025E-06  0.1791E-06  0.1569E-06  0.1344E-06  0.1067E-06  0.8622E-07  0.6369E-07  0.4358E-07  0.3010E-07  0.1898E-07  0.1019E-07  0.4404E-08
  0.1904E-07  0.2203E-07  0.7093E-07  0.1467E-06  0.2543E-06  0.3980E-06  0.5680E-06  0.7609E-06  0.9908E-06  0.1267E-05  0.1576E-05  0.1912E-05  0.2254E-05  0.2600E-05  0.2955E-05  0.3293E-05  0.3622E-05  0.3913E-05  0.4155E-05  0.4347E-05  0.4475E-05  0.4556E-05  0.4582E-05  0.4565E-05  0.4513E-05  0.4429E-05  0.4324E-05  0.4197E-05  0.4061E-05  0.3906E-05  0.3735E-05  0.3544E-05  0.3343E-05  0.3126E-05  0.2903E-05  0.2678E-05  0.2457E-05  0.2244E-05  0.2064E-05  0.1946E-05  0.1915E-05  0.1907E-05  0.1880E-05  0.1801E-05  0.1796E-05  0.1893E-05  0.2186E-05  0.2559E-05  0.2702E-05  0.2599E-05  0.2333E-05  0.2005E-05  0.1689E-05  0.1389E-05  0.1137E-05  0.9414E-06  0.7830E-06  0.6623E-06  0.5662E-06  0.5003E-06  0.4496E-06  0.4093E-06  0.3715E-06  0.3364E-06  0.3040E-06  0.2734E-06  0.2452E-06  0.2191E-06  0.1944E-06  0.1707E-06  0.1480E-06  0.1250E-06  0.9908E-07  0.7817E-07  0.5558E-07  0.3648E-07  0.2420E-07  0.1414E-07  0.7840E-08
  0.1861E-07  0.3312E-07  0.7518E-07  0.1599E-06  0.2939E-06  0.4492E-06  0.6418E-06  0.8649E-06  0.1128E-05  0.1436E-05  0.1778E-05  0.2155E-05  0.2522E-05  0.2905E-05  0.3282E-05  0.3643E-05  0.3969E-05  0.4239E-05  0.4457E-05  0.4600E-05  0.4689E-05  0.4713E-05  0.4693E-05  0.4631E-05  0.4540E-05  0.4429E-05  0.4304E-05  0.4161E-05  0.4008E-05  0.3837E-05  0.3650E-05  0.3446E-05  0.3227E-05  0.3001E-05  0.2772E-05  0.2545E-05  0.2328E-05  0.2127E-05  0.1983E-05  0.1920E-05  0.1968E-05  0.2071E-05  0.2114E-05  0.2152E-05  0.2253E-05  0.2540E-05  0.3041E-05  0.3553E-05  0.3666E-05  0.3438E-05  0.2997E-05  0.2524E-05  0.2064E-05  0.1665E-05  0.1344E-05  0.1081E-05  0.8856E-06  0.7388E-06  0.6247E-06  0.5476E-06  0.4911E-06  0.4407E-06  0.3999E-06  0.3619E-06  0.3268E-06  0.2939E-06  0.2635E-06  0.2356E-06  0.2093E-06  0.1841E-06  0.1605E-06  0.1385E-06  0.1156E-06  0.8944E-07  0.6870E-07  0.4692E-07  0.2981E-07  0.1851E-07  0.1063E-07
  0.1805E-07  0.3882E-07  0.8317E-07  0.1847E-06  0.3318E-06  0.5108E-06  0.7361E-06  0.9901E-06  0.1290E-05  0.1636E-05  0.2013E-05  0.2424E-05  0.2835E-05  0.3241E-05  0.3648E-05  0.4009E-05  0.4317E-05  0.4558E-05  0.4720E-05  0.4813E-05  0.4832E-05  0.4805E-05  0.4731E-05  0.4631E-05  0.4509E-05  0.4380E-05  0.4235E-05  0.4085E-05  0.3913E-05  0.3730E-05  0.3523E-05  0.3303E-05  0.3074E-05  0.2838E-05  0.2606E-05  0.2385E-05  0.2181E-05  0.2007E-05  0.1908E-05  0.1922E-05  0.2086E-05  0.2327E-05  0.2515E-05  0.2704E-05  0.2998E-05  0.3514E-05  0.4170E-05  0.4780E-05  0.4758E-05  0.4317E-05  0.3713E-05  0.3068E-05  0.2464E-05  0.1948E-05  0.1545E-05  0.1234E-05  0.9926E-06  0.8188E-06  0.6864E-06  0.5970E-06  0.5270E-06  0.4715E-06  0.4281E-06  0.3876E-06  0.3498E-06  0.3146E-06  0.2821E-06  0.2521E-06  0.2242E-06  0.1976E-06  0.1725E-06  0.1492E-06  0.1274E-06  0.1050E-06  0.7953E-07  0.5765E-07  0.3837E-07  0.2261E-07  0.1391E-07
  0.1762E-07  0.4376E-07  0.1002E-06  0.2088E-06  0.3733E-06  0.5875E-06  0.8445E-06  0.1138E-05  0.1500E-05  0.1883E-05  0.2293E-05  0.2739E-05  0.3189E-05  0.3626E-05  0.4031E-05  0.4386E-05  0.4655E-05  0.4837E-05  0.4932E-05  0.4947E-05  0.4902E-05  0.4812E-05  0.4695E-05  0.4563E-05  0.4427E-05  0.4282E-05  0.4133E-05  0.3964E-05  0.3783E-05  0.3576E-05  0.3355E-05  0.3120E-05  0.2879E-05  0.2640E-05  0.2416E-05  0.2208E-05  0.2021E-05  0.1887E-05  0.1850E-05  0.1970E-05  0.2245E-05  0.2608E-05  0.3042E-05  0.3528E-05  0.4076E-05  0.4719E-05  0.5356E-05  0.5716E-05  0.5674E-05  0.5047E-05  0.4347E-05  0.3578E-05  0.2854E-05  0.2235E-05  0.1736E-05  0.1373E-05  0.1096E-05  0.8969E-06  0.7473E-06  0.6404E-06  0.5674E-06  0.5080E-06  0.4562E-06  0.4130E-06  0.3726E-06  0.3349E-06  0.3004E-06  0.2685E-06  0.2386E-06  0.2110E-06  0.1849E-06  0.1604E-06  0.1380E-06  0.1159E-06  0.9210E-07  0.6745E-07  0.4686E-07  0.3021E-07  0.1739E-07
  0.1700E-07  0.4984E-07  0.1197E-06  0.2351E-06  0.4362E-06  0.6814E-06  0.9762E-06  0.1344E-05  0.1745E-05  0.2177E-05  0.2657E-05  0.3136E-05  0.3589E-05  0.4040E-05  0.4437E-05  0.4743E-05  0.4951E-05  0.5045E-05  0.5055E-05  0.4987E-05  0.4873E-05  0.4736E-05  0.4589E-05  0.4446E-05  0.4303E-05  0.4152E-05  0.3993E-05  0.3813E-05  0.3607E-05  0.3385E-05  0.3144E-05  0.2895E-05  0.2653E-05  0.2422E-05  0.2209E-05  0.2020E-05  0.1859E-05  0.1777E-05  0.1828E-05  0.2073E-05  0.2452E-05  0.2976E-05  0.3654E-05  0.4500E-05  0.5316E-05  0.5884E-05  0.6162E-05  0.6138E-05  0.5896E-05  0.5481E-05  0.4825E-05  0.4005E-05  0.3177E-05  0.2458E-05  0.1901E-05  0.1486E-05  0.1182E-05  0.9532E-06  0.7959E-06  0.6862E-06  0.6015E-06  0.5380E-06  0.4830E-06  0.4373E-06  0.3946E-06  0.3548E-06  0.3180E-06  0.2847E-06  0.2532E-06  0.2240E-06  0.1962E-06  0.1710E-06  0.1473E-06  0.1255E-06  0.1026E-06  0.7940E-07  0.5578E-07  0.3696E-07  0.2292E-07
  0.1618E-07  0.5766E-07  0.1355E-06  0.2695E-06  0.5048E-06  0.7739E-06  0.1139E-05  0.1571E-05  0.2053E-05  0.2597E-05  0.3129E-05  0.3634E-05  0.4092E-05  0.4478E-05  0.4822E-05  0.5059E-05  0.5158E-05  0.5154E-05  0.5058E-05  0.4913E-05  0.4748E-05  0.4585E-05  0.4431E-05  0.4289E-05  0.4145E-05  0.3994E-05  0.3819E-05  0.3619E-05  0.3393E-05  0.3147E-05  0.2892E-05  0.2642E-05  0.2404E-05  0.2187E-05  0.1997E-05  0.1834E-05  0.1714E-05  0.1697E-05  0.1865E-05  0.2217E-05  0.2771E-05  0.3524E-05  0.4504E-05  0.5531E-05  0.6276E-05  0.6494E-05  0.6388E-05  0.6160E-05  0.5938E-05  0.5706E-05  0.5147E-05  0.4282E-05  0.3372E-05  0.2579E-05  0.1985E-05  0.1541E-05  0.1220E-05  0.9922E-06  0.8371E-06  0.7211E-06  0.6325E-06  0.5660E-06  0.5086E-06  0.4606E-06  0.4159E-06  0.3746E-06  0.3359E-06  0.3003E-06  0.2672E-06  0.2364E-06  0.2071E-06  0.1806E-06  0.1562E-06  0.1350E-06  0.1118E-06  0.8890E-07  0.6552E-07  0.4500E-07  0.2784E-07
  0.1552E-07  0.6772E-07  0.1602E-06  0.3180E-06  0.5640E-06  0.8945E-06  0.1321E-05  0.1815E-05  0.2431E-05  0.3072E-05  0.3763E-05  0.4370E-05  0.4788E-05  0.5075E-05  0.5241E-05  0.5276E-05  0.5248E-05  0.5114E-05  0.4932E-05  0.4730E-05  0.4545E-05  0.4380E-05  0.4241E-05  0.4106E-05  0.3968E-05  0.3804E-05  0.3610E-05  0.3383E-05  0.3130E-05  0.2869E-05  0.2610E-05  0.2365E-05  0.2143E-05  0.1949E-05  0.1789E-05  0.1658E-05  0.1588E-05  0.1663E-05  0.1964E-05  0.2495E-05  0.3284E-05  0.4354E-05  0.5501E-05  0.6279E-05  0.6553E-05  0.6469E-05  0.6258E-05  0.6104E-05  0.5978E-05  0.5790E-05  0.5275E-05  0.4312E-05  0.3359E-05  0.2568E-05  0.1973E-05  0.1542E-05  0.1231E-05  0.1020E-05  0.8651E-06  0.7485E-06  0.6594E-06  0.5916E-06  0.5326E-06  0.4826E-06  0.4363E-06  0.3931E-06  0.3526E-06  0.3153E-06  0.2805E-06  0.2486E-06  0.2184E-06  0.1904E-06  0.1654E-06  0.1427E-06  0.1192E-06  0.9722E-07  0.7444E-07  0.5227E-07  0.3462E-07
  0.1482E-07  0.7465E-07  0.1777E-06  0.3516E-06  0.6338E-06  0.1012E-05  0.1489E-05  0.2105E-05  0.2860E-05  0.3697E-05  0.4600E-05  0.5360E-05  0.5812E-05  0.5918E-05  0.5892E-05  0.5684E-05  0.5386E-05  0.5053E-05  0.4732E-05  0.4465E-05  0.4289E-05  0.4155E-05  0.4033E-05  0.3915E-05  0.3766E-05  0.3581E-05  0.3355E-05  0.3099E-05  0.2829E-05  0.2561E-05  0.2306E-05  0.2078E-05  0.1883E-05  0.1722E-05  0.1595E-05  0.1498E-05  0.1493E-05  0.1695E-05  0.2165E-05  0.2960E-05  0.4112E-05  0.5347E-05  0.6141E-05  0.6388E-05  0.6324E-05  0.6181E-05  0.6049E-05  0.5917E-05  0.5703E-05  0.5338E-05  0.4822E-05  0.3911E-05  0.3078E-05  0.2389E-05  0.1864E-05  0.1481E-05  0.1212E-05  0.1018E-05  0.8735E-06  0.7635E-06  0.6828E-06  0.6148E-06  0.5548E-06  0.5032E-06  0.4554E-06  0.4104E-06  0.3684E-06  0.3295E-06  0.2932E-06  0.2600E-06  0.2288E-06  0.2000E-06  0.1736E-06  0.1500E-06  0.1276E-06  0.1047E-06  0.8229E-07  0.5956E-07  0.4065E-07
  0.1429E-07  0.7522E-07  0.1926E-06  0.3728E-06  0.6756E-06  0.1099E-05  0.1661E-05  0.2353E-05  0.3278E-05  0.4387E-05  0.5591E-05  0.6646E-05  0.7266E-05  0.7289E-05  0.6993E-05  0.6474E-05  0.5877E-05  0.5305E-05  0.4835E-05  0.4475E-05  0.4211E-05  0.4000E-05  0.3833E-05  0.3706E-05  0.3532E-05  0.3308E-05  0.3051E-05  0.2773E-05  0.2493E-05  0.2230E-05  0.1996E-05  0.1798E-05  0.1637E-05  0.1514E-05  0.1423E-05  0.1370E-05  0.1444E-05  0.1812E-05  0.2571E-05  0.3792E-05  0.5092E-05  0.5872E-05  0.6093E-05  0.6058E-05  0.5945E-05  0.5785E-05  0.5524E-05  0.5172E-05  0.4727E-05  0.4221E-05  0.3678E-05  0.3104E-05  0.2543E-05  0.2064E-05  0.1682E-05  0.1388E-05  0.1172E-05  0.1007E-05  0.8795E-06  0.7790E-06  0.6974E-06  0.6312E-06  0.5752E-06  0.5221E-06  0.4728E-06  0.4264E-06  0.3830E-06  0.3428E-06  0.3052E-06  0.2707E-06  0.2385E-06  0.2085E-06  0.1812E-06  0.1566E-06  0.1342E-06  0.1104E-06  0.8753E-07  0.6671E-07  0.4781E-07
  0.1331E-07  0.7298E-07  0.1883E-06  0.3968E-06  0.6898E-06  0.1139E-05  0.1753E-05  0.2558E-05  0.3631E-05  0.4982E-05  0.6537E-05  0.8012E-05  0.9034E-05  0.9268E-05  0.8799E-05  0.8066E-05  0.7260E-05  0.6503E-05  0.5860E-05  0.5292E-05  0.4821E-05  0.4418E-05  0.4045E-05  0.3650E-05  0.3321E-05  0.2987E-05  0.2698E-05  0.2409E-05  0.2138E-05  0.1899E-05  0.1699E-05  0.1538E-05  0.1416E-05  0.1327E-05  0.1276E-05  0.1273E-05  0.1479E-05  0.2118E-05  0.3346E-05  0.4705E-05  0.5454E-05  0.5662E-05  0.5625E-05  0.5463E-05  0.5182E-05  0.4776E-05  0.4295E-05  0.3784E-05  0.3342E-05  0.2919E-05  0.2530E-05  0.2176E-05  0.1931E-05  0.1690E-05  0.1457E-05  0.1269E-05  0.1112E-05  0.9827E-06  0.8755E-06  0.7857E-06  0.7140E-06  0.6493E-06  0.5928E-06  0.5391E-06  0.4884E-06  0.4408E-06  0.3963E-06  0.3550E-06  0.3164E-06  0.2805E-06  0.2471E-06  0.2164E-06  0.1886E-06  0.1632E-06  0.1395E-06  0.1158E-06  0.9326E-07  0.7235E-07  0.5303E-07
  0.1812E-07  0.6483E-07  0.1755E-06  0.3761E-06  0.6868E-06  0.1116E-05  0.1747E-05  0.2598E-05  0.3754E-05  0.5269E-05  0.7076E-05  0.8926E-05  0.1042E-04  0.1110E-04  0.1075E-04  0.1013E-04  0.9482E-05  0.8842E-05  0.8225E-05  0.7631E-05  0.6978E-05  0.6261E-05  0.5479E-05  0.4661E-05  0.3854E-05  0.3098E-05  0.2516E-05  0.2056E-05  0.1786E-05  0.1585E-05  0.1422E-05  0.1307E-05  0.1228E-05  0.1181E-05  0.1167E-05  0.1224E-05  0.1634E-05  0.2777E-05  0.4136E-05  0.4819E-05  0.4984E-05  0.4874E-05  0.4579E-05  0.4155E-05  0.3677E-05  0.3217E-05  0.2827E-05  0.2489E-05  0.2205E-05  0.1972E-05  0.1776E-05  0.1599E-05  0.1484E-05  0.1383E-05  0.1267E-05  0.1156E-05  0.1050E-05  0.9528E-06  0.8648E-06  0.7917E-06  0.7239E-06  0.6652E-06  0.6083E-06  0.5539E-06  0.5023E-06  0.4539E-06  0.4084E-06  0.3659E-06  0.3263E-06  0.2897E-06  0.2552E-06  0.2237E-06  0.1951E-06  0.1690E-06  0.1451E-06  0.1215E-06  0.9852E-07  0.7723E-07  0.5823E-07
  0.1749E-07  0.5672E-07  0.1533E-06  0.3333E-06  0.6245E-06  0.1026E-05  0.1624E-05  0.2452E-05  0.3588E-05  0.5068E-05  0.6894E-05  0.8811E-05  0.1049E-04  0.1143E-04  0.1141E-04  0.1126E-04  0.1112E-04  0.1097E-04  0.1079E-04  0.1053E-04  0.1011E-04  0.9505E-05  0.8689E-05  0.7684E-05  0.6524E-05  0.5264E-05  0.4001E-05  0.2867E-05  0.1997E-05  0.1442E-05  0.1198E-05  0.1122E-05  0.1080E-05  0.1069E-05  0.1088E-05  0.1234E-05  0.2063E-05  0.3297E-05  0.3849E-05  0.3883E-05  0.3634E-05  0.3252E-05  0.2841E-05  0.2522E-05  0.2254E-05  0.2040E-05  0.1873E-05  0.1739E-05  0.1627E-05  0.1532E-05  0.1441E-05  0.1357E-05  0.1278E-05  0.1227E-05  0.1161E-05  0.1087E-05  0.1010E-05  0.9332E-06  0.8640E-06  0.7965E-06  0.7357E-06  0.6770E-06  0.6206E-06  0.5662E-06  0.5142E-06  0.4648E-06  0.4186E-06  0.3754E-06  0.3352E-06  0.2970E-06  0.2624E-06  0.2296E-06  0.2010E-06  0.1743E-06  0.1498E-06  0.1257E-06  0.1034E-06  0.8150E-07  0.6299E-07
  0.1136E-07  0.4709E-07  0.1226E-06  0.2745E-06  0.5269E-06  0.8724E-06  0.1394E-05  0.2121E-05  0.3106E-05  0.4382E-05  0.5903E-05  0.7468E-05  0.8823E-05  0.9603E-05  0.9873E-05  0.1015E-04  0.1050E-04  0.1089E-04  0.1117E-04  0.1133E-04  0.1129E-04  0.1109E-04  0.1071E-04  0.1020E-04  0.9562E-05  0.8784E-05  0.7864E-05  0.6714E-05  0.5332E-05  0.3760E-05  0.2233E-05  0.1218E-05  0.9660E-06  0.9826E-06  0.1038E-05  0.1363E-05  0.2145E-05  0.2411E-05  0.2310E-05  0.2108E-05  0.1931E-05  0.1804E-05  0.1715E-05  0.1653E-05  0.1605E-05  0.1562E-05  0.1526E-05  0.1485E-05  0.1430E-05  0.1395E-05  0.1352E-05  0.1301E-05  0.1245E-05  0.1184E-05  0.1120E-05  0.1056E-05  0.9935E-06  0.9304E-06  0.8661E-06  0.8049E-06  0.7449E-06  0.6863E-06  0.6302E-06  0.5759E-06  0.5239E-06  0.4743E-06  0.4275E-06  0.3836E-06  0.3422E-06  0.3036E-06  0.2686E-06  0.2353E-06  0.2059E-06  0.1784E-06  0.1535E-06  0.1298E-06  0.1068E-06  0.8512E-07  0.6666E-07
  0.1061E-07  0.3290E-07  0.9042E-07  0.2051E-06  0.3866E-06  0.6824E-06  0.1094E-05  0.1669E-05  0.2418E-05  0.3348E-05  0.4386E-05  0.5360E-05  0.6099E-05  0.6540E-05  0.6891E-05  0.7362E-05  0.7973E-05  0.8659E-05  0.9190E-05  0.9376E-05  0.9349E-05  0.9137E-05  0.8861E-05  0.8546E-05  0.8219E-05  0.7885E-05  0.7524E-05  0.7074E-05  0.6522E-05  0.5771E-05  0.4789E-05  0.3485E-05  0.2022E-05  0.1024E-05  0.1112E-05  0.1091E-05  0.1154E-05  0.1213E-05  0.1264E-05  0.1314E-05  0.1361E-05  0.1397E-05  0.1429E-05  0.1461E-05  0.1481E-05  0.1488E-05  0.1482E-05  0.1464E-05  0.1436E-05  0.1398E-05  0.1353E-05  0.1301E-05  0.1244E-05  0.1184E-05  0.1121E-05  0.1057E-05  0.9933E-06  0.9307E-06  0.8694E-06  0.8094E-06  0.7501E-06  0.6924E-06  0.6365E-06  0.5828E-06  0.5308E-06  0.4814E-06  0.4343E-06  0.3899E-06  0.3482E-06  0.3094E-06  0.2734E-06  0.2403E-06  0.2104E-06  0.1822E-06  0.1575E-06  0.1327E-06  0.1098E-06  0.8909E-07  0.6997E-07
  0.1002E-07  0.1792E-07  0.4719E-07  0.1266E-06  0.2736E-06  0.4872E-06  0.7819E-06  0.1157E-05  0.1658E-05  0.2236E-05  0.2816E-05  0.3275E-05  0.3562E-05  0.3812E-05  0.4185E-05  0.4713E-05  0.5404E-05  0.6211E-05  0.6857E-05  0.6922E-05  0.6685E-05  0.6298E-05  0.5851E-05  0.5389E-05  0.4944E-05  0.4485E-05  0.4011E-05  0.3484E-05  0.2913E-05  0.2307E-05  0.1732E-05  0.1297E-05  0.1255E-05  0.1114E-05  0.9395E-06  0.9922E-06  0.1059E-05  0.1129E-05  0.1200E-05  0.1268E-05  0.1332E-05  0.1388E-05  0.1432E-05  0.1465E-05  0.1485E-05  0.1492E-05  0.1485E-05  0.1466E-05  0.1436E-05  0.1397E-05  0.1351E-05  0.1299E-05  0.1241E-05  0.1180E-05  0.1118E-05  0.1054E-05  0.9916E-06  0.9298E-06  0.8695E-06  0.8104E-06  0.7522E-06  0.6952E-06  0.6400E-06  0.5866E-06  0.5355E-06  0.4862E-06  0.4394E-06  0.3949E-06  0.3531E-06  0.3140E-06  0.2778E-06  0.2441E-06  0.2134E-06  0.1856E-06  0.1599E-06  0.1356E-06  0.1125E-06  0.9095E-07  0.7246E-07
  0.9467E-08  0.1092E-07  0.2772E-07  0.8079E-07  0.1691E-06  0.2951E-06  0.4914E-06  0.7419E-06  0.1004E-05  0.1313E-05  0.1585E-05  0.1781E-05  0.1905E-05  0.2146E-05  0.2530E-05  0.3050E-05  0.3760E-05  0.4560E-05  0.5248E-05  0.5190E-05  0.4847E-05  0.4377E-05  0.3887E-05  0.3424E-05  0.2972E-05  0.2535E-05  0.2060E-05  0.1733E-05  0.1523E-05  0.1595E-05  0.2255E-05  0.3022E-05  0.1930E-05  0.1026E-05  0.9284E-06  0.9678E-06  0.1041E-05  0.1116E-05  0.1189E-05  0.1260E-05  0.1325E-05  0.1381E-05  0.1428E-05  0.1462E-05  0.1482E-05  0.1488E-05  0.1480E-05  0.1461E-05  0.1431E-05  0.1391E-05  0.1344E-05  0.1291E-05  0.1233E-05  0.1173E-05  0.1111E-05  0.1048E-05  0.9863E-06  0.9256E-06  0.8660E-06  0.8079E-06  0.7511E-06  0.6953E-06  0.6410E-06  0.5882E-06  0.5377E-06  0.4889E-06  0.4424E-06  0.3979E-06  0.3562E-06  0.3167E-06  0.2799E-06  0.2469E-06  0.2164E-06  0.1878E-06  0.1611E-06  0.1368E-06  0.1143E-06  0.9353E-07  0.7448E-07
  0.8580E-08  0.1021E-07  0.1173E-07  0.3562E-07  0.8485E-07  0.1679E-06  0.2621E-06  0.4026E-06  0.5538E-06  0.6727E-06  0.8156E-06  0.9314E-06  0.1068E-05  0.1298E-05  0.1674E-05  0.2159E-05  0.2757E-05  0.3376E-05  0.3790E-05  0.3663E-05  0.3283E-05  0.2841E-05  0.2401E-05  0.1997E-05  0.1654E-05  0.1459E-05  0.1440E-05  0.1816E-05  0.2759E-05  0.4079E-05  0.4363E-05  0.2667E-05  0.1439E-05  0.9480E-06  0.9305E-06  0.9554E-06  0.1025E-05  0.1102E-05  0.1176E-05  0.1248E-05  0.1313E-05  0.1371E-05  0.1417E-05  0.1450E-05  0.1470E-05  0.1476E-05  0.1469E-05  0.1449E-05  0.1418E-05  0.1378E-05  0.1331E-05  0.1279E-05  0.1222E-05  0.1162E-05  0.1100E-05  0.1039E-05  0.9776E-06  0.9174E-06  0.8591E-06  0.8022E-06  0.7465E-06  0.6921E-06  0.6386E-06  0.5870E-06  0.5369E-06  0.4892E-06  0.4431E-06  0.3993E-06  0.3575E-06  0.3185E-06  0.2818E-06  0.2486E-06  0.2175E-06  0.1890E-06  0.1627E-06  0.1383E-06  0.1153E-06  0.9522E-07  0.7597E-07
  0.8242E-08  0.9662E-08  0.1114E-07  0.1264E-07  0.3031E-07  0.6752E-07  0.1071E-06  0.1715E-06  0.2479E-06  0.3088E-06  0.4043E-06  0.4697E-06  0.6447E-06  0.8936E-06  0.1213E-05  0.1603E-05  0.2028E-05  0.2385E-05  0.2501E-05  0.2280E-05  0.1931E-05  0.1570E-05  0.1341E-05  0.1247E-05  0.1386E-05  0.1884E-05  0.2882E-05  0.4315E-05  0.5394E-05  0.4921E-05  0.3126E-05  0.1912E-05  0.1211E-05  0.9095E-06  0.9337E-06  0.9497E-06  0.1009E-05  0.1086E-05  0.1160E-05  0.1231E-05  0.1297E-05  0.1354E-05  0.1399E-05  0.1432E-05  0.1451E-05  0.1456E-05  0.1449E-05  0.1429E-05  0.1399E-05  0.1360E-05  0.1313E-05  0.1261E-05  0.1205E-05  0.1146E-05  0.1086E-05  0.1025E-05  0.9649E-06  0.9061E-06  0.8485E-06  0.7928E-06  0.7388E-06  0.6856E-06  0.6336E-06  0.5829E-06  0.5341E-06  0.4871E-06  0.4420E-06  0.3988E-06  0.3578E-06  0.3188E-06  0.2829E-06  0.2495E-06  0.2185E-06  0.1896E-06  0.1623E-06  0.1393E-06  0.1166E-06  0.9670E-07  0.7736E-07
  0.7698E-08  0.8961E-08  0.1050E-07  0.1208E-07  0.1394E-07  0.2222E-07  0.2983E-07  0.5361E-07  0.7841E-07  0.1092E-06  0.1826E-06  0.2991E-06  0.4540E-06  0.6564E-06  0.8915E-06  0.1148E-05  0.1378E-05  0.1498E-05  0.1420E-05  0.1248E-05  0.1129E-05  0.1128E-05  0.1324E-05  0.1885E-05  0.2852E-05  0.4198E-05  0.5553E-05  0.6023E-05  0.5038E-05  0.3363E-05  0.2345E-05  0.1623E-05  0.1005E-05  0.8925E-06  0.9327E-06  0.9426E-06  0.9919E-06  0.1066E-05  0.1141E-05  0.1212E-05  0.1276E-05  0.1331E-05  0.1375E-05  0.1406E-05  0.1424E-05  0.1429E-05  0.1422E-05  0.1403E-05  0.1373E-05  0.1335E-05  0.1289E-05  0.1238E-05  0.1183E-05  0.1126E-05  0.1067E-05  0.1007E-05  0.9487E-06  0.8910E-06  0.8350E-06  0.7806E-06  0.7278E-06  0.6763E-06  0.6259E-06  0.5766E-06  0.5290E-06  0.4829E-06  0.4388E-06  0.3966E-06  0.3561E-06  0.3178E-06  0.2817E-06  0.2485E-06  0.2173E-06  0.1890E-06  0.1633E-06  0.1396E-06  0.1173E-06  0.9670E-07  0.7849E-07
  0.7441E-08  0.8540E-08  0.1004E-07  0.1146E-07  0.1315E-07  0.1514E-07  0.1702E-07  0.1926E-07  0.3155E-07  0.6310E-07  0.1173E-06  0.2058E-06  0.3152E-06  0.4581E-06  0.6043E-06  0.7504E-06  0.8529E-06  0.9288E-06  0.9395E-06  0.1021E-05  0.1282E-05  0.1818E-05  0.2708E-05  0.3966E-05  0.5347E-05  0.6286E-05  0.6164E-05  0.4933E-05  0.3507E-05  0.2665E-05  0.2037E-05  0.1291E-05  0.8894E-06  0.8951E-06  0.9372E-06  0.9423E-06  0.9806E-06  0.1049E-05  0.1122E-05  0.1189E-05  0.1250E-05  0.1302E-05  0.1344E-05  0.1373E-05  0.1391E-05  0.1396E-05  0.1388E-05  0.1370E-05  0.1341E-05  0.1304E-05  0.1260E-05  0.1211E-05  0.1157E-05  0.1101E-05  0.1044E-05  0.9859E-06  0.9286E-06  0.8727E-06  0.8181E-06  0.7653E-06  0.7142E-06  0.6643E-06  0.6155E-06  0.5678E-06  0.5213E-06  0.4767E-06  0.4337E-06  0.3923E-06  0.3525E-06  0.3152E-06  0.2803E-06  0.2475E-06  0.2171E-06  0.1887E-06  0.1618E-06  0.1382E-06  0.1172E-06  0.9708E-07  0.7825E-07
  0.6864E-08  0.8177E-08  0.9406E-08  0.1101E-07  0.1264E-07  0.1434E-07  0.1649E-07  0.1853E-07  0.2479E-07  0.4100E-07  0.8145E-07  0.1443E-06  0.2298E-06  0.3228E-06  0.4214E-06  0.5688E-06  0.7291E-06  0.9337E-06  0.1216E-05  0.1747E-05  0.2564E-05  0.3696E-05  0.4995E-05  0.6112E-05  0.6565E-05  0.6009E-05  0.4745E-05  0.3547E-05  0.2913E-05  0.2404E-05  0.1683E-05  0.1038E-05  0.8543E-06  0.9141E-06  0.9489E-06  0.9470E-06  0.9726E-06  0.1031E-05  0.1099E-05  0.1163E-05  0.1220E-05  0.1268E-05  0.1307E-05  0.1336E-05  0.1352E-05  0.1356E-05  0.1348E-05  0.1330E-05  0.1303E-05  0.1267E-05  0.1225E-05  0.1177E-05  0.1126E-05  0.1072E-05  0.1017E-05  0.9605E-06  0.9053E-06  0.8509E-06  0.7982E-06  0.7472E-06  0.6978E-06  0.6497E-06  0.6027E-06  0.5565E-06  0.5117E-06  0.4683E-06  0.4268E-06  0.3865E-06  0.3479E-06  0.3117E-06  0.2773E-06  0.2444E-06  0.2137E-06  0.1860E-06  0.1610E-06  0.1381E-06  0.1160E-06  0.9622E-07  0.7887E-07
  0.6469E-08  0.7744E-08  0.8917E-08  0.1037E-07  0.1211E-07  0.1392E-07  0.1574E-07  0.1787E-07  0.2459E-07  0.6078E-07  0.1166E-06  0.1985E-06  0.2992E-06  0.4233E-06  0.5893E-06  0.7669E-06  0.1123E-05  0.1666E-05  0.2398E-05  0.3433E-05  0.4635E-05  0.5801E-05  0.6562E-05  0.6565E-05  0.5756E-05  0.4530E-05  0.3573E-05  0.3119E-05  0.2715E-05  0.2103E-05  0.1331E-05  0.9048E-06  0.8566E-06  0.9359E-06  0.9615E-06  0.9520E-06  0.9653E-06  0.1012E-05  0.1074E-05  0.1133E-05  0.1185E-05  0.1231E-05  0.1267E-05  0.1292E-05  0.1308E-05  0.1311E-05  0.1304E-05  0.1286E-05  0.1260E-05  0.1226E-05  0.1186E-05  0.1140E-05  0.1091E-05  0.1039E-05  0.9858E-06  0.9321E-06  0.8787E-06  0.8265E-06  0.7757E-06  0.7264E-06  0.6789E-06  0.6328E-06  0.5875E-06  0.5433E-06  0.5001E-06  0.4585E-06  0.4180E-06  0.3788E-06  0.3415E-06  0.3067E-06  0.2730E-06  0.2408E-06  0.2109E-06  0.1846E-06  0.1582E-06  0.1353E-06  0.1145E-06  0.9488E-07  0.7804E-07
  0.6226E-08  0.7246E-08  0.8633E-08  0.1007E-07  0.1153E-07  0.1339E-07  0.1521E-07  0.1732E-07  0.6368E-07  0.1449E-06  0.2554E-06  0.3850E-06  0.5713E-06  0.8294E-06  0.1189E-05  0.1628E-05  0.2292E-05  0.3240E-05  0.4354E-05  0.5486E-05  0.6386E-05  0.6764E-05  0.6417E-05  0.5450E-05  0.4337E-05  0.3579E-05  0.3275E-05  0.3015E-05  0.2481E-05  0.1688E-05  0.1078E-05  0.8547E-06  0.8835E-06  0.9603E-06  0.9748E-06  0.9574E-06  0.9595E-06  0.9947E-06  0.1047E-05  0.1101E-05  0.1149E-05  0.1189E-05  0.1222E-05  0.1245E-05  0.1259E-05  0.1262E-05  0.1255E-05  0.1238E-05  0.1213E-05  0.1180E-05  0.1142E-05  0.1099E-05  0.1052E-05  0.1003E-05  0.9518E-06  0.9003E-06  0.8493E-06  0.7993E-06  0.7506E-06  0.7034E-06  0.6577E-06  0.6135E-06  0.5705E-06  0.5283E-06  0.4869E-06  0.4469E-06  0.4078E-06  0.3702E-06  0.3343E-06  0.3001E-06  0.2672E-06  0.2361E-06  0.2074E-06  0.1813E-06  0.1566E-06  0.1343E-06  0.1130E-06  0.9317E-07  0.7725E-07
  0.5900E-08  0.7028E-08  0.8162E-08  0.9695E-08  0.1126E-07  0.1298E-07  0.1480E-07  0.5352E-07  0.1350E-06  0.2707E-06  0.4297E-06  0.6527E-06  0.9815E-06  0.1474E-05  0.2128E-05  0.2989E-05  0.4094E-05  0.5272E-05  0.6257E-05  0.6846E-05  0.6851E-05  0.6201E-05  0.5122E-05  0.4116E-05  0.3535E-05  0.3411E-05  0.3302E-05  0.2875E-05  0.2109E-05  0.1361E-05  0.9464E-06  0.8533E-06  0.9276E-06  0.9891E-06  0.9917E-06  0.9660E-06  0.9570E-06  0.9800E-06  0.1021E-05  0.1069E-05  0.1111E-05  0.1147E-05  0.1175E-05  0.1195E-05  0.1207E-05  0.1209E-05  0.1201E-05  0.1185E-05  0.1162E-05  0.1131E-05  0.1095E-05  0.1054E-05  0.1010E-05  0.9631E-06  0.9148E-06  0.8660E-06  0.8174E-06  0.7697E-06  0.7232E-06  0.6782E-06  0.6347E-06  0.5926E-06  0.5516E-06  0.5114E-06  0.4721E-06  0.4334E-06  0.3959E-06  0.3598E-06  0.3257E-06  0.2921E-06  0.2607E-06  0.2306E-06  0.2029E-06  0.1775E-06  0.1530E-06  0.1306E-06  0.1106E-06  0.9230E-07  0.7626E-07
  0.5523E-08  0.6746E-08  0.8000E-08  0.9347E-08  0.1090E-07  0.1249E-07  0.3148E-07  0.1048E-06  0.2332E-06  0.4049E-06  0.6342E-06  0.9647E-06  0.1448E-05  0.2168E-05  0.3125E-05  0.4343E-05  0.5699E-05  0.6969E-05  0.7246E-05  0.6867E-05  0.5944E-05  0.4754E-05  0.3734E-05  0.3239E-05  0.3304E-05  0.3398E-05  0.3271E-05  0.2610E-05  0.1799E-05  0.1193E-05  0.9214E-06  0.8938E-06  0.9589E-06  0.1004E-05  0.1003E-05  0.9732E-06  0.9571E-06  0.9685E-06  0.9994E-06  0.1037E-05  0.1073E-05  0.1103E-05  0.1127E-05  0.1143E-05  0.1152E-05  0.1153E-05  0.1146E-05  0.1130E-05  0.1108E-05  0.1079E-05  0.1045E-05  0.1006E-05  0.9650E-06  0.9209E-06  0.8755E-06  0.8294E-06  0.7834E-06  0.7382E-06  0.6941E-06  0.6513E-06  0.6100E-06  0.5701E-06  0.5313E-06  0.4932E-06  0.4557E-06  0.4190E-06  0.3835E-06  0.3486E-06  0.3154E-06  0.2835E-06  0.2529E-06  0.2245E-06  0.1978E-06  0.1726E-06  0.1494E-06  0.1279E-06  0.1082E-06  0.9031E-07  0.7399E-07
  0.5525E-08  0.6455E-08  0.7724E-08  0.9097E-08  0.1062E-07  0.1224E-07  0.6860E-07  0.1749E-06  0.3538E-06  0.5629E-06  0.8559E-06  0.1254E-05  0.1857E-05  0.2725E-05  0.3847E-05  0.5185E-05  0.6501E-05  0.7341E-05  0.7144E-05  0.5908E-05  0.4526E-05  0.3370E-05  0.2753E-05  0.2694E-05  0.2988E-05  0.3244E-05  0.2962E-05  0.2320E-05  0.1620E-05  0.1159E-05  0.9660E-06  0.9395E-06  0.9670E-06  0.9845E-06  0.9842E-06  0.9708E-06  0.9605E-06  0.9643E-06  0.9815E-06  0.1007E-05  0.1035E-05  0.1059E-05  0.1077E-05  0.1090E-05  0.1096E-05  0.1096E-05  0.1088E-05  0.1073E-05  0.1052E-05  0.1025E-05  0.9925E-06  0.9567E-06  0.9178E-06  0.8767E-06  0.8343E-06  0.7910E-06  0.7478E-06  0.7050E-06  0.6634E-06  0.6229E-06  0.5838E-06  0.5462E-06  0.5095E-06  0.4736E-06  0.4384E-06  0.4034E-06  0.3691E-06  0.3361E-06  0.3048E-06  0.2742E-06  0.2448E-06  0.2177E-06  0.1919E-06  0.1682E-06  0.1453E-06  0.1235E-06  0.1048E-06  0.8766E-07  0.7246E-07
  0.5204E-08  0.6302E-08  0.7484E-08  0.8847E-08  0.1026E-07  0.3064E-07  0.1127E-06  0.2516E-06  0.4413E-06  0.6818E-06  0.9999E-06  0.1475E-05  0.2137E-05  0.3029E-05  0.4154E-05  0.5401E-05  0.6482E-05  0.6917E-05  0.6298E-05  0.4807E-05  0.3429E-05  0.2558E-05  0.2238E-05  0.2333E-05  0.2633E-05  0.2807E-05  0.2597E-05  0.2070E-05  0.1546E-05  0.1202E-05  0.1051E-05  0.1012E-05  0.1001E-05  0.9945E-06  0.9839E-06  0.9718E-06  0.9624E-06  0.9603E-06  0.9664E-06  0.9815E-06  0.9988E-06  0.1015E-05  0.1028E-05  0.1037E-05  0.1040E-05  0.1037E-05  0.1029E-05  0.1014E-05  0.9939E-06  0.9685E-06  0.9386E-06  0.9051E-06  0.8690E-06  0.8310E-06  0.7915E-06  0.7512E-06  0.7107E-06  0.6707E-06  0.6316E-06  0.5935E-06  0.5568E-06  0.5212E-06  0.4867E-06  0.4531E-06  0.4197E-06  0.3868E-06  0.3547E-06  0.3231E-06  0.2928E-06  0.2640E-06  0.2359E-06  0.2100E-06  0.1862E-06  0.1625E-06  0.1400E-06  0.1197E-06  0.1021E-06  0.8569E-07  0.7044E-07
  0.4993E-08  0.6070E-08  0.7326E-08  0.8941E-08  0.1044E-07  0.6179E-07  0.1558E-06  0.3172E-06  0.5122E-06  0.7547E-06  0.1119E-05  0.1614E-05  0.2271E-05  0.3117E-05  0.4131E-05  0.5182E-05  0.5997E-05  0.6196E-05  0.5503E-05  0.4117E-05  0.2925E-05  0.2249E-05  0.2048E-05  0.2128E-05  0.2310E-05  0.2384E-05  0.2234E-05  0.1891E-05  0.1536E-05  0.1274E-05  0.1141E-05  0.1086E-05  0.1050E-05  0.1023E-05  0.1000E-05  0.9806E-06  0.9653E-06  0.9563E-06  0.9539E-06  0.9575E-06  0.9653E-06  0.9738E-06  0.9804E-06  0.9838E-06  0.9835E-06  0.9788E-06  0.9695E-06  0.9552E-06  0.9358E-06  0.9117E-06  0.8839E-06  0.8530E-06  0.8193E-06  0.7841E-06  0.7475E-06  0.7100E-06  0.6723E-06  0.6350E-06  0.5985E-06  0.5632E-06  0.5288E-06  0.4956E-06  0.4632E-06  0.4315E-06  0.4004E-06  0.3696E-06  0.3391E-06  0.3092E-06  0.2813E-06  0.2537E-06  0.2274E-06  0.2024E-06  0.1785E-06  0.1558E-06  0.1347E-06  0.1159E-06  0.9849E-07  0.8269E-07  0.6861E-07
  0.4896E-08  0.6039E-08  0.7475E-08  0.8903E-08  0.2682E-07  0.9502E-07  0.2115E-06  0.3620E-06  0.5475E-06  0.8196E-06  0.1187E-05  0.1669E-05  0.2263E-05  0.3023E-05  0.3888E-05  0.4745E-05  0.5365E-05  0.5496E-05  0.4957E-05  0.3929E-05  0.2914E-05  0.2302E-05  0.2047E-05  0.2031E-05  0.2063E-05  0.2063E-05  0.1955E-05  0.1746E-05  0.1505E-05  0.1326E-05  0.1220E-05  0.1147E-05  0.1095E-05  0.1054E-05  0.1020E-05  0.9913E-06  0.9696E-06  0.9520E-06  0.9403E-06  0.9337E-06  0.9316E-06  0.9324E-06  0.9330E-06  0.9318E-06  0.9280E-06  0.9210E-06  0.9106E-06  0.8961E-06  0.8776E-06  0.8551E-06  0.8293E-06  0.8005E-06  0.7696E-06  0.7368E-06  0.7028E-06  0.6681E-06  0.6335E-06  0.5991E-06  0.5650E-06  0.5319E-06  0.4998E-06  0.4688E-06  0.4387E-06  0.4093E-06  0.3805E-06  0.3515E-06  0.3232E-06  0.2955E-06  0.2684E-06  0.2424E-06  0.2176E-06  0.1939E-06  0.1709E-06  0.1488E-06  0.1287E-06  0.1107E-06  0.9458E-07  0.7900E-07  0.6555E-07
  0.5060E-08  0.6153E-08  0.7624E-08  0.8949E-08  0.4978E-07  0.1220E-06  0.2438E-06  0.3844E-06  0.5848E-06  0.8542E-06  0.1209E-05  0.1644E-05  0.2201E-05  0.2831E-05  0.3557E-05  0.4255E-05  0.4752E-05  0.4909E-05  0.4594E-05  0.3909E-05  0.3115E-05  0.2518E-05  0.2185E-05  0.2007E-05  0.1917E-05  0.1844E-05  0.1752E-05  0.1604E-05  0.1451E-05  0.1331E-05  0.1246E-05  0.1179E-05  0.1125E-05  0.1075E-05  0.1034E-05  0.9987E-06  0.9699E-06  0.9451E-06  0.9269E-06  0.9116E-06  0.9001E-06  0.8923E-06  0.8866E-06  0.8806E-06  0.8733E-06  0.8639E-06  0.8521E-06  0.8375E-06  0.8196E-06  0.7984E-06  0.7746E-06  0.7483E-06  0.7197E-06  0.6894E-06  0.6584E-06  0.6266E-06  0.5946E-06  0.5626E-06  0.5311E-06  0.5006E-06  0.4708E-06  0.4420E-06  0.4140E-06  0.3868E-06  0.3601E-06  0.3335E-06  0.3069E-06  0.2807E-06  0.2559E-06  0.2316E-06  0.2082E-06  0.1855E-06  0.1634E-06  0.1424E-06  0.1233E-06  0.1060E-06  0.9016E-07  0.7601E-07  0.6305E-07
  0.5169E-08  0.6269E-08  0.7479E-08  0.2274E-07  0.7121E-07  0.1555E-06  0.2608E-06  0.4087E-06  0.5992E-06  0.8466E-06  0.1183E-05  0.1597E-05  0.2070E-05  0.2632E-05  0.3212E-05  0.3795E-05  0.4227E-05  0.4411E-05  0.4281E-05  0.3881E-05  0.3304E-05  0.2797E-05  0.2363E-05  0.2057E-05  0.1872E-05  0.1736E-05  0.1617E-05  0.1502E-05  0.1387E-05  0.1300E-05  0.1229E-05  0.1176E-05  0.1125E-05  0.1078E-05  0.1035E-05  0.9949E-06  0.9627E-06  0.9341E-06  0.9083E-06  0.8861E-06  0.8682E-06  0.8535E-06  0.8409E-06  0.8298E-06  0.8192E-06  0.8077E-06  0.7948E-06  0.7798E-06  0.7624E-06  0.7427E-06  0.7206E-06  0.6962E-06  0.6702E-06  0.6426E-06  0.6143E-06  0.5851E-06  0.5556E-06  0.5263E-06  0.4974E-06  0.4691E-06  0.4416E-06  0.4150E-06  0.3895E-06  0.3644E-06  0.3396E-06  0.3150E-06  0.2905E-06  0.2666E-06  0.2427E-06  0.2198E-06  0.1972E-06  0.1761E-06  0.1547E-06  0.1352E-06  0.1170E-06  0.1010E-06  0.8666E-07  0.7283E-07  0.5985E-07
  0.5162E-08  0.6396E-08  0.7675E-08  0.3346E-07  0.8601E-07  0.1735E-06  0.2779E-06  0.4132E-06  0.5980E-06  0.8426E-06  0.1150E-05  0.1508E-05  0.1942E-05  0.2406E-05  0.2894E-05  0.3393E-05  0.3783E-05  0.4005E-05  0.4016E-05  0.3797E-05  0.3440E-05  0.2999E-05  0.2543E-05  0.2171E-05  0.1893E-05  0.1698E-05  0.1553E-05  0.1433E-05  0.1329E-05  0.1253E-05  0.1194E-05  0.1145E-05  0.1100E-05  0.1058E-05  0.1018E-05  0.9798E-06  0.9441E-06  0.9137E-06  0.8840E-06  0.8587E-06  0.8353E-06  0.8148E-06  0.7966E-06  0.7805E-06  0.7664E-06  0.7531E-06  0.7392E-06  0.7239E-06  0.7071E-06  0.6885E-06  0.6679E-06  0.6456E-06  0.6218E-06  0.5966E-06  0.5707E-06  0.5443E-06  0.5174E-06  0.4904E-06  0.4641E-06  0.4383E-06  0.4131E-06  0.3887E-06  0.3650E-06  0.3418E-06  0.3190E-06  0.2965E-06  0.2740E-06  0.2514E-06  0.2296E-06  0.2082E-06  0.1869E-06  0.1665E-06  0.1474E-06  0.1287E-06  0.1114E-06  0.9580E-07  0.8132E-07  0.6840E-07  0.5736E-07
  0.5307E-08  0.6418E-08  0.1775E-07  0.4982E-07  0.1085E-06  0.1815E-06  0.2804E-06  0.4180E-06  0.5923E-06  0.8078E-06  0.1091E-05  0.1410E-05  0.1794E-05  0.2195E-05  0.2635E-05  0.3050E-05  0.3407E-05  0.3653E-05  0.3729E-05  0.3669E-05  0.3448E-05  0.3112E-05  0.2703E-05  0.2296E-05  0.1964E-05  0.1715E-05  0.1530E-05  0.1391E-05  0.1286E-05  0.1206E-05  0.1146E-05  0.1100E-05  0.1059E-05  0.1020E-05  0.9842E-06  0.9486E-06  0.9154E-06  0.8830E-06  0.8541E-06  0.8258E-06  0.7996E-06  0.7749E-06  0.7532E-06  0.7333E-06  0.7157E-06  0.6999E-06  0.6849E-06  0.6697E-06  0.6536E-06  0.6360E-06  0.6169E-06  0.5965E-06  0.5748E-06  0.5519E-06  0.5282E-06  0.5042E-06  0.4799E-06  0.4557E-06  0.4315E-06  0.4076E-06  0.3846E-06  0.3622E-06  0.3405E-06  0.3193E-06  0.2986E-06  0.2778E-06  0.2574E-06  0.2368E-06  0.2160E-06  0.1955E-06  0.1758E-06  0.1571E-06  0.1387E-06  0.1211E-06  0.1049E-06  0.9061E-07  0.7731E-07  0.6546E-07  0.5375E-07
  0.5514E-08  0.6628E-08  0.2343E-07  0.5863E-07  0.1208E-06  0.1899E-06  0.2887E-06  0.4056E-06  0.5749E-06  0.7836E-06  0.1024E-05  0.1327E-05  0.1651E-05  0.1999E-05  0.2384E-05  0.2751E-05  0.3079E-05  0.3313E-05  0.3464E-05  0.3481E-05  0.3371E-05  0.3125E-05  0.2791E-05  0.2411E-05  0.2050E-05  0.1763E-05  0.1542E-05  0.1378E-05  0.1256E-05  0.1164E-05  0.1099E-05  0.1048E-05  0.1007E-05  0.9718E-06  0.9369E-06  0.9056E-06  0.8748E-06  0.8440E-06  0.8154E-06  0.7873E-06  0.7597E-06  0.7342E-06  0.7097E-06  0.6869E-06  0.6663E-06  0.6487E-06  0.6321E-06  0.6167E-06  0.6012E-06  0.5848E-06  0.5673E-06  0.5486E-06  0.5289E-06  0.5081E-06  0.4870E-06  0.4654E-06  0.4434E-06  0.4213E-06  0.3993E-06  0.3779E-06  0.3567E-06  0.3363E-06  0.3165E-06  0.2972E-06  0.2782E-06  0.2595E-06  0.2408E-06  0.2214E-06  0.2022E-06  0.1832E-06  0.1650E-06  0.1466E-06  0.1300E-06  0.1140E-06  0.9987E-07  0.8586E-07  0.7320E-07  0.6147E-07  0.5099E-07
  0.5693E-08  0.1123E-07  0.3199E-07  0.7122E-07  0.1239E-06  0.1939E-06  0.2809E-06  0.4000E-06  0.5522E-06  0.7387E-06  0.9708E-06  0.1227E-05  0.1518E-05  0.1825E-05  0.2161E-05  0.2487E-05  0.2776E-05  0.3029E-05  0.3198E-05  0.3270E-05  0.3218E-05  0.3059E-05  0.2804E-05  0.2482E-05  0.2137E-05  0.1819E-05  0.1571E-05  0.1379E-05  0.1236E-05  0.1132E-05  0.1053E-05  0.9966E-06  0.9520E-06  0.9154E-06  0.8834E-06  0.8528E-06  0.8248E-06  0.7966E-06  0.7699E-06  0.7432E-06  0.7168E-06  0.6905E-06  0.6651E-06  0.6415E-06  0.6197E-06  0.5997E-06  0.5820E-06  0.5659E-06  0.5505E-06  0.5355E-06  0.5197E-06  0.5027E-06  0.4849E-06  0.4664E-06  0.4472E-06  0.4277E-06  0.4080E-06  0.3882E-06  0.3684E-06  0.3489E-06  0.3298E-06  0.3114E-06  0.2935E-06  0.2759E-06  0.2587E-06  0.2416E-06  0.2238E-06  0.2063E-06  0.1882E-06  0.1707E-06  0.1538E-06  0.1379E-06  0.1224E-06  0.1070E-06  0.9307E-07  0.7996E-07  0.6802E-07  0.5735E-07  0.4747E-07
  0.5983E-08  0.1545E-07  0.3774E-07  0.7898E-07  0.1286E-06  0.1911E-06  0.2779E-06  0.3863E-06  0.5265E-06  0.6897E-06  0.9015E-06  0.1128E-05  0.1393E-05  0.1666E-05  0.1955E-05  0.2239E-05  0.2515E-05  0.2756E-05  0.2933E-05  0.3029E-05  0.3032E-05  0.2930E-05  0.2751E-05  0.2489E-05  0.2181E-05  0.1873E-05  0.1599E-05  0.1391E-05  0.1226E-05  0.1103E-05  0.1012E-05  0.9448E-06  0.8948E-06  0.8564E-06  0.8247E-06  0.7962E-06  0.7706E-06  0.7443E-06  0.7187E-06  0.6939E-06  0.6690E-06  0.6439E-06  0.6196E-06  0.5959E-06  0.5740E-06  0.5535E-06  0.5347E-06  0.5181E-06  0.5028E-06  0.4883E-06  0.4736E-06  0.4586E-06  0.4429E-06  0.4262E-06  0.4090E-06  0.3917E-06  0.3740E-06  0.3560E-06  0.3385E-06  0.3211E-06  0.3039E-06  0.2872E-06  0.2709E-06  0.2550E-06  0.2394E-06  0.2234E-06  0.2076E-06  0.1909E-06  0.1748E-06  0.1589E-06  0.1436E-06  0.1281E-06  0.1134E-06  0.9988E-07  0.8765E-07  0.7606E-07  0.6430E-07  0.5373E-07  0.4470E-07
  0.6203E-08  0.1830E-07  0.4182E-07  0.8238E-07  0.1289E-06  0.1933E-06  0.2692E-06  0.3736E-06  0.4980E-06  0.6568E-06  0.8312E-06  0.1049E-05  0.1275E-05  0.1515E-05  0.1771E-05  0.2029E-05  0.2277E-05  0.2501E-05  0.2672E-05  0.2779E-05  0.2818E-05  0.2768E-05  0.2637E-05  0.2435E-05  0.2180E-05  0.1898E-05  0.1625E-05  0.1392E-05  0.1216E-05  0.1077E-05  0.9731E-06  0.8967E-06  0.8403E-06  0.7979E-06  0.7652E-06  0.7373E-06  0.7120E-06  0.6888E-06  0.6648E-06  0.6418E-06  0.6186E-06  0.5957E-06  0.5728E-06  0.5504E-06  0.5290E-06  0.5092E-06  0.4908E-06  0.4741E-06  0.4588E-06  0.4440E-06  0.4305E-06  0.4169E-06  0.4025E-06  0.3880E-06  0.3728E-06  0.3573E-06  0.3416E-06  0.3258E-06  0.3099E-06  0.2942E-06  0.2788E-06  0.2637E-06  0.2491E-06  0.2348E-06  0.2204E-06  0.2062E-06  0.1913E-06  0.1764E-06  0.1616E-06  0.1471E-06  0.1326E-06  0.1195E-06  0.1061E-06  0.9363E-07  0.8116E-07  0.6955E-07  0.5897E-07  0.4943E-07  0.4091E-07
  0.9261E-08  0.2210E-07  0.4813E-07  0.8426E-07  0.1287E-06  0.1838E-06  0.2615E-06  0.3548E-06  0.4680E-06  0.6071E-06  0.7774E-06  0.9580E-06  0.1161E-05  0.1379E-05  0.1601E-05  0.1827E-05  0.2049E-05  0.2254E-05  0.2416E-05  0.2534E-05  0.2589E-05  0.2574E-05  0.2489E-05  0.2331E-05  0.2124E-05  0.1882E-05  0.1627E-05  0.1390E-05  0.1195E-05  0.1049E-05  0.9349E-06  0.8497E-06  0.7871E-06  0.7408E-06  0.7056E-06  0.6780E-06  0.6538E-06  0.6318E-06  0.6098E-06  0.5881E-06  0.5676E-06  0.5468E-06  0.5256E-06  0.5045E-06  0.4848E-06  0.4658E-06  0.4483E-06  0.4323E-06  0.4172E-06  0.4032E-06  0.3901E-06  0.3772E-06  0.3648E-06  0.3517E-06  0.3382E-06  0.3245E-06  0.3109E-06  0.2966E-06  0.2824E-06  0.2685E-06  0.2548E-06  0.2413E-06  0.2280E-06  0.2149E-06  0.2017E-06  0.1887E-06  0.1759E-06  0.1624E-06  0.1485E-06  0.1361E-06  0.1231E-06  0.1103E-06  0.9785E-07  0.8635E-07  0.7542E-07  0.6449E-07  0.5491E-07  0.4603E-07  0.3810E-07
  0.1116E-07  0.2454E-07  0.4954E-07  0.8577E-07  0.1237E-06  0.1788E-06  0.2451E-06  0.3339E-06  0.4411E-06  0.5575E-06  0.7106E-06  0.8690E-06  0.1055E-05  0.1247E-05  0.1442E-05  0.1640E-05  0.1842E-05  0.2021E-05  0.2174E-05  0.2290E-05  0.2357E-05  0.2364E-05  0.2312E-05  0.2195E-05  0.2026E-05  0.1822E-05  0.1596E-05  0.1372E-05  0.1171E-05  0.1012E-05  0.8947E-06  0.8033E-06  0.7353E-06  0.6854E-06  0.6482E-06  0.6194E-06  0.5962E-06  0.5749E-06  0.5553E-06  0.5358E-06  0.5167E-06  0.4979E-06  0.4788E-06  0.4600E-06  0.4413E-06  0.4236E-06  0.4071E-06  0.3920E-06  0.3780E-06  0.3649E-06  0.3525E-06  0.3407E-06  0.3292E-06  0.3176E-06  0.3055E-06  0.2938E-06  0.2813E-06  0.2689E-06  0.2562E-06  0.2437E-06  0.2318E-06  0.2198E-06  0.2080E-06  0.1964E-06  0.1848E-06  0.1729E-06  0.1612E-06  0.1489E-06  0.1372E-06  0.1249E-06  0.1127E-06  0.1016E-06  0.9075E-07  0.8000E-07  0.7004E-07  0.5997E-07  0.5066E-07  0.4255E-07  0.3496E-07
  0.1153E-07  0.2532E-07  0.5212E-07  0.8141E-07  0.1228E-06  0.1723E-06  0.2341E-06  0.3125E-06  0.4058E-06  0.5218E-06  0.6455E-06  0.7997E-06  0.9549E-06  0.1119E-05  0.1294E-05  0.1467E-05  0.1641E-05  0.1806E-05  0.1949E-05  0.2060E-05  0.2127E-05  0.2146E-05  0.2117E-05  0.2034E-05  0.1900E-05  0.1728E-05  0.1533E-05  0.1331E-05  0.1138E-05  0.9733E-06  0.8468E-06  0.7546E-06  0.6843E-06  0.6317E-06  0.5929E-06  0.5636E-06  0.5399E-06  0.5206E-06  0.5023E-06  0.4846E-06  0.4674E-06  0.4506E-06  0.4335E-06  0.4165E-06  0.3997E-06  0.3835E-06  0.3681E-06  0.3539E-06  0.3411E-06  0.3288E-06  0.3176E-06  0.3069E-06  0.2962E-06  0.2857E-06  0.2753E-06  0.2647E-06  0.2537E-06  0.2427E-06  0.2321E-06  0.2212E-06  0.2103E-06  0.1994E-06  0.1889E-06  0.1785E-06  0.1683E-06  0.1581E-06  0.1473E-06  0.1363E-06  0.1255E-06  0.1142E-06  0.1037E-06  0.9333E-07  0.8315E-07  0.7344E-07  0.6424E-07  0.5485E-07  0.4650E-07  0.3865E-07  0.3196E-07
  0.1184E-07  0.2579E-07  0.5045E-07  0.7921E-07  0.1134E-06  0.1619E-06  0.2186E-06  0.2901E-06  0.3740E-06  0.4743E-06  0.5948E-06  0.7197E-06  0.8603E-06  0.1008E-05  0.1158E-05  0.1308E-05  0.1460E-05  0.1605E-05  0.1735E-05  0.1838E-05  0.1902E-05  0.1932E-05  0.1918E-05  0.1857E-05  0.1753E-05  0.1613E-05  0.1446E-05  0.1267E-05  0.1088E-05  0.9287E-06  0.7986E-06  0.7019E-06  0.6323E-06  0.5795E-06  0.5397E-06  0.5100E-06  0.4873E-06  0.4683E-06  0.4515E-06  0.4351E-06  0.4201E-06  0.4050E-06  0.3905E-06  0.3754E-06  0.3603E-06  0.3456E-06  0.3318E-06  0.3188E-06  0.3065E-06  0.2955E-06  0.2852E-06  0.2751E-06  0.2655E-06  0.2563E-06  0.2469E-06  0.2376E-06  0.2283E-06  0.2188E-06  0.2090E-06  0.1993E-06  0.1897E-06  0.1803E-06  0.1708E-06  0.1618E-06  0.1523E-06  0.1432E-06  0.1337E-06  0.1240E-06  0.1139E-06  0.1044E-06  0.9440E-07  0.8514E-07  0.7594E-07  0.6730E-07  0.5877E-07  0.5091E-07  0.4283E-07  0.3609E-07  0.2937E-07
  0.1193E-07  0.2722E-07  0.5021E-07  0.7354E-07  0.1104E-06  0.1506E-06  0.2051E-06  0.2669E-06  0.3455E-06  0.4278E-06  0.5353E-06  0.6439E-06  0.7715E-06  0.9018E-06  0.1032E-05  0.1166E-05  0.1298E-05  0.1424E-05  0.1540E-05  0.1628E-05  0.1689E-05  0.1722E-05  0.1717E-05  0.1674E-05  0.1593E-05  0.1480E-05  0.1340E-05  0.1184E-05  0.1025E-05  0.8757E-06  0.7479E-06  0.6496E-06  0.5783E-06  0.5268E-06  0.4891E-06  0.4598E-06  0.4374E-06  0.4191E-06  0.4033E-06  0.3894E-06  0.3755E-06  0.3625E-06  0.3495E-06  0.3359E-06  0.3228E-06  0.3098E-06  0.2973E-06  0.2855E-06  0.2747E-06  0.2647E-06  0.2551E-06  0.2459E-06  0.2374E-06  0.2291E-06  0.2206E-06  0.2128E-06  0.2045E-06  0.1960E-06  0.1875E-06  0.1789E-06  0.1708E-06  0.1624E-06  0.1541E-06  0.1460E-06  0.1380E-06  0.1297E-06  0.1215E-06  0.1128E-06  0.1042E-06  0.9507E-07  0.8604E-07  0.7738E-07  0.6916E-07  0.6158E-07  0.5370E-07  0.4613E-07  0.3863E-07  0.3211E-07  0.2591E-07
