DSAA
          79         109
    318.3670    342.0670
   7336.5760   7369.2760
  0.0000E+00  0.2224E-04
  0.0000E+00  0.0000E+00  0.0000E+00  0.0000E+00  0.0000E+00  0.0000E+00  0.0000E+00  0.0000E+00  0.0000E+00  0.0000E+00  0.0000E+00  0.0000E+00  0.0000E+00  0.0000E+00  0.0000E+00  0.0000E+00  0.0000E+00  0.0000E+00  0.0000E+00  0.0000E+00  0.0000E+00  0.0000E+00  0.0000E+00  0.0000E+00  0.0000E+00  0.0000E+00  0.0000E+00  0.0000E+00  0.0000E+00  0.0000E+00  0.0000E+00  0.0000E+00  0.0000E+00  0.0000E+00  0.0000E+00  0.0000E+00  0.0000E+00  0.0000E+00  0.0000E+00  0.0000E+00  0.0000E+00  0.0000E+00  0.0000E+00  0.0000E+00  0.0000E+00  0.0000E+00  0.0000E+00  0.0000E+00  0.0000E+00  0.0000E+00  0.0000E+00  0.0000E+00  0.0000E+00  0.0000E+00  0.0000E+00  0.0000E+00  0.0000E+00  0.0000E+00  0.0000E+00  0.0000E+00  0.0000E+00  0.0000E+00  0.0000E+00  0.0000E+00  0.0000E+00  0.0000E+00  0.0000E+00  0.0000E+00  0.0000E+00  0.0000E+00  0.0000E+00  0.0000E+00  0.0000E+00  0.0000E+00  0.0000E+00  0.0000E+00  0.0000E+00  0.0000E+00  0.0000E+00
  0.0000E+00  0.0000E+00  0.0000E+00  0.0000E+00  0.0000E+00  0.0000E+00  0.0000E+00  0.0000E+00  0.0000E+00  0.0000E+00  0.0000E+00  0.0000E+00  0.0000E+00  0.0000E+00  0.0000E+00  0.0000E+00  0.0000E+00  0.0000E+00  0.0000E+00  0.0000E+00  0.0000E+00  0.0000E+00  0.0000E+00  0.0000E+00  0.0000E+00  0.0000E+00  0.0000E+00  0.0000E+00  0.0000E+00  0.0000E+00  0.0000E+00  0.0000E+00  0.0000E+00  0.0000E+00  0.0000E+00  0.0000E+00  0.0000E+00  0.0000E+00  0.0000E+00  0.0000E+00  0.0000E+00  0.0000E+00  0.0000E+00  0.0000E+00  0.0000E+00  0.0000E+00  0.0000E+00  0.0000E+00  0.0000E+00  0.0000E+00  0.0000E+00  0.0000E+00  0.0000E+00  0.0000E+00  0.0000E+00  0.0000E+00  0.0000E+00  0.0000E+00  0.0000E+00  0.0000E+00  0.0000E+00  0.0000E+00  0.0000E+00  0.0000E+00  0.0000E+00  0.0000E+00  0.0000E+00  0.0000E+00  0.0000E+00  0.0000E+00  0.0000E+00  0.0000E+00  0.0000E+00  0.0000E+00  0.0000E+00  0.0000E+00  0.0000E+00  0.0000E+00  0.0000E+00
  0.0000E+00  0.0000E+00  0.0000E+00  0.0000E+00  0.0000E+00  0.0000E+00  0.0000E+00  0.0000E+00  0.0000E+00  0.0000E+00  0.0000E+00  0.0000E+00  0.0000E+00  0.0000E+00  0.0000E+00  0.0000E+00  0.0000E+00  0.0000E+00  0.0000E+00  0.0000E+00  0.0000E+00  0.0000E+00  0.0000E+00  0.0000E+00  0.0000E+00  0.0000E+00  0.0000E+00  0.0000E+00  0.0000E+00  0.0000E+00  0.0000E+00  0.0000E+00  0.0000E+00  0.0000E+00  0.0000E+00  0.0000E+00  0.0000E+00  0.0000E+00  0.0000E+00  0.0000E+00  0.0000E+00  0.0000E+00  0.0000E+00  0.0000E+00  0.0000E+00  0.0000E+00  0.0000E+00  0.0000E+00  0.0000E+00  0.0000E+00  0.0000E+00  0.0000E+00  0.0000E+00  0.0000E+00  0.0000E+00  0.0000E+00  0.0000E+00  0.0000E+00  0.0000E+00  0.0000E+00  0.0000E+00  0.0000E+00  0.0000E+00  0.0000E+00  0.0000E+00  0.0000E+00  0.0000E+00  0.0000E+00  0.0000E+00  0.0000E+00  0.0000E+00  0.0000E+00  0.0000E+00  0.0000E+00  0.0000E+00  0.0000E+00  0.0000E+00  0.0000E+00  0.0000E+00
  0.0000E+00  0.0000E+00  0.0000E+00  0.0000E+00  0.0000E+00  0.0000E+00  0.0000E+00  0.0000E+00  0.0000E+00  0.0000E+00  0.0000E+00  0.0000E+00  0.0000E+00  0.0000E+00  0.0000E+00  0.0000E+00  0.0000E+00  0.0000E+00  0.0000E+00  0.0000E+00  0.0000E+00  0.0000E+00  0.0000E+00  0.0000E+00  0.0000E+00  0.0000E+00  0.0000E+00  0.0000E+00  0.0000E+00  0.0000E+00  0.0000E+00  0.0000E+00  0.0000E+00  0.0000E+00  0.0000E+00  0.0000E+00  0.0000E+00  0.0000E+00  0.0000E+00  0.0000E+00  0.0000E+00  0.0000E+00  0.0000E+00  0.0000E+00  0.0000E+00  0.0000E+00  0.0000E+00  0.0000E+00  0.0000E+00  0.0000E+00  0.0000E+00  0.0000E+00  0.0000E+00  0.0000E+00  0.0000E+00  0.0000E+00  0.0000E+00  0.0000E+00  0.0000E+00  0.0000E+00  0.0000E+00  0.0000E+00  0.0000E+00  0.0000E+00  0.0000E+00  0.0000E+00  0.0000E+00  0.0000E+00  0.0000E+00  0.0000E+00  0.0000E+00  0.0000E+00  0.0000E+00  0.0000E+00  0.0000E+00  0.0000E+00  0.0000E+00  0.0000E+00  0.0000E+00
  0.0000E+00  0.0000E+00  0.0000E+00  0.0000E+00  0.0000E+00  0.0000E+00  0.0000E+00  0.0000E+00  0.0000E+00  0.0000E+00  0.0000E+00  0.0000E+00  0.0000E+00  0.0000E+00  0.0000E+00  0.0000E+00  0.0000E+00  0.0000E+00  0.0000E+00  0.0000E+00  0.0000E+00  0.0000E+00  0.0000E+00  0.0000E+00  0.0000E+00  0.0000E+00  0.0000E+00  0.0000E+00  0.0000E+00  0.0000E+00  0.0000E+00  0.0000E+00  0.0000E+00  0.0000E+00  0.0000E+00  0.0000E+00  0.0000E+00  0.0000E+00  0.0000E+00  0.0000E+00  0.0000E+00  0.0000E+00  0.0000E+00  0.0000E+00  0.0000E+00  0.0000E+00  0.0000E+00  0.0000E+00  0.0000E+00  0.0000E+00  0.0000E+00  0.0000E+00  0.0000E+00  0.0000E+00  0.0000E+00  0.0000E+00  0.0000E+00  0.0000E+00  0.0000E+00  0.0000E+00  0.0000E+00  0.0000E+00  0.0000E+00  0.0000E+00  0.0000E+00  0.0000E+00  0.0000E+00  0.0000E+00  0.0000E+00  0.0000E+00  0.0000E+00  0.0000E+00  0.0000E+00  0.0000E+00  0.0000E+00  0.0000E+00  0.0000E+00  0.0000E+00  0.0000E+00
  0.0000E+00  0.0000E+00  0.0000E+00  0.0000E+00  0.0000E+00  0.0000E+00  0.0000E+00  0.0000E+00  0.0000E+00  0.0000E+00  0.0000E+00  0.0000E+00  0.0000E+00  0.0000E+00  0.0000E+00  0.0000E+00  0.0000E+00  0.0000E+00  0.0000E+00  0.0000E+00  0.0000E+00  0.0000E+00  0.0000E+00  0.0000E+00  0.0000E+00  0.0000E+00  0.0000E+00  0.0000E+00  0.0000E+00  0.0000E+00  0.0000E+00  0.0000E+00  0.0000E+00  0.0000E+00  0.0000E+00  0.0000E+00  0.0000E+00  0.0000E+00  0.0000E+00  0.0000E+00  0.0000E+00  0.0000E+00  0.0000E+00  0.0000E+00  0.0000E+00  0.0000E+00  0.0000E+00  0.0000E+00  0.0000E+00  0.0000E+00  0.0000E+00  0.0000E+00  0.0000E+00  0.0000E+00  0.0000E+00  0.0000E+00  0.0000E+00  0.0000E+00  0.0000E+00  0.0000E+00  0.0000E+00  0.0000E+00  0.0000E+00  0.0000E+00  0.0000E+00  0.0000E+00  0.0000E+00  0.0000E+00  0.0000E+00  0.0000E+00  0.0000E+00  0.0000E+00  0.0000E+00  0.0000E+00  0.0000E+00  0.0000E+00  0.0000E+00  0.0000E+00  0.0000E+00
  0.0000E+00  0.0000E+00  0.0000E+00  0.0000E+00  0.0000E+00  0.0000E+00  0.0000E+00  0.0000E+00  0.0000E+00  0.0000E+00  0.0000E+00  0.0000E+00  0.0000E+00  0.0000E+00  0.0000E+00  0.0000E+00  0.0000E+00  0.0000E+00  0.0000E+00  0.0000E+00  0.0000E+00  0.0000E+00  0.0000E+00  0.0000E+00  0.0000E+00  0.0000E+00  0.0000E+00  0.0000E+00  0.0000E+00  0.0000E+00  0.0000E+00  0.0000E+00  0.0000E+00  0.0000E+00  0.0000E+00  0.0000E+00  0.0000E+00  0.0000E+00  0.0000E+00  0.0000E+00  0.0000E+00  0.0000E+00  0.0000E+00  0.0000E+00  0.0000E+00  0.0000E+00  0.0000E+00  0.0000E+00  0.0000E+00  0.0000E+00  0.0000E+00  0.0000E+00  0.0000E+00  0.0000E+00  0.0000E+00  0.0000E+00  0.0000E+00  0.0000E+00  0.0000E+00  0.0000E+00  0.0000E+00  0.0000E+00  0.0000E+00  0.0000E+00  0.0000E+00  0.0000E+00  0.0000E+00  0.0000E+00  0.0000E+00  0.0000E+00  0.0000E+00  0.0000E+00  0.0000E+00  0.0000E+00  0.0000E+00  0.0000E+00  0.0000E+00  0.0000E+00  0.0000E+00
  0.0000E+00  0.0000E+00  0.0000E+00  0.0000E+00  0.0000E+00  0.0000E+00  0.0000E+00  0.0000E+00  0.0000E+00  0.0000E+00  0.0000E+00  0.0000E+00  0.0000E+00  0.0000E+00  0.0000E+00  0.0000E+00  0.0000E+00  0.0000E+00  0.0000E+00  0.0000E+00  0.0000E+00  0.0000E+00  0.0000E+00  0.0000E+00  0.0000E+00  0.0000E+00  0.0000E+00  0.0000E+00  0.0000E+00  0.0000E+00  0.0000E+00  0.0000E+00  0.0000E+00  0.0000E+00  0.0000E+00  0.0000E+00  0.0000E+00  0.0000E+00  0.0000E+00  0.0000E+00  0.0000E+00  0.0000E+00  0.0000E+00  0.0000E+00  0.0000E+00  0.0000E+00  0.0000E+00  0.0000E+00  0.0000E+00  0.0000E+00  0.0000E+00  0.0000E+00  0.0000E+00  0.0000E+00  0.0000E+00  0.0000E+00  0.0000E+00  0.0000E+00  0.0000E+00  0.0000E+00  0.0000E+00  0.0000E+00  0.0000E+00  0.0000E+00  0.0000E+00  0.0000E+00  0.0000E+00  0.0000E+00  0.0000E+00  0.0000E+00  0.0000E+00  0.0000E+00  0.0000E+00  0.0000E+00  0.0000E+00  0.0000E+00  0.0000E+00  0.0000E+00  0.0000E+00
  0.0000E+00  0.0000E+00  0.0000E+00  0.0000E+00  0.0000E+00  0.0000E+00  0.0000E+00  0.0000E+00  0.0000E+00  0.0000E+00  0.0000E+00  0.0000E+00  0.0000E+00  0.0000E+00  0.0000E+00  0.0000E+00  0.0000E+00  0.0000E+00  0.0000E+00  0.0000E+00  0.0000E+00  0.0000E+00  0.0000E+00  0.0000E+00  0.0000E+00  0.0000E+00  0.0000E+00  0.0000E+00  0.0000E+00  0.0000E+00  0.0000E+00  0.0000E+00  0.0000E+00  0.0000E+00  0.0000E+00  0.0000E+00  0.0000E+00  0.0000E+00  0.0000E+00  0.0000E+00  0.0000E+00  0.0000E+00  0.0000E+00  0.0000E+00  0.0000E+00  0.0000E+00  0.0000E+00  0.0000E+00  0.0000E+00  0.0000E+00  0.0000E+00  0.0000E+00  0.0000E+00  0.0000E+00  0.0000E+00  0.0000E+00  0.0000E+00  0.0000E+00  0.0000E+00  0.0000E+00  0.0000E+00  0.0000E+00  0.0000E+00  0.0000E+00  0.0000E+00  0.0000E+00  0.0000E+00  0.0000E+00  0.0000E+00  0.0000E+00  0.0000E+00  0.0000E+00  0.0000E+00  0.0000E+00  0.0000E+00  0.0000E+00  0.0000E+00  0.0000E+00  0.0000E+00
  0.0000E+00  0.0000E+00  0.0000E+00  0.0000E+00  0.0000E+00  0.0000E+00  0.0000E+00  0.0000E+00  0.0000E+00  0.0000E+00  0.0000E+00  0.0000E+00  0.0000E+00  0.0000E+00  0.0000E+00  0.0000E+00  0.0000E+00  0.0000E+00  0.0000E+00  0.0000E+00  0.0000E+00  0.0000E+00  0.0000E+00  0.0000E+00  0.0000E+00  0.0000E+00  0.0000E+00  0.0000E+00  0.0000E+00  0.0000E+00  0.0000E+00  0.0000E+00  0.0000E+00  0.0000E+00  0.0000E+00  0.0000E+00  0.0000E+00  0.0000E+00  0.0000E+00  0.0000E+00  0.0000E+00  0.0000E+00  0.0000E+00  0.0000E+00  0.0000E+00  0.0000E+00  0.0000E+00  0.0000E+00  0.0000E+00  0.0000E+00  0.0000E+00  0.0000E+00  0.0000E+00  0.0000E+00  0.0000E+00  0.0000E+00  0.0000E+00  0.0000E+00  0.0000E+00  0.0000E+00  0.0000E+00  0.0000E+00  0.0000E+00  0.0000E+00  0.0000E+00  0.0000E+00  0.0000E+00  0.0000E+00  0.0000E+00  0.0000E+00  0.0000E+00  0.0000E+00  0.0000E+00  0.0000E+00  0.0000E+00  0.0000E+00  0.0000E+00  0.0000E+00  0.0000E+00
  0.0000E+00  0.0000E+00  0.0000E+00  0.0000E+00  0.0000E+00  0.0000E+00  0.0000E+00  0.0000E+00  0.0000E+00  0.0000E+00  0.0000E+00  0.0000E+00  0.0000E+00  0.0000E+00  0.0000E+00  0.0000E+00  0.0000E+00  0.0000E+00  0.0000E+00  0.0000E+00  0.0000E+00  0.0000E+00  0.0000E+00  0.0000E+00  0.0000E+00  0.0000E+00  0.0000E+00  0.0000E+00  0.0000E+00  0.0000E+00  0.0000E+00  0.0000E+00  0.0000E+00  0.0000E+00  0.0000E+00  0.0000E+00  0.0000E+00  0.0000E+00  0.0000E+00  0.0000E+00  0.0000E+00  0.0000E+00  0.0000E+00  0.0000E+00  0.0000E+00  0.0000E+00  0.0000E+00  0.0000E+00  0.0000E+00  0.0000E+00  0.0000E+00  0.0000E+00  0.0000E+00  0.0000E+00  0.0000E+00  0.0000E+00  0.0000E+00  0.0000E+00  0.0000E+00  0.0000E+00  0.0000E+00  0.0000E+00  0.0000E+00  0.0000E+00  0.0000E+00  0.0000E+00  0.0000E+00  0.0000E+00  0.0000E+00  0.0000E+00  0.0000E+00  0.0000E+00  0.0000E+00  0.0000E+00  0.0000E+00  0.0000E+00  0.0000E+00  0.0000E+00  0.0000E+00
  0.0000E+00  0.0000E+00  0.0000E+00  0.0000E+00  0.0000E+00  0.0000E+00  0.0000E+00  0.0000E+00  0.0000E+00  0.0000E+00  0.0000E+00  0.0000E+00  0.0000E+00  0.0000E+00  0.0000E+00  0.0000E+00  0.0000E+00  0.0000E+00  0.0000E+00  0.0000E+00  0.0000E+00  0.0000E+00  0.0000E+00  0.0000E+00  0.0000E+00  0.0000E+00  0.0000E+00  0.0000E+00  0.0000E+00  0.0000E+00  0.0000E+00  0.0000E+00  0.0000E+00  0.0000E+00  0.0000E+00  0.0000E+00  0.0000E+00  0.0000E+00  0.0000E+00  0.0000E+00  0.0000E+00  0.0000E+00  0.0000E+00  0.0000E+00  0.0000E+00  0.0000E+00  0.0000E+00  0.0000E+00  0.0000E+00  0.0000E+00  0.0000E+00  0.0000E+00  0.0000E+00  0.0000E+00  0.0000E+00  0.0000E+00  0.0000E+00  0.0000E+00  0.0000E+00  0.0000E+00  0.0000E+00  0.0000E+00  0.0000E+00  0.0000E+00  0.0000E+00  0.0000E+00  0.0000E+00  0.0000E+00  0.0000E+00  0.0000E+00  0.0000E+00  0.0000E+00  0.0000E+00  0.0000E+00  0.0000E+00  0.0000E+00  0.0000E+00  0.0000E+00  0.0000E+00
  0.0000E+00  0.0000E+00  0.0000E+00  0.0000E+00  0.0000E+00  0.0000E+00  0.0000E+00  0.0000E+00  0.0000E+00  0.0000E+00  0.0000E+00  0.0000E+00  0.0000E+00  0.0000E+00  0.0000E+00  0.0000E+00  0.0000E+00  0.0000E+00  0.0000E+00  0.0000E+00  0.0000E+00  0.0000E+00  0.0000E+00  0.0000E+00  0.0000E+00  0.0000E+00  0.0000E+00  0.0000E+00  0.0000E+00  0.0000E+00  0.0000E+00  0.0000E+00  0.0000E+00  0.0000E+00  0.0000E+00  0.0000E+00  0.0000E+00  0.0000E+00  0.0000E+00  0.0000E+00  0.0000E+00  0.0000E+00  0.0000E+00  0.0000E+00  0.0000E+00  0.0000E+00  0.0000E+00  0.0000E+00  0.0000E+00  0.0000E+00  0.0000E+00  0.0000E+00  0.0000E+00  0.0000E+00  0.0000E+00  0.0000E+00  0.0000E+00  0.0000E+00  0.0000E+00  0.0000E+00  0.0000E+00  0.0000E+00  0.0000E+00  0.0000E+00  0.0000E+00  0.0000E+00  0.0000E+00  0.0000E+00  0.0000E+00  0.0000E+00  0.0000E+00  0.0000E+00  0.0000E+00  0.0000E+00  0.0000E+00  0.0000E+00  0.0000E+00  0.0000E+00  0.0000E+00
  0.0000E+00  0.0000E+00  0.0000E+00  0.0000E+00  0.0000E+00  0.0000E+00  0.0000E+00  0.0000E+00  0.0000E+00  0.0000E+00  0.0000E+00  0.0000E+00  0.0000E+00  0.0000E+00  0.0000E+00  0.0000E+00  0.0000E+00  0.0000E+00  0.0000E+00  0.0000E+00  0.0000E+00  0.0000E+00  0.0000E+00  0.0000E+00  0.0000E+00  0.0000E+00  0.0000E+00  0.0000E+00  0.0000E+00  0.0000E+00  0.0000E+00  0.0000E+00  0.0000E+00  0.0000E+00  0.0000E+00  0.0000E+00  0.0000E+00  0.0000E+00  0.0000E+00  0.0000E+00  0.0000E+00  0.0000E+00  0.0000E+00  0.0000E+00  0.0000E+00  0.0000E+00  0.0000E+00  0.0000E+00  0.0000E+00  0.0000E+00  0.0000E+00  0.0000E+00  0.0000E+00  0.0000E+00  0.0000E+00  0.0000E+00  0.0000E+00  0.0000E+00  0.0000E+00  0.0000E+00  0.0000E+00  0.0000E+00  0.0000E+00  0.0000E+00  0.0000E+00  0.0000E+00  0.0000E+00  0.0000E+00  0.0000E+00  0.0000E+00  0.0000E+00  0.0000E+00  0.0000E+00  0.0000E+00  0.0000E+00  0.0000E+00  0.0000E+00  0.0000E+00  0.0000E+00
  0.0000E+00  0.0000E+00  0.0000E+00  0.0000E+00  0.0000E+00  0.0000E+00  0.0000E+00  0.0000E+00  0.0000E+00  0.0000E+00  0.0000E+00  0.0000E+00  0.0000E+00  0.0000E+00  0.0000E+00  0.0000E+00  0.0000E+00  0.0000E+00  0.0000E+00  0.0000E+00  0.0000E+00  0.0000E+00  0.0000E+00  0.0000E+00  0.0000E+00  0.0000E+00  0.0000E+00  0.0000E+00  0.0000E+00  0.0000E+00  0.0000E+00  0.0000E+00  0.0000E+00  0.0000E+00  0.0000E+00  0.0000E+00  0.0000E+00  0.0000E+00  0.0000E+00  0.0000E+00  0.0000E+00  0.0000E+00  0.0000E+00  0.0000E+00  0.0000E+00  0.0000E+00  0.0000E+00  0.0000E+00  0.0000E+00  0.0000E+00  0.0000E+00  0.0000E+00  0.0000E+00  0.0000E+00  0.0000E+00  0.0000E+00  0.0000E+00  0.0000E+00  0.0000E+00  0.0000E+00  0.0000E+00  0.0000E+00  0.0000E+00  0.0000E+00  0.0000E+00  0.0000E+00  0.0000E+00  0.0000E+00  0.0000E+00  0.0000E+00  0.0000E+00  0.0000E+00  0.0000E+00  0.0000E+00  0.0000E+00  0.0000E+00  0.0000E+00  0.0000E+00  0.0000E+00
  0.0000E+00  0.0000E+00  0.0000E+00  0.0000E+00  0.0000E+00  0.0000E+00  0.0000E+00  0.0000E+00  0.0000E+00  0.0000E+00  0.0000E+00  0.0000E+00  0.0000E+00  0.0000E+00  0.0000E+00  0.0000E+00  0.0000E+00  0.0000E+00  0.0000E+00  0.0000E+00  0.0000E+00  0.0000E+00  0.0000E+00  0.0000E+00  0.0000E+00  0.0000E+00  0.0000E+00  0.0000E+00  0.0000E+00  0.0000E+00  0.0000E+00  0.0000E+00  0.0000E+00  0.0000E+00  0.0000E+00  0.0000E+00  0.0000E+00  0.0000E+00  0.0000E+00  0.0000E+00  0.0000E+00  0.0000E+00  0.0000E+00  0.0000E+00  0.0000E+00  0.0000E+00  0.0000E+00  0.0000E+00  0.0000E+00  0.0000E+00  0.0000E+00  0.0000E+00  0.0000E+00  0.0000E+00  0.0000E+00  0.0000E+00  0.0000E+00  0.0000E+00  0.0000E+00  0.0000E+00  0.0000E+00  0.0000E+00  0.0000E+00  0.0000E+00  0.0000E+00  0.0000E+00  0.0000E+00  0.0000E+00  0.0000E+00  0.0000E+00  0.0000E+00  0.0000E+00  0.0000E+00  0.0000E+00  0.0000E+00  0.0000E+00  0.0000E+00  0.0000E+00  0.0000E+00
  0.0000E+00  0.0000E+00  0.0000E+00  0.0000E+00  0.0000E+00  0.0000E+00  0.0000E+00  0.0000E+00  0.0000E+00  0.0000E+00  0.0000E+00  0.0000E+00  0.0000E+00  0.0000E+00  0.0000E+00  0.0000E+00  0.0000E+00  0.0000E+00  0.0000E+00  0.0000E+00  0.0000E+00  0.0000E+00  0.0000E+00  0.0000E+00  0.0000E+00  0.0000E+00  0.0000E+00  0.0000E+00  0.0000E+00  0.0000E+00  0.0000E+00  0.0000E+00  0.0000E+00  0.0000E+00  0.0000E+00  0.0000E+00  0.0000E+00  0.0000E+00  0.0000E+00  0.0000E+00  0.0000E+00  0.0000E+00  0.0000E+00  0.0000E+00  0.0000E+00  0.0000E+00  0.0000E+00  0.0000E+00  0.0000E+00  0.0000E+00  0.0000E+00  0.0000E+00  0.0000E+00  0.0000E+00  0.0000E+00  0.0000E+00  0.0000E+00  0.0000E+00  0.0000E+00  0.0000E+00  0.0000E+00  0.0000E+00  0.0000E+00  0.0000E+00  0.0000E+00  0.0000E+00  0.0000E+00  0.0000E+00  0.0000E+00  0.0000E+00  0.0000E+00  0.0000E+00  0.0000E+00  0.0000E+00  0.0000E+00  0.0000E+00  0.0000E+00  0.0000E+00  0.0000E+00
  0.0000E+00  0.0000E+00  0.0000E+00  0.0000E+00  0.0000E+00  0.0000E+00  0.0000E+00  0.0000E+00  0.0000E+00  0.0000E+00  0.0000E+00  0.0000E+00  0.0000E+00  0.0000E+00  0.0000E+00  0.0000E+00  0.0000E+00  0.0000E+00  0.0000E+00  0.0000E+00  0.0000E+00  0.0000E+00  0.0000E+00  0.0000E+00  0.0000E+00  0.0000E+00  0.0000E+00  0.0000E+00  0.0000E+00  0.0000E+00  0.0000E+00  0.0000E+00  0.0000E+00  0.0000E+00  0.0000E+00  0.0000E+00  0.0000E+00  0.0000E+00  0.0000E+00  0.0000E+00  0.0000E+00  0.0000E+00  0.0000E+00  0.0000E+00  0.0000E+00  0.0000E+00  0.0000E+00  0.0000E+00  0.0000E+00  0.0000E+00  0.0000E+00  0.0000E+00  0.0000E+00  0.0000E+00  0.0000E+00  0.0000E+00  0.0000E+00  0.0000E+00  0.0000E+00  0.0000E+00  0.0000E+00  0.0000E+00  0.0000E+00  0.0000E+00  0.0000E+00  0.0000E+00  0.0000E+00  0.0000E+00  0.0000E+00  0.0000E+00  0.0000E+00  0.0000E+00  0.0000E+00  0.0000E+00  0.0000E+00  0.0000E+00  0.0000E+00  0.0000E+00  0.0000E+00
  0.0000E+00  0.0000E+00  0.0000E+00  0.0000E+00  0.0000E+00  0.0000E+00  0.0000E+00  0.0000E+00  0.0000E+00  0.0000E+00  0.0000E+00  0.0000E+00  0.0000E+00  0.0000E+00  0.0000E+00  0.0000E+00  0.0000E+00  0.0000E+00  0.0000E+00  0.0000E+00  0.0000E+00  0.0000E+00  0.0000E+00  0.0000E+00  0.0000E+00  0.0000E+00  0.0000E+00  0.0000E+00  0.0000E+00  0.0000E+00  0.0000E+00  0.0000E+00  0.0000E+00  0.0000E+00  0.0000E+00  0.0000E+00  0.0000E+00  0.0000E+00  0.0000E+00  0.0000E+00  0.0000E+00  0.0000E+00  0.0000E+00  0.0000E+00  0.0000E+00  0.0000E+00  0.0000E+00  0.0000E+00  0.0000E+00  0.0000E+00  0.0000E+00  0.0000E+00  0.0000E+00  0.0000E+00  0.0000E+00  0.0000E+00  0.0000E+00  0.0000E+00  0.0000E+00  0.0000E+00  0.0000E+00  0.0000E+00  0.0000E+00  0.0000E+00  0.0000E+00  0.0000E+00  0.0000E+00  0.0000E+00  0.0000E+00  0.0000E+00  0.0000E+00  0.0000E+00  0.0000E+00  0.0000E+00  0.0000E+00  0.0000E+00  0.0000E+00  0.0000E+00  0.0000E+00
  0.0000E+00  0.0000E+00  0.0000E+00  0.0000E+00  0.0000E+00  0.0000E+00  0.0000E+00  0.0000E+00  0.0000E+00  0.0000E+00  0.0000E+00  0.0000E+00  0.0000E+00  0.0000E+00  0.0000E+00  0.0000E+00  0.0000E+00  0.0000E+00  0.0000E+00  0.0000E+00  0.0000E+00  0.0000E+00  0.0000E+00  0.0000E+00  0.0000E+00  0.0000E+00  0.0000E+00  0.0000E+00  0.0000E+00  0.0000E+00  0.0000E+00  0.0000E+00  0.0000E+00  0.0000E+00  0.0000E+00  0.0000E+00  0.0000E+00  0.0000E+00  0.0000E+00  0.0000E+00  0.0000E+00  0.0000E+00  0.0000E+00  0.0000E+00  0.0000E+00  0.0000E+00  0.0000E+00  0.0000E+00  0.0000E+00  0.0000E+00  0.0000E+00  0.0000E+00  0.0000E+00  0.0000E+00  0.0000E+00  0.0000E+00  0.0000E+00  0.0000E+00  0.0000E+00  0.0000E+00  0.0000E+00  0.0000E+00  0.0000E+00  0.0000E+00  0.0000E+00  0.0000E+00  0.0000E+00  0.0000E+00  0.0000E+00  0.0000E+00  0.0000E+00  0.0000E+00  0.0000E+00  0.0000E+00  0.0000E+00  0.0000E+00  0.0000E+00  0.0000E+00  0.0000E+00
  0.0000E+00  0.0000E+00  0.0000E+00  0.0000E+00  0.0000E+00  0.0000E+00  0.0000E+00  0.0000E+00  0.0000E+00  0.0000E+00  0.0000E+00  0.0000E+00  0.0000E+00  0.0000E+00  0.0000E+00  0.0000E+00  0.0000E+00  0.0000E+00  0.0000E+00  0.0000E+00  0.0000E+00  0.0000E+00  0.0000E+00  0.0000E+00  0.0000E+00  0.0000E+00  0.0000E+00  0.0000E+00  0.0000E+00  0.0000E+00  0.0000E+00  0.0000E+00  0.0000E+00  0.0000E+00  0.0000E+00  0.0000E+00  0.0000E+00  0.0000E+00  0.0000E+00  0.0000E+00  0.0000E+00  0.0000E+00  0.0000E+00  0.0000E+00  0.0000E+00  0.0000E+00  0.0000E+00  0.0000E+00  0.0000E+00  0.0000E+00  0.0000E+00  0.0000E+00  0.0000E+00  0.0000E+00  0.0000E+00  0.0000E+00  0.0000E+00  0.0000E+00  0.0000E+00  0.0000E+00  0.0000E+00  0.0000E+00  0.0000E+00  0.0000E+00  0.0000E+00  0.0000E+00  0.0000E+00  0.0000E+00  0.0000E+00  0.0000E+00  0.0000E+00  0.0000E+00  0.0000E+00  0.0000E+00  0.0000E+00  0.0000E+00  0.0000E+00  0.0000E+00  0.0000E+00
  0.0000E+00  0.0000E+00  0.0000E+00  0.0000E+00  0.0000E+00  0.0000E+00  0.0000E+00  0.0000E+00  0.0000E+00  0.0000E+00  0.0000E+00  0.0000E+00  0.0000E+00  0.0000E+00  0.0000E+00  0.0000E+00  0.0000E+00  0.0000E+00  0.0000E+00  0.0000E+00  0.0000E+00  0.0000E+00  0.0000E+00  0.0000E+00  0.0000E+00  0.0000E+00  0.0000E+00  0.0000E+00  0.0000E+00  0.0000E+00  0.0000E+00  0.0000E+00  0.0000E+00  0.0000E+00  0.0000E+00  0.0000E+00  0.0000E+00  0.0000E+00  0.0000E+00  0.0000E+00  0.0000E+00  0.0000E+00  0.0000E+00  0.0000E+00  0.0000E+00  0.0000E+00  0.0000E+00  0.0000E+00  0.0000E+00  0.0000E+00  0.0000E+00  0.0000E+00  0.0000E+00  0.0000E+00  0.0000E+00  0.0000E+00  0.0000E+00  0.0000E+00  0.0000E+00  0.0000E+00  0.0000E+00  0.0000E+00  0.0000E+00  0.0000E+00  0.0000E+00  0.0000E+00  0.0000E+00  0.0000E+00  0.0000E+00  0.0000E+00  0.0000E+00  0.0000E+00  0.0000E+00  0.0000E+00  0.0000E+00  0.0000E+00  0.0000E+00  0.0000E+00  0.0000E+00
  0.0000E+00  0.0000E+00  0.0000E+00  0.0000E+00  0.0000E+00  0.0000E+00  0.0000E+00  0.0000E+00  0.0000E+00  0.0000E+00  0.0000E+00  0.0000E+00  0.0000E+00  0.0000E+00  0.0000E+00  0.0000E+00  0.0000E+00  0.0000E+00  0.0000E+00  0.0000E+00  0.0000E+00  0.0000E+00  0.0000E+00  0.0000E+00  0.0000E+00  0.0000E+00  0.0000E+00  0.0000E+00  0.0000E+00  0.0000E+00  0.0000E+00  0.0000E+00  0.0000E+00  0.0000E+00  0.0000E+00  0.0000E+00  0.0000E+00  0.0000E+00  0.0000E+00  0.0000E+00  0.0000E+00  0.0000E+00  0.0000E+00  0.0000E+00  0.0000E+00  0.0000E+00  0.0000E+00  0.0000E+00  0.0000E+00  0.0000E+00  0.0000E+00  0.0000E+00  0.0000E+00  0.0000E+00  0.0000E+00  0.0000E+00  0.0000E+00  0.0000E+00  0.0000E+00  0.0000E+00  0.0000E+00  0.0000E+00  0.0000E+00  0.0000E+00  0.0000E+00  0.0000E+00  0.0000E+00  0.0000E+00  0.0000E+00  0.0000E+00  0.0000E+00  0.0000E+00  0.0000E+00  0.0000E+00  0.0000E+00  0.0000E+00  0.0000E+00  0.0000E+00  0.0000E+00
  0.0000E+00  0.0000E+00  0.0000E+00  0.0000E+00  0.0000E+00  0.0000E+00  0.0000E+00  0.0000E+00  0.0000E+00  0.0000E+00  0.0000E+00  0.0000E+00  0.0000E+00  0.0000E+00  0.0000E+00  0.0000E+00  0.0000E+00  0.0000E+00  0.0000E+00  0.0000E+00  0.0000E+00  0.0000E+00  0.0000E+00  0.0000E+00  0.0000E+00  0.0000E+00  0.0000E+00  0.0000E+00  0.0000E+00  0.0000E+00  0.0000E+00  0.0000E+00  0.0000E+00  0.0000E+00  0.0000E+00  0.0000E+00  0.0000E+00  0.0000E+00  0.0000E+00  0.0000E+00  0.0000E+00  0.0000E+00  0.0000E+00  0.0000E+00  0.0000E+00  0.0000E+00  0.0000E+00  0.0000E+00  0.0000E+00  0.0000E+00  0.0000E+00  0.0000E+00  0.0000E+00  0.0000E+00  0.0000E+00  0.0000E+00  0.0000E+00  0.0000E+00  0.0000E+00  0.0000E+00  0.0000E+00  0.0000E+00  0.0000E+00  0.0000E+00  0.0000E+00  0.0000E+00  0.0000E+00  0.0000E+00  0.0000E+00  0.0000E+00  0.0000E+00  0.0000E+00  0.0000E+00  0.0000E+00  0.0000E+00  0.0000E+00  0.0000E+00  0.0000E+00  0.0000E+00
  0.0000E+00  0.0000E+00  0.0000E+00  0.0000E+00  0.0000E+00  0.0000E+00  0.0000E+00  0.0000E+00  0.0000E+00  0.0000E+00  0.0000E+00  0.0000E+00  0.0000E+00  0.0000E+00  0.0000E+00  0.0000E+00  0.0000E+00  0.0000E+00  0.0000E+00  0.0000E+00  0.0000E+00  0.0000E+00  0.0000E+00  0.0000E+00  0.0000E+00  0.0000E+00  0.0000E+00  0.0000E+00  0.0000E+00  0.0000E+00  0.0000E+00  0.0000E+00  0.0000E+00  0.0000E+00  0.0000E+00  0.0000E+00  0.0000E+00  0.0000E+00  0.0000E+00  0.0000E+00  0.0000E+00  0.0000E+00  0.0000E+00  0.0000E+00  0.0000E+00  0.0000E+00  0.0000E+00  0.0000E+00  0.0000E+00  0.0000E+00  0.0000E+00  0.0000E+00  0.0000E+00  0.0000E+00  0.0000E+00  0.0000E+00  0.0000E+00  0.0000E+00  0.0000E+00  0.0000E+00  0.0000E+00  0.0000E+00  0.0000E+00  0.0000E+00  0.0000E+00  0.0000E+00  0.0000E+00  0.0000E+00  0.0000E+00  0.0000E+00  0.0000E+00  0.0000E+00  0.0000E+00  0.0000E+00  0.0000E+00  0.0000E+00  0.0000E+00  0.0000E+00  0.0000E+00
  0.0000E+00  0.0000E+00  0.0000E+00  0.0000E+00  0.0000E+00  0.0000E+00  0.0000E+00  0.0000E+00  0.0000E+00  0.0000E+00  0.0000E+00  0.0000E+00  0.0000E+00  0.0000E+00  0.0000E+00  0.0000E+00  0.0000E+00  0.0000E+00  0.0000E+00  0.0000E+00  0.0000E+00  0.0000E+00  0.0000E+00  0.0000E+00  0.0000E+00  0.0000E+00  0.0000E+00  0.0000E+00  0.0000E+00  0.0000E+00  0.0000E+00  0.0000E+00  0.0000E+00  0.0000E+00  0.0000E+00  0.0000E+00  0.0000E+00  0.0000E+00  0.0000E+00  0.0000E+00  0.0000E+00  0.0000E+00  0.0000E+00  0.0000E+00  0.0000E+00  0.0000E+00  0.0000E+00  0.0000E+00  0.0000E+00  0.0000E+00  0.0000E+00  0.0000E+00  0.0000E+00  0.0000E+00  0.0000E+00  0.0000E+00  0.0000E+00  0.0000E+00  0.0000E+00  0.0000E+00  0.0000E+00  0.0000E+00  0.0000E+00  0.0000E+00  0.0000E+00  0.0000E+00  0.0000E+00  0.0000E+00  0.0000E+00  0.0000E+00  0.0000E+00  0.0000E+00  0.0000E+00  0.0000E+00  0.0000E+00  0.0000E+00  0.0000E+00  0.0000E+00  0.0000E+00
  0.0000E+00  0.0000E+00  0.0000E+00  0.0000E+00  0.0000E+00  0.0000E+00  0.0000E+00  0.0000E+00  0.0000E+00  0.0000E+00  0.0000E+00  0.0000E+00  0.0000E+00  0.0000E+00  0.0000E+00  0.0000E+00  0.0000E+00  0.0000E+00  0.0000E+00  0.0000E+00  0.0000E+00  0.0000E+00  0.0000E+00  0.0000E+00  0.0000E+00  0.0000E+00  0.0000E+00  0.0000E+00  0.0000E+00  0.0000E+00  0.0000E+00  0.0000E+00  0.0000E+00  0.0000E+00  0.0000E+00  0.0000E+00  0.0000E+00  0.0000E+00  0.0000E+00  0.0000E+00  0.0000E+00  0.0000E+00  0.0000E+00  0.0000E+00  0.0000E+00  0.0000E+00  0.0000E+00  0.0000E+00  0.0000E+00  0.0000E+00  0.0000E+00  0.0000E+00  0.0000E+00  0.0000E+00  0.0000E+00  0.0000E+00  0.0000E+00  0.0000E+00  0.0000E+00  0.0000E+00  0.0000E+00  0.0000E+00  0.0000E+00  0.0000E+00  0.0000E+00  0.0000E+00  0.0000E+00  0.0000E+00  0.0000E+00  0.0000E+00  0.0000E+00  0.0000E+00  0.0000E+00  0.0000E+00  0.0000E+00  0.0000E+00  0.0000E+00  0.0000E+00  0.0000E+00
  0.0000E+00  0.0000E+00  0.0000E+00  0.0000E+00  0.0000E+00  0.0000E+00  0.0000E+00  0.0000E+00  0.0000E+00  0.0000E+00  0.0000E+00  0.0000E+00  0.0000E+00  0.0000E+00  0.0000E+00  0.0000E+00  0.0000E+00  0.0000E+00  0.0000E+00  0.0000E+00  0.0000E+00  0.0000E+00  0.0000E+00  0.0000E+00  0.0000E+00  0.0000E+00  0.0000E+00  0.0000E+00  0.0000E+00  0.0000E+00  0.0000E+00  0.0000E+00  0.0000E+00  0.0000E+00  0.0000E+00  0.0000E+00  0.0000E+00  0.0000E+00  0.0000E+00  0.0000E+00  0.0000E+00  0.0000E+00  0.0000E+00  0.0000E+00  0.0000E+00  0.0000E+00  0.0000E+00  0.0000E+00  0.0000E+00  0.0000E+00  0.0000E+00  0.0000E+00  0.0000E+00  0.0000E+00  0.0000E+00  0.0000E+00  0.0000E+00  0.0000E+00  0.0000E+00  0.0000E+00  0.0000E+00  0.0000E+00  0.0000E+00  0.0000E+00  0.0000E+00  0.0000E+00  0.0000E+00  0.0000E+00  0.0000E+00  0.0000E+00  0.0000E+00  0.0000E+00  0.0000E+00  0.0000E+00  0.0000E+00  0.0000E+00  0.0000E+00  0.0000E+00  0.0000E+00
  0.0000E+00  0.0000E+00  0.0000E+00  0.0000E+00  0.0000E+00  0.0000E+00  0.0000E+00  0.0000E+00  0.0000E+00  0.0000E+00  0.0000E+00  0.0000E+00  0.0000E+00  0.0000E+00  0.0000E+00  0.0000E+00  0.0000E+00  0.0000E+00  0.0000E+00  0.0000E+00  0.0000E+00  0.0000E+00  0.0000E+00  0.0000E+00  0.0000E+00  0.0000E+00  0.0000E+00  0.0000E+00  0.0000E+00  0.0000E+00  0.0000E+00  0.0000E+00  0.0000E+00  0.0000E+00  0.0000E+00  0.0000E+00  0.0000E+00  0.0000E+00  0.0000E+00  0.0000E+00  0.0000E+00  0.0000E+00  0.0000E+00  0.0000E+00  0.0000E+00  0.0000E+00  0.0000E+00  0.0000E+00  0.0000E+00  0.0000E+00  0.0000E+00  0.0000E+00  0.0000E+00  0.0000E+00  0.0000E+00  0.0000E+00  0.0000E+00  0.0000E+00  0.0000E+00  0.0000E+00  0.0000E+00  0.0000E+00  0.0000E+00  0.0000E+00  0.0000E+00  0.0000E+00  0.0000E+00  0.0000E+00  0.0000E+00  0.0000E+00  0.0000E+00  0.0000E+00  0.0000E+00  0.0000E+00  0.0000E+00  0.0000E+00  0.0000E+00  0.0000E+00  0.0000E+00
  0.0000E+00  0.0000E+00  0.0000E+00  0.0000E+00  0.0000E+00  0.0000E+00  0.0000E+00  0.0000E+00  0.0000E+00  0.0000E+00  0.0000E+00  0.0000E+00  0.0000E+00  0.0000E+00  0.0000E+00  0.0000E+00  0.0000E+00  0.0000E+00  0.0000E+00  0.0000E+00  0.0000E+00  0.0000E+00  0.0000E+00  0.0000E+00  0.0000E+00  0.0000E+00  0.0000E+00  0.0000E+00  0.0000E+00  0.0000E+00  0.0000E+00  0.0000E+00  0.0000E+00  0.0000E+00  0.0000E+00  0.0000E+00  0.0000E+00  0.0000E+00  0.0000E+00  0.0000E+00  0.0000E+00  0.0000E+00  0.0000E+00  0.0000E+00  0.0000E+00  0.0000E+00  0.0000E+00  0.0000E+00  0.0000E+00  0.0000E+00  0.0000E+00  0.0000E+00  0.0000E+00  0.0000E+00  0.0000E+00  0.0000E+00  0.0000E+00  0.0000E+00  0.0000E+00  0.0000E+00  0.0000E+00  0.0000E+00  0.0000E+00  0.0000E+00  0.0000E+00  0.0000E+00  0.0000E+00  0.0000E+00  0.0000E+00  0.0000E+00  0.0000E+00  0.0000E+00  0.0000E+00  0.0000E+00  0.0000E+00  0.0000E+00  0.0000E+00  0.0000E+00  0.0000E+00
  0.0000E+00  0.0000E+00  0.0000E+00  0.0000E+00  0.0000E+00  0.0000E+00  0.0000E+00  0.0000E+00  0.0000E+00  0.0000E+00  0.2139E-09  0.4493E-09  0.6562E-09  0.8813E-09  0.1127E-08  0.1208E-08  0.1214E-08  0.1217E-08  0.1218E-08  0.1217E-08  0.1172E-08  0.1040E-08  0.8999E-09  0.7517E-09  0.5952E-09  0.4303E-09  0.1978E-09  0.1148E-10  0.0000E+00  0.0000E+00  0.0000E+00  0.0000E+00  0.0000E+00  0.0000E+00  0.0000E+00  0.0000E+00  0.0000E+00  0.0000E+00  0.0000E+00  0.0000E+00  0.0000E+00  0.0000E+00  0.0000E+00  0.0000E+00  0.0000E+00  0.0000E+00  0.0000E+00  0.0000E+00  0.0000E+00  0.0000E+00  0.0000E+00  0.0000E+00  0.0000E+00  0.0000E+00  0.0000E+00  0.0000E+00  0.0000E+00  0.0000E+00  0.0000E+00  0.0000E+00  0.0000E+00  0.0000E+00  0.0000E+00  0.0000E+00  0.0000E+00  0.0000E+00  0.0000E+00  0.0000E+00  0.0000E+00  0.0000E+00  0.0000E+00  0.0000E+00  0.0000E+00  0.0000E+00  0.0000E+00  0.0000E+00  0.0000E+00  0.0000E+00  0.0000E+00
  0.0000E+00  0.4136E-10  0.2158E-09  0.3584E-09  0.5967E-09  0.9427E-09  0.1325E-08  0.1731E-08  0.2238E-08  0.2697E-08  0.3076E-08  0.3335E-08  0.3612E-08  0.3733E-08  0.3761E-08  0.3784E-08  0.3799E-08  0.3808E-08  0.3822E-08  0.3817E-08  0.3805E-08  0.3787E-08  0.3676E-08  0.3464E-08  0.3273E-08  0.3081E-08  0.2694E-08  0.2298E-08  0.1930E-08  0.1505E-08  0.1068E-08  0.6573E-09  0.3780E-09  0.1371E-09  0.0000E+00  0.0000E+00  0.0000E+00  0.0000E+00  0.0000E+00  0.0000E+00  0.0000E+00  0.0000E+00  0.0000E+00  0.0000E+00  0.0000E+00  0.0000E+00  0.0000E+00  0.2223E-10  0.4476E-10  0.4584E-10  0.9194E-10  0.9366E-10  0.1182E-09  0.1198E-09  0.1676E-09  0.1690E-09  0.1699E-09  0.1704E-09  0.1704E-09  0.1699E-09  0.1690E-09  0.1675E-09  0.1194E-09  0.1177E-09  0.9306E-10  0.9126E-10  0.4526E-10  0.2251E-10  0.0000E+00  0.0000E+00  0.0000E+00  0.0000E+00  0.0000E+00  0.0000E+00  0.0000E+00  0.0000E+00  0.0000E+00  0.0000E+00  0.0000E+00
  0.9905E-09  0.1457E-08  0.1962E-08  0.2444E-08  0.2976E-08  0.3458E-08  0.3727E-08  0.3878E-08  0.3962E-08  0.4028E-08  0.4101E-08  0.4155E-08  0.4227E-08  0.4268E-08  0.4301E-08  0.4327E-08  0.4358E-08  0.4369E-08  0.4372E-08  0.4366E-08  0.4353E-08  0.4332E-08  0.4304E-08  0.4267E-08  0.4224E-08  0.4173E-08  0.4115E-08  0.4038E-08  0.3968E-08  0.3806E-08  0.3534E-08  0.3207E-08  0.2692E-08  0.2102E-08  0.1536E-08  0.9699E-09  0.4943E-09  0.1987E-09  0.0000E+00  0.0000E+00  0.0000E+00  0.0000E+00  0.0000E+00  0.2267E-10  0.6795E-10  0.9376E-10  0.1201E-09  0.1710E-09  0.1996E-09  0.2282E-09  0.2587E-09  0.2888E-09  0.3182E-09  0.3491E-09  0.3534E-09  0.3825E-09  0.3852E-09  0.3867E-09  0.3872E-09  0.3865E-09  0.3847E-09  0.3818E-09  0.3779E-09  0.3474E-09  0.3418E-09  0.2856E-09  0.2793E-09  0.2485E-09  0.1946E-09  0.1657E-09  0.9260E-10  0.4525E-10  0.2219E-10  0.0000E+00  0.0000E+00  0.0000E+00  0.0000E+00  0.0000E+00  0.0000E+00
  0.2942E-08  0.3462E-08  0.3820E-08  0.4001E-08  0.4117E-08  0.4228E-08  0.4322E-08  0.4436E-08  0.4519E-08  0.4608E-08  0.4678E-08  0.4753E-08  0.4822E-08  0.4869E-08  0.4921E-08  0.4951E-08  0.4973E-08  0.4986E-08  0.4989E-08  0.5011E-08  0.4997E-08  0.4973E-08  0.4941E-08  0.4886E-08  0.4837E-08  0.4779E-08  0.4699E-08  0.4625E-08  0.4545E-08  0.4444E-08  0.4351E-08  0.4239E-08  0.4122E-08  0.4013E-08  0.3715E-08  0.3357E-08  0.2767E-08  0.2061E-08  0.1382E-08  0.7370E-09  0.3648E-09  0.9323E-10  0.1207E-09  0.1734E-09  0.2279E-09  0.2616E-09  0.2959E-09  0.3565E-09  0.3932E-09  0.4564E-09  0.4679E-09  0.5056E-09  0.5703E-09  0.5800E-09  0.6163E-09  0.6505E-09  0.6854E-09  0.6893E-09  0.6912E-09  0.6909E-09  0.6886E-09  0.6842E-09  0.6778E-09  0.6693E-09  0.6028E-09  0.5916E-09  0.5516E-09  0.4841E-09  0.4444E-09  0.4059E-09  0.3412E-09  0.2799E-09  0.1973E-09  0.1661E-09  0.9171E-10  0.2256E-10  0.0000E+00  0.0000E+00  0.0000E+00
  0.4139E-08  0.4280E-08  0.4419E-08  0.4554E-08  0.4685E-08  0.4811E-08  0.4932E-08  0.5048E-08  0.5143E-08  0.5245E-08  0.5339E-08  0.5425E-08  0.5489E-08  0.5558E-08  0.5603E-08  0.5638E-08  0.5677E-08  0.5708E-08  0.5713E-08  0.5707E-08  0.5691E-08  0.5665E-08  0.5628E-08  0.5582E-08  0.5529E-08  0.5463E-08  0.5388E-08  0.5291E-08  0.5184E-08  0.5084E-08  0.4978E-08  0.4846E-08  0.4714E-08  0.4576E-08  0.4447E-08  0.4300E-08  0.4152E-08  0.4002E-08  0.3678E-08  0.3164E-08  0.2469E-08  0.1622E-08  0.9798E-09  0.6181E-09  0.3997E-09  0.4686E-09  0.5132E-09  0.5863E-09  0.6333E-09  0.7092E-09  0.7575E-09  0.8047E-09  0.8531E-09  0.8997E-09  0.9439E-09  0.9885E-09  0.9987E-09  0.1038E-08  0.1042E-08  0.1043E-08  0.1072E-08  0.1066E-08  0.1026E-08  0.1015E-08  0.9996E-09  0.9506E-09  0.9306E-09  0.8477E-09  0.7949E-09  0.7126E-09  0.6605E-09  0.5814E-09  0.4782E-09  0.4323E-09  0.3380E-09  0.2496E-09  0.1674E-09  0.9162E-10  0.2232E-10
  0.4701E-08  0.4862E-08  0.5019E-08  0.5172E-08  0.5322E-08  0.5465E-08  0.5603E-08  0.5734E-08  0.5858E-08  0.5959E-08  0.6066E-08  0.6164E-08  0.6253E-08  0.6316E-08  0.6368E-08  0.6444E-08  0.6474E-08  0.6493E-08  0.6503E-08  0.6502E-08  0.6505E-08  0.6476E-08  0.6435E-08  0.6387E-08  0.6323E-08  0.6237E-08  0.6152E-08  0.6061E-08  0.5956E-08  0.5823E-08  0.5682E-08  0.5552E-08  0.5401E-08  0.5240E-08  0.5100E-08  0.4990E-08  0.4872E-08  0.4750E-08  0.4616E-08  0.4504E-08  0.4365E-08  0.4023E-08  0.3433E-08  0.2620E-08  0.1801E-08  0.1187E-08  0.7918E-09  0.8689E-09  0.9295E-09  0.1021E-08  0.1083E-08  0.1143E-08  0.1205E-08  0.1264E-08  0.1354E-08  0.1409E-08  0.1426E-08  0.1473E-08  0.1607E-08  0.1612E-08  0.1612E-08  0.1728E-08  0.1717E-08  0.1579E-08  0.1558E-08  0.1532E-08  0.1344E-08  0.1312E-08  0.1243E-08  0.1140E-08  0.1070E-08  0.9684E-09  0.8391E-09  0.7743E-09  0.6546E-09  0.5415E-09  0.4358E-09  0.3375E-09  0.2470E-09
  0.5327E-08  0.5509E-08  0.5688E-08  0.5862E-08  0.6031E-08  0.6194E-08  0.6350E-08  0.6499E-08  0.6640E-08  0.6771E-08  0.6893E-08  0.6994E-08  0.7098E-08  0.7172E-08  0.7257E-08  0.7327E-08  0.7367E-08  0.7398E-08  0.7424E-08  0.7424E-08  0.7410E-08  0.7384E-08  0.7343E-08  0.7284E-08  0.7213E-08  0.7133E-08  0.7037E-08  0.6929E-08  0.6793E-08  0.6664E-08  0.6509E-08  0.6345E-08  0.6207E-08  0.6076E-08  0.5962E-08  0.5830E-08  0.5665E-08  0.5555E-08  0.5428E-08  0.5273E-08  0.5172E-08  0.5036E-08  0.4894E-08  0.4702E-08  0.4273E-08  0.3533E-08  0.2600E-08  0.1800E-08  0.1429E-08  0.1369E-08  0.1483E-08  0.1561E-08  0.1851E-08  0.2018E-08  0.2063E-08  0.2102E-08  0.2134E-08  0.2286E-08  0.2306E-08  0.2441E-08  0.2445E-08  0.2441E-08  0.2427E-08  0.2405E-08  0.2252E-08  0.2216E-08  0.2047E-08  0.2000E-08  0.1946E-08  0.1887E-08  0.1823E-08  0.1640E-08  0.1302E-08  0.1212E-08  0.1060E-08  0.9158E-09  0.7798E-09  0.6527E-09  0.5348E-09
  0.6025E-08  0.6231E-08  0.6434E-08  0.6631E-08  0.6823E-08  0.7008E-08  0.7200E-08  0.7358E-08  0.7518E-08  0.7672E-08  0.7820E-08  0.7956E-08  0.8064E-08  0.8166E-08  0.8264E-08  0.8332E-08  0.8392E-08  0.8430E-08  0.8465E-08  0.8467E-08  0.8448E-08  0.8424E-08  0.8374E-08  0.8314E-08  0.8239E-08  0.8144E-08  0.8035E-08  0.7913E-08  0.7777E-08  0.7595E-08  0.7459E-08  0.7322E-08  0.7220E-08  0.7076E-08  0.6925E-08  0.6779E-08  0.6648E-08  0.6475E-08  0.6330E-08  0.6211E-08  0.6034E-08  0.5904E-08  0.5807E-08  0.5649E-08  0.5533E-08  0.5423E-08  0.5067E-08  0.4375E-08  0.3440E-08  0.2778E-08  0.2319E-08  0.2382E-08  0.2582E-08  0.2778E-08  0.2845E-08  0.2903E-08  0.3080E-08  0.3121E-08  0.3277E-08  0.3296E-08  0.3303E-08  0.3298E-08  0.3281E-08  0.3251E-08  0.3086E-08  0.3036E-08  0.2850E-08  0.2783E-08  0.2707E-08  0.2624E-08  0.2414E-08  0.2202E-08  0.1990E-08  0.1902E-08  0.1812E-08  0.1485E-08  0.1221E-08  0.1056E-08  0.9032E-09
  0.6798E-08  0.7032E-08  0.7261E-08  0.7484E-08  0.7721E-08  0.7935E-08  0.8142E-08  0.8343E-08  0.8513E-08  0.8711E-08  0.8862E-08  0.9018E-08  0.9178E-08  0.9278E-08  0.9391E-08  0.9470E-08  0.9526E-08  0.9603E-08  0.9626E-08  0.9630E-08  0.9623E-08  0.9586E-08  0.9555E-08  0.9489E-08  0.9405E-08  0.9279E-08  0.9163E-08  0.9024E-08  0.8871E-08  0.8755E-08  0.8631E-08  0.8499E-08  0.8318E-08  0.8178E-08  0.8060E-08  0.7844E-08  0.7685E-08  0.7549E-08  0.7392E-08  0.7217E-08  0.7070E-08  0.6932E-08  0.6781E-08  0.6654E-08  0.6524E-08  0.6507E-08  0.6580E-08  0.6563E-08  0.6323E-08  0.5769E-08  0.4817E-08  0.4015E-08  0.3603E-08  0.3695E-08  0.3787E-08  0.3999E-08  0.4069E-08  0.4253E-08  0.4295E-08  0.4321E-08  0.4331E-08  0.4324E-08  0.4301E-08  0.4262E-08  0.4081E-08  0.4013E-08  0.3805E-08  0.3714E-08  0.3611E-08  0.3498E-08  0.3256E-08  0.3010E-08  0.2764E-08  0.2640E-08  0.2392E-08  0.2025E-08  0.1915E-08  0.1805E-08  0.1462E-08
  0.7657E-08  0.7920E-08  0.8183E-08  0.8441E-08  0.8716E-08  0.8959E-08  0.9199E-08  0.9428E-08  0.9645E-08  0.9851E-08  0.1004E-07  0.1022E-07  0.1039E-07  0.1050E-07  0.1063E-07  0.1072E-07  0.1083E-07  0.1088E-07  0.1091E-07  0.1093E-07  0.1093E-07  0.1090E-07  0.1084E-07  0.1076E-07  0.1067E-07  0.1056E-07  0.1042E-07  0.1034E-07  0.1019E-07  0.1004E-07  0.9922E-08  0.9781E-08  0.9609E-08  0.9434E-08  0.9262E-08  0.9113E-08  0.8932E-08  0.8744E-08  0.8553E-08  0.8413E-08  0.8256E-08  0.8058E-08  0.7947E-08  0.7993E-08  0.7924E-08  0.8001E-08  0.7986E-08  0.8100E-08  0.8096E-08  0.8118E-08  0.7919E-08  0.7340E-08  0.6251E-08  0.5343E-08  0.5051E-08  0.5289E-08  0.5383E-08  0.5458E-08  0.5638E-08  0.5672E-08  0.5684E-08  0.5548E-08  0.5516E-08  0.5464E-08  0.5264E-08  0.5174E-08  0.4939E-08  0.4818E-08  0.4682E-08  0.4532E-08  0.4125E-08  0.3838E-08  0.3676E-08  0.3507E-08  0.3090E-08  0.2806E-08  0.2650E-08  0.2374E-08  0.1988E-08
  0.8616E-08  0.8923E-08  0.9225E-08  0.9521E-08  0.9828E-08  0.1011E-07  0.1038E-07  0.1064E-07  0.1089E-07  0.1112E-07  0.1134E-07  0.1155E-07  0.1173E-07  0.1189E-07  0.1202E-07  0.1215E-07  0.1237E-07  0.1243E-07  0.1261E-07  0.1263E-07  0.1262E-07  0.1259E-07  0.1253E-07  0.1246E-07  0.1235E-07  0.1224E-07  0.1214E-07  0.1204E-07  0.1193E-07  0.1179E-07  0.1150E-07  0.1133E-07  0.1116E-07  0.1087E-07  0.1065E-07  0.1046E-07  0.1029E-07  0.1013E-07  0.9915E-08  0.9727E-08  0.9575E-08  0.9579E-08  0.9624E-08  0.9677E-08  0.9774E-08  0.9751E-08  0.9747E-08  0.9885E-08  0.9790E-08  0.9948E-08  0.9988E-08  0.9900E-08  0.9541E-08  0.8773E-08  0.7783E-08  0.6944E-08  0.6800E-08  0.7023E-08  0.7091E-08  0.7132E-08  0.7144E-08  0.7129E-08  0.6959E-08  0.6889E-08  0.6666E-08  0.6417E-08  0.6281E-08  0.6123E-08  0.5945E-08  0.5626E-08  0.5297E-08  0.4962E-08  0.4747E-08  0.4400E-08  0.3928E-08  0.3719E-08  0.3507E-08  0.3057E-08  0.2745E-08
  0.9684E-08  0.1004E-07  0.1038E-07  0.1074E-07  0.1106E-07  0.1138E-07  0.1169E-07  0.1199E-07  0.1229E-07  0.1256E-07  0.1278E-07  0.1315E-07  0.1334E-07  0.1366E-07  0.1395E-07  0.1423E-07  0.1435E-07  0.1443E-07  0.1463E-07  0.1467E-07  0.1467E-07  0.1464E-07  0.1464E-07  0.1455E-07  0.1450E-07  0.1440E-07  0.1428E-07  0.1414E-07  0.1393E-07  0.1378E-07  0.1360E-07  0.1327E-07  0.1308E-07  0.1277E-07  0.1260E-07  0.1222E-07  0.1197E-07  0.1168E-07  0.1151E-07  0.1150E-07  0.1150E-07  0.1150E-07  0.1165E-07  0.1166E-07  0.1175E-07  0.1176E-07  0.1192E-07  0.1184E-07  0.1189E-07  0.1194E-07  0.1201E-07  0.1193E-07  0.1199E-07  0.1204E-07  0.1154E-07  0.1055E-07  0.9383E-08  0.8731E-08  0.8809E-08  0.8857E-08  0.8870E-08  0.8846E-08  0.8660E-08  0.8570E-08  0.8317E-08  0.8034E-08  0.7858E-08  0.7655E-08  0.7428E-08  0.7056E-08  0.6540E-08  0.6275E-08  0.5998E-08  0.5461E-08  0.5056E-08  0.4781E-08  0.4381E-08  0.3869E-08  0.3621E-08
  0.1087E-07  0.1127E-07  0.1167E-07  0.1203E-07  0.1242E-07  0.1278E-07  0.1314E-07  0.1349E-07  0.1393E-07  0.1435E-07  0.1477E-07  0.1517E-07  0.1556E-07  0.1579E-07  0.1613E-07  0.1645E-07  0.1660E-07  0.1671E-07  0.1685E-07  0.1704E-07  0.1709E-07  0.1707E-07  0.1711E-07  0.1708E-07  0.1707E-07  0.1704E-07  0.1676E-07  0.1658E-07  0.1643E-07  0.1626E-07  0.1594E-07  0.1559E-07  0.1533E-07  0.1512E-07  0.1478E-07  0.1458E-07  0.1422E-07  0.1379E-07  0.1371E-07  0.1385E-07  0.1381E-07  0.1375E-07  0.1382E-07  0.1395E-07  0.1398E-07  0.1411E-07  0.1415E-07  0.1422E-07  0.1433E-07  0.1441E-07  0.1437E-07  0.1445E-07  0.1440E-07  0.1447E-07  0.1451E-07  0.1440E-07  0.1353E-07  0.1225E-07  0.1111E-07  0.1090E-07  0.1090E-07  0.1087E-07  0.1066E-07  0.1055E-07  0.1026E-07  0.9934E-08  0.9710E-08  0.9453E-08  0.9037E-08  0.8600E-08  0.8147E-08  0.7810E-08  0.7331E-08  0.6849E-08  0.6369E-08  0.6016E-08  0.5415E-08  0.4958E-08  0.4633E-08
  0.1218E-07  0.1260E-07  0.1306E-07  0.1349E-07  0.1393E-07  0.1434E-07  0.1486E-07  0.1550E-07  0.1601E-07  0.1651E-07  0.1700E-07  0.1747E-07  0.1793E-07  0.1821E-07  0.1865E-07  0.1887E-07  0.1925E-07  0.1944E-07  0.1960E-07  0.1976E-07  0.1978E-07  0.1993E-07  0.1987E-07  0.1984E-07  0.1983E-07  0.1979E-07  0.1964E-07  0.1946E-07  0.1912E-07  0.1892E-07  0.1857E-07  0.1834E-07  0.1791E-07  0.1763E-07  0.1725E-07  0.1688E-07  0.1687E-07  0.1676E-07  0.1677E-07  0.1658E-07  0.1655E-07  0.1668E-07  0.1658E-07  0.1672E-07  0.1669E-07  0.1687E-07  0.1681E-07  0.1706E-07  0.1712E-07  0.1711E-07  0.1723E-07  0.1722E-07  0.1732E-07  0.1740E-07  0.1734E-07  0.1724E-07  0.1710E-07  0.1668E-07  0.1537E-07  0.1406E-07  0.1330E-07  0.1324E-07  0.1301E-07  0.1272E-07  0.1253E-07  0.1215E-07  0.1187E-07  0.1155E-07  0.1106E-07  0.1041E-07  0.1001E-07  0.9593E-08  0.9027E-08  0.8328E-08  0.7888E-08  0.7317E-08  0.6629E-08  0.6212E-08  0.5676E-08
  0.1359E-07  0.1409E-07  0.1461E-07  0.1509E-07  0.1582E-07  0.1643E-07  0.1717E-07  0.1778E-07  0.1837E-07  0.1897E-07  0.1953E-07  0.2009E-07  0.2066E-07  0.2105E-07  0.2160E-07  0.2197E-07  0.2234E-07  0.2263E-07  0.2281E-07  0.2295E-07  0.2311E-07  0.2318E-07  0.2322E-07  0.2320E-07  0.2318E-07  0.2307E-07  0.2278E-07  0.2256E-07  0.2218E-07  0.2195E-07  0.2170E-07  0.2129E-07  0.2098E-07  0.2052E-07  0.2006E-07  0.2001E-07  0.2004E-07  0.1987E-07  0.1979E-07  0.2000E-07  0.1993E-07  0.1983E-07  0.1999E-07  0.1974E-07  0.1996E-07  0.1999E-07  0.2015E-07  0.2036E-07  0.2030E-07  0.2029E-07  0.2046E-07  0.2057E-07  0.2069E-07  0.2067E-07  0.2061E-07  0.2052E-07  0.2038E-07  0.2021E-07  0.2000E-07  0.1874E-07  0.1730E-07  0.1603E-07  0.1575E-07  0.1542E-07  0.1503E-07  0.1473E-07  0.1438E-07  0.1398E-07  0.1328E-07  0.1267E-07  0.1218E-07  0.1166E-07  0.1086E-07  0.1019E-07  0.9641E-08  0.8837E-08  0.8178E-08  0.7654E-08  0.6765E-08
  0.1517E-07  0.1573E-07  0.1640E-07  0.1737E-07  0.1808E-07  0.1893E-07  0.1965E-07  0.2050E-07  0.2120E-07  0.2179E-07  0.2260E-07  0.2319E-07  0.2394E-07  0.2436E-07  0.2499E-07  0.2542E-07  0.2591E-07  0.2625E-07  0.2647E-07  0.2666E-07  0.2684E-07  0.2692E-07  0.2698E-07  0.2695E-07  0.2677E-07  0.2665E-07  0.2634E-07  0.2608E-07  0.2581E-07  0.2539E-07  0.2510E-07  0.2463E-07  0.2430E-07  0.2385E-07  0.2386E-07  0.2387E-07  0.2380E-07  0.2368E-07  0.2360E-07  0.2365E-07  0.2366E-07  0.2368E-07  0.2366E-07  0.2371E-07  0.2377E-07  0.2382E-07  0.2382E-07  0.2400E-07  0.2405E-07  0.2426E-07  0.2436E-07  0.2451E-07  0.2449E-07  0.2445E-07  0.2441E-07  0.2432E-07  0.2418E-07  0.2399E-07  0.2376E-07  0.2346E-07  0.2264E-07  0.2083E-07  0.1896E-07  0.1857E-07  0.1811E-07  0.1773E-07  0.1730E-07  0.1667E-07  0.1600E-07  0.1529E-07  0.1468E-07  0.1391E-07  0.1299E-07  0.1233E-07  0.1153E-07  0.1061E-07  0.9956E-08  0.9053E-08  0.8311E-08
  0.1699E-07  0.1790E-07  0.1883E-07  0.1979E-07  0.2076E-07  0.2160E-07  0.2259E-07  0.2347E-07  0.2429E-07  0.2523E-07  0.2610E-07  0.2679E-07  0.2761E-07  0.2822E-07  0.2894E-07  0.2935E-07  0.2980E-07  0.3013E-07  0.3063E-07  0.3086E-07  0.3105E-07  0.3099E-07  0.3107E-07  0.3105E-07  0.3086E-07  0.3072E-07  0.3053E-07  0.3007E-07  0.2976E-07  0.2944E-07  0.2894E-07  0.2842E-07  0.2829E-07  0.2802E-07  0.2796E-07  0.2799E-07  0.2784E-07  0.2772E-07  0.2773E-07  0.2785E-07  0.2786E-07  0.2797E-07  0.2789E-07  0.2809E-07  0.2801E-07  0.2824E-07  0.2836E-07  0.2836E-07  0.2849E-07  0.2864E-07  0.2886E-07  0.2895E-07  0.2898E-07  0.2888E-07  0.2882E-07  0.2870E-07  0.2855E-07  0.2835E-07  0.2808E-07  0.2773E-07  0.2732E-07  0.2671E-07  0.2481E-07  0.2291E-07  0.2167E-07  0.2120E-07  0.2066E-07  0.1979E-07  0.1900E-07  0.1830E-07  0.1756E-07  0.1652E-07  0.1560E-07  0.1479E-07  0.1372E-07  0.1278E-07  0.1199E-07  0.1082E-07  0.1007E-07
  0.1943E-07  0.2048E-07  0.2156E-07  0.2267E-07  0.2380E-07  0.2483E-07  0.2580E-07  0.2696E-07  0.2797E-07  0.2906E-07  0.3007E-07  0.3094E-07  0.3182E-07  0.3254E-07  0.3316E-07  0.3386E-07  0.3439E-07  0.3480E-07  0.3520E-07  0.3552E-07  0.3564E-07  0.3581E-07  0.3574E-07  0.3571E-07  0.3566E-07  0.3550E-07  0.3508E-07  0.3473E-07  0.3424E-07  0.3386E-07  0.3329E-07  0.3292E-07  0.3291E-07  0.3294E-07  0.3278E-07  0.3273E-07  0.3269E-07  0.3259E-07  0.3250E-07  0.3248E-07  0.3271E-07  0.3267E-07  0.3283E-07  0.3289E-07  0.3300E-07  0.3329E-07  0.3333E-07  0.3353E-07  0.3374E-07  0.3387E-07  0.3391E-07  0.3403E-07  0.3404E-07  0.3407E-07  0.3402E-07  0.3387E-07  0.3363E-07  0.3337E-07  0.3305E-07  0.3267E-07  0.3219E-07  0.3148E-07  0.3069E-07  0.2877E-07  0.2700E-07  0.2522E-07  0.2441E-07  0.2353E-07  0.2260E-07  0.2176E-07  0.2073E-07  0.1953E-07  0.1858E-07  0.1747E-07  0.1623E-07  0.1527E-07  0.1404E-07  0.1298E-07  0.1208E-07
  0.2215E-07  0.2338E-07  0.2462E-07  0.2590E-07  0.2709E-07  0.2838E-07  0.2983E-07  0.3112E-07  0.3224E-07  0.3339E-07  0.3456E-07  0.3552E-07  0.3655E-07  0.3739E-07  0.3811E-07  0.3875E-07  0.3960E-07  0.4014E-07  0.4055E-07  0.4068E-07  0.4091E-07  0.4115E-07  0.4120E-07  0.4116E-07  0.4087E-07  0.4069E-07  0.4035E-07  0.3985E-07  0.3929E-07  0.3885E-07  0.3842E-07  0.3861E-07  0.3833E-07  0.3825E-07  0.3800E-07  0.3806E-07  0.3804E-07  0.3792E-07  0.3800E-07  0.3793E-07  0.3801E-07  0.3817E-07  0.3838E-07  0.3837E-07  0.3883E-07  0.3890E-07  0.3901E-07  0.3928E-07  0.3941E-07  0.3963E-07  0.3973E-07  0.3979E-07  0.3990E-07  0.3991E-07  0.3984E-07  0.3973E-07  0.3956E-07  0.3919E-07  0.3879E-07  0.3830E-07  0.3773E-07  0.3694E-07  0.3605E-07  0.3504E-07  0.3303E-07  0.3103E-07  0.2886E-07  0.2769E-07  0.2673E-07  0.2570E-07  0.2436E-07  0.2311E-07  0.2197E-07  0.2040E-07  0.1925E-07  0.1795E-07  0.1655E-07  0.1543E-07  0.1395E-07
  0.2522E-07  0.2662E-07  0.2812E-07  0.2952E-07  0.3116E-07  0.3270E-07  0.3420E-07  0.3565E-07  0.3690E-07  0.3829E-07  0.3964E-07  0.4072E-07  0.4195E-07  0.4293E-07  0.4373E-07  0.4460E-07  0.4533E-07  0.4596E-07  0.4637E-07  0.4679E-07  0.4705E-07  0.4731E-07  0.4719E-07  0.4714E-07  0.4696E-07  0.4648E-07  0.4599E-07  0.4559E-07  0.4511E-07  0.4469E-07  0.4467E-07  0.4446E-07  0.4460E-07  0.4429E-07  0.4415E-07  0.4408E-07  0.4420E-07  0.4410E-07  0.4399E-07  0.4419E-07  0.4419E-07  0.4440E-07  0.4440E-07  0.4475E-07  0.4500E-07  0.4515E-07  0.4548E-07  0.4582E-07  0.4617E-07  0.4631E-07  0.4647E-07  0.4660E-07  0.4648E-07  0.4658E-07  0.4660E-07  0.4643E-07  0.4619E-07  0.4588E-07  0.4541E-07  0.4481E-07  0.4399E-07  0.4316E-07  0.4198E-07  0.4100E-07  0.3988E-07  0.3745E-07  0.3503E-07  0.3260E-07  0.3144E-07  0.3007E-07  0.2850E-07  0.2719E-07  0.2569E-07  0.2404E-07  0.2266E-07  0.2101E-07  0.1953E-07  0.1807E-07  0.1652E-07
  0.2866E-07  0.3032E-07  0.3207E-07  0.3392E-07  0.3569E-07  0.3736E-07  0.3910E-07  0.4077E-07  0.4241E-07  0.4384E-07  0.4540E-07  0.4666E-07  0.4807E-07  0.4916E-07  0.5022E-07  0.5117E-07  0.5195E-07  0.5267E-07  0.5323E-07  0.5370E-07  0.5383E-07  0.5410E-07  0.5415E-07  0.5381E-07  0.5363E-07  0.5316E-07  0.5277E-07  0.5211E-07  0.5181E-07  0.5174E-07  0.5173E-07  0.5151E-07  0.5132E-07  0.5124E-07  0.5111E-07  0.5087E-07  0.5092E-07  0.5100E-07  0.5102E-07  0.5099E-07  0.5119E-07  0.5134E-07  0.5175E-07  0.5198E-07  0.5217E-07  0.5256E-07  0.5297E-07  0.5341E-07  0.5355E-07  0.5377E-07  0.5401E-07  0.5419E-07  0.5427E-07  0.5429E-07  0.5415E-07  0.5408E-07  0.5383E-07  0.5340E-07  0.5287E-07  0.5223E-07  0.5127E-07  0.5014E-07  0.4891E-07  0.4774E-07  0.4646E-07  0.4489E-07  0.4227E-07  0.3941E-07  0.3680E-07  0.3505E-07  0.3338E-07  0.3180E-07  0.2977E-07  0.2816E-07  0.2638E-07  0.2449E-07  0.2289E-07  0.2092E-07  0.1941E-07
  0.3248E-07  0.3455E-07  0.3668E-07  0.3864E-07  0.4067E-07  0.4279E-07  0.4456E-07  0.4654E-07  0.4839E-07  0.5011E-07  0.5185E-07  0.5332E-07  0.5475E-07  0.5627E-07  0.5743E-07  0.5857E-07  0.5954E-07  0.6014E-07  0.6083E-07  0.6132E-07  0.6165E-07  0.6185E-07  0.6172E-07  0.6144E-07  0.6121E-07  0.6085E-07  0.6020E-07  0.5970E-07  0.5975E-07  0.5969E-07  0.5936E-07  0.5940E-07  0.5912E-07  0.5892E-07  0.5874E-07  0.5871E-07  0.5859E-07  0.5856E-07  0.5879E-07  0.5882E-07  0.5914E-07  0.5936E-07  0.5966E-07  0.5989E-07  0.6033E-07  0.6077E-07  0.6129E-07  0.6168E-07  0.6206E-07  0.6237E-07  0.6268E-07  0.6290E-07  0.6307E-07  0.6315E-07  0.6289E-07  0.6271E-07  0.6242E-07  0.6204E-07  0.6140E-07  0.6058E-07  0.5952E-07  0.5826E-07  0.5683E-07  0.5538E-07  0.5385E-07  0.5190E-07  0.5000E-07  0.4750E-07  0.4393E-07  0.4068E-07  0.3888E-07  0.3687E-07  0.3469E-07  0.3278E-07  0.3044E-07  0.2855E-07  0.2653E-07  0.2442E-07  0.2264E-07
  0.3710E-07  0.3953E-07  0.4174E-07  0.4418E-07  0.4642E-07  0.4873E-07  0.5098E-07  0.5308E-07  0.5521E-07  0.5715E-07  0.5915E-07  0.6091E-07  0.6256E-07  0.6406E-07  0.6547E-07  0.6678E-07  0.6789E-07  0.6878E-07  0.6956E-07  0.7002E-07  0.7021E-07  0.7051E-07  0.7036E-07  0.7022E-07  0.6974E-07  0.6930E-07  0.6844E-07  0.6864E-07  0.6870E-07  0.6858E-07  0.6811E-07  0.6789E-07  0.6791E-07  0.6766E-07  0.6754E-07  0.6734E-07  0.6724E-07  0.6740E-07  0.6744E-07  0.6768E-07  0.6773E-07  0.6820E-07  0.6860E-07  0.6909E-07  0.6965E-07  0.7021E-07  0.7069E-07  0.7119E-07  0.7153E-07  0.7210E-07  0.7250E-07  0.7283E-07  0.7301E-07  0.7293E-07  0.7275E-07  0.7251E-07  0.7215E-07  0.7164E-07  0.7096E-07  0.7008E-07  0.6865E-07  0.6719E-07  0.6576E-07  0.6411E-07  0.6211E-07  0.5984E-07  0.5777E-07  0.5559E-07  0.5239E-07  0.4844E-07  0.4507E-07  0.4245E-07  0.4023E-07  0.3783E-07  0.3531E-07  0.3308E-07  0.3047E-07  0.2834E-07  0.2584E-07
  0.4227E-07  0.4477E-07  0.4756E-07  0.5017E-07  0.5276E-07  0.5542E-07  0.5801E-07  0.6038E-07  0.6289E-07  0.6513E-07  0.6743E-07  0.6946E-07  0.7138E-07  0.7316E-07  0.7478E-07  0.7622E-07  0.7748E-07  0.7842E-07  0.7910E-07  0.7971E-07  0.7993E-07  0.8019E-07  0.8024E-07  0.7987E-07  0.7939E-07  0.7867E-07  0.7884E-07  0.7868E-07  0.7863E-07  0.7828E-07  0.7812E-07  0.7774E-07  0.7756E-07  0.7735E-07  0.7720E-07  0.7720E-07  0.7694E-07  0.7705E-07  0.7725E-07  0.7742E-07  0.7787E-07  0.7828E-07  0.7864E-07  0.7926E-07  0.8010E-07  0.8049E-07  0.8111E-07  0.8173E-07  0.8251E-07  0.8302E-07  0.8338E-07  0.8374E-07  0.8403E-07  0.8413E-07  0.8382E-07  0.8358E-07  0.8312E-07  0.8246E-07  0.8170E-07  0.8053E-07  0.7914E-07  0.7745E-07  0.7573E-07  0.7385E-07  0.7143E-07  0.6891E-07  0.6648E-07  0.6379E-07  0.6083E-07  0.5743E-07  0.5279E-07  0.4900E-07  0.4640E-07  0.4334E-07  0.4072E-07  0.3785E-07  0.3517E-07  0.3254E-07  0.2986E-07
  0.4806E-07  0.5094E-07  0.5390E-07  0.5691E-07  0.5995E-07  0.6318E-07  0.6644E-07  0.6936E-07  0.7256E-07  0.7527E-07  0.7777E-07  0.8039E-07  0.8260E-07  0.8464E-07  0.8647E-07  0.8783E-07  0.8887E-07  0.8985E-07  0.9045E-07  0.9090E-07  0.9111E-07  0.9101E-07  0.9103E-07  0.9058E-07  0.8993E-07  0.8992E-07  0.9005E-07  0.9002E-07  0.8973E-07  0.8935E-07  0.8916E-07  0.8871E-07  0.8853E-07  0.8830E-07  0.8805E-07  0.8783E-07  0.8800E-07  0.8797E-07  0.8823E-07  0.8849E-07  0.8904E-07  0.8926E-07  0.8991E-07  0.9066E-07  0.9150E-07  0.9219E-07  0.9295E-07  0.9389E-07  0.9444E-07  0.9514E-07  0.9574E-07  0.9619E-07  0.9640E-07  0.9654E-07  0.9632E-07  0.9597E-07  0.9547E-07  0.9476E-07  0.9370E-07  0.9240E-07  0.9062E-07  0.8889E-07  0.8691E-07  0.8454E-07  0.8177E-07  0.7911E-07  0.7621E-07  0.7277E-07  0.6972E-07  0.6653E-07  0.6200E-07  0.5722E-07  0.5297E-07  0.4979E-07  0.4675E-07  0.4331E-07  0.4037E-07  0.3707E-07  0.3430E-07
  0.5444E-07  0.5868E-07  0.6290E-07  0.6689E-07  0.7108E-07  0.7450E-07  0.7833E-07  0.8172E-07  0.8501E-07  0.8839E-07  0.9133E-07  0.9414E-07  0.9643E-07  0.9859E-07  0.1005E-06  0.1023E-06  0.1033E-06  0.1044E-06  0.1050E-06  0.1052E-06  0.1052E-06  0.1049E-06  0.1043E-06  0.1033E-06  0.1026E-06  0.1025E-06  0.1026E-06  0.1024E-06  0.1022E-06  0.1019E-06  0.1013E-06  0.1009E-06  0.1005E-06  0.1003E-06  0.1001E-06  0.9997E-07  0.9982E-07  0.1002E-06  0.1002E-06  0.1007E-06  0.1012E-06  0.1019E-06  0.1027E-06  0.1036E-06  0.1045E-06  0.1052E-06  0.1063E-06  0.1073E-06  0.1083E-06  0.1090E-06  0.1097E-06  0.1103E-06  0.1105E-06  0.1105E-06  0.1103E-06  0.1100E-06  0.1093E-06  0.1084E-06  0.1071E-06  0.1054E-06  0.1036E-06  0.1017E-06  0.9933E-07  0.9649E-07  0.9346E-07  0.9039E-07  0.8697E-07  0.8316E-07  0.7957E-07  0.7561E-07  0.7172E-07  0.6689E-07  0.6122E-07  0.5694E-07  0.5299E-07  0.4954E-07  0.4583E-07  0.4239E-07  0.3890E-07
  0.6524E-07  0.6978E-07  0.7433E-07  0.7886E-07  0.8311E-07  0.8726E-07  0.9151E-07  0.9533E-07  0.9917E-07  0.1028E-06  0.1062E-06  0.1091E-06  0.1120E-06  0.1146E-06  0.1165E-06  0.1183E-06  0.1198E-06  0.1209E-06  0.1213E-06  0.1219E-06  0.1215E-06  0.1208E-06  0.1201E-06  0.1188E-06  0.1189E-06  0.1182E-06  0.1176E-06  0.1166E-06  0.1160E-06  0.1156E-06  0.1152E-06  0.1147E-06  0.1143E-06  0.1139E-06  0.1136E-06  0.1134E-06  0.1135E-06  0.1136E-06  0.1140E-06  0.1146E-06  0.1151E-06  0.1161E-06  0.1170E-06  0.1179E-06  0.1189E-06  0.1201E-06  0.1213E-06  0.1223E-06  0.1234E-06  0.1244E-06  0.1251E-06  0.1258E-06  0.1260E-06  0.1263E-06  0.1259E-06  0.1256E-06  0.1249E-06  0.1238E-06  0.1223E-06  0.1202E-06  0.1182E-06  0.1158E-06  0.1130E-06  0.1096E-06  0.1065E-06  0.1029E-06  0.9864E-07  0.9468E-07  0.9040E-07  0.8581E-07  0.8150E-07  0.7671E-07  0.7109E-07  0.6521E-07  0.6033E-07  0.5636E-07  0.5202E-07  0.4822E-07  0.4413E-07
  0.7657E-07  0.8125E-07  0.8613E-07  0.9091E-07  0.9567E-07  0.1003E-06  0.1050E-06  0.1094E-06  0.1136E-06  0.1176E-06  0.1214E-06  0.1250E-06  0.1283E-06  0.1312E-06  0.1338E-06  0.1360E-06  0.1375E-06  0.1389E-06  0.1399E-06  0.1401E-06  0.1397E-06  0.1392E-06  0.1380E-06  0.1372E-06  0.1372E-06  0.1363E-06  0.1355E-06  0.1341E-06  0.1330E-06  0.1316E-06  0.1306E-06  0.1297E-06  0.1291E-06  0.1288E-06  0.1285E-06  0.1285E-06  0.1288E-06  0.1289E-06  0.1293E-06  0.1297E-06  0.1305E-06  0.1316E-06  0.1326E-06  0.1338E-06  0.1350E-06  0.1363E-06  0.1378E-06  0.1391E-06  0.1401E-06  0.1412E-06  0.1422E-06  0.1428E-06  0.1432E-06  0.1435E-06  0.1432E-06  0.1427E-06  0.1419E-06  0.1407E-06  0.1390E-06  0.1368E-06  0.1342E-06  0.1316E-06  0.1282E-06  0.1247E-06  0.1208E-06  0.1166E-06  0.1119E-06  0.1073E-06  0.1023E-06  0.9726E-07  0.9210E-07  0.8682E-07  0.8152E-07  0.7482E-07  0.6884E-07  0.6339E-07  0.5895E-07  0.5417E-07  0.4999E-07
  0.8715E-07  0.9273E-07  0.9791E-07  0.1035E-06  0.1090E-06  0.1143E-06  0.1197E-06  0.1248E-06  0.1296E-06  0.1342E-06  0.1385E-06  0.1426E-06  0.1463E-06  0.1496E-06  0.1522E-06  0.1547E-06  0.1566E-06  0.1579E-06  0.1588E-06  0.1594E-06  0.1592E-06  0.1588E-06  0.1580E-06  0.1580E-06  0.1577E-06  0.1566E-06  0.1552E-06  0.1536E-06  0.1523E-06  0.1509E-06  0.1490E-06  0.1476E-06  0.1461E-06  0.1454E-06  0.1451E-06  0.1451E-06  0.1451E-06  0.1455E-06  0.1460E-06  0.1467E-06  0.1477E-06  0.1486E-06  0.1498E-06  0.1514E-06  0.1528E-06  0.1545E-06  0.1559E-06  0.1574E-06  0.1588E-06  0.1599E-06  0.1611E-06  0.1619E-06  0.1623E-06  0.1625E-06  0.1623E-06  0.1616E-06  0.1608E-06  0.1592E-06  0.1572E-06  0.1548E-06  0.1520E-06  0.1486E-06  0.1448E-06  0.1410E-06  0.1366E-06  0.1315E-06  0.1266E-06  0.1211E-06  0.1153E-06  0.1097E-06  0.1036E-06  0.9789E-07  0.9188E-07  0.8550E-07  0.7840E-07  0.7186E-07  0.6633E-07  0.6113E-07  0.5622E-07
  0.9896E-07  0.1053E-06  0.1114E-06  0.1177E-06  0.1240E-06  0.1301E-06  0.1360E-06  0.1420E-06  0.1474E-06  0.1528E-06  0.1578E-06  0.1624E-06  0.1663E-06  0.1700E-06  0.1732E-06  0.1757E-06  0.1778E-06  0.1792E-06  0.1803E-06  0.1806E-06  0.1806E-06  0.1801E-06  0.1799E-06  0.1798E-06  0.1795E-06  0.1787E-06  0.1773E-06  0.1759E-06  0.1739E-06  0.1719E-06  0.1704E-06  0.1684E-06  0.1670E-06  0.1655E-06  0.1640E-06  0.1636E-06  0.1637E-06  0.1642E-06  0.1646E-06  0.1655E-06  0.1667E-06  0.1680E-06  0.1694E-06  0.1708E-06  0.1727E-06  0.1744E-06  0.1764E-06  0.1780E-06  0.1796E-06  0.1809E-06  0.1820E-06  0.1830E-06  0.1834E-06  0.1836E-06  0.1834E-06  0.1825E-06  0.1815E-06  0.1796E-06  0.1772E-06  0.1746E-06  0.1713E-06  0.1674E-06  0.1632E-06  0.1587E-06  0.1535E-06  0.1481E-06  0.1425E-06  0.1361E-06  0.1299E-06  0.1235E-06  0.1167E-06  0.1101E-06  0.1031E-06  0.9668E-07  0.8921E-07  0.8169E-07  0.7463E-07  0.6887E-07  0.6307E-07
  0.1123E-06  0.1194E-06  0.1268E-06  0.1337E-06  0.1411E-06  0.1480E-06  0.1546E-06  0.1613E-06  0.1676E-06  0.1737E-06  0.1793E-06  0.1844E-06  0.1891E-06  0.1932E-06  0.1966E-06  0.1993E-06  0.2017E-06  0.2032E-06  0.2044E-06  0.2047E-06  0.2048E-06  0.2044E-06  0.2045E-06  0.2043E-06  0.2033E-06  0.2024E-06  0.2012E-06  0.1998E-06  0.1983E-06  0.1964E-06  0.1941E-06  0.1923E-06  0.1902E-06  0.1883E-06  0.1872E-06  0.1856E-06  0.1849E-06  0.1851E-06  0.1858E-06  0.1869E-06  0.1882E-06  0.1896E-06  0.1912E-06  0.1930E-06  0.1948E-06  0.1969E-06  0.1989E-06  0.2007E-06  0.2025E-06  0.2040E-06  0.2052E-06  0.2061E-06  0.2068E-06  0.2068E-06  0.2064E-06  0.2053E-06  0.2040E-06  0.2019E-06  0.1993E-06  0.1961E-06  0.1922E-06  0.1878E-06  0.1830E-06  0.1780E-06  0.1719E-06  0.1660E-06  0.1595E-06  0.1525E-06  0.1457E-06  0.1381E-06  0.1309E-06  0.1232E-06  0.1158E-06  0.1082E-06  0.1007E-06  0.9256E-07  0.8459E-07  0.7716E-07  0.7112E-07
  0.1272E-06  0.1355E-06  0.1437E-06  0.1518E-06  0.1601E-06  0.1680E-06  0.1758E-06  0.1834E-06  0.1905E-06  0.1973E-06  0.2037E-06  0.2095E-06  0.2146E-06  0.2192E-06  0.2230E-06  0.2262E-06  0.2286E-06  0.2304E-06  0.2315E-06  0.2319E-06  0.2323E-06  0.2317E-06  0.2318E-06  0.2313E-06  0.2301E-06  0.2289E-06  0.2275E-06  0.2257E-06  0.2238E-06  0.2216E-06  0.2199E-06  0.2177E-06  0.2159E-06  0.2139E-06  0.2122E-06  0.2107E-06  0.2100E-06  0.2091E-06  0.2091E-06  0.2103E-06  0.2118E-06  0.2135E-06  0.2152E-06  0.2172E-06  0.2193E-06  0.2214E-06  0.2235E-06  0.2256E-06  0.2274E-06  0.2291E-06  0.2305E-06  0.2314E-06  0.2318E-06  0.2316E-06  0.2310E-06  0.2300E-06  0.2281E-06  0.2258E-06  0.2226E-06  0.2190E-06  0.2145E-06  0.2097E-06  0.2042E-06  0.1980E-06  0.1916E-06  0.1849E-06  0.1773E-06  0.1700E-06  0.1619E-06  0.1540E-06  0.1457E-06  0.1374E-06  0.1293E-06  0.1207E-06  0.1128E-06  0.1042E-06  0.9551E-07  0.8701E-07  0.7949E-07
  0.1443E-06  0.1536E-06  0.1629E-06  0.1723E-06  0.1816E-06  0.1908E-06  0.1997E-06  0.2082E-06  0.2163E-06  0.2243E-06  0.2317E-06  0.2382E-06  0.2439E-06  0.2490E-06  0.2531E-06  0.2567E-06  0.2593E-06  0.2616E-06  0.2628E-06  0.2631E-06  0.2628E-06  0.2624E-06  0.2621E-06  0.2614E-06  0.2602E-06  0.2585E-06  0.2566E-06  0.2544E-06  0.2520E-06  0.2498E-06  0.2477E-06  0.2456E-06  0.2438E-06  0.2421E-06  0.2403E-06  0.2386E-06  0.2376E-06  0.2368E-06  0.2362E-06  0.2364E-06  0.2376E-06  0.2393E-06  0.2414E-06  0.2434E-06  0.2457E-06  0.2481E-06  0.2503E-06  0.2525E-06  0.2545E-06  0.2561E-06  0.2575E-06  0.2583E-06  0.2586E-06  0.2582E-06  0.2574E-06  0.2560E-06  0.2539E-06  0.2510E-06  0.2473E-06  0.2431E-06  0.2382E-06  0.2326E-06  0.2264E-06  0.2194E-06  0.2122E-06  0.2046E-06  0.1964E-06  0.1881E-06  0.1792E-06  0.1704E-06  0.1612E-06  0.1522E-06  0.1428E-06  0.1340E-06  0.1248E-06  0.1162E-06  0.1068E-06  0.9763E-07  0.8885E-07
  0.1635E-06  0.1738E-06  0.1846E-06  0.1953E-06  0.2056E-06  0.2168E-06  0.2268E-06  0.2364E-06  0.2459E-06  0.2548E-06  0.2626E-06  0.2702E-06  0.2768E-06  0.2822E-06  0.2870E-06  0.2908E-06  0.2937E-06  0.2959E-06  0.2971E-06  0.2972E-06  0.2966E-06  0.2970E-06  0.2969E-06  0.2956E-06  0.2933E-06  0.2912E-06  0.2886E-06  0.2859E-06  0.2834E-06  0.2808E-06  0.2781E-06  0.2758E-06  0.2733E-06  0.2718E-06  0.2702E-06  0.2691E-06  0.2676E-06  0.2664E-06  0.2661E-06  0.2662E-06  0.2663E-06  0.2674E-06  0.2695E-06  0.2719E-06  0.2742E-06  0.2767E-06  0.2791E-06  0.2812E-06  0.2833E-06  0.2848E-06  0.2862E-06  0.2869E-06  0.2870E-06  0.2863E-06  0.2852E-06  0.2835E-06  0.2808E-06  0.2773E-06  0.2732E-06  0.2685E-06  0.2627E-06  0.2564E-06  0.2494E-06  0.2415E-06  0.2337E-06  0.2249E-06  0.2160E-06  0.2066E-06  0.1970E-06  0.1873E-06  0.1772E-06  0.1674E-06  0.1573E-06  0.1474E-06  0.1376E-06  0.1278E-06  0.1186E-06  0.1086E-06  0.9913E-07
  0.1848E-06  0.1966E-06  0.2095E-06  0.2217E-06  0.2339E-06  0.2463E-06  0.2576E-06  0.2685E-06  0.2789E-06  0.2889E-06  0.2979E-06  0.3057E-06  0.3133E-06  0.3192E-06  0.3244E-06  0.3287E-06  0.3320E-06  0.3341E-06  0.3349E-06  0.3352E-06  0.3350E-06  0.3353E-06  0.3341E-06  0.3323E-06  0.3300E-06  0.3275E-06  0.3246E-06  0.3210E-06  0.3175E-06  0.3144E-06  0.3114E-06  0.3087E-06  0.3061E-06  0.3040E-06  0.3020E-06  0.3009E-06  0.2998E-06  0.2992E-06  0.2983E-06  0.2983E-06  0.2987E-06  0.2988E-06  0.2999E-06  0.3023E-06  0.3047E-06  0.3073E-06  0.3098E-06  0.3119E-06  0.3139E-06  0.3155E-06  0.3166E-06  0.3171E-06  0.3168E-06  0.3159E-06  0.3144E-06  0.3122E-06  0.3088E-06  0.3048E-06  0.3001E-06  0.2946E-06  0.2879E-06  0.2810E-06  0.2729E-06  0.2645E-06  0.2555E-06  0.2459E-06  0.2362E-06  0.2257E-06  0.2154E-06  0.2044E-06  0.1939E-06  0.1827E-06  0.1720E-06  0.1612E-06  0.1508E-06  0.1402E-06  0.1302E-06  0.1200E-06  0.1095E-06
  0.2097E-06  0.2231E-06  0.2377E-06  0.2513E-06  0.2656E-06  0.2792E-06  0.2920E-06  0.3044E-06  0.3164E-06  0.3272E-06  0.3372E-06  0.3462E-06  0.3539E-06  0.3609E-06  0.3668E-06  0.3710E-06  0.3746E-06  0.3766E-06  0.3777E-06  0.3780E-06  0.3779E-06  0.3770E-06  0.3755E-06  0.3730E-06  0.3704E-06  0.3670E-06  0.3632E-06  0.3592E-06  0.3556E-06  0.3520E-06  0.3480E-06  0.3445E-06  0.3415E-06  0.3388E-06  0.3368E-06  0.3352E-06  0.3341E-06  0.3336E-06  0.3336E-06  0.3331E-06  0.3331E-06  0.3337E-06  0.3342E-06  0.3354E-06  0.3377E-06  0.3399E-06  0.3425E-06  0.3445E-06  0.3465E-06  0.3477E-06  0.3487E-06  0.3487E-06  0.3481E-06  0.3468E-06  0.3448E-06  0.3418E-06  0.3378E-06  0.3333E-06  0.3279E-06  0.3211E-06  0.3141E-06  0.3062E-06  0.2972E-06  0.2879E-06  0.2778E-06  0.2673E-06  0.2566E-06  0.2453E-06  0.2336E-06  0.2222E-06  0.2101E-06  0.1986E-06  0.1867E-06  0.1753E-06  0.1637E-06  0.1529E-06  0.1418E-06  0.1315E-06  0.1204E-06
  0.2379E-06  0.2541E-06  0.2696E-06  0.2850E-06  0.3014E-06  0.3164E-06  0.3309E-06  0.3448E-06  0.3576E-06  0.3700E-06  0.3808E-06  0.3909E-06  0.3995E-06  0.4072E-06  0.4135E-06  0.4182E-06  0.4217E-06  0.4242E-06  0.4251E-06  0.4248E-06  0.4244E-06  0.4232E-06  0.4209E-06  0.4181E-06  0.4144E-06  0.4104E-06  0.4060E-06  0.4017E-06  0.3964E-06  0.3918E-06  0.3879E-06  0.3839E-06  0.3798E-06  0.3767E-06  0.3743E-06  0.3721E-06  0.3711E-06  0.3701E-06  0.3698E-06  0.3700E-06  0.3702E-06  0.3707E-06  0.3711E-06  0.3718E-06  0.3726E-06  0.3747E-06  0.3770E-06  0.3789E-06  0.3806E-06  0.3817E-06  0.3823E-06  0.3817E-06  0.3807E-06  0.3789E-06  0.3764E-06  0.3725E-06  0.3679E-06  0.3625E-06  0.3562E-06  0.3486E-06  0.3407E-06  0.3315E-06  0.3219E-06  0.3115E-06  0.3002E-06  0.2890E-06  0.2769E-06  0.2650E-06  0.2524E-06  0.2399E-06  0.2271E-06  0.2146E-06  0.2018E-06  0.1894E-06  0.1772E-06  0.1650E-06  0.1538E-06  0.1423E-06  0.1315E-06
  0.2699E-06  0.2883E-06  0.3057E-06  0.3238E-06  0.3419E-06  0.3588E-06  0.3748E-06  0.3901E-06  0.4044E-06  0.4179E-06  0.4300E-06  0.4415E-06  0.4512E-06  0.4591E-06  0.4656E-06  0.4707E-06  0.4743E-06  0.4766E-06  0.4769E-06  0.4765E-06  0.4755E-06  0.4739E-06  0.4710E-06  0.4672E-06  0.4623E-06  0.4573E-06  0.4524E-06  0.4466E-06  0.4412E-06  0.4362E-06  0.4308E-06  0.4259E-06  0.4219E-06  0.4180E-06  0.4146E-06  0.4121E-06  0.4106E-06  0.4095E-06  0.4087E-06  0.4087E-06  0.4091E-06  0.4100E-06  0.4106E-06  0.4110E-06  0.4116E-06  0.4120E-06  0.4134E-06  0.4151E-06  0.4165E-06  0.4172E-06  0.4172E-06  0.4163E-06  0.4147E-06  0.4123E-06  0.4088E-06  0.4041E-06  0.3989E-06  0.3926E-06  0.3847E-06  0.3768E-06  0.3675E-06  0.3574E-06  0.3468E-06  0.3350E-06  0.3232E-06  0.3104E-06  0.2976E-06  0.2844E-06  0.2710E-06  0.2575E-06  0.2439E-06  0.2301E-06  0.2170E-06  0.2034E-06  0.1906E-06  0.1779E-06  0.1653E-06  0.1536E-06  0.1418E-06
  0.3070E-06  0.3282E-06  0.3481E-06  0.3685E-06  0.3889E-06  0.4079E-06  0.4261E-06  0.4433E-06  0.4592E-06  0.4738E-06  0.4869E-06  0.4983E-06  0.5076E-06  0.5165E-06  0.5234E-06  0.5286E-06  0.5321E-06  0.5336E-06  0.5334E-06  0.5327E-06  0.5314E-06  0.5291E-06  0.5250E-06  0.5198E-06  0.5147E-06  0.5091E-06  0.5024E-06  0.4960E-06  0.4895E-06  0.4830E-06  0.4771E-06  0.4718E-06  0.4661E-06  0.4620E-06  0.4583E-06  0.4548E-06  0.4528E-06  0.4511E-06  0.4499E-06  0.4499E-06  0.4502E-06  0.4507E-06  0.4517E-06  0.4520E-06  0.4522E-06  0.4522E-06  0.4522E-06  0.4528E-06  0.4539E-06  0.4540E-06  0.4535E-06  0.4517E-06  0.4496E-06  0.4463E-06  0.4419E-06  0.4364E-06  0.4302E-06  0.4229E-06  0.4143E-06  0.4051E-06  0.3944E-06  0.3836E-06  0.3716E-06  0.3590E-06  0.3459E-06  0.3321E-06  0.3182E-06  0.3037E-06  0.2897E-06  0.2749E-06  0.2605E-06  0.2460E-06  0.2316E-06  0.2177E-06  0.2037E-06  0.1904E-06  0.1772E-06  0.1645E-06  0.1525E-06
  0.3499E-06  0.3729E-06  0.3957E-06  0.4194E-06  0.4417E-06  0.4643E-06  0.4847E-06  0.5042E-06  0.5227E-06  0.5390E-06  0.5535E-06  0.5658E-06  0.5755E-06  0.5837E-06  0.5894E-06  0.5923E-06  0.5952E-06  0.5964E-06  0.5956E-06  0.5949E-06  0.5928E-06  0.5892E-06  0.5838E-06  0.5783E-06  0.5717E-06  0.5638E-06  0.5563E-06  0.5491E-06  0.5413E-06  0.5339E-06  0.5271E-06  0.5199E-06  0.5146E-06  0.5092E-06  0.5045E-06  0.5013E-06  0.4976E-06  0.4956E-06  0.4944E-06  0.4935E-06  0.4936E-06  0.4937E-06  0.4944E-06  0.4948E-06  0.4952E-06  0.4946E-06  0.4937E-06  0.4924E-06  0.4925E-06  0.4919E-06  0.4907E-06  0.4883E-06  0.4853E-06  0.4810E-06  0.4756E-06  0.4694E-06  0.4620E-06  0.4531E-06  0.4438E-06  0.4333E-06  0.4217E-06  0.4096E-06  0.3963E-06  0.3827E-06  0.3681E-06  0.3536E-06  0.3382E-06  0.3231E-06  0.3074E-06  0.2924E-06  0.2766E-06  0.2613E-06  0.2463E-06  0.2312E-06  0.2167E-06  0.2025E-06  0.1890E-06  0.1755E-06  0.1625E-06
  0.3974E-06  0.4233E-06  0.4501E-06  0.4768E-06  0.5026E-06  0.5270E-06  0.5505E-06  0.5726E-06  0.5937E-06  0.6119E-06  0.6278E-06  0.6424E-06  0.6536E-06  0.6623E-06  0.6681E-06  0.6697E-06  0.6690E-06  0.6676E-06  0.6644E-06  0.6632E-06  0.6593E-06  0.6542E-06  0.6480E-06  0.6406E-06  0.6325E-06  0.6240E-06  0.6153E-06  0.6056E-06  0.5968E-06  0.5884E-06  0.5799E-06  0.5727E-06  0.5653E-06  0.5595E-06  0.5544E-06  0.5497E-06  0.5463E-06  0.5434E-06  0.5415E-06  0.5404E-06  0.5399E-06  0.5395E-06  0.5396E-06  0.5397E-06  0.5400E-06  0.5395E-06  0.5383E-06  0.5359E-06  0.5330E-06  0.5313E-06  0.5286E-06  0.5258E-06  0.5217E-06  0.5164E-06  0.5099E-06  0.5027E-06  0.4938E-06  0.4840E-06  0.4735E-06  0.4612E-06  0.4490E-06  0.4352E-06  0.4210E-06  0.4060E-06  0.3905E-06  0.3749E-06  0.3584E-06  0.3419E-06  0.3256E-06  0.3090E-06  0.2926E-06  0.2763E-06  0.2606E-06  0.2446E-06  0.2294E-06  0.2146E-06  0.1999E-06  0.1859E-06  0.1729E-06
  0.4511E-06  0.4811E-06  0.5113E-06  0.5409E-06  0.5705E-06  0.5984E-06  0.6247E-06  0.6499E-06  0.6728E-06  0.6934E-06  0.7115E-06  0.7264E-06  0.7394E-06  0.7481E-06  0.7544E-06  0.7578E-06  0.7579E-06  0.7540E-06  0.7485E-06  0.7399E-06  0.7324E-06  0.7249E-06  0.7172E-06  0.7078E-06  0.6981E-06  0.6882E-06  0.6771E-06  0.6670E-06  0.6564E-06  0.6459E-06  0.6369E-06  0.6276E-06  0.6198E-06  0.6130E-06  0.6064E-06  0.6020E-06  0.5970E-06  0.5943E-06  0.5916E-06  0.5896E-06  0.5887E-06  0.5876E-06  0.5872E-06  0.5869E-06  0.5865E-06  0.5858E-06  0.5848E-06  0.5816E-06  0.5775E-06  0.5731E-06  0.5695E-06  0.5651E-06  0.5590E-06  0.5520E-06  0.5445E-06  0.5360E-06  0.5256E-06  0.5148E-06  0.5026E-06  0.4896E-06  0.4756E-06  0.4605E-06  0.4453E-06  0.4288E-06  0.4125E-06  0.3951E-06  0.3780E-06  0.3603E-06  0.3430E-06  0.3255E-06  0.3083E-06  0.2911E-06  0.2741E-06  0.2580E-06  0.2417E-06  0.2259E-06  0.2113E-06  0.1965E-06  0.1823E-06
  0.5123E-06  0.5458E-06  0.5798E-06  0.6137E-06  0.6472E-06  0.6785E-06  0.7086E-06  0.7371E-06  0.7624E-06  0.7855E-06  0.8055E-06  0.8221E-06  0.8349E-06  0.8445E-06  0.8504E-06  0.8534E-06  0.8537E-06  0.8501E-06  0.8448E-06  0.8358E-06  0.8225E-06  0.8098E-06  0.7946E-06  0.7807E-06  0.7692E-06  0.7568E-06  0.7446E-06  0.7322E-06  0.7198E-06  0.7082E-06  0.6970E-06  0.6870E-06  0.6777E-06  0.6695E-06  0.6627E-06  0.6563E-06  0.6518E-06  0.6471E-06  0.6444E-06  0.6415E-06  0.6396E-06  0.6382E-06  0.6371E-06  0.6361E-06  0.6350E-06  0.6335E-06  0.6317E-06  0.6289E-06  0.6240E-06  0.6179E-06  0.6116E-06  0.6060E-06  0.5990E-06  0.5907E-06  0.5806E-06  0.5692E-06  0.5576E-06  0.5455E-06  0.5316E-06  0.5174E-06  0.5020E-06  0.4857E-06  0.4687E-06  0.4515E-06  0.4334E-06  0.4153E-06  0.3967E-06  0.3783E-06  0.3597E-06  0.3416E-06  0.3231E-06  0.3056E-06  0.2877E-06  0.2702E-06  0.2537E-06  0.2374E-06  0.2215E-06  0.2067E-06  0.1921E-06
  0.5819E-06  0.6197E-06  0.6580E-06  0.6961E-06  0.7338E-06  0.7695E-06  0.8035E-06  0.8350E-06  0.8638E-06  0.8892E-06  0.9109E-06  0.9288E-06  0.9430E-06  0.9530E-06  0.9593E-06  0.9614E-06  0.9600E-06  0.9554E-06  0.9484E-06  0.9400E-06  0.9264E-06  0.9099E-06  0.8912E-06  0.8706E-06  0.8512E-06  0.8335E-06  0.8161E-06  0.8013E-06  0.7876E-06  0.7740E-06  0.7612E-06  0.7500E-06  0.7388E-06  0.7301E-06  0.7209E-06  0.7146E-06  0.7078E-06  0.7038E-06  0.6990E-06  0.6962E-06  0.6929E-06  0.6910E-06  0.6890E-06  0.6872E-06  0.6853E-06  0.6831E-06  0.6798E-06  0.6761E-06  0.6711E-06  0.6640E-06  0.6558E-06  0.6477E-06  0.6396E-06  0.6296E-06  0.6187E-06  0.6061E-06  0.5921E-06  0.5757E-06  0.5606E-06  0.5446E-06  0.5276E-06  0.5105E-06  0.4919E-06  0.4735E-06  0.4540E-06  0.4350E-06  0.4151E-06  0.3956E-06  0.3761E-06  0.3565E-06  0.3379E-06  0.3189E-06  0.3007E-06  0.2827E-06  0.2650E-06  0.2482E-06  0.2319E-06  0.2162E-06  0.2009E-06
  0.6606E-06  0.7036E-06  0.7468E-06  0.7904E-06  0.8319E-06  0.8726E-06  0.9106E-06  0.9459E-06  0.9776E-06  0.1006E-05  0.1030E-05  0.1050E-05  0.1066E-05  0.1076E-05  0.1082E-05  0.1083E-05  0.1080E-05  0.1074E-05  0.1066E-05  0.1053E-05  0.1038E-05  0.1019E-05  0.9980E-06  0.9749E-06  0.9512E-06  0.9272E-06  0.9029E-06  0.8806E-06  0.8607E-06  0.8440E-06  0.8294E-06  0.8161E-06  0.8041E-06  0.7928E-06  0.7835E-06  0.7748E-06  0.7681E-06  0.7619E-06  0.7574E-06  0.7527E-06  0.7499E-06  0.7464E-06  0.7435E-06  0.7409E-06  0.7379E-06  0.7345E-06  0.7304E-06  0.7257E-06  0.7199E-06  0.7124E-06  0.7025E-06  0.6912E-06  0.6810E-06  0.6697E-06  0.6571E-06  0.6431E-06  0.6277E-06  0.6110E-06  0.5923E-06  0.5713E-06  0.5534E-06  0.5340E-06  0.5146E-06  0.4945E-06  0.4744E-06  0.4536E-06  0.4330E-06  0.4123E-06  0.3919E-06  0.3716E-06  0.3514E-06  0.3321E-06  0.3129E-06  0.2940E-06  0.2762E-06  0.2585E-06  0.2415E-06  0.2256E-06  0.2099E-06
  0.7486E-06  0.7978E-06  0.8471E-06  0.8964E-06  0.9439E-06  0.9891E-06  0.1032E-05  0.1071E-05  0.1107E-05  0.1138E-05  0.1165E-05  0.1187E-05  0.1204E-05  0.1216E-05  0.1222E-05  0.1222E-05  0.1217E-05  0.1210E-05  0.1198E-05  0.1182E-05  0.1163E-05  0.1141E-05  0.1116E-05  0.1089E-05  0.1060E-05  0.1031E-05  0.1004E-05  0.9755E-06  0.9488E-06  0.9251E-06  0.9041E-06  0.8868E-06  0.8723E-06  0.8602E-06  0.8487E-06  0.8395E-06  0.8308E-06  0.8244E-06  0.8176E-06  0.8132E-06  0.8083E-06  0.8050E-06  0.8005E-06  0.7966E-06  0.7928E-06  0.7880E-06  0.7830E-06  0.7765E-06  0.7693E-06  0.7611E-06  0.7504E-06  0.7378E-06  0.7236E-06  0.7106E-06  0.6962E-06  0.6807E-06  0.6633E-06  0.6448E-06  0.6254E-06  0.6044E-06  0.5813E-06  0.5577E-06  0.5368E-06  0.5153E-06  0.4937E-06  0.4721E-06  0.4499E-06  0.4288E-06  0.4067E-06  0.3859E-06  0.3650E-06  0.3445E-06  0.3249E-06  0.3053E-06  0.2866E-06  0.2687E-06  0.2511E-06  0.2342E-06  0.2181E-06
  0.8461E-06  0.9023E-06  0.9589E-06  0.1014E-05  0.1069E-05  0.1119E-05  0.1167E-05  0.1212E-05  0.1252E-05  0.1287E-05  0.1317E-05  0.1342E-05  0.1361E-05  0.1373E-05  0.1379E-05  0.1379E-05  0.1374E-05  0.1364E-05  0.1349E-05  0.1329E-05  0.1306E-05  0.1279E-05  0.1249E-05  0.1216E-05  0.1182E-05  0.1147E-05  0.1112E-05  0.1079E-05  0.1046E-05  0.1017E-05  0.9902E-06  0.9658E-06  0.9468E-06  0.9302E-06  0.9172E-06  0.9062E-06  0.8965E-06  0.8883E-06  0.8814E-06  0.8755E-06  0.8715E-06  0.8673E-06  0.8639E-06  0.8586E-06  0.8535E-06  0.8458E-06  0.8370E-06  0.8296E-06  0.8208E-06  0.8107E-06  0.7992E-06  0.7852E-06  0.7687E-06  0.7526E-06  0.7362E-06  0.7186E-06  0.6994E-06  0.6792E-06  0.6581E-06  0.6355E-06  0.6125E-06  0.5881E-06  0.5581E-06  0.5356E-06  0.5124E-06  0.4897E-06  0.4666E-06  0.4436E-06  0.4214E-06  0.3992E-06  0.3778E-06  0.3566E-06  0.3358E-06  0.3163E-06  0.2967E-06  0.2779E-06  0.2598E-06  0.2429E-06  0.2263E-06
  0.9563E-06  0.1021E-05  0.1085E-05  0.1147E-05  0.1208E-05  0.1266E-05  0.1320E-05  0.1370E-05  0.1416E-05  0.1455E-05  0.1489E-05  0.1516E-05  0.1537E-05  0.1550E-05  0.1557E-05  0.1557E-05  0.1551E-05  0.1540E-05  0.1522E-05  0.1498E-05  0.1469E-05  0.1437E-05  0.1401E-05  0.1363E-05  0.1322E-05  0.1278E-05  0.1236E-05  0.1194E-05  0.1154E-05  0.1118E-05  0.1084E-05  0.1054E-05  0.1028E-05  0.1007E-05  0.9902E-06  0.9807E-06  0.9735E-06  0.9699E-06  0.9629E-06  0.9563E-06  0.9506E-06  0.9442E-06  0.9386E-06  0.9319E-06  0.9250E-06  0.9171E-06  0.9081E-06  0.8975E-06  0.8836E-06  0.8692E-06  0.8531E-06  0.8343E-06  0.8164E-06  0.7957E-06  0.7776E-06  0.7577E-06  0.7367E-06  0.7146E-06  0.6912E-06  0.6669E-06  0.6417E-06  0.6161E-06  0.5902E-06  0.5608E-06  0.5306E-06  0.5062E-06  0.4824E-06  0.4584E-06  0.4348E-06  0.4122E-06  0.3896E-06  0.3677E-06  0.3468E-06  0.3259E-06  0.3058E-06  0.2871E-06  0.2684E-06  0.2507E-06  0.2336E-06
  0.1079E-05  0.1152E-05  0.1224E-05  0.1295E-05  0.1365E-05  0.1431E-05  0.1493E-05  0.1550E-05  0.1602E-05  0.1647E-05  0.1685E-05  0.1716E-05  0.1739E-05  0.1755E-05  0.1762E-05  0.1761E-05  0.1756E-05  0.1742E-05  0.1721E-05  0.1693E-05  0.1659E-05  0.1619E-05  0.1577E-05  0.1530E-05  0.1481E-05  0.1430E-05  0.1377E-05  0.1325E-05  0.1275E-05  0.1229E-05  0.1187E-05  0.1151E-05  0.1122E-05  0.1099E-05  0.1085E-05  0.1071E-05  0.1060E-05  0.1051E-05  0.1043E-05  0.1035E-05  0.1027E-05  0.1020E-05  0.1012E-05  0.1004E-05  0.9949E-06  0.9850E-06  0.9739E-06  0.9616E-06  0.9473E-06  0.9324E-06  0.9152E-06  0.8956E-06  0.8724E-06  0.8454E-06  0.8198E-06  0.7979E-06  0.7750E-06  0.7505E-06  0.7251E-06  0.6989E-06  0.6718E-06  0.6444E-06  0.6164E-06  0.5881E-06  0.5585E-06  0.5240E-06  0.4970E-06  0.4725E-06  0.4480E-06  0.4239E-06  0.4012E-06  0.3785E-06  0.3564E-06  0.3355E-06  0.3150E-06  0.2951E-06  0.2762E-06  0.2583E-06  0.2409E-06
  0.1211E-05  0.1298E-05  0.1387E-05  0.1472E-05  0.1555E-05  0.1626E-05  0.1695E-05  0.1753E-05  0.1806E-05  0.1857E-05  0.1901E-05  0.1936E-05  0.1964E-05  0.1982E-05  0.1992E-05  0.1993E-05  0.1987E-05  0.1972E-05  0.1948E-05  0.1917E-05  0.1877E-05  0.1832E-05  0.1781E-05  0.1725E-05  0.1666E-05  0.1604E-05  0.1540E-05  0.1476E-05  0.1414E-05  0.1359E-05  0.1309E-05  0.1271E-05  0.1239E-05  0.1208E-05  0.1183E-05  0.1164E-05  0.1149E-05  0.1137E-05  0.1129E-05  0.1118E-05  0.1110E-05  0.1101E-05  0.1092E-05  0.1081E-05  0.1070E-05  0.1058E-05  0.1045E-05  0.1030E-05  0.1013E-05  0.9951E-06  0.9753E-06  0.9538E-06  0.9307E-06  0.9057E-06  0.8737E-06  0.8436E-06  0.8153E-06  0.7878E-06  0.7602E-06  0.7320E-06  0.7028E-06  0.6731E-06  0.6435E-06  0.6137E-06  0.5835E-06  0.5529E-06  0.5201E-06  0.4852E-06  0.4598E-06  0.4356E-06  0.4114E-06  0.3880E-06  0.3661E-06  0.3441E-06  0.3230E-06  0.3032E-06  0.2838E-06  0.2651E-06  0.2474E-06
  0.1372E-05  0.1481E-05  0.1593E-05  0.1705E-05  0.1810E-05  0.1903E-05  0.1983E-05  0.2047E-05  0.2091E-05  0.2121E-05  0.2148E-05  0.2182E-05  0.2215E-05  0.2236E-05  0.2249E-05  0.2254E-05  0.2248E-05  0.2232E-05  0.2207E-05  0.2171E-05  0.2128E-05  0.2076E-05  0.2017E-05  0.1953E-05  0.1885E-05  0.1817E-05  0.1742E-05  0.1666E-05  0.1590E-05  0.1529E-05  0.1466E-05  0.1409E-05  0.1361E-05  0.1321E-05  0.1289E-05  0.1265E-05  0.1246E-05  0.1232E-05  0.1220E-05  0.1210E-05  0.1200E-05  0.1190E-05  0.1178E-05  0.1165E-05  0.1152E-05  0.1137E-05  0.1121E-05  0.1104E-05  0.1084E-05  0.1063E-05  0.1040E-05  0.1015E-05  0.9896E-06  0.9615E-06  0.9306E-06  0.8973E-06  0.8647E-06  0.8303E-06  0.7981E-06  0.7669E-06  0.7353E-06  0.7037E-06  0.6716E-06  0.6398E-06  0.6079E-06  0.5765E-06  0.5442E-06  0.5114E-06  0.4754E-06  0.4459E-06  0.4216E-06  0.3977E-06  0.3743E-06  0.3523E-06  0.3309E-06  0.3102E-06  0.2903E-06  0.2718E-06  0.2536E-06
  0.1568E-05  0.1711E-05  0.1867E-05  0.2027E-05  0.2171E-05  0.2295E-05  0.2395E-05  0.2461E-05  0.2509E-05  0.2539E-05  0.2547E-05  0.2538E-05  0.2554E-05  0.2571E-05  0.2588E-05  0.2596E-05  0.2590E-05  0.2575E-05  0.2549E-05  0.2508E-05  0.2459E-05  0.2409E-05  0.2345E-05  0.2266E-05  0.2184E-05  0.2092E-05  0.2003E-05  0.1908E-05  0.1810E-05  0.1719E-05  0.1633E-05  0.1564E-05  0.1508E-05  0.1655E-05  0.1652E-05  0.1376E-05  0.1353E-05  0.1335E-05  0.1321E-05  0.1310E-05  0.1298E-05  0.1286E-05  0.1272E-05  0.1258E-05  0.1241E-05  0.1224E-05  0.1204E-05  0.1183E-05  0.1161E-05  0.1136E-05  0.1109E-05  0.1082E-05  0.1052E-05  0.1021E-05  0.9883E-06  0.9502E-06  0.9164E-06  0.8806E-06  0.8427E-06  0.8054E-06  0.7703E-06  0.7361E-06  0.7018E-06  0.6678E-06  0.6337E-06  0.6002E-06  0.5678E-06  0.5341E-06  0.5006E-06  0.4666E-06  0.4306E-06  0.4058E-06  0.3827E-06  0.3596E-06  0.3377E-06  0.3166E-06  0.2968E-06  0.2774E-06  0.2594E-06
  0.1821E-05  0.2036E-05  0.2277E-05  0.2522E-05  0.2753E-05  0.2938E-05  0.3084E-05  0.3175E-05  0.3214E-05  0.3215E-05  0.3213E-05  0.3193E-05  0.3188E-05  0.3197E-05  0.3214E-05  0.3247E-05  0.3264E-05  0.3277E-05  0.3275E-05  0.3269E-05  0.3247E-05  0.3210E-05  0.3151E-05  0.3100E-05  0.3026E-05  0.2925E-05  0.2821E-05  0.2693E-05  0.2563E-05  0.2415E-05  0.2277E-05  0.2222E-05  0.3344E-05  0.5829E-05  0.3441E-05  0.1520E-05  0.1473E-05  0.1450E-05  0.1433E-05  0.1419E-05  0.1406E-05  0.1392E-05  0.1377E-05  0.1358E-05  0.1340E-05  0.1319E-05  0.1296E-05  0.1271E-05  0.1244E-05  0.1216E-05  0.1186E-05  0.1154E-05  0.1121E-05  0.1085E-05  0.1049E-05  0.1011E-05  0.9698E-06  0.9317E-06  0.8931E-06  0.8518E-06  0.8106E-06  0.7718E-06  0.7345E-06  0.6982E-06  0.6617E-06  0.6266E-06  0.5910E-06  0.5571E-06  0.5227E-06  0.4879E-06  0.4550E-06  0.4214E-06  0.3898E-06  0.3665E-06  0.3443E-06  0.3229E-06  0.3025E-06  0.2830E-06  0.2645E-06
  0.2212E-05  0.2539E-05  0.2907E-05  0.3295E-05  0.3677E-05  0.4003E-05  0.4248E-05  0.4399E-05  0.4480E-05  0.4508E-05  0.4507E-05  0.4506E-05  0.4533E-05  0.4564E-05  0.4655E-05  0.4769E-05  0.4911E-05  0.5062E-05  0.5211E-05  0.5349E-05  0.5514E-05  0.5700E-05  0.5867E-05  0.6045E-05  0.6240E-05  0.6442E-05  0.6644E-05  0.6893E-05  0.7154E-05  0.7524E-05  0.8082E-05  0.9530E-05  0.1364E-04  0.8071E-05  0.6783E-05  0.1898E-05  0.1672E-05  0.1597E-05  0.1564E-05  0.1543E-05  0.1526E-05  0.1510E-05  0.1491E-05  0.1471E-05  0.1449E-05  0.1424E-05  0.1397E-05  0.1368E-05  0.1337E-05  0.1304E-05  0.1270E-05  0.1233E-05  0.1196E-05  0.1156E-05  0.1116E-05  0.1075E-05  0.1028E-05  0.9866E-06  0.9448E-06  0.9022E-06  0.8583E-06  0.8138E-06  0.7720E-06  0.7317E-06  0.6929E-06  0.6550E-06  0.6176E-06  0.5814E-06  0.5463E-06  0.5102E-06  0.4758E-06  0.4422E-06  0.4098E-06  0.3740E-06  0.3500E-06  0.3284E-06  0.3076E-06  0.2880E-06  0.2689E-06
  0.2762E-05  0.3263E-05  0.3841E-05  0.4459E-05  0.5078E-05  0.5637E-05  0.6080E-05  0.6394E-05  0.6599E-05  0.6731E-05  0.6860E-05  0.6996E-05  0.7150E-05  0.7356E-05  0.7615E-05  0.7958E-05  0.8366E-05  0.8812E-05  0.9298E-05  0.9805E-05  0.1036E-04  0.1096E-04  0.1158E-04  0.1221E-04  0.1286E-04  0.1351E-04  0.1411E-04  0.1470E-04  0.1529E-04  0.1579E-04  0.1635E-04  0.1811E-04  0.1617E-04  0.9183E-05  0.9497E-05  0.3451E-05  0.2178E-05  0.1873E-05  0.1752E-05  0.1699E-05  0.1668E-05  0.1644E-05  0.1619E-05  0.1595E-05  0.1569E-05  0.1540E-05  0.1510E-05  0.1476E-05  0.1441E-05  0.1404E-05  0.1364E-05  0.1323E-05  0.1280E-05  0.1237E-05  0.1191E-05  0.1147E-05  0.1099E-05  0.1049E-05  0.1003E-05  0.9571E-06  0.9102E-06  0.8627E-06  0.8159E-06  0.7713E-06  0.7284E-06  0.6875E-06  0.6475E-06  0.6087E-06  0.5712E-06  0.5342E-06  0.4979E-06  0.4627E-06  0.4289E-06  0.3970E-06  0.3648E-06  0.3335E-06  0.3123E-06  0.2924E-06  0.2731E-06
  0.3466E-05  0.4178E-05  0.5005E-05  0.5920E-05  0.6837E-05  0.7694E-05  0.8429E-05  0.8999E-05  0.9423E-05  0.9757E-05  0.1011E-04  0.1053E-04  0.1106E-04  0.1158E-04  0.1208E-04  0.1266E-04  0.1330E-04  0.1401E-04  0.1477E-04  0.1550E-04  0.1621E-04  0.1689E-04  0.1748E-04  0.1794E-04  0.1824E-04  0.1836E-04  0.1833E-04  0.1812E-04  0.1746E-04  0.1641E-04  0.1706E-04  0.1784E-04  0.1283E-04  0.1012E-04  0.1033E-04  0.5774E-05  0.3427E-05  0.2469E-05  0.2097E-05  0.1936E-05  0.1855E-05  0.1807E-05  0.1772E-05  0.1740E-05  0.1709E-05  0.1677E-05  0.1643E-05  0.1607E-05  0.1569E-05  0.1529E-05  0.1487E-05  0.1442E-05  0.1395E-05  0.1348E-05  0.1298E-05  0.1249E-05  0.1197E-05  0.1142E-05  0.1092E-05  0.1041E-05  0.9915E-06  0.9408E-06  0.8907E-06  0.8403E-06  0.7920E-06  0.7447E-06  0.6987E-06  0.6547E-06  0.6114E-06  0.5699E-06  0.5292E-06  0.4891E-06  0.4527E-06  0.4172E-06  0.3849E-06  0.3531E-06  0.3205E-06  0.2959E-06  0.2769E-06
  0.4253E-05  0.5176E-05  0.6268E-05  0.7459E-05  0.8692E-05  0.9853E-05  0.1087E-04  0.1171E-04  0.1237E-04  0.1293E-04  0.1346E-04  0.1410E-04  0.1487E-04  0.1575E-04  0.1657E-04  0.1721E-04  0.1774E-04  0.1825E-04  0.1869E-04  0.1902E-04  0.1919E-04  0.1915E-04  0.1888E-04  0.1843E-04  0.1784E-04  0.1712E-04  0.1623E-04  0.1478E-04  0.1315E-04  0.1369E-04  0.1653E-04  0.1538E-04  0.1180E-04  0.1112E-04  0.9963E-05  0.7128E-05  0.5178E-05  0.3611E-05  0.2738E-05  0.2337E-05  0.2137E-05  0.2026E-05  0.1959E-05  0.1911E-05  0.1870E-05  0.1835E-05  0.1797E-05  0.1758E-05  0.1717E-05  0.1674E-05  0.1629E-05  0.1579E-05  0.1529E-05  0.1477E-05  0.1421E-05  0.1367E-05  0.1310E-05  0.1253E-05  0.1193E-05  0.1138E-05  0.1084E-05  0.1029E-05  0.9725E-06  0.9147E-06  0.8587E-06  0.8045E-06  0.7526E-06  0.7029E-06  0.6552E-06  0.6086E-06  0.5645E-06  0.5207E-06  0.4797E-06  0.4414E-06  0.4054E-06  0.3716E-06  0.3407E-06  0.3112E-06  0.2800E-06
  0.5017E-05  0.6137E-05  0.7444E-05  0.8878E-05  0.1035E-04  0.1175E-04  0.1299E-04  0.1402E-04  0.1484E-04  0.1552E-04  0.1611E-04  0.1674E-04  0.1752E-04  0.1827E-04  0.1888E-04  0.1932E-04  0.1942E-04  0.1923E-04  0.1887E-04  0.1835E-04  0.1768E-04  0.1690E-04  0.1607E-04  0.1524E-04  0.1442E-04  0.1343E-04  0.1205E-04  0.1066E-04  0.1134E-04  0.1527E-04  0.1687E-04  0.1433E-04  0.1232E-04  0.1211E-04  0.9839E-05  0.7110E-05  0.6294E-05  0.5089E-05  0.3785E-05  0.2983E-05  0.2577E-05  0.2349E-05  0.2214E-05  0.2127E-05  0.2069E-05  0.2022E-05  0.1981E-05  0.1940E-05  0.1897E-05  0.1851E-05  0.1802E-05  0.1749E-05  0.1694E-05  0.1636E-05  0.1574E-05  0.1513E-05  0.1451E-05  0.1388E-05  0.1320E-05  0.1258E-05  0.1195E-05  0.1132E-05  0.1069E-05  0.1005E-05  0.9414E-06  0.8801E-06  0.8204E-06  0.7633E-06  0.7093E-06  0.6569E-06  0.6068E-06  0.5593E-06  0.5126E-06  0.4692E-06  0.4289E-06  0.3921E-06  0.3575E-06  0.3267E-06  0.2972E-06
  0.5675E-05  0.6934E-05  0.8389E-05  0.9972E-05  0.1158E-04  0.1313E-04  0.1449E-04  0.1558E-04  0.1640E-04  0.1699E-04  0.1742E-04  0.1780E-04  0.1818E-04  0.1859E-04  0.1875E-04  0.1843E-04  0.1789E-04  0.1709E-04  0.1614E-04  0.1515E-04  0.1428E-04  0.1352E-04  0.1293E-04  0.1237E-04  0.1163E-04  0.1046E-04  0.9324E-05  0.1015E-04  0.1424E-04  0.1752E-04  0.1639E-04  0.1417E-04  0.1308E-04  0.1302E-04  0.1020E-04  0.6833E-05  0.6387E-05  0.6143E-05  0.5057E-05  0.3956E-05  0.3237E-05  0.2825E-05  0.2578E-05  0.2424E-05  0.2325E-05  0.2256E-05  0.2205E-05  0.2160E-05  0.2115E-05  0.2067E-05  0.2014E-05  0.1958E-05  0.1898E-05  0.1833E-05  0.1766E-05  0.1698E-05  0.1627E-05  0.1556E-05  0.1478E-05  0.1406E-05  0.1334E-05  0.1261E-05  0.1190E-05  0.1118E-05  0.1045E-05  0.9752E-06  0.9069E-06  0.8410E-06  0.7771E-06  0.7167E-06  0.6597E-06  0.6055E-06  0.5542E-06  0.5052E-06  0.4573E-06  0.4160E-06  0.3774E-06  0.3424E-06  0.3115E-06
  0.6169E-05  0.7494E-05  0.9008E-05  0.1064E-04  0.1230E-04  0.1387E-04  0.1524E-04  0.1628E-04  0.1699E-04  0.1737E-04  0.1752E-04  0.1749E-04  0.1735E-04  0.1711E-04  0.1676E-04  0.1611E-04  0.1510E-04  0.1406E-04  0.1317E-04  0.1244E-04  0.1197E-04  0.1167E-04  0.1137E-04  0.1082E-04  0.9805E-05  0.8909E-05  0.9566E-05  0.1335E-04  0.1756E-04  0.1781E-04  0.1581E-04  0.1430E-04  0.1381E-04  0.1381E-04  0.1072E-04  0.6805E-05  0.6020E-05  0.6448E-05  0.6079E-05  0.5083E-05  0.4108E-05  0.3438E-05  0.3035E-05  0.2799E-05  0.2654E-05  0.2560E-05  0.2494E-05  0.2439E-05  0.2387E-05  0.2334E-05  0.2278E-05  0.2218E-05  0.2151E-05  0.2078E-05  0.2004E-05  0.1927E-05  0.1846E-05  0.1764E-05  0.1679E-05  0.1591E-05  0.1508E-05  0.1425E-05  0.1342E-05  0.1260E-05  0.1176E-05  0.1095E-05  0.1015E-05  0.9383E-06  0.8645E-06  0.7929E-06  0.7259E-06  0.6628E-06  0.6034E-06  0.5483E-06  0.4966E-06  0.4469E-06  0.4012E-06  0.3621E-06  0.3271E-06
  0.6468E-05  0.7793E-05  0.9285E-05  0.1089E-04  0.1252E-04  0.1403E-04  0.1531E-04  0.1629E-04  0.1686E-04  0.1705E-04  0.1695E-04  0.1662E-04  0.1611E-04  0.1547E-04  0.1471E-04  0.1390E-04  0.1301E-04  0.1220E-04  0.1170E-04  0.1154E-04  0.1142E-04  0.1122E-04  0.1067E-04  0.9752E-05  0.8858E-05  0.9354E-05  0.1269E-04  0.1717E-04  0.1873E-04  0.1719E-04  0.1564E-04  0.1457E-04  0.1449E-04  0.1447E-04  0.1129E-04  0.7125E-05  0.5729E-05  0.6234E-05  0.6544E-05  0.6017E-05  0.5067E-05  0.4188E-05  0.3588E-05  0.3236E-05  0.3040E-05  0.2921E-05  0.2841E-05  0.2778E-05  0.2722E-05  0.2667E-05  0.2607E-05  0.2541E-05  0.2466E-05  0.2386E-05  0.2301E-05  0.2211E-05  0.2116E-05  0.2021E-05  0.1923E-05  0.1820E-05  0.1724E-05  0.1627E-05  0.1530E-05  0.1434E-05  0.1339E-05  0.1244E-05  0.1151E-05  0.1061E-05  0.9733E-06  0.8884E-06  0.8096E-06  0.7350E-06  0.6654E-06  0.6005E-06  0.5408E-06  0.4854E-06  0.4354E-06  0.3879E-06  0.3451E-06
  0.6603E-05  0.7883E-05  0.9312E-05  0.1085E-04  0.1238E-04  0.1379E-04  0.1500E-04  0.1589E-04  0.1636E-04  0.1649E-04  0.1625E-04  0.1578E-04  0.1513E-04  0.1439E-04  0.1360E-04  0.1284E-04  0.1220E-04  0.1168E-04  0.1149E-04  0.1160E-04  0.1157E-04  0.1100E-04  0.1004E-04  0.9130E-05  0.9461E-05  0.1225E-04  0.1671E-04  0.1923E-04  0.1840E-04  0.1684E-04  0.1584E-04  0.1490E-04  0.1518E-04  0.1500E-04  0.1185E-04  0.7614E-05  0.5661E-05  0.5896E-05  0.6559E-05  0.6582E-05  0.5952E-05  0.5056E-05  0.4285E-05  0.3771E-05  0.3477E-05  0.3311E-05  0.3213E-05  0.3142E-05  0.3085E-05  0.3028E-05  0.2969E-05  0.2902E-05  0.2829E-05  0.2746E-05  0.2654E-05  0.2554E-05  0.2447E-05  0.2337E-05  0.2224E-05  0.2106E-05  0.1991E-05  0.1877E-05  0.1763E-05  0.1650E-05  0.1538E-05  0.1426E-05  0.1317E-05  0.1210E-05  0.1106E-05  0.1007E-05  0.9131E-06  0.8250E-06  0.7421E-06  0.6654E-06  0.5947E-06  0.5298E-06  0.4728E-06  0.4215E-06  0.3737E-06
  0.6622E-05  0.7831E-05  0.9185E-05  0.1059E-04  0.1200E-04  0.1333E-04  0.1444E-04  0.1525E-04  0.1575E-04  0.1585E-04  0.1564E-04  0.1518E-04  0.1460E-04  0.1394E-04  0.1329E-04  0.1273E-04  0.1223E-04  0.1194E-04  0.1175E-04  0.1164E-04  0.1138E-04  0.1060E-04  0.9662E-05  0.9793E-05  0.1201E-04  0.1619E-04  0.1938E-04  0.1946E-04  0.1793E-04  0.1697E-04  0.1608E-04  0.1536E-04  0.1579E-04  0.1549E-04  0.1237E-04  0.8209E-05  0.5825E-05  0.5669E-05  0.6345E-05  0.6741E-05  0.6508E-05  0.5813E-05  0.5025E-05  0.4398E-05  0.3987E-05  0.3742E-05  0.3595E-05  0.3505E-05  0.3437E-05  0.3379E-05  0.3322E-05  0.3260E-05  0.3190E-05  0.3110E-05  0.3021E-05  0.2919E-05  0.2810E-05  0.2693E-05  0.2571E-05  0.2443E-05  0.2311E-05  0.2180E-05  0.2048E-05  0.1915E-05  0.1782E-05  0.1651E-05  0.1520E-05  0.1393E-05  0.1270E-05  0.1152E-05  0.1040E-05  0.9341E-06  0.8363E-06  0.7444E-06  0.6606E-06  0.5854E-06  0.5178E-06  0.4579E-06  0.4055E-06
  0.6563E-05  0.7700E-05  0.8927E-05  0.1023E-04  0.1154E-04  0.1274E-04  0.1379E-04  0.1457E-04  0.1508E-04  0.1527E-04  0.1516E-04  0.1485E-04  0.1442E-04  0.1393E-04  0.1348E-04  0.1302E-04  0.1266E-04  0.1235E-04  0.1205E-04  0.1167E-04  0.1104E-04  0.1035E-04  0.1029E-04  0.1204E-04  0.1578E-04  0.1935E-04  0.2029E-04  0.1901E-04  0.1783E-04  0.1722E-04  0.1630E-04  0.1585E-04  0.1631E-04  0.1587E-04  0.1288E-04  0.8834E-05  0.6170E-05  0.5590E-05  0.6046E-05  0.6531E-05  0.6566E-05  0.6171E-05  0.5571E-05  0.4991E-05  0.4538E-05  0.4215E-05  0.4002E-05  0.3864E-05  0.3770E-05  0.3697E-05  0.3635E-05  0.3575E-05  0.3511E-05  0.3439E-05  0.3355E-05  0.3261E-05  0.3157E-05  0.3043E-05  0.2921E-05  0.2790E-05  0.2651E-05  0.2510E-05  0.2365E-05  0.2218E-05  0.2068E-05  0.1917E-05  0.1765E-05  0.1616E-05  0.1470E-05  0.1330E-05  0.1196E-05  0.1070E-05  0.9515E-06  0.8428E-06  0.7433E-06  0.6533E-06  0.5731E-06  0.5028E-06  0.4403E-06
  0.6458E-05  0.7493E-05  0.8636E-05  0.9821E-05  0.1102E-04  0.1213E-04  0.1312E-04  0.1390E-04  0.1446E-04  0.1474E-04  0.1481E-04  0.1469E-04  0.1444E-04  0.1411E-04  0.1376E-04  0.1344E-04  0.1310E-04  0.1275E-04  0.1232E-04  0.1171E-04  0.1105E-04  0.1101E-04  0.1236E-04  0.1552E-04  0.1918E-04  0.2079E-04  0.2002E-04  0.1856E-04  0.1797E-04  0.1745E-04  0.1641E-04  0.1623E-04  0.1671E-04  0.1616E-04  0.1331E-04  0.9433E-05  0.6623E-05  0.5665E-05  0.5803E-05  0.6201E-05  0.6361E-05  0.6223E-05  0.5872E-05  0.5438E-05  0.5024E-05  0.4668E-05  0.4405E-05  0.4214E-05  0.4078E-05  0.3979E-05  0.3905E-05  0.3841E-05  0.3778E-05  0.3711E-05  0.3635E-05  0.3552E-05  0.3457E-05  0.3351E-05  0.3236E-05  0.3110E-05  0.2971E-05  0.2829E-05  0.2680E-05  0.2524E-05  0.2364E-05  0.2200E-05  0.2032E-05  0.1864E-05  0.1699E-05  0.1537E-05  0.1382E-05  0.1233E-05  0.1094E-05  0.9656E-06  0.8475E-06  0.7407E-06  0.6452E-06  0.5610E-06  0.4876E-06
  0.6320E-05  0.7282E-05  0.8321E-05  0.9406E-05  0.1050E-04  0.1155E-04  0.1248E-04  0.1328E-04  0.1388E-04  0.1430E-04  0.1452E-04  0.1456E-04  0.1449E-04  0.1430E-04  0.1407E-04  0.1378E-04  0.1346E-04  0.1307E-04  0.1253E-04  0.1197E-04  0.1189E-04  0.1293E-04  0.1558E-04  0.1900E-04  0.2112E-04  0.2091E-04  0.1943E-04  0.1848E-04  0.1824E-04  0.1748E-04  0.1651E-04  0.1650E-04  0.1699E-04  0.1636E-04  0.1364E-04  0.9976E-05  0.7090E-05  0.5840E-05  0.5720E-05  0.5993E-05  0.6176E-05  0.6179E-05  0.6007E-05  0.5715E-05  0.5379E-05  0.5049E-05  0.4758E-05  0.4530E-05  0.4355E-05  0.4228E-05  0.4132E-05  0.4056E-05  0.3987E-05  0.3921E-05  0.3853E-05  0.3778E-05  0.3696E-05  0.3601E-05  0.3495E-05  0.3377E-05  0.3246E-05  0.3106E-05  0.2958E-05  0.2801E-05  0.2636E-05  0.2464E-05  0.2288E-05  0.2109E-05  0.1929E-05  0.1751E-05  0.1578E-05  0.1412E-05  0.1254E-05  0.1107E-05  0.9708E-06  0.8474E-06  0.7361E-06  0.6371E-06  0.5506E-06
  0.6164E-05  0.7065E-05  0.8013E-05  0.9021E-05  0.1002E-04  0.1100E-04  0.1191E-04  0.1272E-04  0.1338E-04  0.1389E-04  0.1422E-04  0.1443E-04  0.1449E-04  0.1445E-04  0.1427E-04  0.1402E-04  0.1371E-04  0.1329E-04  0.1284E-04  0.1275E-04  0.1355E-04  0.1581E-04  0.1894E-04  0.2124E-04  0.2141E-04  0.2016E-04  0.1896E-04  0.1856E-04  0.1833E-04  0.1729E-04  0.1646E-04  0.1662E-04  0.1709E-04  0.1640E-04  0.1386E-04  0.1042E-04  0.7528E-05  0.6081E-05  0.5778E-05  0.5910E-05  0.6073E-05  0.6132E-05  0.6056E-05  0.5866E-05  0.5601E-05  0.5314E-05  0.5035E-05  0.4784E-05  0.4586E-05  0.4428E-05  0.4311E-05  0.4218E-05  0.4141E-05  0.4073E-05  0.4006E-05  0.3936E-05  0.3863E-05  0.3779E-05  0.3682E-05  0.3575E-05  0.3452E-05  0.3318E-05  0.3176E-05  0.3020E-05  0.2856E-05  0.2682E-05  0.2502E-05  0.2317E-05  0.2129E-05  0.1941E-05  0.1757E-05  0.1578E-05  0.1407E-05  0.1246E-05  0.1096E-05  0.9581E-06  0.8333E-06  0.7218E-06  0.6231E-06
  0.6020E-05  0.6841E-05  0.7725E-05  0.8642E-05  0.9582E-05  0.1050E-04  0.1139E-04  0.1219E-04  0.1288E-04  0.1346E-04  0.1390E-04  0.1420E-04  0.1438E-04  0.1442E-04  0.1433E-04  0.1415E-04  0.1388E-04  0.1353E-04  0.1349E-04  0.1416E-04  0.1604E-04  0.1889E-04  0.2134E-04  0.2183E-04  0.2054E-04  0.1893E-04  0.1841E-04  0.1864E-04  0.1817E-04  0.1702E-04  0.1629E-04  0.1662E-04  0.1709E-04  0.1636E-04  0.1400E-04  0.1077E-04  0.7922E-05  0.6330E-05  0.5871E-05  0.5893E-05  0.6029E-05  0.6096E-05  0.6060E-05  0.5926E-05  0.5722E-05  0.5472E-05  0.5213E-05  0.4969E-05  0.4752E-05  0.4579E-05  0.4440E-05  0.4330E-05  0.4241E-05  0.4167E-05  0.4099E-05  0.4031E-05  0.3961E-05  0.3885E-05  0.3798E-05  0.3698E-05  0.3586E-05  0.3459E-05  0.3322E-05  0.3173E-05  0.3012E-05  0.2841E-05  0.2661E-05  0.2475E-05  0.2285E-05  0.2094E-05  0.1904E-05  0.1719E-05  0.1539E-05  0.1369E-05  0.1209E-05  0.1061E-05  0.9252E-06  0.8032E-06  0.6944E-06
  0.5864E-05  0.6620E-05  0.7444E-05  0.8297E-05  0.9179E-05  0.1005E-04  0.1090E-04  0.1169E-04  0.1241E-04  0.1302E-04  0.1353E-04  0.1391E-04  0.1416E-04  0.1428E-04  0.1427E-04  0.1417E-04  0.1396E-04  0.1401E-04  0.1468E-04  0.1626E-04  0.1879E-04  0.2126E-04  0.2217E-04  0.2107E-04  0.1918E-04  0.1800E-04  0.1810E-04  0.1844E-04  0.1771E-04  0.1653E-04  0.1604E-04  0.1653E-04  0.1700E-04  0.1626E-04  0.1408E-04  0.1107E-04  0.8264E-05  0.6552E-05  0.5983E-05  0.5897E-05  0.6000E-05  0.6055E-05  0.6029E-05  0.5928E-05  0.5756E-05  0.5542E-05  0.5304E-05  0.5070E-05  0.4853E-05  0.4670E-05  0.4519E-05  0.4396E-05  0.4296E-05  0.4213E-05  0.4141E-05  0.4072E-05  0.3998E-05  0.3928E-05  0.3847E-05  0.3755E-05  0.3650E-05  0.3532E-05  0.3401E-05  0.3259E-05  0.3104E-05  0.2939E-05  0.2764E-05  0.2580E-05  0.2393E-05  0.2202E-05  0.2012E-05  0.1825E-05  0.1643E-05  0.1468E-05  0.1303E-05  0.1149E-05  0.1007E-05  0.8767E-06  0.7605E-06
  0.5692E-05  0.6406E-05  0.7163E-05  0.7965E-05  0.8783E-05  0.9609E-05  0.1042E-04  0.1119E-04  0.1191E-04  0.1255E-04  0.1308E-04  0.1352E-04  0.1382E-04  0.1402E-04  0.1409E-04  0.1406E-04  0.1427E-04  0.1491E-04  0.1636E-04  0.1864E-04  0.2102E-04  0.2224E-04  0.2155E-04  0.1964E-04  0.1802E-04  0.1757E-04  0.1797E-04  0.1815E-04  0.1719E-04  0.1606E-04  0.1580E-04  0.1639E-04  0.1682E-04  0.1606E-04  0.1411E-04  0.1134E-04  0.8568E-05  0.6774E-05  0.6080E-05  0.5891E-05  0.5963E-05  0.5998E-05  0.5975E-05  0.5883E-05  0.5735E-05  0.5538E-05  0.5324E-05  0.5101E-05  0.4893E-05  0.4707E-05  0.4548E-05  0.4419E-05  0.4309E-05  0.4218E-05  0.4139E-05  0.4066E-05  0.3990E-05  0.3917E-05  0.3841E-05  0.3754E-05  0.3657E-05  0.3544E-05  0.3421E-05  0.3286E-05  0.3139E-05  0.2980E-05  0.2814E-05  0.2636E-05  0.2454E-05  0.2268E-05  0.2081E-05  0.1897E-05  0.1716E-05  0.1541E-05  0.1375E-05  0.1218E-05  0.1073E-05  0.9396E-06  0.8185E-06
  0.5512E-05  0.6180E-05  0.6880E-05  0.7629E-05  0.8387E-05  0.9174E-05  0.9934E-05  0.1068E-04  0.1137E-04  0.1202E-04  0.1257E-04  0.1303E-04  0.1340E-04  0.1364E-04  0.1380E-04  0.1417E-04  0.1482E-04  0.1617E-04  0.1827E-04  0.2057E-04  0.2203E-04  0.2177E-04  0.2019E-04  0.1828E-04  0.1727E-04  0.1745E-04  0.1794E-04  0.1759E-04  0.1657E-04  0.1568E-04  0.1565E-04  0.1617E-04  0.1639E-04  0.1560E-04  0.1403E-04  0.1159E-04  0.8899E-05  0.7000E-05  0.6178E-05  0.5895E-05  0.5908E-05  0.5922E-05  0.5887E-05  0.5799E-05  0.5661E-05  0.5486E-05  0.5283E-05  0.5077E-05  0.4877E-05  0.4695E-05  0.4536E-05  0.4399E-05  0.4286E-05  0.4187E-05  0.4101E-05  0.4022E-05  0.3943E-05  0.3866E-05  0.3791E-05  0.3708E-05  0.3615E-05  0.3509E-05  0.3391E-05  0.3264E-05  0.3125E-05  0.2975E-05  0.2815E-05  0.2648E-05  0.2473E-05  0.2294E-05  0.2114E-05  0.1936E-05  0.1759E-05  0.1587E-05  0.1423E-05  0.1268E-05  0.1123E-05  0.9889E-06  0.8656E-06
  0.5321E-05  0.5934E-05  0.6594E-05  0.7278E-05  0.7991E-05  0.8716E-05  0.9446E-05  0.1015E-04  0.1082E-04  0.1143E-04  0.1199E-04  0.1248E-04  0.1288E-04  0.1324E-04  0.1368E-04  0.1445E-04  0.1573E-04  0.1761E-04  0.1978E-04  0.2141E-04  0.2165E-04  0.2036E-04  0.1861E-04  0.1730E-04  0.1703E-04  0.1745E-04  0.1765E-04  0.1703E-04  0.1597E-04  0.1536E-04  0.1548E-04  0.1589E-04  0.1583E-04  0.1496E-04  0.1347E-04  0.1146E-04  0.9193E-05  0.7329E-05  0.6321E-05  0.5926E-05  0.5827E-05  0.5818E-05  0.5774E-05  0.5680E-05  0.5552E-05  0.5385E-05  0.5199E-05  0.5005E-05  0.4817E-05  0.4640E-05  0.4485E-05  0.4347E-05  0.4228E-05  0.4127E-05  0.4035E-05  0.3950E-05  0.3866E-05  0.3785E-05  0.3709E-05  0.3627E-05  0.3536E-05  0.3436E-05  0.3323E-05  0.3203E-05  0.3073E-05  0.2931E-05  0.2781E-05  0.2621E-05  0.2457E-05  0.2287E-05  0.2116E-05  0.1944E-05  0.1776E-05  0.1610E-05  0.1451E-05  0.1299E-05  0.1156E-05  0.1024E-05  0.9009E-06
  0.5114E-05  0.5680E-05  0.6282E-05  0.6916E-05  0.7579E-05  0.8252E-05  0.8928E-05  0.9591E-05  0.1023E-04  0.1082E-04  0.1136E-04  0.1189E-04  0.1241E-04  0.1297E-04  0.1377E-04  0.1497E-04  0.1674E-04  0.1876E-04  0.2045E-04  0.2101E-04  0.2032E-04  0.1873E-04  0.1733E-04  0.1671E-04  0.1687E-04  0.1731E-04  0.1707E-04  0.1642E-04  0.1551E-04  0.1513E-04  0.1525E-04  0.1551E-04  0.1522E-04  0.1434E-04  0.1300E-04  0.1127E-04  0.9366E-05  0.7678E-05  0.6530E-05  0.5986E-05  0.5725E-05  0.5691E-05  0.5632E-05  0.5538E-05  0.5408E-05  0.5253E-05  0.5079E-05  0.4899E-05  0.4721E-05  0.4554E-05  0.4400E-05  0.4267E-05  0.4146E-05  0.4039E-05  0.3945E-05  0.3854E-05  0.3766E-05  0.3682E-05  0.3604E-05  0.3521E-05  0.3432E-05  0.3335E-05  0.3226E-05  0.3113E-05  0.2989E-05  0.2858E-05  0.2716E-05  0.2567E-05  0.2412E-05  0.2253E-05  0.2091E-05  0.1929E-05  0.1768E-05  0.1611E-05  0.1458E-05  0.1313E-05  0.1174E-05  0.1045E-05  0.9246E-06
  0.4894E-05  0.5413E-05  0.5970E-05  0.6554E-05  0.7159E-05  0.7783E-05  0.8402E-05  0.9018E-05  0.9608E-05  0.1017E-04  0.1074E-04  0.1138E-04  0.1204E-04  0.1290E-04  0.1406E-04  0.1566E-04  0.1753E-04  0.1920E-04  0.2004E-04  0.1971E-04  0.1862E-04  0.1727E-04  0.1639E-04  0.1623E-04  0.1668E-04  0.1679E-04  0.1652E-04  0.1589E-04  0.1521E-04  0.1497E-04  0.1502E-04  0.1503E-04  0.1468E-04  0.1383E-04  0.1259E-04  0.1106E-04  0.9414E-05  0.7873E-05  0.6694E-05  0.6025E-05  0.5712E-05  0.5537E-05  0.5468E-05  0.5367E-05  0.5239E-05  0.5092E-05  0.4933E-05  0.4764E-05  0.4598E-05  0.4438E-05  0.4293E-05  0.4160E-05  0.4041E-05  0.3933E-05  0.3834E-05  0.3743E-05  0.3650E-05  0.3563E-05  0.3482E-05  0.3399E-05  0.3311E-05  0.3215E-05  0.3112E-05  0.3002E-05  0.2886E-05  0.2761E-05  0.2630E-05  0.2491E-05  0.2346E-05  0.2198E-05  0.2047E-05  0.1894E-05  0.1743E-05  0.1594E-05  0.1450E-05  0.1311E-05  0.1179E-05  0.1053E-05  0.9380E-06
  0.4661E-05  0.5139E-05  0.5645E-05  0.6177E-05  0.6734E-05  0.7302E-05  0.7876E-05  0.8431E-05  0.9008E-05  0.9585E-05  0.1021E-04  0.1098E-04  0.1185E-04  0.1299E-04  0.1446E-04  0.1609E-04  0.1773E-04  0.1875E-04  0.1886E-04  0.1807E-04  0.1702E-04  0.1608E-04  0.1570E-04  0.1593E-04  0.1617E-04  0.1622E-04  0.1588E-04  0.1539E-04  0.1497E-04  0.1476E-04  0.1477E-04  0.1463E-04  0.1415E-04  0.1332E-04  0.1217E-04  0.1078E-04  0.9387E-05  0.7955E-05  0.6815E-05  0.6054E-05  0.5636E-05  0.5400E-05  0.5273E-05  0.5169E-05  0.5048E-05  0.4910E-05  0.4762E-05  0.4607E-05  0.4451E-05  0.4303E-05  0.4163E-05  0.4034E-05  0.3917E-05  0.3811E-05  0.3708E-05  0.3615E-05  0.3523E-05  0.3434E-05  0.3349E-05  0.3266E-05  0.3178E-05  0.3085E-05  0.2985E-05  0.2877E-05  0.2768E-05  0.2651E-05  0.2528E-05  0.2399E-05  0.2265E-05  0.2127E-05  0.1986E-05  0.1845E-05  0.1704E-05  0.1564E-05  0.1428E-05  0.1297E-05  0.1171E-05  0.1052E-05  0.9402E-06
  0.4420E-05  0.4860E-05  0.5317E-05  0.5804E-05  0.6301E-05  0.6826E-05  0.7343E-05  0.7906E-05  0.8468E-05  0.9088E-05  0.9802E-05  0.1068E-04  0.1176E-04  0.1311E-04  0.1468E-04  0.1622E-04  0.1734E-04  0.1763E-04  0.1728E-04  0.1640E-04  0.1560E-04  0.1511E-04  0.1511E-04  0.1544E-04  0.1570E-04  0.1565E-04  0.1533E-04  0.1494E-04  0.1462E-04  0.1450E-04  0.1442E-04  0.1423E-04  0.1370E-04  0.1279E-04  0.1171E-04  0.1049E-04  0.9205E-05  0.7934E-05  0.6861E-05  0.6035E-05  0.5541E-05  0.5264E-05  0.5057E-05  0.4955E-05  0.4839E-05  0.4712E-05  0.4574E-05  0.4431E-05  0.4288E-05  0.4148E-05  0.4016E-05  0.3893E-05  0.3779E-05  0.3674E-05  0.3577E-05  0.3478E-05  0.3388E-05  0.3297E-05  0.3210E-05  0.3128E-05  0.3041E-05  0.2949E-05  0.2853E-05  0.2749E-05  0.2642E-05  0.2532E-05  0.2417E-05  0.2297E-05  0.2173E-05  0.2045E-05  0.1915E-05  0.1782E-05  0.1653E-05  0.1522E-05  0.1395E-05  0.1272E-05  0.1154E-05  0.1042E-05  0.9356E-06
  0.4176E-05  0.4577E-05  0.4991E-05  0.5431E-05  0.5887E-05  0.6355E-05  0.6869E-05  0.7442E-05  0.8036E-05  0.8717E-05  0.9539E-05  0.1054E-04  0.1175E-04  0.1317E-04  0.1461E-04  0.1571E-04  0.1633E-04  0.1621E-04  0.1571E-04  0.1500E-04  0.1448E-04  0.1434E-04  0.1456E-04  0.1497E-04  0.1519E-04  0.1509E-04  0.1494E-04  0.1463E-04  0.1435E-04  0.1415E-04  0.1396E-04  0.1364E-04  0.1304E-04  0.1225E-04  0.1120E-04  0.1006E-04  0.8895E-05  0.7768E-05  0.6765E-05  0.5973E-05  0.5432E-05  0.5088E-05  0.4880E-05  0.4728E-05  0.4622E-05  0.4505E-05  0.4377E-05  0.4242E-05  0.4111E-05  0.3982E-05  0.3856E-05  0.3741E-05  0.3631E-05  0.3528E-05  0.3431E-05  0.3338E-05  0.3246E-05  0.3157E-05  0.3069E-05  0.2986E-05  0.2901E-05  0.2811E-05  0.2717E-05  0.2618E-05  0.2515E-05  0.2410E-05  0.2302E-05  0.2190E-05  0.2074E-05  0.1956E-05  0.1836E-05  0.1715E-05  0.1592E-05  0.1473E-05  0.1354E-05  0.1240E-05  0.1129E-05  0.1024E-05  0.9240E-06
  0.3925E-05  0.4290E-05  0.4673E-05  0.5069E-05  0.5494E-05  0.5951E-05  0.6446E-05  0.7015E-05  0.7617E-05  0.8336E-05  0.9181E-05  0.1021E-04  0.1140E-04  0.1263E-04  0.1385E-04  0.1473E-04  0.1498E-04  0.1481E-04  0.1431E-04  0.1381E-04  0.1351E-04  0.1361E-04  0.1390E-04  0.1421E-04  0.1442E-04  0.1447E-04  0.1432E-04  0.1410E-04  0.1379E-04  0.1352E-04  0.1316E-04  0.1276E-04  0.1217E-04  0.1144E-04  0.1053E-04  0.9505E-05  0.8454E-05  0.7510E-05  0.6586E-05  0.5839E-05  0.5276E-05  0.4908E-05  0.4680E-05  0.4514E-05  0.4397E-05  0.4288E-05  0.4169E-05  0.4048E-05  0.3926E-05  0.3805E-05  0.3689E-05  0.3579E-05  0.3475E-05  0.3375E-05  0.3280E-05  0.3191E-05  0.3100E-05  0.3013E-05  0.2926E-05  0.2844E-05  0.2760E-05  0.2673E-05  0.2582E-05  0.2487E-05  0.2388E-05  0.2288E-05  0.2186E-05  0.2081E-05  0.1973E-05  0.1864E-05  0.1753E-05  0.1641E-05  0.1528E-05  0.1417E-05  0.1308E-05  0.1201E-05  0.1098E-05  0.9998E-06  0.9060E-06
  0.3673E-05  0.4008E-05  0.4357E-05  0.4731E-05  0.5128E-05  0.5546E-05  0.6020E-05  0.6564E-05  0.7148E-05  0.7804E-05  0.8591E-05  0.9431E-05  0.1041E-04  0.1143E-04  0.1232E-04  0.1307E-04  0.1340E-04  0.1333E-04  0.1297E-04  0.1263E-04  0.1249E-04  0.1251E-04  0.1266E-04  0.1287E-04  0.1300E-04  0.1305E-04  0.1304E-04  0.1288E-04  0.1268E-04  0.1237E-04  0.1202E-04  0.1160E-04  0.1108E-04  0.1044E-04  0.9674E-05  0.8795E-05  0.7936E-05  0.7080E-05  0.6311E-05  0.5627E-05  0.5081E-05  0.4711E-05  0.4477E-05  0.4311E-05  0.4168E-05  0.4067E-05  0.3959E-05  0.3847E-05  0.3736E-05  0.3626E-05  0.3519E-05  0.3414E-05  0.3315E-05  0.3224E-05  0.3132E-05  0.3041E-05  0.2955E-05  0.2870E-05  0.2786E-05  0.2702E-05  0.2622E-05  0.2537E-05  0.2449E-05  0.2359E-05  0.2265E-05  0.2168E-05  0.2071E-05  0.1972E-05  0.1872E-05  0.1771E-05  0.1668E-05  0.1564E-05  0.1461E-05  0.1359E-05  0.1257E-05  0.1159E-05  0.1063E-05  0.9710E-06  0.8832E-06
