DSAA
          79         109
    318.3670    342.0670
   7336.5760   7369.2760
  0.0000E+00  0.4687E-04
  0.0000E+00  0.0000E+00  0.0000E+00  0.0000E+00  0.0000E+00  0.0000E+00  0.0000E+00  0.0000E+00  0.0000E+00  0.0000E+00  0.0000E+00  0.0000E+00  0.0000E+00  0.0000E+00  0.0000E+00  0.0000E+00  0.0000E+00  0.0000E+00  0.0000E+00  0.0000E+00  0.0000E+00  0.0000E+00  0.0000E+00  0.0000E+00  0.0000E+00  0.0000E+00  0.0000E+00  0.0000E+00  0.0000E+00  0.0000E+00  0.0000E+00  0.0000E+00  0.0000E+00  0.0000E+00  0.0000E+00  0.0000E+00  0.0000E+00  0.0000E+00  0.0000E+00  0.0000E+00  0.0000E+00  0.0000E+00  0.0000E+00  0.0000E+00  0.0000E+00  0.0000E+00  0.0000E+00  0.0000E+00  0.0000E+00  0.0000E+00  0.0000E+00  0.0000E+00  0.0000E+00  0.0000E+00  0.0000E+00  0.0000E+00  0.0000E+00  0.0000E+00  0.0000E+00  0.0000E+00  0.0000E+00  0.0000E+00  0.0000E+00  0.0000E+00  0.0000E+00  0.0000E+00  0.0000E+00  0.0000E+00  0.0000E+00  0.0000E+00  0.0000E+00  0.0000E+00  0.0000E+00  0.0000E+00  0.0000E+00  0.0000E+00  0.0000E+00  0.0000E+00  0.0000E+00
  0.0000E+00  0.0000E+00  0.0000E+00  0.0000E+00  0.0000E+00  0.0000E+00  0.0000E+00  0.0000E+00  0.0000E+00  0.0000E+00  0.0000E+00  0.0000E+00  0.0000E+00  0.0000E+00  0.0000E+00  0.0000E+00  0.0000E+00  0.0000E+00  0.0000E+00  0.0000E+00  0.0000E+00  0.0000E+00  0.0000E+00  0.0000E+00  0.0000E+00  0.0000E+00  0.0000E+00  0.0000E+00  0.0000E+00  0.0000E+00  0.0000E+00  0.0000E+00  0.0000E+00  0.0000E+00  0.0000E+00  0.0000E+00  0.0000E+00  0.0000E+00  0.0000E+00  0.0000E+00  0.0000E+00  0.0000E+00  0.0000E+00  0.0000E+00  0.0000E+00  0.0000E+00  0.0000E+00  0.0000E+00  0.0000E+00  0.0000E+00  0.0000E+00  0.0000E+00  0.0000E+00  0.0000E+00  0.0000E+00  0.0000E+00  0.0000E+00  0.0000E+00  0.0000E+00  0.0000E+00  0.0000E+00  0.0000E+00  0.0000E+00  0.0000E+00  0.0000E+00  0.0000E+00  0.0000E+00  0.0000E+00  0.0000E+00  0.0000E+00  0.0000E+00  0.0000E+00  0.0000E+00  0.0000E+00  0.0000E+00  0.0000E+00  0.0000E+00  0.0000E+00  0.0000E+00
  0.0000E+00  0.0000E+00  0.0000E+00  0.0000E+00  0.0000E+00  0.0000E+00  0.0000E+00  0.0000E+00  0.0000E+00  0.0000E+00  0.0000E+00  0.0000E+00  0.0000E+00  0.0000E+00  0.0000E+00  0.0000E+00  0.0000E+00  0.0000E+00  0.0000E+00  0.0000E+00  0.0000E+00  0.0000E+00  0.0000E+00  0.0000E+00  0.0000E+00  0.0000E+00  0.0000E+00  0.0000E+00  0.0000E+00  0.0000E+00  0.0000E+00  0.0000E+00  0.0000E+00  0.0000E+00  0.0000E+00  0.0000E+00  0.0000E+00  0.0000E+00  0.0000E+00  0.0000E+00  0.0000E+00  0.0000E+00  0.0000E+00  0.0000E+00  0.0000E+00  0.0000E+00  0.0000E+00  0.0000E+00  0.0000E+00  0.0000E+00  0.0000E+00  0.0000E+00  0.0000E+00  0.0000E+00  0.0000E+00  0.0000E+00  0.0000E+00  0.0000E+00  0.0000E+00  0.0000E+00  0.0000E+00  0.0000E+00  0.0000E+00  0.0000E+00  0.0000E+00  0.0000E+00  0.0000E+00  0.0000E+00  0.0000E+00  0.0000E+00  0.0000E+00  0.0000E+00  0.0000E+00  0.0000E+00  0.0000E+00  0.0000E+00  0.0000E+00  0.0000E+00  0.0000E+00
  0.0000E+00  0.0000E+00  0.0000E+00  0.0000E+00  0.0000E+00  0.0000E+00  0.0000E+00  0.0000E+00  0.0000E+00  0.0000E+00  0.0000E+00  0.0000E+00  0.0000E+00  0.0000E+00  0.0000E+00  0.0000E+00  0.0000E+00  0.0000E+00  0.0000E+00  0.0000E+00  0.0000E+00  0.0000E+00  0.0000E+00  0.0000E+00  0.0000E+00  0.0000E+00  0.0000E+00  0.0000E+00  0.0000E+00  0.0000E+00  0.0000E+00  0.0000E+00  0.0000E+00  0.0000E+00  0.0000E+00  0.0000E+00  0.0000E+00  0.0000E+00  0.0000E+00  0.0000E+00  0.0000E+00  0.0000E+00  0.0000E+00  0.0000E+00  0.0000E+00  0.0000E+00  0.0000E+00  0.0000E+00  0.0000E+00  0.0000E+00  0.0000E+00  0.0000E+00  0.0000E+00  0.0000E+00  0.0000E+00  0.0000E+00  0.0000E+00  0.0000E+00  0.0000E+00  0.0000E+00  0.0000E+00  0.0000E+00  0.0000E+00  0.0000E+00  0.0000E+00  0.0000E+00  0.0000E+00  0.0000E+00  0.0000E+00  0.0000E+00  0.0000E+00  0.0000E+00  0.0000E+00  0.0000E+00  0.0000E+00  0.0000E+00  0.0000E+00  0.0000E+00  0.0000E+00
  0.0000E+00  0.0000E+00  0.0000E+00  0.0000E+00  0.0000E+00  0.0000E+00  0.0000E+00  0.0000E+00  0.0000E+00  0.0000E+00  0.0000E+00  0.0000E+00  0.0000E+00  0.0000E+00  0.0000E+00  0.0000E+00  0.0000E+00  0.0000E+00  0.0000E+00  0.0000E+00  0.0000E+00  0.0000E+00  0.0000E+00  0.0000E+00  0.0000E+00  0.0000E+00  0.0000E+00  0.0000E+00  0.0000E+00  0.0000E+00  0.0000E+00  0.0000E+00  0.0000E+00  0.0000E+00  0.0000E+00  0.0000E+00  0.0000E+00  0.0000E+00  0.0000E+00  0.0000E+00  0.0000E+00  0.0000E+00  0.0000E+00  0.0000E+00  0.0000E+00  0.0000E+00  0.0000E+00  0.0000E+00  0.0000E+00  0.0000E+00  0.0000E+00  0.0000E+00  0.0000E+00  0.0000E+00  0.0000E+00  0.0000E+00  0.0000E+00  0.0000E+00  0.0000E+00  0.0000E+00  0.0000E+00  0.0000E+00  0.0000E+00  0.0000E+00  0.0000E+00  0.0000E+00  0.0000E+00  0.0000E+00  0.0000E+00  0.0000E+00  0.0000E+00  0.0000E+00  0.0000E+00  0.0000E+00  0.0000E+00  0.0000E+00  0.0000E+00  0.0000E+00  0.0000E+00
  0.0000E+00  0.0000E+00  0.0000E+00  0.0000E+00  0.0000E+00  0.0000E+00  0.0000E+00  0.0000E+00  0.0000E+00  0.0000E+00  0.0000E+00  0.0000E+00  0.0000E+00  0.0000E+00  0.0000E+00  0.0000E+00  0.0000E+00  0.0000E+00  0.0000E+00  0.0000E+00  0.0000E+00  0.0000E+00  0.0000E+00  0.0000E+00  0.0000E+00  0.0000E+00  0.0000E+00  0.0000E+00  0.0000E+00  0.0000E+00  0.0000E+00  0.0000E+00  0.0000E+00  0.0000E+00  0.0000E+00  0.0000E+00  0.0000E+00  0.0000E+00  0.0000E+00  0.0000E+00  0.0000E+00  0.0000E+00  0.0000E+00  0.0000E+00  0.0000E+00  0.0000E+00  0.0000E+00  0.0000E+00  0.0000E+00  0.0000E+00  0.0000E+00  0.0000E+00  0.0000E+00  0.0000E+00  0.0000E+00  0.0000E+00  0.0000E+00  0.0000E+00  0.0000E+00  0.0000E+00  0.0000E+00  0.0000E+00  0.0000E+00  0.0000E+00  0.0000E+00  0.0000E+00  0.0000E+00  0.0000E+00  0.0000E+00  0.0000E+00  0.0000E+00  0.0000E+00  0.0000E+00  0.0000E+00  0.0000E+00  0.0000E+00  0.0000E+00  0.0000E+00  0.0000E+00
  0.0000E+00  0.0000E+00  0.0000E+00  0.0000E+00  0.0000E+00  0.0000E+00  0.0000E+00  0.0000E+00  0.0000E+00  0.0000E+00  0.0000E+00  0.0000E+00  0.0000E+00  0.0000E+00  0.0000E+00  0.0000E+00  0.0000E+00  0.0000E+00  0.0000E+00  0.0000E+00  0.0000E+00  0.0000E+00  0.0000E+00  0.0000E+00  0.0000E+00  0.0000E+00  0.0000E+00  0.0000E+00  0.0000E+00  0.0000E+00  0.0000E+00  0.0000E+00  0.0000E+00  0.0000E+00  0.0000E+00  0.0000E+00  0.0000E+00  0.0000E+00  0.0000E+00  0.0000E+00  0.0000E+00  0.0000E+00  0.0000E+00  0.0000E+00  0.0000E+00  0.0000E+00  0.0000E+00  0.0000E+00  0.0000E+00  0.0000E+00  0.0000E+00  0.0000E+00  0.0000E+00  0.0000E+00  0.0000E+00  0.0000E+00  0.0000E+00  0.0000E+00  0.0000E+00  0.0000E+00  0.0000E+00  0.0000E+00  0.0000E+00  0.0000E+00  0.0000E+00  0.0000E+00  0.0000E+00  0.0000E+00  0.0000E+00  0.0000E+00  0.0000E+00  0.0000E+00  0.0000E+00  0.0000E+00  0.0000E+00  0.0000E+00  0.0000E+00  0.0000E+00  0.0000E+00
  0.0000E+00  0.0000E+00  0.0000E+00  0.0000E+00  0.0000E+00  0.0000E+00  0.0000E+00  0.0000E+00  0.0000E+00  0.0000E+00  0.0000E+00  0.0000E+00  0.0000E+00  0.0000E+00  0.0000E+00  0.0000E+00  0.0000E+00  0.0000E+00  0.0000E+00  0.0000E+00  0.0000E+00  0.0000E+00  0.0000E+00  0.0000E+00  0.0000E+00  0.0000E+00  0.0000E+00  0.0000E+00  0.0000E+00  0.0000E+00  0.0000E+00  0.0000E+00  0.0000E+00  0.0000E+00  0.0000E+00  0.0000E+00  0.0000E+00  0.0000E+00  0.0000E+00  0.0000E+00  0.0000E+00  0.0000E+00  0.0000E+00  0.0000E+00  0.0000E+00  0.0000E+00  0.0000E+00  0.0000E+00  0.0000E+00  0.0000E+00  0.0000E+00  0.0000E+00  0.0000E+00  0.0000E+00  0.0000E+00  0.0000E+00  0.0000E+00  0.0000E+00  0.0000E+00  0.0000E+00  0.0000E+00  0.0000E+00  0.0000E+00  0.0000E+00  0.0000E+00  0.0000E+00  0.0000E+00  0.0000E+00  0.0000E+00  0.0000E+00  0.0000E+00  0.0000E+00  0.0000E+00  0.0000E+00  0.0000E+00  0.0000E+00  0.0000E+00  0.0000E+00  0.0000E+00
  0.0000E+00  0.0000E+00  0.0000E+00  0.0000E+00  0.0000E+00  0.0000E+00  0.0000E+00  0.0000E+00  0.0000E+00  0.0000E+00  0.0000E+00  0.0000E+00  0.0000E+00  0.0000E+00  0.0000E+00  0.0000E+00  0.0000E+00  0.0000E+00  0.0000E+00  0.0000E+00  0.0000E+00  0.0000E+00  0.0000E+00  0.0000E+00  0.0000E+00  0.0000E+00  0.0000E+00  0.0000E+00  0.0000E+00  0.0000E+00  0.0000E+00  0.0000E+00  0.0000E+00  0.0000E+00  0.0000E+00  0.0000E+00  0.0000E+00  0.0000E+00  0.0000E+00  0.0000E+00  0.0000E+00  0.0000E+00  0.0000E+00  0.0000E+00  0.0000E+00  0.0000E+00  0.0000E+00  0.0000E+00  0.0000E+00  0.0000E+00  0.0000E+00  0.0000E+00  0.0000E+00  0.0000E+00  0.0000E+00  0.0000E+00  0.0000E+00  0.0000E+00  0.0000E+00  0.0000E+00  0.0000E+00  0.0000E+00  0.0000E+00  0.0000E+00  0.0000E+00  0.0000E+00  0.0000E+00  0.0000E+00  0.0000E+00  0.0000E+00  0.0000E+00  0.0000E+00  0.0000E+00  0.0000E+00  0.0000E+00  0.0000E+00  0.0000E+00  0.0000E+00  0.0000E+00
  0.0000E+00  0.0000E+00  0.0000E+00  0.0000E+00  0.0000E+00  0.0000E+00  0.0000E+00  0.0000E+00  0.0000E+00  0.0000E+00  0.0000E+00  0.0000E+00  0.0000E+00  0.0000E+00  0.0000E+00  0.0000E+00  0.0000E+00  0.0000E+00  0.0000E+00  0.0000E+00  0.0000E+00  0.0000E+00  0.0000E+00  0.0000E+00  0.0000E+00  0.0000E+00  0.0000E+00  0.0000E+00  0.0000E+00  0.0000E+00  0.0000E+00  0.0000E+00  0.0000E+00  0.0000E+00  0.0000E+00  0.0000E+00  0.0000E+00  0.0000E+00  0.0000E+00  0.0000E+00  0.0000E+00  0.0000E+00  0.0000E+00  0.0000E+00  0.0000E+00  0.0000E+00  0.0000E+00  0.0000E+00  0.0000E+00  0.0000E+00  0.0000E+00  0.0000E+00  0.0000E+00  0.0000E+00  0.0000E+00  0.0000E+00  0.0000E+00  0.0000E+00  0.0000E+00  0.0000E+00  0.0000E+00  0.0000E+00  0.0000E+00  0.0000E+00  0.0000E+00  0.0000E+00  0.0000E+00  0.0000E+00  0.0000E+00  0.0000E+00  0.0000E+00  0.0000E+00  0.0000E+00  0.0000E+00  0.0000E+00  0.0000E+00  0.0000E+00  0.0000E+00  0.0000E+00
  0.0000E+00  0.0000E+00  0.0000E+00  0.0000E+00  0.0000E+00  0.0000E+00  0.0000E+00  0.0000E+00  0.0000E+00  0.0000E+00  0.0000E+00  0.0000E+00  0.0000E+00  0.0000E+00  0.0000E+00  0.0000E+00  0.0000E+00  0.0000E+00  0.0000E+00  0.0000E+00  0.0000E+00  0.0000E+00  0.0000E+00  0.0000E+00  0.0000E+00  0.0000E+00  0.0000E+00  0.0000E+00  0.0000E+00  0.0000E+00  0.0000E+00  0.0000E+00  0.0000E+00  0.0000E+00  0.0000E+00  0.0000E+00  0.0000E+00  0.0000E+00  0.0000E+00  0.0000E+00  0.0000E+00  0.0000E+00  0.0000E+00  0.0000E+00  0.0000E+00  0.0000E+00  0.0000E+00  0.0000E+00  0.0000E+00  0.0000E+00  0.0000E+00  0.0000E+00  0.0000E+00  0.0000E+00  0.0000E+00  0.0000E+00  0.0000E+00  0.0000E+00  0.0000E+00  0.0000E+00  0.0000E+00  0.0000E+00  0.0000E+00  0.0000E+00  0.0000E+00  0.0000E+00  0.0000E+00  0.0000E+00  0.0000E+00  0.0000E+00  0.0000E+00  0.0000E+00  0.0000E+00  0.0000E+00  0.0000E+00  0.0000E+00  0.0000E+00  0.0000E+00  0.0000E+00
  0.0000E+00  0.0000E+00  0.0000E+00  0.0000E+00  0.0000E+00  0.0000E+00  0.0000E+00  0.0000E+00  0.0000E+00  0.0000E+00  0.0000E+00  0.0000E+00  0.0000E+00  0.0000E+00  0.0000E+00  0.0000E+00  0.0000E+00  0.0000E+00  0.0000E+00  0.0000E+00  0.0000E+00  0.0000E+00  0.0000E+00  0.0000E+00  0.0000E+00  0.0000E+00  0.0000E+00  0.0000E+00  0.0000E+00  0.0000E+00  0.0000E+00  0.0000E+00  0.0000E+00  0.0000E+00  0.0000E+00  0.0000E+00  0.0000E+00  0.0000E+00  0.0000E+00  0.0000E+00  0.0000E+00  0.0000E+00  0.0000E+00  0.0000E+00  0.0000E+00  0.0000E+00  0.0000E+00  0.0000E+00  0.0000E+00  0.0000E+00  0.0000E+00  0.0000E+00  0.0000E+00  0.0000E+00  0.0000E+00  0.0000E+00  0.0000E+00  0.0000E+00  0.0000E+00  0.0000E+00  0.0000E+00  0.0000E+00  0.0000E+00  0.0000E+00  0.0000E+00  0.0000E+00  0.0000E+00  0.0000E+00  0.0000E+00  0.0000E+00  0.0000E+00  0.0000E+00  0.0000E+00  0.0000E+00  0.0000E+00  0.0000E+00  0.0000E+00  0.0000E+00  0.0000E+00
  0.0000E+00  0.0000E+00  0.0000E+00  0.0000E+00  0.0000E+00  0.0000E+00  0.0000E+00  0.0000E+00  0.0000E+00  0.0000E+00  0.0000E+00  0.0000E+00  0.0000E+00  0.0000E+00  0.0000E+00  0.0000E+00  0.0000E+00  0.0000E+00  0.0000E+00  0.0000E+00  0.0000E+00  0.0000E+00  0.0000E+00  0.0000E+00  0.0000E+00  0.0000E+00  0.0000E+00  0.0000E+00  0.0000E+00  0.0000E+00  0.0000E+00  0.0000E+00  0.0000E+00  0.0000E+00  0.0000E+00  0.0000E+00  0.0000E+00  0.0000E+00  0.0000E+00  0.0000E+00  0.0000E+00  0.0000E+00  0.0000E+00  0.0000E+00  0.0000E+00  0.0000E+00  0.0000E+00  0.0000E+00  0.0000E+00  0.0000E+00  0.0000E+00  0.0000E+00  0.0000E+00  0.0000E+00  0.0000E+00  0.0000E+00  0.0000E+00  0.0000E+00  0.0000E+00  0.0000E+00  0.0000E+00  0.0000E+00  0.0000E+00  0.0000E+00  0.0000E+00  0.0000E+00  0.0000E+00  0.0000E+00  0.0000E+00  0.0000E+00  0.0000E+00  0.0000E+00  0.0000E+00  0.0000E+00  0.0000E+00  0.0000E+00  0.0000E+00  0.0000E+00  0.0000E+00
  0.0000E+00  0.0000E+00  0.0000E+00  0.0000E+00  0.0000E+00  0.0000E+00  0.0000E+00  0.0000E+00  0.0000E+00  0.0000E+00  0.0000E+00  0.0000E+00  0.0000E+00  0.0000E+00  0.0000E+00  0.0000E+00  0.0000E+00  0.0000E+00  0.0000E+00  0.0000E+00  0.0000E+00  0.0000E+00  0.0000E+00  0.0000E+00  0.0000E+00  0.0000E+00  0.0000E+00  0.0000E+00  0.0000E+00  0.0000E+00  0.0000E+00  0.0000E+00  0.0000E+00  0.0000E+00  0.0000E+00  0.0000E+00  0.0000E+00  0.0000E+00  0.0000E+00  0.0000E+00  0.0000E+00  0.0000E+00  0.0000E+00  0.0000E+00  0.0000E+00  0.0000E+00  0.0000E+00  0.0000E+00  0.0000E+00  0.0000E+00  0.0000E+00  0.0000E+00  0.0000E+00  0.0000E+00  0.0000E+00  0.0000E+00  0.0000E+00  0.0000E+00  0.0000E+00  0.0000E+00  0.0000E+00  0.0000E+00  0.0000E+00  0.0000E+00  0.0000E+00  0.0000E+00  0.0000E+00  0.0000E+00  0.0000E+00  0.0000E+00  0.0000E+00  0.0000E+00  0.0000E+00  0.0000E+00  0.0000E+00  0.0000E+00  0.0000E+00  0.0000E+00  0.0000E+00
  0.0000E+00  0.0000E+00  0.0000E+00  0.0000E+00  0.0000E+00  0.0000E+00  0.0000E+00  0.0000E+00  0.0000E+00  0.0000E+00  0.0000E+00  0.0000E+00  0.0000E+00  0.0000E+00  0.0000E+00  0.0000E+00  0.0000E+00  0.0000E+00  0.0000E+00  0.0000E+00  0.0000E+00  0.0000E+00  0.0000E+00  0.0000E+00  0.0000E+00  0.0000E+00  0.0000E+00  0.0000E+00  0.0000E+00  0.0000E+00  0.0000E+00  0.0000E+00  0.0000E+00  0.0000E+00  0.0000E+00  0.0000E+00  0.0000E+00  0.0000E+00  0.0000E+00  0.0000E+00  0.0000E+00  0.0000E+00  0.0000E+00  0.0000E+00  0.0000E+00  0.0000E+00  0.0000E+00  0.0000E+00  0.0000E+00  0.0000E+00  0.0000E+00  0.0000E+00  0.0000E+00  0.0000E+00  0.0000E+00  0.0000E+00  0.0000E+00  0.0000E+00  0.0000E+00  0.0000E+00  0.0000E+00  0.0000E+00  0.0000E+00  0.0000E+00  0.0000E+00  0.0000E+00  0.0000E+00  0.0000E+00  0.0000E+00  0.0000E+00  0.0000E+00  0.0000E+00  0.0000E+00  0.0000E+00  0.0000E+00  0.0000E+00  0.0000E+00  0.0000E+00  0.0000E+00
  0.0000E+00  0.0000E+00  0.0000E+00  0.0000E+00  0.0000E+00  0.0000E+00  0.0000E+00  0.0000E+00  0.0000E+00  0.0000E+00  0.0000E+00  0.0000E+00  0.0000E+00  0.0000E+00  0.0000E+00  0.0000E+00  0.0000E+00  0.0000E+00  0.0000E+00  0.0000E+00  0.0000E+00  0.0000E+00  0.0000E+00  0.0000E+00  0.0000E+00  0.0000E+00  0.0000E+00  0.0000E+00  0.0000E+00  0.0000E+00  0.0000E+00  0.0000E+00  0.0000E+00  0.0000E+00  0.0000E+00  0.0000E+00  0.0000E+00  0.0000E+00  0.0000E+00  0.0000E+00  0.0000E+00  0.0000E+00  0.0000E+00  0.0000E+00  0.0000E+00  0.0000E+00  0.0000E+00  0.0000E+00  0.0000E+00  0.0000E+00  0.0000E+00  0.0000E+00  0.0000E+00  0.0000E+00  0.0000E+00  0.0000E+00  0.0000E+00  0.0000E+00  0.0000E+00  0.0000E+00  0.0000E+00  0.0000E+00  0.0000E+00  0.0000E+00  0.0000E+00  0.0000E+00  0.0000E+00  0.0000E+00  0.0000E+00  0.0000E+00  0.0000E+00  0.0000E+00  0.0000E+00  0.0000E+00  0.0000E+00  0.0000E+00  0.0000E+00  0.0000E+00  0.0000E+00
  0.0000E+00  0.0000E+00  0.0000E+00  0.0000E+00  0.0000E+00  0.0000E+00  0.0000E+00  0.0000E+00  0.0000E+00  0.0000E+00  0.0000E+00  0.0000E+00  0.0000E+00  0.0000E+00  0.0000E+00  0.0000E+00  0.0000E+00  0.0000E+00  0.0000E+00  0.0000E+00  0.0000E+00  0.0000E+00  0.0000E+00  0.0000E+00  0.0000E+00  0.0000E+00  0.0000E+00  0.0000E+00  0.0000E+00  0.0000E+00  0.0000E+00  0.0000E+00  0.0000E+00  0.0000E+00  0.0000E+00  0.0000E+00  0.0000E+00  0.0000E+00  0.0000E+00  0.0000E+00  0.0000E+00  0.0000E+00  0.0000E+00  0.0000E+00  0.0000E+00  0.0000E+00  0.0000E+00  0.0000E+00  0.0000E+00  0.0000E+00  0.0000E+00  0.0000E+00  0.0000E+00  0.0000E+00  0.0000E+00  0.0000E+00  0.0000E+00  0.0000E+00  0.0000E+00  0.0000E+00  0.0000E+00  0.0000E+00  0.0000E+00  0.0000E+00  0.0000E+00  0.0000E+00  0.0000E+00  0.0000E+00  0.0000E+00  0.0000E+00  0.0000E+00  0.0000E+00  0.0000E+00  0.0000E+00  0.0000E+00  0.0000E+00  0.0000E+00  0.0000E+00  0.0000E+00
  0.0000E+00  0.0000E+00  0.0000E+00  0.0000E+00  0.0000E+00  0.0000E+00  0.0000E+00  0.0000E+00  0.0000E+00  0.0000E+00  0.0000E+00  0.0000E+00  0.0000E+00  0.0000E+00  0.0000E+00  0.0000E+00  0.0000E+00  0.0000E+00  0.0000E+00  0.0000E+00  0.0000E+00  0.0000E+00  0.0000E+00  0.0000E+00  0.0000E+00  0.0000E+00  0.0000E+00  0.0000E+00  0.0000E+00  0.0000E+00  0.0000E+00  0.0000E+00  0.0000E+00  0.0000E+00  0.0000E+00  0.0000E+00  0.0000E+00  0.0000E+00  0.0000E+00  0.0000E+00  0.0000E+00  0.0000E+00  0.0000E+00  0.0000E+00  0.0000E+00  0.0000E+00  0.0000E+00  0.0000E+00  0.0000E+00  0.0000E+00  0.0000E+00  0.0000E+00  0.0000E+00  0.0000E+00  0.0000E+00  0.0000E+00  0.0000E+00  0.0000E+00  0.0000E+00  0.0000E+00  0.0000E+00  0.0000E+00  0.0000E+00  0.0000E+00  0.0000E+00  0.0000E+00  0.0000E+00  0.0000E+00  0.0000E+00  0.0000E+00  0.0000E+00  0.0000E+00  0.0000E+00  0.0000E+00  0.0000E+00  0.0000E+00  0.0000E+00  0.0000E+00  0.0000E+00
  0.0000E+00  0.0000E+00  0.0000E+00  0.0000E+00  0.0000E+00  0.0000E+00  0.0000E+00  0.0000E+00  0.0000E+00  0.0000E+00  0.0000E+00  0.0000E+00  0.0000E+00  0.0000E+00  0.0000E+00  0.0000E+00  0.0000E+00  0.0000E+00  0.0000E+00  0.0000E+00  0.0000E+00  0.0000E+00  0.0000E+00  0.0000E+00  0.0000E+00  0.0000E+00  0.0000E+00  0.0000E+00  0.0000E+00  0.0000E+00  0.0000E+00  0.0000E+00  0.0000E+00  0.0000E+00  0.0000E+00  0.0000E+00  0.0000E+00  0.0000E+00  0.0000E+00  0.0000E+00  0.0000E+00  0.0000E+00  0.0000E+00  0.0000E+00  0.0000E+00  0.0000E+00  0.0000E+00  0.0000E+00  0.0000E+00  0.0000E+00  0.0000E+00  0.0000E+00  0.0000E+00  0.0000E+00  0.0000E+00  0.0000E+00  0.0000E+00  0.0000E+00  0.0000E+00  0.0000E+00  0.0000E+00  0.0000E+00  0.0000E+00  0.0000E+00  0.0000E+00  0.0000E+00  0.0000E+00  0.0000E+00  0.0000E+00  0.0000E+00  0.0000E+00  0.0000E+00  0.0000E+00  0.0000E+00  0.0000E+00  0.0000E+00  0.0000E+00  0.0000E+00  0.0000E+00
  0.0000E+00  0.0000E+00  0.0000E+00  0.0000E+00  0.0000E+00  0.0000E+00  0.0000E+00  0.0000E+00  0.0000E+00  0.0000E+00  0.0000E+00  0.0000E+00  0.0000E+00  0.0000E+00  0.0000E+00  0.0000E+00  0.0000E+00  0.0000E+00  0.0000E+00  0.0000E+00  0.0000E+00  0.0000E+00  0.0000E+00  0.0000E+00  0.0000E+00  0.0000E+00  0.0000E+00  0.0000E+00  0.0000E+00  0.0000E+00  0.0000E+00  0.0000E+00  0.0000E+00  0.0000E+00  0.0000E+00  0.0000E+00  0.0000E+00  0.0000E+00  0.0000E+00  0.0000E+00  0.0000E+00  0.0000E+00  0.0000E+00  0.0000E+00  0.0000E+00  0.0000E+00  0.0000E+00  0.0000E+00  0.0000E+00  0.0000E+00  0.0000E+00  0.0000E+00  0.0000E+00  0.0000E+00  0.0000E+00  0.0000E+00  0.0000E+00  0.0000E+00  0.0000E+00  0.0000E+00  0.0000E+00  0.0000E+00  0.0000E+00  0.0000E+00  0.0000E+00  0.0000E+00  0.0000E+00  0.0000E+00  0.0000E+00  0.0000E+00  0.0000E+00  0.0000E+00  0.0000E+00  0.0000E+00  0.0000E+00  0.0000E+00  0.0000E+00  0.0000E+00  0.0000E+00
  0.0000E+00  0.0000E+00  0.0000E+00  0.0000E+00  0.0000E+00  0.0000E+00  0.0000E+00  0.0000E+00  0.0000E+00  0.0000E+00  0.0000E+00  0.0000E+00  0.0000E+00  0.0000E+00  0.0000E+00  0.0000E+00  0.0000E+00  0.0000E+00  0.0000E+00  0.0000E+00  0.0000E+00  0.0000E+00  0.0000E+00  0.0000E+00  0.0000E+00  0.0000E+00  0.0000E+00  0.0000E+00  0.0000E+00  0.0000E+00  0.0000E+00  0.0000E+00  0.0000E+00  0.0000E+00  0.0000E+00  0.0000E+00  0.0000E+00  0.0000E+00  0.0000E+00  0.0000E+00  0.0000E+00  0.0000E+00  0.0000E+00  0.0000E+00  0.0000E+00  0.0000E+00  0.0000E+00  0.0000E+00  0.0000E+00  0.0000E+00  0.0000E+00  0.0000E+00  0.0000E+00  0.0000E+00  0.0000E+00  0.0000E+00  0.0000E+00  0.0000E+00  0.0000E+00  0.0000E+00  0.0000E+00  0.0000E+00  0.0000E+00  0.0000E+00  0.0000E+00  0.0000E+00  0.0000E+00  0.0000E+00  0.0000E+00  0.0000E+00  0.0000E+00  0.0000E+00  0.0000E+00  0.0000E+00  0.0000E+00  0.0000E+00  0.0000E+00  0.0000E+00  0.0000E+00
  0.0000E+00  0.0000E+00  0.0000E+00  0.0000E+00  0.0000E+00  0.0000E+00  0.0000E+00  0.0000E+00  0.0000E+00  0.0000E+00  0.0000E+00  0.0000E+00  0.0000E+00  0.0000E+00  0.0000E+00  0.0000E+00  0.0000E+00  0.0000E+00  0.0000E+00  0.0000E+00  0.0000E+00  0.0000E+00  0.0000E+00  0.0000E+00  0.0000E+00  0.0000E+00  0.0000E+00  0.0000E+00  0.0000E+00  0.0000E+00  0.0000E+00  0.0000E+00  0.0000E+00  0.0000E+00  0.0000E+00  0.0000E+00  0.0000E+00  0.0000E+00  0.0000E+00  0.0000E+00  0.0000E+00  0.0000E+00  0.0000E+00  0.0000E+00  0.0000E+00  0.0000E+00  0.0000E+00  0.0000E+00  0.0000E+00  0.0000E+00  0.0000E+00  0.0000E+00  0.0000E+00  0.0000E+00  0.0000E+00  0.0000E+00  0.0000E+00  0.0000E+00  0.6841E-10  0.6972E-10  0.7083E-10  0.7175E-10  0.7247E-10  0.1184E-09  0.9622E-10  0.7210E-10  0.2463E-10  0.0000E+00  0.0000E+00  0.0000E+00  0.0000E+00  0.0000E+00  0.0000E+00  0.0000E+00  0.0000E+00  0.0000E+00  0.0000E+00  0.0000E+00  0.0000E+00
  0.0000E+00  0.0000E+00  0.0000E+00  0.0000E+00  0.0000E+00  0.0000E+00  0.0000E+00  0.0000E+00  0.0000E+00  0.0000E+00  0.0000E+00  0.0000E+00  0.0000E+00  0.0000E+00  0.0000E+00  0.0000E+00  0.0000E+00  0.0000E+00  0.0000E+00  0.0000E+00  0.0000E+00  0.0000E+00  0.0000E+00  0.0000E+00  0.0000E+00  0.0000E+00  0.0000E+00  0.0000E+00  0.0000E+00  0.0000E+00  0.0000E+00  0.0000E+00  0.0000E+00  0.0000E+00  0.0000E+00  0.0000E+00  0.0000E+00  0.0000E+00  0.0000E+00  0.0000E+00  0.0000E+00  0.0000E+00  0.0000E+00  0.0000E+00  0.0000E+00  0.0000E+00  0.0000E+00  0.0000E+00  0.0000E+00  0.0000E+00  0.0000E+00  0.0000E+00  0.2406E-10  0.7306E-10  0.7552E-10  0.7775E-10  0.1537E-09  0.1572E-09  0.1603E-09  0.1629E-09  0.2392E-09  0.2418E-09  0.2437E-09  0.2451E-09  0.2203E-09  0.1675E-09  0.1142E-09  0.5781E-10  0.2885E-10  0.0000E+00  0.0000E+00  0.0000E+00  0.0000E+00  0.0000E+00  0.0000E+00  0.0000E+00  0.0000E+00  0.0000E+00  0.0000E+00
  0.0000E+00  0.0000E+00  0.0000E+00  0.0000E+00  0.0000E+00  0.0000E+00  0.0000E+00  0.0000E+00  0.0000E+00  0.0000E+00  0.0000E+00  0.0000E+00  0.0000E+00  0.0000E+00  0.0000E+00  0.0000E+00  0.0000E+00  0.0000E+00  0.0000E+00  0.0000E+00  0.0000E+00  0.0000E+00  0.0000E+00  0.0000E+00  0.0000E+00  0.0000E+00  0.0000E+00  0.0000E+00  0.0000E+00  0.0000E+00  0.0000E+00  0.0000E+00  0.0000E+00  0.0000E+00  0.0000E+00  0.0000E+00  0.0000E+00  0.0000E+00  0.0000E+00  0.0000E+00  0.0000E+00  0.0000E+00  0.0000E+00  0.0000E+00  0.0000E+00  0.0000E+00  0.0000E+00  0.0000E+00  0.2518E-10  0.7671E-10  0.8036E-10  0.1360E-09  0.1673E-09  0.1732E-09  0.2320E-09  0.2651E-09  0.2715E-09  0.3038E-09  0.3628E-09  0.3680E-09  0.3721E-09  0.3751E-09  0.3770E-09  0.4046E-09  0.3495E-09  0.2896E-09  0.2596E-09  0.1959E-09  0.9912E-10  0.3337E-10  0.3299E-10  0.0000E+00  0.0000E+00  0.0000E+00  0.0000E+00  0.0000E+00  0.0000E+00  0.0000E+00  0.0000E+00
  0.0000E+00  0.0000E+00  0.0000E+00  0.0000E+00  0.0000E+00  0.0000E+00  0.0000E+00  0.0000E+00  0.0000E+00  0.0000E+00  0.0000E+00  0.0000E+00  0.0000E+00  0.0000E+00  0.0000E+00  0.0000E+00  0.0000E+00  0.0000E+00  0.0000E+00  0.0000E+00  0.0000E+00  0.0000E+00  0.0000E+00  0.0000E+00  0.0000E+00  0.0000E+00  0.0000E+00  0.0000E+00  0.0000E+00  0.0000E+00  0.0000E+00  0.0000E+00  0.0000E+00  0.0000E+00  0.0000E+00  0.0000E+00  0.0000E+00  0.0000E+00  0.0000E+00  0.0000E+00  0.0000E+00  0.0000E+00  0.0000E+00  0.0000E+00  0.0000E+00  0.5227E-10  0.8165E-10  0.1139E-09  0.1748E-09  0.2114E-09  0.2764E-09  0.2879E-09  0.3274E-09  0.3959E-09  0.4074E-09  0.4468E-09  0.5148E-09  0.5243E-09  0.5320E-09  0.5380E-09  0.6303E-09  0.6340E-09  0.6061E-09  0.6063E-09  0.5429E-09  0.4780E-09  0.4086E-09  0.3357E-09  0.2630E-09  0.1882E-09  0.1123E-09  0.3756E-10  0.0000E+00  0.0000E+00  0.0000E+00  0.0000E+00  0.0000E+00  0.0000E+00  0.0000E+00
  0.0000E+00  0.0000E+00  0.0000E+00  0.0000E+00  0.0000E+00  0.0000E+00  0.0000E+00  0.0000E+00  0.0000E+00  0.0000E+00  0.0000E+00  0.0000E+00  0.0000E+00  0.0000E+00  0.0000E+00  0.0000E+00  0.0000E+00  0.0000E+00  0.0000E+00  0.0000E+00  0.0000E+00  0.0000E+00  0.0000E+00  0.0000E+00  0.0000E+00  0.0000E+00  0.0000E+00  0.0000E+00  0.0000E+00  0.0000E+00  0.0000E+00  0.0000E+00  0.0000E+00  0.0000E+00  0.0000E+00  0.0000E+00  0.0000E+00  0.0000E+00  0.0000E+00  0.0000E+00  0.0000E+00  0.0000E+00  0.2756E-10  0.8450E-10  0.1471E-09  0.1851E-09  0.2552E-09  0.2990E-09  0.3453E-09  0.4226E-09  0.4717E-09  0.5212E-09  0.5707E-09  0.6197E-09  0.6994E-09  0.7155E-09  0.7290E-09  0.8043E-09  0.8463E-09  0.8540E-09  0.8591E-09  0.8616E-09  0.8617E-09  0.8256E-09  0.7514E-09  0.6755E-09  0.5948E-09  0.5106E-09  0.4266E-09  0.3408E-09  0.2541E-09  0.1271E-09  0.4231E-10  0.0000E+00  0.0000E+00  0.0000E+00  0.0000E+00  0.0000E+00  0.0000E+00
  0.0000E+00  0.0000E+00  0.0000E+00  0.0000E+00  0.0000E+00  0.0000E+00  0.0000E+00  0.0000E+00  0.0000E+00  0.0000E+00  0.0000E+00  0.0000E+00  0.0000E+00  0.0000E+00  0.0000E+00  0.0000E+00  0.0000E+00  0.0000E+00  0.0000E+00  0.0000E+00  0.0000E+00  0.0000E+00  0.0000E+00  0.0000E+00  0.0000E+00  0.0000E+00  0.0000E+00  0.0000E+00  0.0000E+00  0.0000E+00  0.0000E+00  0.0000E+00  0.0000E+00  0.0000E+00  0.0000E+00  0.0000E+00  0.0000E+00  0.0000E+00  0.0000E+00  0.2740E-10  0.5810E-10  0.1215E-09  0.1900E-09  0.2653E-09  0.3145E-09  0.3988E-09  0.4547E-09  0.5455E-09  0.6059E-09  0.6676E-09  0.7627E-09  0.7907E-09  0.8858E-09  0.9455E-09  0.9682E-09  0.1058E-08  0.1111E-08  0.1125E-08  0.1136E-08  0.1143E-08  0.1252E-08  0.1217E-08  0.1178E-08  0.1134E-08  0.1050E-08  0.9608E-09  0.8660E-09  0.7269E-09  0.6291E-09  0.5734E-09  0.4299E-09  0.2858E-09  0.1889E-09  0.1391E-09  0.4610E-10  0.0000E+00  0.0000E+00  0.0000E+00  0.0000E+00
  0.0000E+00  0.0000E+00  0.0000E+00  0.0000E+00  0.0000E+00  0.0000E+00  0.0000E+00  0.0000E+00  0.0000E+00  0.0000E+00  0.0000E+00  0.0000E+00  0.0000E+00  0.0000E+00  0.0000E+00  0.0000E+00  0.0000E+00  0.0000E+00  0.0000E+00  0.0000E+00  0.0000E+00  0.0000E+00  0.0000E+00  0.0000E+00  0.0000E+00  0.0000E+00  0.0000E+00  0.0000E+00  0.0000E+00  0.2722E-10  0.8250E-10  0.8522E-10  0.8764E-10  0.1184E-09  0.1779E-09  0.1807E-09  0.1827E-09  0.1838E-09  0.1848E-09  0.1911E-09  0.2371E-09  0.3200E-09  0.4113E-09  0.4749E-09  0.5769E-09  0.6482E-09  0.7582E-09  0.8345E-09  0.9487E-09  0.1027E-08  0.1105E-08  0.1218E-08  0.1254E-08  0.1325E-08  0.1431E-08  0.1457E-08  0.1476E-08  0.1608E-08  0.1619E-08  0.1625E-08  0.1626E-08  0.1621E-08  0.1572E-08  0.1475E-08  0.1374E-08  0.1267E-08  0.1154E-08  0.9925E-09  0.9265E-09  0.8103E-09  0.6456E-09  0.4812E-09  0.3694E-09  0.3104E-09  0.1538E-09  0.5078E-10  0.0000E+00  0.0000E+00  0.0000E+00
  0.0000E+00  0.0000E+00  0.0000E+00  0.0000E+00  0.0000E+00  0.0000E+00  0.0000E+00  0.0000E+00  0.0000E+00  0.0000E+00  0.0000E+00  0.0000E+00  0.0000E+00  0.0000E+00  0.0000E+00  0.0000E+00  0.0000E+00  0.0000E+00  0.0000E+00  0.0000E+00  0.0000E+00  0.0000E+00  0.0000E+00  0.0000E+00  0.0000E+00  0.5420E-10  0.8429E-10  0.1171E-09  0.1795E-09  0.1875E-09  0.2251E-09  0.2934E-09  0.3027E-09  0.3108E-09  0.3176E-09  0.3877E-09  0.4249E-09  0.4286E-09  0.4332E-09  0.4486E-09  0.4797E-09  0.5555E-09  0.6711E-09  0.7953E-09  0.8864E-09  0.1020E-08  0.1117E-08  0.1256E-08  0.1354E-08  0.1493E-08  0.1589E-08  0.1682E-08  0.1813E-08  0.1855E-08  0.1889E-08  0.2047E-08  0.2070E-08  0.2085E-08  0.2093E-08  0.2136E-08  0.2174E-08  0.2119E-08  0.2011E-08  0.1892E-08  0.1770E-08  0.1690E-08  0.1505E-08  0.1371E-08  0.1234E-08  0.1098E-08  0.9075E-09  0.7189E-09  0.6452E-09  0.5187E-09  0.3412E-09  0.1685E-09  0.5546E-10  0.0000E+00  0.0000E+00
  0.0000E+00  0.0000E+00  0.0000E+00  0.0000E+00  0.0000E+00  0.0000E+00  0.0000E+00  0.0000E+00  0.0000E+00  0.0000E+00  0.0000E+00  0.0000E+00  0.0000E+00  0.0000E+00  0.0000E+00  0.0000E+00  0.0000E+00  0.0000E+00  0.0000E+00  0.0000E+00  0.0000E+00  0.0000E+00  0.5440E-10  0.8543E-10  0.1484E-09  0.1864E-09  0.2279E-09  0.3015E-09  0.3170E-09  0.3971E-09  0.4466E-09  0.4638E-09  0.5486E-09  0.5992E-09  0.6142E-09  0.6264E-09  0.6356E-09  0.7524E-09  0.7660E-09  0.7959E-09  0.8444E-09  0.9093E-09  0.1061E-08  0.1177E-08  0.1341E-08  0.1507E-08  0.1634E-08  0.1759E-08  0.1929E-08  0.2050E-08  0.2214E-08  0.2326E-08  0.2383E-08  0.2528E-08  0.2617E-08  0.2649E-08  0.2670E-08  0.3209E-08  0.3215E-08  0.3209E-08  0.3014E-08  0.2988E-08  0.2725E-08  0.2459E-08  0.2308E-08  0.2150E-08  0.1930E-08  0.1769E-08  0.1606E-08  0.1444E-08  0.1223E-08  0.1006E-08  0.9164E-09  0.7696E-09  0.5676E-09  0.3719E-09  0.1831E-09  0.6009E-10  0.0000E+00
  0.0000E+00  0.0000E+00  0.0000E+00  0.0000E+00  0.0000E+00  0.0000E+00  0.0000E+00  0.0000E+00  0.0000E+00  0.0000E+00  0.0000E+00  0.0000E+00  0.0000E+00  0.0000E+00  0.0000E+00  0.0000E+00  0.0000E+00  0.0000E+00  0.0000E+00  0.2678E-10  0.8280E-10  0.1182E-09  0.1849E-09  0.2291E-09  0.3063E-09  0.3591E-09  0.4462E-09  0.4724E-09  0.5686E-09  0.6324E-09  0.6985E-09  0.8014E-09  0.8312E-09  0.8973E-09  0.1000E-08  0.1023E-08  0.1041E-08  0.1058E-08  0.1087E-08  0.1177E-08  0.1289E-08  0.1381E-08  0.1529E-08  0.1730E-08  0.1935E-08  0.2097E-08  0.2307E-08  0.2466E-08  0.2620E-08  0.2822E-08  0.2964E-08  0.3248E-08  0.3726E-08  0.3800E-08  0.3856E-08  0.3894E-08  0.4272E-08  0.4458E-08  0.4450E-08  0.4425E-08  0.4207E-08  0.3977E-08  0.3521E-08  0.3242E-08  0.2899E-08  0.2705E-08  0.2442E-08  0.2247E-08  0.2119E-08  0.1859E-08  0.1602E-08  0.1349E-08  0.1172E-08  0.1070E-08  0.8386E-09  0.6160E-09  0.4022E-09  0.1975E-09  0.6463E-10
  0.0000E+00  0.0000E+00  0.0000E+00  0.0000E+00  0.0000E+00  0.0000E+00  0.0000E+00  0.0000E+00  0.0000E+00  0.0000E+00  0.0000E+00  0.0000E+00  0.0000E+00  0.0000E+00  0.0000E+00  0.0000E+00  0.0000E+00  0.2705E-10  0.8399E-10  0.1488E-09  0.1905E-09  0.2683E-09  0.3210E-09  0.4122E-09  0.4758E-09  0.5799E-09  0.6536E-09  0.7693E-09  0.8514E-09  0.9759E-09  0.1064E-08  0.1153E-08  0.1283E-08  0.1328E-08  0.1369E-08  0.1538E-08  0.1571E-08  0.1607E-08  0.1661E-08  0.1736E-08  0.1835E-08  0.1958E-08  0.2198E-08  0.2400E-08  0.2659E-08  0.2919E-08  0.3123E-08  0.3544E-08  0.4128E-08  0.4287E-08  0.4424E-08  0.4958E-08  0.5272E-08  0.5360E-08  0.5421E-08  0.5455E-08  0.6007E-08  0.5997E-08  0.5962E-08  0.5724E-08  0.5470E-08  0.4978E-08  0.4662E-08  0.4342E-08  0.3983E-08  0.3553E-08  0.3055E-08  0.2895E-08  0.2659E-08  0.2352E-08  0.2051E-08  0.1758E-08  0.1550E-08  0.1425E-08  0.1160E-08  0.9059E-09  0.6630E-09  0.4315E-09  0.2114E-09
  0.0000E+00  0.0000E+00  0.0000E+00  0.0000E+00  0.0000E+00  0.0000E+00  0.0000E+00  0.0000E+00  0.0000E+00  0.0000E+00  0.0000E+00  0.0000E+00  0.0000E+00  0.0000E+00  0.0000E+00  0.2671E-10  0.8333E-10  0.1211E-09  0.1919E-09  0.2724E-09  0.3606E-09  0.4566E-09  0.5302E-09  0.6429E-09  0.7661E-09  0.8595E-09  0.9982E-09  0.1103E-08  0.1255E-08  0.1370E-08  0.1488E-08  0.1650E-08  0.1722E-08  0.1886E-08  0.1998E-08  0.2055E-08  0.2212E-08  0.2331E-08  0.2421E-08  0.2532E-08  0.2669E-08  0.2832E-08  0.3019E-08  0.3337E-08  0.3839E-08  0.4304E-08  0.4777E-08  0.5463E-08  0.5920E-08  0.6134E-08  0.6733E-08  0.7101E-08  0.7232E-08  0.7322E-08  0.7375E-08  0.7575E-08  0.7924E-08  0.7877E-08  0.7615E-08  0.7328E-08  0.6793E-08  0.6654E-08  0.6281E-08  0.5641E-08  0.5227E-08  0.4520E-08  0.4000E-08  0.3585E-08  0.3300E-08  0.2936E-08  0.2583E-08  0.2241E-08  0.1995E-08  0.1761E-08  0.1539E-08  0.1248E-08  0.9711E-09  0.7085E-09  0.4598E-09
  0.0000E+00  0.0000E+00  0.0000E+00  0.0000E+00  0.0000E+00  0.0000E+00  0.0000E+00  0.0000E+00  0.0000E+00  0.0000E+00  0.0000E+00  0.0000E+00  0.0000E+00  0.0000E+00  0.5560E-10  0.1184E-09  0.1888E-09  0.2700E-09  0.3600E-09  0.4285E-09  0.5382E-09  0.6577E-09  0.7904E-09  0.8950E-09  0.1049E-08  0.1212E-08  0.1385E-08  0.1527E-08  0.1717E-08  0.1871E-08  0.2073E-08  0.2233E-08  0.2441E-08  0.2545E-08  0.2751E-08  0.2897E-08  0.2990E-08  0.3344E-08  0.3963E-08  0.4143E-08  0.4344E-08  0.4567E-08  0.4815E-08  0.5116E-08  0.5944E-08  0.6547E-08  0.7132E-08  0.7922E-08  0.8238E-08  0.8717E-08  0.9362E-08  0.9549E-08  0.9680E-08  0.9756E-08  0.9781E-08  0.1031E-07  0.1025E-07  0.9959E-08  0.9631E-08  0.9272E-08  0.8848E-08  0.8409E-08  0.7693E-08  0.7203E-08  0.6410E-08  0.5898E-08  0.5056E-08  0.4881E-08  0.4287E-08  0.3624E-08  0.3207E-08  0.2807E-08  0.2424E-08  0.2150E-08  0.1982E-08  0.1648E-08  0.1332E-08  0.1033E-08  0.7495E-09
  0.0000E+00  0.0000E+00  0.0000E+00  0.0000E+00  0.0000E+00  0.0000E+00  0.0000E+00  0.0000E+00  0.0000E+00  0.0000E+00  0.0000E+00  0.0000E+00  0.2731E-10  0.8583E-10  0.1549E-09  0.2329E-09  0.3205E-09  0.4212E-09  0.5330E-09  0.6563E-09  0.7950E-09  0.9084E-09  0.1074E-08  0.1252E-08  0.1443E-08  0.1651E-08  0.1824E-08  0.2057E-08  0.2249E-08  0.2502E-08  0.2706E-08  0.2972E-08  0.3181E-08  0.3818E-08  0.4232E-08  0.4412E-08  0.4597E-08  0.5297E-08  0.5778E-08  0.6038E-08  0.6313E-08  0.6602E-08  0.6960E-08  0.7682E-08  0.8689E-08  0.9203E-08  0.1015E-07  0.1082E-07  0.1120E-07  0.1194E-07  0.1241E-07  0.1259E-07  0.1270E-07  0.1274E-07  0.1271E-07  0.1319E-07  0.1286E-07  0.1248E-07  0.1206E-07  0.1156E-07  0.1104E-07  0.1023E-07  0.9643E-08  0.8743E-08  0.8439E-08  0.7834E-08  0.6907E-08  0.6308E-08  0.5368E-08  0.4689E-08  0.3938E-08  0.3468E-08  0.3022E-08  0.2600E-08  0.2298E-08  0.2112E-08  0.1747E-08  0.1401E-08  0.1072E-08
  0.0000E+00  0.0000E+00  0.0000E+00  0.0000E+00  0.0000E+00  0.0000E+00  0.0000E+00  0.0000E+00  0.0000E+00  0.0000E+00  0.0000E+00  0.5541E-10  0.1191E-09  0.1919E-09  0.2775E-09  0.3742E-09  0.4827E-09  0.6074E-09  0.7460E-09  0.8991E-09  0.1071E-08  0.1259E-08  0.1464E-08  0.1647E-08  0.1886E-08  0.2146E-08  0.2423E-08  0.2714E-08  0.2971E-08  0.3290E-08  0.3986E-08  0.4486E-08  0.5012E-08  0.5787E-08  0.6094E-08  0.6392E-08  0.6953E-08  0.7780E-08  0.8131E-08  0.8487E-08  0.8849E-08  0.9249E-08  0.9814E-08  0.1104E-07  0.1200E-07  0.1290E-07  0.1397E-07  0.1450E-07  0.1515E-07  0.1593E-07  0.1619E-07  0.1634E-07  0.1640E-07  0.1637E-07  0.1625E-07  0.1644E-07  0.1600E-07  0.1550E-07  0.1491E-07  0.1428E-07  0.1335E-07  0.1265E-07  0.1194E-07  0.1120E-07  0.1046E-07  0.9397E-08  0.8671E-08  0.7594E-08  0.6900E-08  0.5837E-08  0.5073E-08  0.4237E-08  0.3717E-08  0.3226E-08  0.2764E-08  0.2328E-08  0.2106E-08  0.1803E-08  0.1424E-08
  0.0000E+00  0.0000E+00  0.0000E+00  0.0000E+00  0.0000E+00  0.0000E+00  0.0000E+00  0.0000E+00  0.0000E+00  0.2631E-10  0.8339E-10  0.1520E-09  0.2309E-09  0.3210E-09  0.4266E-09  0.5459E-09  0.6801E-09  0.8339E-09  0.1005E-08  0.1195E-08  0.1408E-08  0.1641E-08  0.1896E-08  0.2177E-08  0.2479E-08  0.2755E-08  0.3102E-08  0.3470E-08  0.4234E-08  0.5057E-08  0.5702E-08  0.6377E-08  0.7325E-08  0.8037E-08  0.8498E-08  0.8952E-08  0.9934E-08  0.1067E-07  0.1115E-07  0.1162E-07  0.1208E-07  0.1271E-07  0.1387E-07  0.1534E-07  0.1649E-07  0.1755E-07  0.1851E-07  0.1911E-07  0.2002E-07  0.2058E-07  0.2080E-07  0.2089E-07  0.2085E-07  0.2071E-07  0.2085E-07  0.2033E-07  0.1973E-07  0.1902E-07  0.1826E-07  0.1719E-07  0.1634E-07  0.1576E-07  0.1457E-07  0.1368E-07  0.1244E-07  0.1156E-07  0.1031E-07  0.9469E-08  0.8245E-08  0.7459E-08  0.6277E-08  0.5434E-08  0.4515E-08  0.3940E-08  0.3396E-08  0.2884E-08  0.2403E-08  0.1951E-08  0.1533E-08
  0.0000E+00  0.0000E+00  0.0000E+00  0.0000E+00  0.0000E+00  0.0000E+00  0.0000E+00  0.0000E+00  0.2702E-10  0.8585E-10  0.1571E-09  0.2395E-09  0.3342E-09  0.4459E-09  0.6060E-09  0.7527E-09  0.9439E-09  0.1160E-08  0.1398E-08  0.1633E-08  0.1925E-08  0.2216E-08  0.2532E-08  0.2908E-08  0.3258E-08  0.3663E-08  0.4465E-08  0.5327E-08  0.6275E-08  0.7070E-08  0.8184E-08  0.9068E-08  0.1024E-07  0.1092E-07  0.1159E-07  0.1251E-07  0.1370E-07  0.1436E-07  0.1499E-07  0.1560E-07  0.1628E-07  0.1754E-07  0.1909E-07  0.2057E-07  0.2216E-07  0.2337E-07  0.2418E-07  0.2504E-07  0.2596E-07  0.2625E-07  0.2638E-07  0.2635E-07  0.2617E-07  0.2586E-07  0.2563E-07  0.2511E-07  0.2406E-07  0.2315E-07  0.2218E-07  0.2114E-07  0.2009E-07  0.1870E-07  0.1761E-07  0.1616E-07  0.1508E-07  0.1363E-07  0.1260E-07  0.1118E-07  0.1022E-07  0.8852E-08  0.7965E-08  0.6665E-08  0.5732E-08  0.4725E-08  0.4086E-08  0.3488E-08  0.2931E-08  0.2414E-08  0.1941E-08
  0.0000E+00  0.0000E+00  0.0000E+00  0.0000E+00  0.0000E+00  0.0000E+00  0.0000E+00  0.2748E-10  0.8755E-10  0.1608E-09  0.2753E-09  0.3764E-09  0.5714E-09  0.7122E-09  0.9271E-09  0.1137E-08  0.1347E-08  0.1640E-08  0.1931E-08  0.2226E-08  0.2629E-08  0.3020E-08  0.3413E-08  0.3846E-08  0.4493E-08  0.5385E-08  0.6428E-08  0.7790E-08  0.8792E-08  0.1008E-07  0.1120E-07  0.1261E-07  0.1376E-07  0.1465E-07  0.1554E-07  0.1698E-07  0.1815E-07  0.1902E-07  0.1985E-07  0.2062E-07  0.2172E-07  0.2380E-07  0.2569E-07  0.2741E-07  0.2920E-07  0.3028E-07  0.3114E-07  0.3223E-07  0.3287E-07  0.3306E-07  0.3304E-07  0.3282E-07  0.3244E-07  0.3190E-07  0.3143E-07  0.3020E-07  0.2909E-07  0.2792E-07  0.2665E-07  0.2536E-07  0.2372E-07  0.2238E-07  0.2069E-07  0.1936E-07  0.1766E-07  0.1640E-07  0.1474E-07  0.1356E-07  0.1197E-07  0.1089E-07  0.9364E-08  0.8340E-08  0.6912E-08  0.5897E-08  0.4832E-08  0.4141E-08  0.3501E-08  0.2915E-08  0.2383E-08
  0.0000E+00  0.0000E+00  0.0000E+00  0.0000E+00  0.0000E+00  0.0000E+00  0.2769E-10  0.1163E-09  0.1904E-09  0.3605E-09  0.4703E-09  0.6822E-09  0.8353E-09  0.1100E-08  0.1338E-08  0.1662E-08  0.1927E-08  0.2287E-08  0.2647E-08  0.3015E-08  0.3454E-08  0.3931E-08  0.4454E-08  0.5176E-08  0.6665E-08  0.7862E-08  0.9451E-08  0.1090E-07  0.1225E-07  0.1390E-07  0.1534E-07  0.1709E-07  0.1834E-07  0.1954E-07  0.2100E-07  0.2272E-07  0.2383E-07  0.2490E-07  0.2592E-07  0.2708E-07  0.2907E-07  0.3146E-07  0.3367E-07  0.3588E-07  0.3758E-07  0.3873E-07  0.3982E-07  0.4085E-07  0.4113E-07  0.4114E-07  0.4089E-07  0.4042E-07  0.3975E-07  0.3911E-07  0.3767E-07  0.3632E-07  0.3489E-07  0.3334E-07  0.3176E-07  0.2981E-07  0.2818E-07  0.2617E-07  0.2455E-07  0.2254E-07  0.2099E-07  0.1904E-07  0.1760E-07  0.1574E-07  0.1441E-07  0.1263E-07  0.1136E-07  0.9660E-08  0.8045E-08  0.7020E-08  0.5949E-08  0.4844E-08  0.4117E-08  0.3457E-08  0.2864E-08
  0.0000E+00  0.0000E+00  0.0000E+00  0.0000E+00  0.0000E+00  0.2766E-10  0.1684E-09  0.2761E-09  0.4593E-09  0.5793E-09  0.8091E-09  0.1069E-08  0.1300E-08  0.1623E-08  0.1880E-08  0.2276E-08  0.2605E-08  0.3006E-08  0.3491E-08  0.3992E-08  0.4573E-08  0.5160E-08  0.6143E-08  0.7532E-08  0.9177E-08  0.1098E-07  0.1297E-07  0.1460E-07  0.1659E-07  0.1841E-07  0.2056E-07  0.2245E-07  0.2409E-07  0.2569E-07  0.2813E-07  0.2965E-07  0.3110E-07  0.3242E-07  0.3366E-07  0.3544E-07  0.3849E-07  0.4131E-07  0.4382E-07  0.4625E-07  0.4779E-07  0.4894E-07  0.5019E-07  0.5084E-07  0.5090E-07  0.5063E-07  0.5007E-07  0.4925E-07  0.4820E-07  0.4671E-07  0.4508E-07  0.4358E-07  0.4144E-07  0.3951E-07  0.3719E-07  0.3518E-07  0.3280E-07  0.3081E-07  0.2844E-07  0.2654E-07  0.2466E-07  0.2247E-07  0.2028E-07  0.1866E-07  0.1658E-07  0.1502E-07  0.1300E-07  0.1156E-07  0.9761E-08  0.8091E-08  0.6433E-08  0.5212E-08  0.4416E-08  0.3699E-08  0.3060E-08
  0.0000E+00  0.0000E+00  0.0000E+00  0.0000E+00  0.1070E-09  0.1753E-09  0.3467E-09  0.5704E-09  0.7025E-09  0.9513E-09  0.1234E-08  0.1449E-08  0.1837E-08  0.2121E-08  0.2557E-08  0.2920E-08  0.3446E-08  0.3903E-08  0.4584E-08  0.5147E-08  0.5852E-08  0.7207E-08  0.8964E-08  0.1080E-07  0.1284E-07  0.1516E-07  0.1737E-07  0.1947E-07  0.2201E-07  0.2440E-07  0.2703E-07  0.2919E-07  0.3130E-07  0.3372E-07  0.3633E-07  0.3830E-07  0.4009E-07  0.4177E-07  0.4361E-07  0.4660E-07  0.5032E-07  0.5317E-07  0.5614E-07  0.5846E-07  0.6002E-07  0.6133E-07  0.6242E-07  0.6257E-07  0.6229E-07  0.6164E-07  0.6065E-07  0.5937E-07  0.5758E-07  0.5587E-07  0.5374E-07  0.5119E-07  0.4883E-07  0.4606E-07  0.4361E-07  0.4076E-07  0.3875E-07  0.3638E-07  0.3364E-07  0.3140E-07  0.2879E-07  0.2620E-07  0.2374E-07  0.2131E-07  0.1941E-07  0.1703E-07  0.1524E-07  0.1309E-07  0.1109E-07  0.9251E-08  0.7557E-08  0.6342E-08  0.5116E-08  0.4318E-08  0.3611E-08
  0.5273E-10  0.5451E-10  0.8258E-10  0.1430E-09  0.2718E-09  0.4547E-09  0.5718E-09  0.8386E-09  0.1107E-08  0.1310E-08  0.1652E-08  0.2071E-08  0.2385E-08  0.2863E-08  0.3351E-08  0.3847E-08  0.4491E-08  0.5108E-08  0.5833E-08  0.6573E-08  0.8025E-08  0.1025E-07  0.1223E-07  0.1478E-07  0.1762E-07  0.2046E-07  0.2300E-07  0.2603E-07  0.2892E-07  0.3222E-07  0.3506E-07  0.3758E-07  0.4034E-07  0.4390E-07  0.4656E-07  0.4897E-07  0.5124E-07  0.5333E-07  0.5624E-07  0.6063E-07  0.6460E-07  0.6800E-07  0.7113E-07  0.7314E-07  0.7452E-07  0.7589E-07  0.7644E-07  0.7619E-07  0.7546E-07  0.7429E-07  0.7274E-07  0.7089E-07  0.6851E-07  0.6593E-07  0.6289E-07  0.6001E-07  0.5671E-07  0.5410E-07  0.5113E-07  0.4779E-07  0.4489E-07  0.4163E-07  0.3889E-07  0.3579E-07  0.3326E-07  0.3035E-07  0.2747E-07  0.2466E-07  0.2187E-07  0.1968E-07  0.1711E-07  0.1472E-07  0.1251E-07  0.1095E-07  0.9093E-08  0.7397E-08  0.6186E-08  0.4983E-08  0.4201E-08
  0.3182E-09  0.3603E-09  0.3998E-09  0.4709E-09  0.6233E-09  0.7398E-09  0.9538E-09  0.1173E-08  0.1498E-08  0.1868E-08  0.2203E-08  0.2631E-08  0.3191E-08  0.3638E-08  0.4280E-08  0.4992E-08  0.5624E-08  0.6533E-08  0.7308E-08  0.9616E-08  0.1191E-07  0.1437E-07  0.1717E-07  0.2036E-07  0.2359E-07  0.2687E-07  0.3041E-07  0.3417E-07  0.3784E-07  0.4165E-07  0.4495E-07  0.4853E-07  0.5267E-07  0.5644E-07  0.5952E-07  0.6233E-07  0.6484E-07  0.6795E-07  0.7243E-07  0.7772E-07  0.8180E-07  0.8572E-07  0.8863E-07  0.9049E-07  0.9186E-07  0.9278E-07  0.9259E-07  0.9180E-07  0.9045E-07  0.8862E-07  0.8638E-07  0.8354E-07  0.8045E-07  0.7683E-07  0.7335E-07  0.6980E-07  0.6617E-07  0.6255E-07  0.5857E-07  0.5504E-07  0.5115E-07  0.4782E-07  0.4412E-07  0.4105E-07  0.3759E-07  0.3420E-07  0.3091E-07  0.2816E-07  0.2499E-07  0.2194E-07  0.1959E-07  0.1695E-07  0.1451E-07  0.1228E-07  0.1024E-07  0.8387E-08  0.6601E-08  0.5305E-08  0.4468E-08
  0.6927E-09  0.7586E-09  0.8496E-09  0.9866E-09  0.1132E-08  0.1341E-08  0.1510E-08  0.1722E-08  0.2100E-08  0.2909E-08  0.3476E-08  0.4333E-08  0.4668E-08  0.5193E-08  0.5637E-08  0.6267E-08  0.7839E-08  0.8782E-08  0.1102E-07  0.1399E-07  0.1667E-07  0.1978E-07  0.2333E-07  0.2727E-07  0.3104E-07  0.3514E-07  0.3957E-07  0.4394E-07  0.4855E-07  0.5325E-07  0.5746E-07  0.6192E-07  0.6726E-07  0.7129E-07  0.7510E-07  0.7860E-07  0.8219E-07  0.8694E-07  0.9245E-07  0.9794E-07  0.1026E-06  0.1066E-06  0.1092E-06  0.1107E-06  0.1119E-06  0.1120E-06  0.1111E-06  0.1095E-06  0.1074E-06  0.1047E-06  0.1014E-06  0.9766E-07  0.9336E-07  0.8918E-07  0.8489E-07  0.8050E-07  0.7612E-07  0.7136E-07  0.6709E-07  0.6245E-07  0.5841E-07  0.5401E-07  0.5028E-07  0.4618E-07  0.4273E-07  0.3886E-07  0.3502E-07  0.3130E-07  0.2771E-07  0.2484E-07  0.2169E-07  0.1878E-07  0.1611E-07  0.1367E-07  0.1144E-07  0.9439E-08  0.7648E-08  0.6380E-08  0.5128E-08
  0.1570E-08  0.2152E-08  0.3096E-08  0.3976E-08  0.5346E-08  0.6355E-08  0.7515E-08  0.9368E-08  0.1037E-07  0.1145E-07  0.1190E-07  0.1209E-07  0.1229E-07  0.1247E-07  0.1346E-07  0.1408E-07  0.1467E-07  0.1529E-07  0.1812E-07  0.2054E-07  0.2348E-07  0.2675E-07  0.3098E-07  0.3551E-07  0.4026E-07  0.4538E-07  0.5083E-07  0.5602E-07  0.6199E-07  0.6722E-07  0.7276E-07  0.7893E-07  0.8442E-07  0.8939E-07  0.9403E-07  0.9853E-07  0.1033E-06  0.1101E-06  0.1170E-06  0.1227E-06  0.1271E-06  0.1308E-06  0.1330E-06  0.1343E-06  0.1349E-06  0.1339E-06  0.1321E-06  0.1295E-06  0.1263E-06  0.1223E-06  0.1180E-06  0.1129E-06  0.1082E-06  0.1031E-06  0.9746E-07  0.9219E-07  0.8651E-07  0.8134E-07  0.7582E-07  0.7093E-07  0.6570E-07  0.6119E-07  0.5633E-07  0.5218E-07  0.4761E-07  0.4312E-07  0.3876E-07  0.3508E-07  0.3108E-07  0.2735E-07  0.2389E-07  0.2071E-07  0.1779E-07  0.1513E-07  0.1320E-07  0.1102E-07  0.8622E-08  0.6772E-08  0.5882E-08
  0.5742E-08  0.7399E-08  0.8821E-08  0.1064E-07  0.1272E-07  0.1467E-07  0.1646E-07  0.1821E-07  0.1911E-07  0.1929E-07  0.1951E-07  0.1963E-07  0.1987E-07  0.2097E-07  0.2145E-07  0.2266E-07  0.2338E-07  0.2577E-07  0.2869E-07  0.3179E-07  0.3525E-07  0.3892E-07  0.4317E-07  0.4736E-07  0.5256E-07  0.5811E-07  0.6402E-07  0.7106E-07  0.7774E-07  0.8452E-07  0.9167E-07  0.9908E-07  0.1054E-06  0.1112E-06  0.1171E-06  0.1227E-06  0.1296E-06  0.1381E-06  0.1454E-06  0.1515E-06  0.1561E-06  0.1590E-06  0.1602E-06  0.1611E-06  0.1604E-06  0.1585E-06  0.1555E-06  0.1517E-06  0.1470E-06  0.1418E-06  0.1361E-06  0.1302E-06  0.1240E-06  0.1174E-06  0.1111E-06  0.1043E-06  0.9811E-07  0.9154E-07  0.8565E-07  0.7944E-07  0.7401E-07  0.6825E-07  0.6326E-07  0.5788E-07  0.5320E-07  0.4810E-07  0.4316E-07  0.3847E-07  0.3405E-07  0.2995E-07  0.2670E-07  0.2322E-07  0.2004E-07  0.1715E-07  0.1454E-07  0.1172E-07  0.1011E-07  0.8261E-08  0.6494E-08
  0.1019E-07  0.1272E-07  0.1491E-07  0.1735E-07  0.1950E-07  0.2151E-07  0.2318E-07  0.2448E-07  0.2527E-07  0.2608E-07  0.2693E-07  0.2772E-07  0.2834E-07  0.2987E-07  0.3046E-07  0.3211E-07  0.3369E-07  0.3789E-07  0.4114E-07  0.4515E-07  0.4910E-07  0.5433E-07  0.5881E-07  0.6415E-07  0.7035E-07  0.7624E-07  0.8266E-07  0.9022E-07  0.9765E-07  0.1056E-06  0.1145E-06  0.1227E-06  0.1304E-06  0.1377E-06  0.1446E-06  0.1521E-06  0.1615E-06  0.1710E-06  0.1784E-06  0.1847E-06  0.1887E-06  0.1907E-06  0.1919E-06  0.1914E-06  0.1890E-06  0.1858E-06  0.1814E-06  0.1759E-06  0.1698E-06  0.1631E-06  0.1559E-06  0.1486E-06  0.1407E-06  0.1332E-06  0.1252E-06  0.1177E-06  0.1100E-06  0.1029E-06  0.9555E-07  0.8903E-07  0.8222E-07  0.7625E-07  0.6992E-07  0.6436E-07  0.5840E-07  0.5263E-07  0.4714E-07  0.4196E-07  0.3767E-07  0.3320E-07  0.2908E-07  0.2531E-07  0.2187E-07  0.1875E-07  0.1594E-07  0.1343E-07  0.1119E-07  0.8760E-08  0.6870E-08
  0.1617E-07  0.1913E-07  0.2183E-07  0.2452E-07  0.2651E-07  0.2833E-07  0.2970E-07  0.3115E-07  0.3241E-07  0.3359E-07  0.3490E-07  0.3618E-07  0.3780E-07  0.3962E-07  0.4221E-07  0.4414E-07  0.4853E-07  0.5353E-07  0.5897E-07  0.6339E-07  0.6869E-07  0.7416E-07  0.7988E-07  0.8591E-07  0.9240E-07  0.9944E-07  0.1083E-06  0.1173E-06  0.1265E-06  0.1362E-06  0.1459E-06  0.1546E-06  0.1629E-06  0.1706E-06  0.1784E-06  0.1878E-06  0.1995E-06  0.2088E-06  0.2166E-06  0.2225E-06  0.2256E-06  0.2269E-06  0.2266E-06  0.2247E-06  0.2210E-06  0.2157E-06  0.2094E-06  0.2022E-06  0.1944E-06  0.1860E-06  0.1772E-06  0.1678E-06  0.1588E-06  0.1494E-06  0.1406E-06  0.1314E-06  0.1230E-06  0.1148E-06  0.1065E-06  0.9849E-07  0.9138E-07  0.8393E-07  0.7734E-07  0.7038E-07  0.6367E-07  0.5728E-07  0.5178E-07  0.4617E-07  0.4102E-07  0.3647E-07  0.3223E-07  0.2841E-07  0.2487E-07  0.2173E-07  0.1893E-07  0.1642E-07  0.1370E-07  0.1219E-07  0.1045E-07
  0.2346E-07  0.2672E-07  0.2936E-07  0.3168E-07  0.3378E-07  0.3574E-07  0.3766E-07  0.3959E-07  0.4157E-07  0.4394E-07  0.4610E-07  0.4876E-07  0.5191E-07  0.5454E-07  0.5811E-07  0.6203E-07  0.6868E-07  0.7463E-07  0.8010E-07  0.8614E-07  0.9205E-07  0.9859E-07  0.1055E-06  0.1131E-06  0.1216E-06  0.1305E-06  0.1401E-06  0.1499E-06  0.1601E-06  0.1719E-06  0.1831E-06  0.1933E-06  0.2033E-06  0.2123E-06  0.2223E-06  0.2343E-06  0.2451E-06  0.2538E-06  0.2608E-06  0.2647E-06  0.2669E-06  0.2668E-06  0.2653E-06  0.2613E-06  0.2555E-06  0.2483E-06  0.2397E-06  0.2309E-06  0.2207E-06  0.2105E-06  0.1995E-06  0.1888E-06  0.1776E-06  0.1676E-06  0.1574E-06  0.1469E-06  0.1366E-06  0.1274E-06  0.1180E-06  0.1089E-06  0.1002E-06  0.9240E-07  0.8433E-07  0.7727E-07  0.7014E-07  0.6334E-07  0.5705E-07  0.5119E-07  0.4582E-07  0.4091E-07  0.3633E-07  0.3226E-07  0.2850E-07  0.2521E-07  0.2220E-07  0.1953E-07  0.1717E-07  0.1505E-07  0.1266E-07
  0.3156E-07  0.3467E-07  0.3736E-07  0.3943E-07  0.4215E-07  0.4506E-07  0.4795E-07  0.5102E-07  0.5412E-07  0.5759E-07  0.6101E-07  0.6505E-07  0.6878E-07  0.7334E-07  0.7759E-07  0.8430E-07  0.9115E-07  0.9729E-07  0.1038E-06  0.1108E-06  0.1187E-06  0.1271E-06  0.1360E-06  0.1457E-06  0.1558E-06  0.1666E-06  0.1783E-06  0.1897E-06  0.2022E-06  0.2151E-06  0.2270E-06  0.2386E-06  0.2501E-06  0.2614E-06  0.2747E-06  0.2887E-06  0.2990E-06  0.3075E-06  0.3125E-06  0.3140E-06  0.3134E-06  0.3113E-06  0.3076E-06  0.3009E-06  0.2934E-06  0.2834E-06  0.2728E-06  0.2607E-06  0.2487E-06  0.2361E-06  0.2242E-06  0.2118E-06  0.1989E-06  0.1868E-06  0.1744E-06  0.1630E-06  0.1514E-06  0.1403E-06  0.1302E-06  0.1199E-06  0.1101E-06  0.1010E-06  0.9294E-07  0.8469E-07  0.7689E-07  0.6959E-07  0.6281E-07  0.5652E-07  0.5077E-07  0.4551E-07  0.4067E-07  0.3624E-07  0.3218E-07  0.2851E-07  0.2520E-07  0.2225E-07  0.1961E-07  0.1678E-07  0.1467E-07
  0.3972E-07  0.4284E-07  0.4581E-07  0.4915E-07  0.5289E-07  0.5750E-07  0.6178E-07  0.6614E-07  0.7019E-07  0.7502E-07  0.7956E-07  0.8479E-07  0.8960E-07  0.9474E-07  0.1007E-06  0.1094E-06  0.1161E-06  0.1235E-06  0.1316E-06  0.1401E-06  0.1498E-06  0.1600E-06  0.1709E-06  0.1826E-06  0.1945E-06  0.2079E-06  0.2212E-06  0.2352E-06  0.2501E-06  0.2649E-06  0.2793E-06  0.2930E-06  0.3055E-06  0.3196E-06  0.3357E-06  0.3497E-06  0.3601E-06  0.3674E-06  0.3705E-06  0.3706E-06  0.3671E-06  0.3618E-06  0.3536E-06  0.3441E-06  0.3330E-06  0.3211E-06  0.3074E-06  0.2938E-06  0.2793E-06  0.2648E-06  0.2502E-06  0.2352E-06  0.2209E-06  0.2064E-06  0.1929E-06  0.1794E-06  0.1670E-06  0.1545E-06  0.1425E-06  0.1310E-06  0.1202E-06  0.1108E-06  0.1013E-06  0.9235E-07  0.8395E-07  0.7613E-07  0.6882E-07  0.6259E-07  0.5632E-07  0.5002E-07  0.4476E-07  0.4051E-07  0.3565E-07  0.3173E-07  0.2820E-07  0.2504E-07  0.2172E-07  0.1917E-07  0.1740E-07
  0.5204E-07  0.5743E-07  0.6207E-07  0.6725E-07  0.7294E-07  0.7823E-07  0.8340E-07  0.8861E-07  0.9397E-07  0.9961E-07  0.1055E-06  0.1120E-06  0.1179E-06  0.1229E-06  0.1301E-06  0.1389E-06  0.1471E-06  0.1556E-06  0.1648E-06  0.1761E-06  0.1876E-06  0.1999E-06  0.2133E-06  0.2265E-06  0.2413E-06  0.2567E-06  0.2723E-06  0.2886E-06  0.3058E-06  0.3226E-06  0.3392E-06  0.3549E-06  0.3706E-06  0.3888E-06  0.4056E-06  0.4181E-06  0.4283E-06  0.4335E-06  0.4347E-06  0.4319E-06  0.4261E-06  0.4175E-06  0.4057E-06  0.3918E-06  0.3771E-06  0.3611E-06  0.3452E-06  0.3282E-06  0.3113E-06  0.2939E-06  0.2765E-06  0.2598E-06  0.2429E-06  0.2272E-06  0.2113E-06  0.1968E-06  0.1823E-06  0.1683E-06  0.1556E-06  0.1430E-06  0.1313E-06  0.1203E-06  0.1100E-06  0.1009E-06  0.9176E-07  0.8328E-07  0.7542E-07  0.6816E-07  0.6091E-07  0.5536E-07  0.4974E-07  0.4410E-07  0.3947E-07  0.3529E-07  0.3154E-07  0.2764E-07  0.2459E-07  0.2235E-07  0.1945E-07
  0.6980E-07  0.7551E-07  0.8152E-07  0.8779E-07  0.9409E-07  0.1005E-06  0.1076E-06  0.1144E-06  0.1214E-06  0.1286E-06  0.1360E-06  0.1426E-06  0.1493E-06  0.1562E-06  0.1672E-06  0.1767E-06  0.1871E-06  0.1977E-06  0.2098E-06  0.2231E-06  0.2370E-06  0.2515E-06  0.2669E-06  0.2829E-06  0.3007E-06  0.3179E-06  0.3355E-06  0.3540E-06  0.3722E-06  0.3909E-06  0.4093E-06  0.4268E-06  0.4467E-06  0.4674E-06  0.4835E-06  0.4961E-06  0.5035E-06  0.5058E-06  0.5042E-06  0.4982E-06  0.4899E-06  0.4778E-06  0.4627E-06  0.4446E-06  0.4248E-06  0.4045E-06  0.3842E-06  0.3639E-06  0.3436E-06  0.3232E-06  0.3036E-06  0.2841E-06  0.2658E-06  0.2474E-06  0.2304E-06  0.2135E-06  0.1980E-06  0.1825E-06  0.1680E-06  0.1545E-06  0.1418E-06  0.1306E-06  0.1194E-06  0.1090E-06  0.9927E-07  0.9024E-07  0.8188E-07  0.7418E-07  0.6708E-07  0.6055E-07  0.5403E-07  0.4860E-07  0.4420E-07  0.3922E-07  0.3467E-07  0.3154E-07  0.2827E-07  0.2487E-07  0.2177E-07
  0.8796E-07  0.9507E-07  0.1030E-06  0.1108E-06  0.1185E-06  0.1268E-06  0.1352E-06  0.1440E-06  0.1529E-06  0.1611E-06  0.1695E-06  0.1776E-06  0.1845E-06  0.1954E-06  0.2084E-06  0.2208E-06  0.2334E-06  0.2474E-06  0.2625E-06  0.2786E-06  0.2951E-06  0.3124E-06  0.3304E-06  0.3501E-06  0.3697E-06  0.3899E-06  0.4110E-06  0.4325E-06  0.4529E-06  0.4733E-06  0.4930E-06  0.5130E-06  0.5361E-06  0.5558E-06  0.5711E-06  0.5815E-06  0.5857E-06  0.5850E-06  0.5788E-06  0.5705E-06  0.5580E-06  0.5414E-06  0.5212E-06  0.4995E-06  0.4758E-06  0.4509E-06  0.4253E-06  0.4004E-06  0.3765E-06  0.3538E-06  0.3307E-06  0.3095E-06  0.2883E-06  0.2686E-06  0.2491E-06  0.2311E-06  0.2132E-06  0.1962E-06  0.1807E-06  0.1668E-06  0.1532E-06  0.1405E-06  0.1286E-06  0.1176E-06  0.1073E-06  0.9771E-07  0.8887E-07  0.8069E-07  0.7314E-07  0.6564E-07  0.5985E-07  0.5407E-07  0.4828E-07  0.4298E-07  0.3918E-07  0.3528E-07  0.3129E-07  0.2764E-07  0.2483E-07
  0.1068E-06  0.1157E-06  0.1252E-06  0.1351E-06  0.1443E-06  0.1547E-06  0.1654E-06  0.1765E-06  0.1865E-06  0.1973E-06  0.2066E-06  0.2166E-06  0.2263E-06  0.2424E-06  0.2571E-06  0.2719E-06  0.2882E-06  0.3048E-06  0.3232E-06  0.3427E-06  0.3624E-06  0.3837E-06  0.4055E-06  0.4283E-06  0.4511E-06  0.4743E-06  0.4990E-06  0.5227E-06  0.5463E-06  0.5690E-06  0.5912E-06  0.6160E-06  0.6401E-06  0.6577E-06  0.6700E-06  0.6758E-06  0.6759E-06  0.6715E-06  0.6617E-06  0.6479E-06  0.6300E-06  0.6081E-06  0.5837E-06  0.5564E-06  0.5284E-06  0.4990E-06  0.4695E-06  0.4398E-06  0.4113E-06  0.3841E-06  0.3595E-06  0.3345E-06  0.3118E-06  0.2894E-06  0.2686E-06  0.2479E-06  0.2292E-06  0.2111E-06  0.1944E-06  0.1789E-06  0.1645E-06  0.1510E-06  0.1385E-06  0.1268E-06  0.1159E-06  0.1058E-06  0.9639E-07  0.8772E-07  0.7970E-07  0.7234E-07  0.6560E-07  0.5891E-07  0.5330E-07  0.4820E-07  0.4358E-07  0.3888E-07  0.3460E-07  0.3122E-07  0.2865E-07
  0.1274E-06  0.1385E-06  0.1499E-06  0.1611E-06  0.1734E-06  0.1856E-06  0.1985E-06  0.2104E-06  0.2229E-06  0.2355E-06  0.2483E-06  0.2600E-06  0.2744E-06  0.2942E-06  0.3122E-06  0.3302E-06  0.3496E-06  0.3703E-06  0.3922E-06  0.4151E-06  0.4398E-06  0.4650E-06  0.4917E-06  0.5186E-06  0.5455E-06  0.5728E-06  0.6001E-06  0.6271E-06  0.6531E-06  0.6787E-06  0.7048E-06  0.7331E-06  0.7560E-06  0.7723E-06  0.7809E-06  0.7821E-06  0.7767E-06  0.7651E-06  0.7488E-06  0.7292E-06  0.7050E-06  0.6781E-06  0.6484E-06  0.6170E-06  0.5830E-06  0.5496E-06  0.5149E-06  0.4811E-06  0.4479E-06  0.4167E-06  0.3876E-06  0.3605E-06  0.3346E-06  0.3107E-06  0.2871E-06  0.2655E-06  0.2447E-06  0.2256E-06  0.2080E-06  0.1916E-06  0.1763E-06  0.1621E-06  0.1495E-06  0.1365E-06  0.1251E-06  0.1144E-06  0.1045E-06  0.9527E-07  0.8678E-07  0.7898E-07  0.7127E-07  0.6472E-07  0.5873E-07  0.5330E-07  0.4782E-07  0.4284E-07  0.3924E-07  0.3558E-07  0.3183E-07
  0.1509E-06  0.1640E-06  0.1770E-06  0.1907E-06  0.2050E-06  0.2200E-06  0.2348E-06  0.2489E-06  0.2642E-06  0.2786E-06  0.2944E-06  0.3090E-06  0.3293E-06  0.3521E-06  0.3740E-06  0.3964E-06  0.4194E-06  0.4448E-06  0.4721E-06  0.5005E-06  0.5305E-06  0.5606E-06  0.5924E-06  0.6239E-06  0.6551E-06  0.6873E-06  0.7172E-06  0.7473E-06  0.7768E-06  0.8054E-06  0.8373E-06  0.8659E-06  0.8869E-06  0.9005E-06  0.9028E-06  0.8987E-06  0.8862E-06  0.8671E-06  0.8427E-06  0.8151E-06  0.7839E-06  0.7504E-06  0.7151E-06  0.6770E-06  0.6397E-06  0.6008E-06  0.5633E-06  0.5257E-06  0.4875E-06  0.4510E-06  0.4179E-06  0.3866E-06  0.3579E-06  0.3311E-06  0.3063E-06  0.2826E-06  0.2612E-06  0.2412E-06  0.2224E-06  0.2051E-06  0.1897E-06  0.1747E-06  0.1601E-06  0.1471E-06  0.1356E-06  0.1236E-06  0.1131E-06  0.1034E-06  0.9444E-07  0.8558E-07  0.7797E-07  0.7154E-07  0.6462E-07  0.5825E-07  0.5243E-07  0.4811E-07  0.4378E-07  0.3931E-07  0.3526E-07
  0.1766E-06  0.1919E-06  0.2074E-06  0.2233E-06  0.2404E-06  0.2576E-06  0.2744E-06  0.2917E-06  0.3095E-06  0.3278E-06  0.3463E-06  0.3641E-06  0.3925E-06  0.4179E-06  0.4443E-06  0.4712E-06  0.5000E-06  0.5317E-06  0.5652E-06  0.5993E-06  0.6343E-06  0.6707E-06  0.7076E-06  0.7439E-06  0.7803E-06  0.8173E-06  0.8533E-06  0.8876E-06  0.9211E-06  0.9548E-06  0.9872E-06  0.1013E-05  0.1031E-05  0.1038E-05  0.1037E-05  0.1025E-05  0.1005E-05  0.9765E-06  0.9444E-06  0.9073E-06  0.8671E-06  0.8254E-06  0.7825E-06  0.7397E-06  0.6967E-06  0.6533E-06  0.6111E-06  0.5687E-06  0.5282E-06  0.4881E-06  0.4488E-06  0.4126E-06  0.3804E-06  0.3519E-06  0.3252E-06  0.3009E-06  0.2791E-06  0.2583E-06  0.2387E-06  0.2206E-06  0.2037E-06  0.1874E-06  0.1734E-06  0.1595E-06  0.1459E-06  0.1339E-06  0.1226E-06  0.1122E-06  0.1020E-06  0.9325E-07  0.8574E-07  0.7773E-07  0.7034E-07  0.6359E-07  0.5841E-07  0.5327E-07  0.4807E-07  0.4332E-07  0.3899E-07
  0.2054E-06  0.2225E-06  0.2403E-06  0.2597E-06  0.2786E-06  0.2984E-06  0.3184E-06  0.3393E-06  0.3601E-06  0.3825E-06  0.4041E-06  0.4294E-06  0.4621E-06  0.4926E-06  0.5239E-06  0.5579E-06  0.5936E-06  0.6323E-06  0.6716E-06  0.7123E-06  0.7536E-06  0.7960E-06  0.8375E-06  0.8799E-06  0.9249E-06  0.9693E-06  0.1012E-05  0.1049E-05  0.1086E-05  0.1123E-05  0.1156E-05  0.1179E-05  0.1189E-05  0.1191E-05  0.1181E-05  0.1159E-05  0.1129E-05  0.1094E-05  0.1052E-05  0.1005E-05  0.9550E-06  0.9048E-06  0.8538E-06  0.8032E-06  0.7537E-06  0.7052E-06  0.6572E-06  0.6121E-06  0.5675E-06  0.5250E-06  0.4829E-06  0.4426E-06  0.4051E-06  0.3724E-06  0.3457E-06  0.3205E-06  0.2973E-06  0.2755E-06  0.2551E-06  0.2363E-06  0.2188E-06  0.2027E-06  0.1878E-06  0.1727E-06  0.1592E-06  0.1469E-06  0.1343E-06  0.1225E-06  0.1121E-06  0.1031E-06  0.9352E-07  0.8464E-07  0.7652E-07  0.7034E-07  0.6428E-07  0.5821E-07  0.5270E-07  0.4762E-07  0.4293E-07
  0.2357E-06  0.2560E-06  0.2773E-06  0.2983E-06  0.3208E-06  0.3436E-06  0.3667E-06  0.3915E-06  0.4162E-06  0.4427E-06  0.4688E-06  0.5019E-06  0.5403E-06  0.5776E-06  0.6158E-06  0.6584E-06  0.7004E-06  0.7460E-06  0.7920E-06  0.8383E-06  0.8870E-06  0.9371E-06  0.9886E-06  0.1041E-05  0.1096E-05  0.1145E-05  0.1192E-05  0.1235E-05  0.1277E-05  0.1317E-05  0.1346E-05  0.1361E-05  0.1366E-05  0.1357E-05  0.1335E-05  0.1304E-05  0.1264E-05  0.1216E-05  0.1163E-05  0.1106E-05  0.1049E-05  0.9874E-06  0.9277E-06  0.8688E-06  0.8116E-06  0.7568E-06  0.7050E-06  0.6540E-06  0.6061E-06  0.5602E-06  0.5162E-06  0.4731E-06  0.4323E-06  0.3972E-06  0.3671E-06  0.3413E-06  0.3172E-06  0.2946E-06  0.2736E-06  0.2542E-06  0.2363E-06  0.2196E-06  0.2035E-06  0.1891E-06  0.1748E-06  0.1606E-06  0.1472E-06  0.1359E-06  0.1246E-06  0.1132E-06  0.1027E-06  0.9257E-07  0.8468E-07  0.7704E-07  0.6992E-07  0.6350E-07  0.5756E-07  0.5213E-07  0.4863E-07
  0.2699E-06  0.2924E-06  0.3163E-06  0.3411E-06  0.3659E-06  0.3925E-06  0.4206E-06  0.4489E-06  0.4792E-06  0.5095E-06  0.5403E-06  0.5818E-06  0.6278E-06  0.6729E-06  0.7210E-06  0.7713E-06  0.8217E-06  0.8757E-06  0.9292E-06  0.9850E-06  0.1042E-05  0.1101E-05  0.1163E-05  0.1227E-05  0.1290E-05  0.1348E-05  0.1397E-05  0.1448E-05  0.1496E-05  0.1533E-05  0.1554E-05  0.1563E-05  0.1557E-05  0.1537E-05  0.1504E-05  0.1461E-05  0.1407E-05  0.1345E-05  0.1281E-05  0.1213E-05  0.1142E-05  0.1074E-05  0.1006E-05  0.9384E-06  0.8717E-06  0.8093E-06  0.7511E-06  0.6964E-06  0.6443E-06  0.5950E-06  0.5494E-06  0.5052E-06  0.4643E-06  0.4262E-06  0.3919E-06  0.3634E-06  0.3385E-06  0.3155E-06  0.2943E-06  0.2747E-06  0.2562E-06  0.2382E-06  0.2229E-06  0.2069E-06  0.1912E-06  0.1761E-06  0.1632E-06  0.1501E-06  0.1373E-06  0.1248E-06  0.1131E-06  0.1040E-06  0.9374E-07  0.8460E-07  0.7623E-07  0.6900E-07  0.6273E-07  0.5842E-07  0.5306E-07
  0.3063E-06  0.3322E-06  0.3588E-06  0.3865E-06  0.4159E-06  0.4460E-06  0.4786E-06  0.5118E-06  0.5471E-06  0.5823E-06  0.6206E-06  0.6738E-06  0.7258E-06  0.7825E-06  0.8393E-06  0.8982E-06  0.9579E-06  0.1021E-05  0.1085E-05  0.1151E-05  0.1219E-05  0.1291E-05  0.1364E-05  0.1439E-05  0.1509E-05  0.1575E-05  0.1636E-05  0.1693E-05  0.1742E-05  0.1772E-05  0.1787E-05  0.1786E-05  0.1769E-05  0.1735E-05  0.1688E-05  0.1629E-05  0.1560E-05  0.1485E-05  0.1406E-05  0.1323E-05  0.1242E-05  0.1162E-05  0.1086E-05  0.1009E-05  0.9353E-06  0.8645E-06  0.7984E-06  0.7385E-06  0.6834E-06  0.6305E-06  0.5819E-06  0.5373E-06  0.4965E-06  0.4571E-06  0.4202E-06  0.3890E-06  0.3616E-06  0.3382E-06  0.3172E-06  0.2978E-06  0.2790E-06  0.2613E-06  0.2442E-06  0.2270E-06  0.2109E-06  0.1952E-06  0.1806E-06  0.1654E-06  0.1512E-06  0.1379E-06  0.1272E-06  0.1151E-06  0.1042E-06  0.9338E-07  0.8399E-07  0.7552E-07  0.6993E-07  0.6341E-07  0.5775E-07
  0.3446E-06  0.3740E-06  0.4045E-06  0.4365E-06  0.4694E-06  0.5047E-06  0.5413E-06  0.5811E-06  0.6209E-06  0.6630E-06  0.7109E-06  0.7734E-06  0.8359E-06  0.9033E-06  0.9724E-06  0.1042E-05  0.1114E-05  0.1186E-05  0.1262E-05  0.1341E-05  0.1421E-05  0.1504E-05  0.1594E-05  0.1679E-05  0.1762E-05  0.1836E-05  0.1907E-05  0.1968E-05  0.2012E-05  0.2038E-05  0.2045E-05  0.2032E-05  0.1998E-05  0.1950E-05  0.1888E-05  0.1811E-05  0.1727E-05  0.1634E-05  0.1539E-05  0.1441E-05  0.1345E-05  0.1254E-05  0.1166E-05  0.1081E-05  0.1001E-05  0.9228E-06  0.8490E-06  0.7821E-06  0.7213E-06  0.6664E-06  0.6159E-06  0.5696E-06  0.5283E-06  0.4913E-06  0.4540E-06  0.4188E-06  0.3893E-06  0.3653E-06  0.3437E-06  0.3240E-06  0.3047E-06  0.2861E-06  0.2675E-06  0.2502E-06  0.2332E-06  0.2165E-06  0.1990E-06  0.1828E-06  0.1680E-06  0.1543E-06  0.1404E-06  0.1277E-06  0.1151E-06  0.1032E-06  0.9226E-07  0.8370E-07  0.7631E-07  0.6908E-07  0.6268E-07
  0.3864E-06  0.4191E-06  0.4531E-06  0.4894E-06  0.5276E-06  0.5678E-06  0.6097E-06  0.6546E-06  0.7003E-06  0.7518E-06  0.8115E-06  0.8849E-06  0.9602E-06  0.1039E-05  0.1119E-05  0.1202E-05  0.1287E-05  0.1373E-05  0.1462E-05  0.1555E-05  0.1650E-05  0.1756E-05  0.1860E-05  0.1957E-05  0.2052E-05  0.2137E-05  0.2216E-05  0.2276E-05  0.2319E-05  0.2337E-05  0.2331E-05  0.2300E-05  0.2252E-05  0.2186E-05  0.2104E-05  0.2010E-05  0.1906E-05  0.1796E-05  0.1680E-05  0.1567E-05  0.1456E-05  0.1349E-05  0.1248E-05  0.1155E-05  0.1066E-05  0.9822E-06  0.9033E-06  0.8289E-06  0.7621E-06  0.7027E-06  0.6512E-06  0.6051E-06  0.5637E-06  0.5265E-06  0.4903E-06  0.4546E-06  0.4226E-06  0.3971E-06  0.3754E-06  0.3548E-06  0.3347E-06  0.3139E-06  0.2942E-06  0.2750E-06  0.2566E-06  0.2382E-06  0.2199E-06  0.2028E-06  0.1869E-06  0.1708E-06  0.1551E-06  0.1408E-06  0.1260E-06  0.1140E-06  0.1018E-06  0.9318E-07  0.8360E-07  0.7529E-07  0.6827E-07
  0.4305E-06  0.4671E-06  0.5057E-06  0.5465E-06  0.5894E-06  0.6358E-06  0.6843E-06  0.7344E-06  0.7882E-06  0.8481E-06  0.9234E-06  0.1012E-05  0.1099E-05  0.1190E-05  0.1284E-05  0.1379E-05  0.1480E-05  0.1581E-05  0.1689E-05  0.1802E-05  0.1919E-05  0.2045E-05  0.2163E-05  0.2274E-05  0.2380E-05  0.2479E-05  0.2564E-05  0.2628E-05  0.2663E-05  0.2671E-05  0.2646E-05  0.2600E-05  0.2531E-05  0.2443E-05  0.2340E-05  0.2226E-05  0.2102E-05  0.1968E-05  0.1835E-05  0.1705E-05  0.1576E-05  0.1452E-05  0.1338E-05  0.1231E-05  0.1133E-05  0.1043E-05  0.9583E-06  0.8790E-06  0.8059E-06  0.7426E-06  0.6895E-06  0.6436E-06  0.6027E-06  0.5651E-06  0.5300E-06  0.4959E-06  0.4644E-06  0.4376E-06  0.4150E-06  0.3915E-06  0.3689E-06  0.3469E-06  0.3258E-06  0.3038E-06  0.2825E-06  0.2620E-06  0.2423E-06  0.2245E-06  0.2062E-06  0.1882E-06  0.1707E-06  0.1544E-06  0.1398E-06  0.1254E-06  0.1144E-06  0.1021E-06  0.9194E-07  0.8257E-07  0.7440E-07
  0.4770E-06  0.5181E-06  0.5613E-06  0.6076E-06  0.6565E-06  0.7073E-06  0.7626E-06  0.8209E-06  0.8850E-06  0.9565E-06  0.1050E-05  0.1150E-05  0.1253E-05  0.1358E-05  0.1468E-05  0.1581E-05  0.1699E-05  0.1821E-05  0.1948E-05  0.2084E-05  0.2230E-05  0.2368E-05  0.2507E-05  0.2637E-05  0.2758E-05  0.2869E-05  0.2961E-05  0.3020E-05  0.3048E-05  0.3037E-05  0.2999E-05  0.2932E-05  0.2838E-05  0.2726E-05  0.2600E-05  0.2461E-05  0.2311E-05  0.2160E-05  0.2005E-05  0.1852E-05  0.1702E-05  0.1564E-05  0.1432E-05  0.1312E-05  0.1203E-05  0.1103E-05  0.1013E-05  0.9289E-06  0.8527E-06  0.7881E-06  0.7331E-06  0.6866E-06  0.6463E-06  0.6095E-06  0.5761E-06  0.5460E-06  0.5178E-06  0.4901E-06  0.4617E-06  0.4347E-06  0.4093E-06  0.3853E-06  0.3601E-06  0.3352E-06  0.3108E-06  0.2880E-06  0.2671E-06  0.2454E-06  0.2257E-06  0.2061E-06  0.1874E-06  0.1702E-06  0.1533E-06  0.1392E-06  0.1250E-06  0.1108E-06  0.9971E-07  0.8967E-07  0.8111E-07
  0.5263E-06  0.5720E-06  0.6205E-06  0.6716E-06  0.7270E-06  0.7855E-06  0.8465E-06  0.9140E-06  0.9893E-06  0.1078E-05  0.1188E-05  0.1301E-05  0.1420E-05  0.1544E-05  0.1673E-05  0.1807E-05  0.1946E-05  0.2093E-05  0.2247E-05  0.2413E-05  0.2581E-05  0.2746E-05  0.2900E-05  0.3052E-05  0.3192E-05  0.3315E-05  0.3406E-05  0.3459E-05  0.3472E-05  0.3450E-05  0.3391E-05  0.3297E-05  0.3178E-05  0.3040E-05  0.2886E-05  0.2716E-05  0.2546E-05  0.2368E-05  0.2190E-05  0.2013E-05  0.1844E-05  0.1682E-05  0.1534E-05  0.1399E-05  0.1277E-05  0.1166E-05  0.1067E-05  0.9808E-06  0.9058E-06  0.8404E-06  0.7849E-06  0.7373E-06  0.6974E-06  0.6624E-06  0.6313E-06  0.6062E-06  0.5808E-06  0.5496E-06  0.5173E-06  0.4874E-06  0.4568E-06  0.4271E-06  0.3982E-06  0.3693E-06  0.3423E-06  0.3174E-06  0.2917E-06  0.2674E-06  0.2454E-06  0.2240E-06  0.2049E-06  0.1853E-06  0.1682E-06  0.1506E-06  0.1348E-06  0.1213E-06  0.1087E-06  0.9689E-07  0.8788E-07
  0.5780E-06  0.6285E-06  0.6828E-06  0.7401E-06  0.8006E-06  0.8668E-06  0.9372E-06  0.1017E-05  0.1105E-05  0.1212E-05  0.1337E-05  0.1469E-05  0.1606E-05  0.1751E-05  0.1902E-05  0.2059E-05  0.2224E-05  0.2401E-05  0.2584E-05  0.2783E-05  0.2977E-05  0.3172E-05  0.3356E-05  0.3527E-05  0.3686E-05  0.3814E-05  0.3903E-05  0.3947E-05  0.3949E-05  0.3908E-05  0.3823E-05  0.3703E-05  0.3557E-05  0.3386E-05  0.3198E-05  0.3002E-05  0.2799E-05  0.2595E-05  0.2388E-05  0.2190E-05  0.1995E-05  0.1814E-05  0.1644E-05  0.1491E-05  0.1355E-05  0.1233E-05  0.1127E-05  0.1037E-05  0.9628E-06  0.8989E-06  0.8437E-06  0.7988E-06  0.7584E-06  0.7270E-06  0.7013E-06  0.6771E-06  0.6504E-06  0.6184E-06  0.5832E-06  0.5458E-06  0.5096E-06  0.4733E-06  0.4391E-06  0.4069E-06  0.3761E-06  0.3463E-06  0.3175E-06  0.2913E-06  0.2660E-06  0.2433E-06  0.2208E-06  0.2011E-06  0.1808E-06  0.1621E-06  0.1468E-06  0.1308E-06  0.1167E-06  0.1052E-06  0.9461E-07
  0.6318E-06  0.6880E-06  0.7471E-06  0.8109E-06  0.8798E-06  0.9535E-06  0.1034E-05  0.1127E-05  0.1229E-05  0.1357E-05  0.1501E-05  0.1651E-05  0.1810E-05  0.1982E-05  0.2158E-05  0.2342E-05  0.2537E-05  0.2748E-05  0.2971E-05  0.3206E-05  0.3440E-05  0.3661E-05  0.3875E-05  0.4072E-05  0.4244E-05  0.4376E-05  0.4460E-05  0.4495E-05  0.4480E-05  0.4412E-05  0.4301E-05  0.4153E-05  0.3973E-05  0.3768E-05  0.3547E-05  0.3316E-05  0.3079E-05  0.2840E-05  0.2608E-05  0.2378E-05  0.2161E-05  0.1953E-05  0.1761E-05  0.1589E-05  0.1437E-05  0.1304E-05  0.1193E-05  0.1100E-05  0.1024E-05  0.9640E-06  0.9142E-06  0.8696E-06  0.8339E-06  0.8064E-06  0.7847E-06  0.7597E-06  0.7300E-06  0.6971E-06  0.6559E-06  0.6110E-06  0.5672E-06  0.5238E-06  0.4829E-06  0.4467E-06  0.4109E-06  0.3764E-06  0.3451E-06  0.3151E-06  0.2880E-06  0.2615E-06  0.2364E-06  0.2137E-06  0.1930E-06  0.1746E-06  0.1560E-06  0.1406E-06  0.1261E-06  0.1128E-06  0.1020E-06
  0.6886E-06  0.7497E-06  0.8155E-06  0.8853E-06  0.9618E-06  0.1045E-05  0.1140E-05  0.1244E-05  0.1366E-05  0.1516E-05  0.1677E-05  0.1851E-05  0.2039E-05  0.2237E-05  0.2441E-05  0.2659E-05  0.2894E-05  0.3152E-05  0.3418E-05  0.3694E-05  0.3968E-05  0.4226E-05  0.4467E-05  0.4693E-05  0.4879E-05  0.5009E-05  0.5086E-05  0.5105E-05  0.5065E-05  0.4971E-05  0.4829E-05  0.4645E-05  0.4427E-05  0.4183E-05  0.3927E-05  0.3659E-05  0.3384E-05  0.3110E-05  0.2838E-05  0.2581E-05  0.2333E-05  0.2099E-05  0.1883E-05  0.1693E-05  0.1524E-05  0.1382E-05  0.1263E-05  0.1169E-05  0.1094E-05  0.1037E-05  0.9918E-06  0.9563E-06  0.9266E-06  0.9035E-06  0.8816E-06  0.8543E-06  0.8211E-06  0.7807E-06  0.7329E-06  0.6810E-06  0.6281E-06  0.5782E-06  0.5310E-06  0.4871E-06  0.4458E-06  0.4082E-06  0.3723E-06  0.3400E-06  0.3087E-06  0.2778E-06  0.2521E-06  0.2270E-06  0.2048E-06  0.1846E-06  0.1665E-06  0.1497E-06  0.1347E-06  0.1208E-06  0.1085E-06
  0.7466E-06  0.8140E-06  0.8860E-06  0.9636E-06  0.1047E-05  0.1143E-05  0.1251E-05  0.1372E-05  0.1513E-05  0.1686E-05  0.1871E-05  0.2071E-05  0.2292E-05  0.2521E-05  0.2760E-05  0.3023E-05  0.3307E-05  0.3607E-05  0.3931E-05  0.4253E-05  0.4565E-05  0.4871E-05  0.5157E-05  0.5403E-05  0.5590E-05  0.5719E-05  0.5785E-05  0.5779E-05  0.5711E-05  0.5585E-05  0.5404E-05  0.5179E-05  0.4917E-05  0.4635E-05  0.4334E-05  0.4025E-05  0.3715E-05  0.3400E-05  0.3090E-05  0.2790E-05  0.2513E-05  0.2251E-05  0.2013E-05  0.1798E-05  0.1615E-05  0.1462E-05  0.1339E-05  0.1242E-05  0.1171E-05  0.1118E-05  0.1083E-05  0.1059E-05  0.1038E-05  0.1018E-05  0.9930E-06  0.9610E-06  0.9193E-06  0.8689E-06  0.8126E-06  0.7517E-06  0.6911E-06  0.6346E-06  0.5794E-06  0.5268E-06  0.4817E-06  0.4389E-06  0.4003E-06  0.3630E-06  0.3268E-06  0.2955E-06  0.2665E-06  0.2397E-06  0.2164E-06  0.1950E-06  0.1759E-06  0.1589E-06  0.1425E-06  0.1284E-06  0.1164E-06
  0.8067E-06  0.8802E-06  0.9583E-06  0.1046E-05  0.1138E-05  0.1246E-05  0.1370E-05  0.1506E-05  0.1672E-05  0.1869E-05  0.2083E-05  0.2316E-05  0.2566E-05  0.2836E-05  0.3117E-05  0.3432E-05  0.3773E-05  0.4137E-05  0.4514E-05  0.4892E-05  0.5264E-05  0.5618E-05  0.5940E-05  0.6199E-05  0.6396E-05  0.6517E-05  0.6559E-05  0.6523E-05  0.6420E-05  0.6252E-05  0.6028E-05  0.5753E-05  0.5450E-05  0.5114E-05  0.4766E-05  0.4412E-05  0.4057E-05  0.3708E-05  0.3355E-05  0.3016E-05  0.2693E-05  0.2405E-05  0.2140E-05  0.1905E-05  0.1707E-05  0.1546E-05  0.1419E-05  0.1324E-05  0.1256E-05  0.1212E-05  0.1190E-05  0.1176E-05  0.1166E-05  0.1149E-05  0.1120E-05  0.1077E-05  0.1023E-05  0.9611E-06  0.8944E-06  0.8249E-06  0.7560E-06  0.6898E-06  0.6272E-06  0.5684E-06  0.5158E-06  0.4697E-06  0.4242E-06  0.3829E-06  0.3461E-06  0.3113E-06  0.2804E-06  0.2523E-06  0.2271E-06  0.2037E-06  0.1837E-06  0.1661E-06  0.1502E-06  0.1358E-06  0.1224E-06
  0.8693E-06  0.9482E-06  0.1034E-05  0.1130E-05  0.1232E-05  0.1355E-05  0.1492E-05  0.1648E-05  0.1843E-05  0.2066E-05  0.2315E-05  0.2583E-05  0.2873E-05  0.3185E-05  0.3518E-05  0.3897E-05  0.4301E-05  0.4743E-05  0.5183E-05  0.5633E-05  0.6068E-05  0.6469E-05  0.6816E-05  0.7098E-05  0.7297E-05  0.7400E-05  0.7412E-05  0.7339E-05  0.7192E-05  0.6973E-05  0.6692E-05  0.6370E-05  0.6005E-05  0.5618E-05  0.5216E-05  0.4807E-05  0.4406E-05  0.4013E-05  0.3632E-05  0.3246E-05  0.2885E-05  0.2550E-05  0.2264E-05  0.2011E-05  0.1800E-05  0.1631E-05  0.1503E-05  0.1410E-05  0.1352E-05  0.1321E-05  0.1312E-05  0.1310E-05  0.1308E-05  0.1292E-05  0.1253E-05  0.1197E-05  0.1130E-05  0.1055E-05  0.9760E-06  0.8974E-06  0.8181E-06  0.7419E-06  0.6735E-06  0.6083E-06  0.5491E-06  0.4953E-06  0.4468E-06  0.4034E-06  0.3627E-06  0.3247E-06  0.2935E-06  0.2629E-06  0.2367E-06  0.2133E-06  0.1926E-06  0.1741E-06  0.1570E-06  0.1425E-06  0.1283E-06
  0.9320E-06  0.1017E-05  0.1112E-05  0.1216E-05  0.1330E-05  0.1466E-05  0.1621E-05  0.1801E-05  0.2026E-05  0.2286E-05  0.2564E-05  0.2874E-05  0.3211E-05  0.3575E-05  0.3974E-05  0.4417E-05  0.4908E-05  0.5437E-05  0.5966E-05  0.6482E-05  0.6983E-05  0.7431E-05  0.7814E-05  0.8109E-05  0.8295E-05  0.8373E-05  0.8352E-05  0.8230E-05  0.8021E-05  0.7742E-05  0.7401E-05  0.7010E-05  0.6583E-05  0.6133E-05  0.5669E-05  0.5209E-05  0.4751E-05  0.4311E-05  0.3888E-05  0.3479E-05  0.3078E-05  0.2709E-05  0.2381E-05  0.2113E-05  0.1892E-05  0.1716E-05  0.1586E-05  0.1504E-05  0.1458E-05  0.1445E-05  0.1452E-05  0.1464E-05  0.1466E-05  0.1442E-05  0.1390E-05  0.1319E-05  0.1236E-05  0.1147E-05  0.1057E-05  0.9656E-06  0.8749E-06  0.7920E-06  0.7152E-06  0.6435E-06  0.5780E-06  0.5189E-06  0.4682E-06  0.4192E-06  0.3766E-06  0.3382E-06  0.3039E-06  0.2733E-06  0.2462E-06  0.2210E-06  0.1996E-06  0.1807E-06  0.1638E-06  0.1480E-06  0.1344E-06
  0.9967E-06  0.1090E-05  0.1192E-05  0.1306E-05  0.1431E-05  0.1583E-05  0.1757E-05  0.1964E-05  0.2229E-05  0.2515E-05  0.2841E-05  0.3198E-05  0.3593E-05  0.4021E-05  0.4506E-05  0.5034E-05  0.5606E-05  0.6240E-05  0.6861E-05  0.7466E-05  0.8026E-05  0.8529E-05  0.8939E-05  0.9232E-05  0.9397E-05  0.9445E-05  0.9372E-05  0.9190E-05  0.8909E-05  0.8554E-05  0.8135E-05  0.7669E-05  0.7168E-05  0.6646E-05  0.6121E-05  0.5597E-05  0.5088E-05  0.4596E-05  0.4125E-05  0.3684E-05  0.3264E-05  0.2861E-05  0.2509E-05  0.2207E-05  0.1974E-05  0.1797E-05  0.1674E-05  0.1602E-05  0.1576E-05  0.1587E-05  0.1614E-05  0.1636E-05  0.1633E-05  0.1596E-05  0.1528E-05  0.1439E-05  0.1338E-05  0.1234E-05  0.1129E-05  0.1027E-05  0.9300E-06  0.8364E-06  0.7501E-06  0.6757E-06  0.6053E-06  0.5389E-06  0.4841E-06  0.4347E-06  0.3902E-06  0.3505E-06  0.3150E-06  0.2836E-06  0.2544E-06  0.2297E-06  0.2076E-06  0.1867E-06  0.1695E-06  0.1532E-06  0.1393E-06
  0.1062E-05  0.1164E-05  0.1274E-05  0.1398E-05  0.1535E-05  0.1702E-05  0.1897E-05  0.2141E-05  0.2435E-05  0.2768E-05  0.3140E-05  0.3558E-05  0.4021E-05  0.4526E-05  0.5107E-05  0.5745E-05  0.6429E-05  0.7171E-05  0.7883E-05  0.8581E-05  0.9222E-05  0.9768E-05  0.1019E-04  0.1047E-04  0.1061E-04  0.1061E-04  0.1046E-04  0.1020E-04  0.9840E-05  0.9391E-05  0.8879E-05  0.8325E-05  0.7742E-05  0.7144E-05  0.6546E-05  0.5960E-05  0.5395E-05  0.4854E-05  0.4346E-05  0.3868E-05  0.3425E-05  0.3015E-05  0.2635E-05  0.2306E-05  0.2047E-05  0.1872E-05  0.1760E-05  0.1708E-05  0.1711E-05  0.1750E-05  0.1796E-05  0.1820E-05  0.1806E-05  0.1750E-05  0.1662E-05  0.1554E-05  0.1433E-05  0.1311E-05  0.1193E-05  0.1080E-05  0.9729E-06  0.8739E-06  0.7825E-06  0.7003E-06  0.6275E-06  0.5590E-06  0.4990E-06  0.4478E-06  0.4020E-06  0.3600E-06  0.3238E-06  0.2916E-06  0.2615E-06  0.2361E-06  0.2137E-06  0.1939E-06  0.1753E-06  0.1583E-06  0.1440E-06
  0.1128E-05  0.1238E-05  0.1358E-05  0.1492E-05  0.1641E-05  0.1827E-05  0.2045E-05  0.2325E-05  0.2663E-05  0.3039E-05  0.3471E-05  0.3961E-05  0.4506E-05  0.5100E-05  0.5791E-05  0.6558E-05  0.7386E-05  0.8247E-05  0.9083E-05  0.9875E-05  0.1058E-04  0.1115E-04  0.1157E-04  0.1183E-04  0.1192E-04  0.1184E-04  0.1161E-04  0.1126E-04  0.1078E-04  0.1023E-04  0.9608E-05  0.8954E-05  0.8279E-05  0.7606E-05  0.6937E-05  0.6289E-05  0.5669E-05  0.5087E-05  0.4540E-05  0.4032E-05  0.3565E-05  0.3140E-05  0.2755E-05  0.2414E-05  0.2133E-05  0.1942E-05  0.1847E-05  0.1826E-05  0.1867E-05  0.1937E-05  0.1996E-05  0.2015E-05  0.1982E-05  0.1906E-05  0.1797E-05  0.1666E-05  0.1527E-05  0.1388E-05  0.1254E-05  0.1128E-05  0.1013E-05  0.9071E-06  0.8108E-06  0.7230E-06  0.6457E-06  0.5766E-06  0.5129E-06  0.4581E-06  0.4106E-06  0.3686E-06  0.3319E-06  0.2981E-06  0.2681E-06  0.2420E-06  0.2192E-06  0.1992E-06  0.1804E-06  0.1634E-06  0.1480E-06
  0.1197E-05  0.1314E-05  0.1443E-05  0.1588E-05  0.1750E-05  0.1954E-05  0.2200E-05  0.2522E-05  0.2900E-05  0.3338E-05  0.3841E-05  0.4422E-05  0.5061E-05  0.5769E-05  0.6582E-05  0.7509E-05  0.8491E-05  0.9498E-05  0.1046E-04  0.1135E-04  0.1210E-04  0.1269E-04  0.1310E-04  0.1330E-04  0.1331E-04  0.1313E-04  0.1279E-04  0.1229E-04  0.1170E-04  0.1101E-04  0.1028E-04  0.9522E-05  0.8761E-05  0.8009E-05  0.7278E-05  0.6579E-05  0.5913E-05  0.5290E-05  0.4711E-05  0.4181E-05  0.3697E-05  0.3258E-05  0.2869E-05  0.2525E-05  0.2234E-05  0.2034E-05  0.1939E-05  0.1962E-05  0.2048E-05  0.2147E-05  0.2214E-05  0.2220E-05  0.2165E-05  0.2063E-05  0.1933E-05  0.1785E-05  0.1625E-05  0.1470E-05  0.1319E-05  0.1181E-05  0.1054E-05  0.9373E-06  0.8338E-06  0.7402E-06  0.6609E-06  0.5877E-06  0.5236E-06  0.4677E-06  0.4185E-06  0.3763E-06  0.3382E-06  0.3036E-06  0.2735E-06  0.2477E-06  0.2249E-06  0.2035E-06  0.1845E-06  0.1675E-06  0.1526E-06
  0.1265E-05  0.1390E-05  0.1530E-05  0.1684E-05  0.1859E-05  0.2083E-05  0.2369E-05  0.2722E-05  0.3158E-05  0.3664E-05  0.4258E-05  0.4934E-05  0.5690E-05  0.6563E-05  0.7542E-05  0.8633E-05  0.9813E-05  0.1098E-04  0.1206E-04  0.1303E-04  0.1383E-04  0.1441E-04  0.1476E-04  0.1487E-04  0.1475E-04  0.1442E-04  0.1391E-04  0.1327E-04  0.1251E-04  0.1170E-04  0.1085E-04  0.1000E-04  0.9162E-05  0.8349E-05  0.7572E-05  0.6832E-05  0.6136E-05  0.5484E-05  0.4882E-05  0.4333E-05  0.3831E-05  0.3481E-05  0.3137E-05  0.2852E-05  0.2608E-05  0.2463E-05  0.2421E-05  0.2509E-05  0.2665E-05  0.2821E-05  0.2895E-05  0.2879E-05  0.2761E-05  0.2548E-05  0.2298E-05  0.2029E-05  0.1778E-05  0.1574E-05  0.1397E-05  0.1242E-05  0.1097E-05  0.9666E-06  0.8554E-06  0.7574E-06  0.6732E-06  0.6001E-06  0.5324E-06  0.4746E-06  0.4262E-06  0.3837E-06  0.3448E-06  0.3099E-06  0.2780E-06  0.2508E-06  0.2278E-06  0.2086E-06  0.1889E-06  0.1716E-06  0.1568E-06
  0.1334E-05  0.1468E-05  0.1617E-05  0.1783E-05  0.1970E-05  0.2224E-05  0.2540E-05  0.2941E-05  0.3442E-05  0.4046E-05  0.4745E-05  0.5544E-05  0.6449E-05  0.7510E-05  0.8709E-05  0.9995E-05  0.1141E-04  0.1274E-04  0.1397E-04  0.1501E-04  0.1581E-04  0.1632E-04  0.1655E-04  0.1648E-04  0.1615E-04  0.1560E-04  0.1489E-04  0.1406E-04  0.1322E-04  0.1228E-04  0.1132E-04  0.1039E-04  0.9478E-05  0.8623E-05  0.7821E-05  0.7087E-05  0.6703E-05  0.6610E-05  0.6544E-05  0.6380E-05  0.6118E-05  0.5825E-05  0.5493E-05  0.5170E-05  0.4882E-05  0.4678E-05  0.4565E-05  0.4582E-05  0.4684E-05  0.4771E-05  0.4759E-05  0.4625E-05  0.4287E-05  0.3746E-05  0.3119E-05  0.2552E-05  0.2097E-05  0.1758E-05  0.1503E-05  0.1307E-05  0.1144E-05  0.1002E-05  0.8812E-06  0.7769E-06  0.6867E-06  0.6094E-06  0.5410E-06  0.4822E-06  0.4311E-06  0.3883E-06  0.3494E-06  0.3151E-06  0.2841E-06  0.2560E-06  0.2314E-06  0.2093E-06  0.1929E-06  0.1752E-06  0.1605E-06
  0.1403E-05  0.1546E-05  0.1704E-05  0.1883E-05  0.2083E-05  0.2363E-05  0.2725E-05  0.3178E-05  0.3768E-05  0.4475E-05  0.5318E-05  0.6284E-05  0.7371E-05  0.8666E-05  0.1014E-04  0.1176E-04  0.1343E-04  0.1502E-04  0.1641E-04  0.1752E-04  0.1832E-04  0.1875E-04  0.1880E-04  0.1857E-04  0.1815E-04  0.1759E-04  0.1699E-04  0.1641E-04  0.1636E-04  0.1676E-04  0.1827E-04  0.2201E-04  0.2326E-04  0.9101E-05  0.8091E-05  0.7993E-05  0.1470E-04  0.1812E-04  0.1692E-04  0.1522E-04  0.1383E-04  0.1266E-04  0.1169E-04  0.1084E-04  0.1008E-04  0.9408E-05  0.9070E-05  0.8887E-05  0.8782E-05  0.8681E-05  0.8513E-05  0.8116E-05  0.7270E-05  0.5980E-05  0.4584E-05  0.3413E-05  0.2567E-05  0.2011E-05  0.1643E-05  0.1391E-05  0.1200E-05  0.1044E-05  0.9107E-06  0.7976E-06  0.7016E-06  0.6189E-06  0.5481E-06  0.4897E-06  0.4376E-06  0.3944E-06  0.3545E-06  0.3198E-06  0.2887E-06  0.2612E-06  0.2360E-06  0.2140E-06  0.1938E-06  0.1772E-06  0.1640E-06
  0.1476E-05  0.1623E-05  0.1791E-05  0.1983E-05  0.2200E-05  0.2514E-05  0.2915E-05  0.3437E-05  0.4131E-05  0.4994E-05  0.6018E-05  0.7201E-05  0.8571E-05  0.1019E-04  0.1208E-04  0.1418E-04  0.1631E-04  0.1834E-04  0.2006E-04  0.2136E-04  0.2217E-04  0.2256E-04  0.2278E-04  0.2295E-04  0.2330E-04  0.2414E-04  0.2597E-04  0.2939E-04  0.3498E-04  0.4123E-04  0.4262E-04  0.2624E-04  0.1031E-04  0.9306E-05  0.8461E-05  0.1517E-04  0.1079E-04  0.1368E-04  0.2380E-04  0.2883E-04  0.2767E-04  0.2408E-04  0.2056E-04  0.1779E-04  0.1582E-04  0.1449E-04  0.1379E-04  0.1341E-04  0.1312E-04  0.1292E-04  0.1279E-04  0.1236E-04  0.1101E-04  0.8849E-05  0.6447E-05  0.4462E-05  0.3131E-05  0.2308E-05  0.1820E-05  0.1490E-05  0.1266E-05  0.1090E-05  0.9422E-06  0.8211E-06  0.7190E-06  0.6319E-06  0.5578E-06  0.4950E-06  0.4421E-06  0.3992E-06  0.3611E-06  0.3250E-06  0.2941E-06  0.2663E-06  0.2414E-06  0.2187E-06  0.1984E-06  0.1809E-06  0.1666E-06
  0.1553E-05  0.1709E-05  0.1884E-05  0.2087E-05  0.2321E-05  0.2665E-05  0.3120E-05  0.3734E-05  0.4573E-05  0.5622E-05  0.6918E-05  0.8415E-05  0.1019E-04  0.1228E-04  0.1469E-04  0.1744E-04  0.2039E-04  0.2318E-04  0.2568E-04  0.2740E-04  0.2862E-04  0.2957E-04  0.3077E-04  0.3255E-04  0.3535E-04  0.3924E-04  0.4348E-04  0.4666E-04  0.4617E-04  0.3642E-04  0.1807E-04  0.1104E-04  0.1085E-04  0.9273E-05  0.8723E-05  0.1238E-04  0.3174E-04  0.1345E-04  0.1164E-04  0.1813E-04  0.2585E-04  0.3074E-04  0.3135E-04  0.2900E-04  0.2561E-04  0.2239E-04  0.1996E-04  0.1823E-04  0.1702E-04  0.1636E-04  0.1636E-04  0.1613E-04  0.1465E-04  0.1171E-04  0.8342E-05  0.5554E-05  0.3725E-05  0.2619E-05  0.1987E-05  0.1610E-05  0.1337E-05  0.1133E-05  0.9754E-06  0.8477E-06  0.7398E-06  0.6472E-06  0.5699E-06  0.5053E-06  0.4500E-06  0.4029E-06  0.3639E-06  0.3307E-06  0.2998E-06  0.2704E-06  0.2453E-06  0.2228E-06  0.2029E-06  0.1851E-06  0.1695E-06
  0.1632E-05  0.1800E-05  0.1985E-05  0.2195E-05  0.2453E-05  0.2829E-05  0.3353E-05  0.4097E-05  0.5140E-05  0.6502E-05  0.8167E-05  0.1013E-04  0.1239E-04  0.1508E-04  0.1819E-04  0.2188E-04  0.2602E-04  0.3010E-04  0.3353E-04  0.3597E-04  0.3786E-04  0.3978E-04  0.4204E-04  0.4436E-04  0.4620E-04  0.4687E-04  0.4540E-04  0.3911E-04  0.2601E-04  0.1449E-04  0.1169E-04  0.1189E-04  0.1072E-04  0.9195E-05  0.8861E-05  0.1399E-04  0.1860E-04  0.3663E-04  0.1481E-04  0.1099E-04  0.1485E-04  0.2015E-04  0.2580E-04  0.3011E-04  0.3196E-04  0.3160E-04  0.2986E-04  0.2741E-04  0.2489E-04  0.2292E-04  0.2191E-04  0.2094E-04  0.1870E-04  0.1494E-04  0.1070E-04  0.7108E-05  0.4642E-05  0.3111E-05  0.2235E-05  0.1727E-05  0.1417E-05  0.1187E-05  0.1014E-05  0.8734E-06  0.7593E-06  0.6641E-06  0.5852E-06  0.5172E-06  0.4584E-06  0.4104E-06  0.3702E-06  0.3360E-06  0.3049E-06  0.2761E-06  0.2489E-06  0.2265E-06  0.2059E-06  0.1893E-06  0.1743E-06
  0.1715E-05  0.1893E-05  0.2092E-05  0.2319E-05  0.2594E-05  0.3013E-05  0.3647E-05  0.4585E-05  0.5971E-05  0.7879E-05  0.1025E-04  0.1303E-04  0.1608E-04  0.1937E-04  0.2308E-04  0.2753E-04  0.3267E-04  0.3776E-04  0.4189E-04  0.4459E-04  0.4602E-04  0.4666E-04  0.4651E-04  0.4567E-04  0.4375E-04  0.3916E-04  0.3013E-04  0.1918E-04  0.1311E-04  0.1194E-04  0.1235E-04  0.1191E-04  0.1009E-04  0.9071E-05  0.8882E-05  0.1376E-04  0.1507E-04  0.2943E-04  0.3564E-04  0.1566E-04  0.1149E-04  0.1377E-04  0.1726E-04  0.2160E-04  0.2624E-04  0.3052E-04  0.3348E-04  0.3441E-04  0.3368E-04  0.3234E-04  0.3104E-04  0.2915E-04  0.2563E-04  0.2044E-04  0.1485E-04  0.9977E-05  0.6365E-05  0.4021E-05  0.2661E-05  0.1886E-05  0.1500E-05  0.1241E-05  0.1051E-05  0.8994E-06  0.7819E-06  0.6810E-06  0.5976E-06  0.5296E-06  0.4706E-06  0.4209E-06  0.3776E-06  0.3425E-06  0.3122E-06  0.2832E-06  0.2574E-06  0.2324E-06  0.2117E-06  0.1938E-06  0.1787E-06
  0.1794E-05  0.1984E-05  0.2197E-05  0.2445E-05  0.2750E-05  0.3250E-05  0.4072E-05  0.5392E-05  0.7441E-05  0.1030E-04  0.1390E-04  0.1790E-04  0.2192E-04  0.2581E-04  0.2976E-04  0.3413E-04  0.3910E-04  0.4348E-04  0.4616E-04  0.4677E-04  0.4580E-04  0.4415E-04  0.4197E-04  0.3827E-04  0.3175E-04  0.2290E-04  0.1556E-04  0.1230E-04  0.1183E-04  0.1234E-04  0.1247E-04  0.1104E-04  0.9444E-05  0.8844E-05  0.8732E-05  0.1259E-04  0.1676E-04  0.1779E-04  0.3671E-04  0.3318E-04  0.1620E-04  0.1241E-04  0.1406E-04  0.1689E-04  0.2048E-04  0.2494E-04  0.2954E-04  0.3324E-04  0.3578E-04  0.3732E-04  0.3798E-04  0.3695E-04  0.3340E-04  0.2755E-04  0.2065E-04  0.1409E-04  0.8880E-05  0.5335E-05  0.3279E-05  0.2146E-05  0.1594E-05  0.1290E-05  0.1091E-05  0.9291E-06  0.8030E-06  0.7012E-06  0.6146E-06  0.5396E-06  0.4793E-06  0.4298E-06  0.3855E-06  0.3487E-06  0.3170E-06  0.2886E-06  0.2622E-06  0.2401E-06  0.2201E-06  0.1987E-06  0.1831E-06
  0.1869E-05  0.2069E-05  0.2297E-05  0.2560E-05  0.2910E-05  0.3547E-05  0.4643E-05  0.6558E-05  0.9669E-05  0.1413E-04  0.1958E-04  0.2519E-04  0.2993E-04  0.3376E-04  0.3679E-04  0.3945E-04  0.4183E-04  0.4334E-04  0.4342E-04  0.4225E-04  0.4022E-04  0.3712E-04  0.3205E-04  0.2496E-04  0.1787E-04  0.1339E-04  0.1154E-04  0.1144E-04  0.1198E-04  0.1246E-04  0.1167E-04  0.9916E-05  0.8827E-05  0.8500E-05  0.8445E-05  0.1130E-04  0.1733E-04  0.1523E-04  0.2386E-04  0.3939E-04  0.3065E-04  0.1675E-04  0.1358E-04  0.1533E-04  0.1824E-04  0.2205E-04  0.2613E-04  0.2985E-04  0.3310E-04  0.3592E-04  0.3806E-04  0.3872E-04  0.3677E-04  0.3192E-04  0.2501E-04  0.1757E-04  0.1115E-04  0.6576E-05  0.3860E-05  0.2408E-05  0.1676E-05  0.1343E-05  0.1132E-05  0.9613E-06  0.8315E-06  0.7207E-06  0.6310E-06  0.5568E-06  0.4925E-06  0.4394E-06  0.3947E-06  0.3553E-06  0.3228E-06  0.2945E-06  0.2685E-06  0.2459E-06  0.2256E-06  0.2082E-06  0.1871E-06
  0.1935E-05  0.2144E-05  0.2384E-05  0.2663E-05  0.3086E-05  0.3851E-05  0.5296E-05  0.7954E-05  0.1241E-04  0.1867E-04  0.2593E-04  0.3270E-04  0.3735E-04  0.3969E-04  0.4041E-04  0.4036E-04  0.4004E-04  0.3946E-04  0.3823E-04  0.3587E-04  0.3192E-04  0.2620E-04  0.1975E-04  0.1483E-04  0.1200E-04  0.1088E-04  0.1089E-04  0.1142E-04  0.1209E-04  0.1187E-04  0.1039E-04  0.8887E-05  0.8242E-05  0.8081E-05  0.8000E-05  0.1012E-04  0.1642E-04  0.1649E-04  0.1622E-04  0.2984E-04  0.3915E-04  0.2847E-04  0.1728E-04  0.1505E-04  0.1717E-04  0.2038E-04  0.2383E-04  0.2716E-04  0.2996E-04  0.3223E-04  0.3397E-04  0.3490E-04  0.3410E-04  0.3080E-04  0.2512E-04  0.1824E-04  0.1186E-04  0.7166E-05  0.4229E-05  0.2638E-05  0.1821E-05  0.1388E-05  0.1166E-05  0.9897E-06  0.8567E-06  0.7412E-06  0.6520E-06  0.5740E-06  0.5060E-06  0.4503E-06  0.4044E-06  0.3632E-06  0.3288E-06  0.3008E-06  0.2753E-06  0.2521E-06  0.2320E-06  0.2134E-06  0.1957E-06
  0.1988E-05  0.2202E-05  0.2449E-05  0.2750E-05  0.3204E-05  0.4076E-05  0.5830E-05  0.9128E-05  0.1461E-04  0.2206E-04  0.3012E-04  0.3679E-04  0.4045E-04  0.4110E-04  0.4009E-04  0.3858E-04  0.3696E-04  0.3492E-04  0.3175E-04  0.2713E-04  0.2155E-04  0.1656E-04  0.1308E-04  0.1124E-04  0.1050E-04  0.1043E-04  0.1086E-04  0.1156E-04  0.1173E-04  0.1071E-04  0.9106E-05  0.8060E-05  0.7697E-05  0.7630E-05  0.7606E-05  0.9139E-05  0.1477E-04  0.1749E-04  0.1443E-04  0.1986E-04  0.3386E-04  0.3768E-04  0.2689E-04  0.1794E-04  0.1651E-04  0.1860E-04  0.2136E-04  0.2408E-04  0.2643E-04  0.2806E-04  0.2896E-04  0.2921E-04  0.2844E-04  0.2592E-04  0.2155E-04  0.1610E-04  0.1084E-04  0.6831E-05  0.4211E-05  0.2707E-05  0.1897E-05  0.1435E-05  0.1199E-05  0.1025E-05  0.8820E-06  0.7663E-06  0.6691E-06  0.5884E-06  0.5214E-06  0.4650E-06  0.4152E-06  0.3728E-06  0.3369E-06  0.3079E-06  0.2824E-06  0.2597E-06  0.2390E-06  0.2190E-06  0.2004E-06
  0.2023E-05  0.2241E-05  0.2491E-05  0.2794E-05  0.3252E-05  0.4170E-05  0.6061E-05  0.9617E-05  0.1532E-04  0.2291E-04  0.3086E-04  0.3701E-04  0.4001E-04  0.4000E-04  0.3815E-04  0.3553E-04  0.3220E-04  0.2803E-04  0.2311E-04  0.1835E-04  0.1470E-04  0.1239E-04  0.1113E-04  0.1063E-04  0.1047E-04  0.1065E-04  0.1114E-04  0.1143E-04  0.1084E-04  0.9392E-05  0.8050E-05  0.7413E-05  0.7252E-05  0.7246E-05  0.7275E-05  0.8403E-05  0.1309E-04  0.1770E-04  0.1544E-04  0.1490E-04  0.2444E-04  0.3628E-04  0.3608E-04  0.2595E-04  0.1867E-04  0.1734E-04  0.1873E-04  0.2073E-04  0.2246E-04  0.2366E-04  0.2412E-04  0.2385E-04  0.2266E-04  0.2037E-04  0.1691E-04  0.1288E-04  0.9042E-05  0.6023E-05  0.3979E-05  0.2693E-05  0.1946E-05  0.1496E-05  0.1225E-05  0.1048E-05  0.9059E-06  0.7910E-06  0.6895E-06  0.6055E-06  0.5369E-06  0.4771E-06  0.4268E-06  0.3830E-06  0.3468E-06  0.3164E-06  0.2902E-06  0.2665E-06  0.2446E-06  0.2245E-06  0.2058E-06
  0.2042E-05  0.2258E-05  0.2503E-05  0.2805E-05  0.3250E-05  0.4152E-05  0.5981E-05  0.9404E-05  0.1489E-04  0.2220E-04  0.2986E-04  0.3571E-04  0.3818E-04  0.3731E-04  0.3404E-04  0.2955E-04  0.2457E-04  0.1981E-04  0.1596E-04  0.1334E-04  0.1186E-04  0.1117E-04  0.1103E-04  0.1087E-04  0.1084E-04  0.1101E-04  0.1115E-04  0.1077E-04  0.9610E-05  0.8205E-05  0.7277E-05  0.6934E-05  0.6913E-05  0.6963E-05  0.7054E-05  0.7934E-05  0.1170E-04  0.1708E-04  0.1689E-04  0.1398E-04  0.1771E-04  0.2878E-04  0.3750E-04  0.3463E-04  0.2524E-04  0.1889E-04  0.1722E-04  0.1781E-04  0.1901E-04  0.1977E-04  0.1989E-04  0.1931E-04  0.1795E-04  0.1580E-04  0.1307E-04  0.1012E-04  0.7399E-05  0.5240E-05  0.3686E-05  0.2643E-05  0.1977E-05  0.1556E-05  0.1269E-05  0.1075E-05  0.9305E-06  0.8097E-06  0.7076E-06  0.6251E-06  0.5514E-06  0.4905E-06  0.4388E-06  0.3934E-06  0.3571E-06  0.3258E-06  0.2990E-06  0.2745E-06  0.2513E-06  0.2300E-06  0.2100E-06
  0.2038E-05  0.2253E-05  0.2486E-05  0.2775E-05  0.3212E-05  0.4031E-05  0.5695E-05  0.8864E-05  0.1404E-04  0.2087E-04  0.2787E-04  0.3280E-04  0.3386E-04  0.3129E-04  0.2659E-04  0.2137E-04  0.1705E-04  0.1386E-04  0.1189E-04  0.1090E-04  0.1051E-04  0.1048E-04  0.1059E-04  0.1076E-04  0.1074E-04  0.1066E-04  0.1036E-04  0.9546E-05  0.8330E-05  0.7274E-05  0.6733E-05  0.6599E-05  0.6685E-05  0.6807E-05  0.6963E-05  0.7683E-05  0.1069E-04  0.1608E-04  0.1809E-04  0.1517E-04  0.1466E-04  0.2162E-04  0.3229E-04  0.3769E-04  0.3300E-04  0.2420E-04  0.1839E-04  0.1639E-04  0.1639E-04  0.1674E-04  0.1661E-04  0.1585E-04  0.1445E-04  0.1256E-04  0.1040E-04  0.8218E-05  0.6235E-05  0.4627E-05  0.3421E-05  0.2582E-05  0.1989E-05  0.1579E-05  0.1300E-05  0.1093E-05  0.9504E-06  0.8291E-06  0.7266E-06  0.6419E-06  0.5656E-06  0.5067E-06  0.4522E-06  0.4072E-06  0.3689E-06  0.3355E-06  0.3067E-06  0.2811E-06  0.2574E-06  0.2353E-06  0.2151E-06
  0.2016E-05  0.2225E-05  0.2447E-05  0.2714E-05  0.3125E-05  0.3846E-05  0.5300E-05  0.8088E-05  0.1257E-04  0.1830E-04  0.2363E-04  0.2657E-04  0.2597E-04  0.2249E-04  0.1814E-04  0.1446E-04  0.1193E-04  0.1046E-04  0.9616E-05  0.9431E-05  0.9354E-05  0.9371E-05  0.9462E-05  0.9648E-05  0.9698E-05  0.9427E-05  0.8903E-05  0.8093E-05  0.7221E-05  0.6607E-05  0.6384E-05  0.6428E-05  0.6578E-05  0.6759E-05  0.6978E-05  0.7603E-05  0.9994E-05  0.1497E-04  0.1851E-04  0.1680E-04  0.1431E-04  0.1695E-04  0.2536E-04  0.3440E-04  0.3679E-04  0.3093E-04  0.2270E-04  0.1727E-04  0.1513E-04  0.1453E-04  0.1412E-04  0.1328E-04  0.1198E-04  0.1038E-04  0.8645E-05  0.6961E-05  0.5443E-05  0.4190E-05  0.3237E-05  0.2515E-05  0.1993E-05  0.1612E-05  0.1331E-05  0.1125E-05  0.9706E-06  0.8481E-06  0.7444E-06  0.6578E-06  0.5832E-06  0.5221E-06  0.4656E-06  0.4207E-06  0.3798E-06  0.3461E-06  0.3148E-06  0.2882E-06  0.2639E-06  0.2407E-06  0.2190E-06
  0.1978E-05  0.2179E-05  0.2391E-05  0.2628E-05  0.2995E-05  0.3612E-05  0.4785E-05  0.6903E-05  0.1017E-04  0.1410E-04  0.1727E-04  0.1835E-04  0.1704E-04  0.1448E-04  0.1188E-04  0.9995E-05  0.8949E-05  0.8411E-05  0.8258E-05  0.8183E-05  0.8132E-05  0.8105E-05  0.8122E-05  0.8126E-05  0.8072E-05  0.7831E-05  0.7345E-05  0.6831E-05  0.6395E-05  0.6171E-05  0.6178E-05  0.6336E-05  0.6544E-05  0.6776E-05  0.7047E-05  0.7601E-05  0.9518E-05  0.1388E-04  0.1825E-04  0.1822E-04  0.1525E-04  0.1466E-04  0.1970E-04  0.2823E-04  0.3514E-04  0.3513E-04  0.2862E-04  0.2092E-04  0.1588E-04  0.1347E-04  0.1228E-04  0.1135E-04  0.1018E-04  0.8823E-05  0.7440E-05  0.6098E-05  0.4875E-05  0.3882E-05  0.3066E-05  0.2454E-05  0.1983E-05  0.1618E-05  0.1348E-05  0.1146E-05  0.9884E-06  0.8661E-06  0.7622E-06  0.6754E-06  0.5987E-06  0.5363E-06  0.4799E-06  0.4338E-06  0.3910E-06  0.3554E-06  0.3231E-06  0.2952E-06  0.2695E-06  0.2458E-06  0.2241E-06
  0.1926E-05  0.2117E-05  0.2318E-05  0.2533E-05  0.2826E-05  0.3289E-05  0.4116E-05  0.5509E-05  0.7485E-05  0.9577E-05  0.1109E-04  0.1136E-04  0.1050E-04  0.9224E-05  0.8166E-05  0.7478E-05  0.7181E-05  0.7100E-05  0.7052E-05  0.7017E-05  0.6981E-05  0.6935E-05  0.6877E-05  0.6793E-05  0.6680E-05  0.6472E-05  0.6203E-05  0.5974E-05  0.5862E-05  0.5912E-05  0.6060E-05  0.6292E-05  0.6547E-05  0.6822E-05  0.7122E-05  0.7619E-05  0.9169E-05  0.1285E-04  0.1750E-04  0.1903E-04  0.1655E-04  0.1428E-04  0.1600E-04  0.2224E-04  0.3012E-04  0.3484E-04  0.3304E-04  0.2623E-04  0.1894E-04  0.1411E-04  0.1146E-04  0.1000E-04  0.8829E-05  0.7695E-05  0.6532E-05  0.5440E-05  0.4423E-05  0.3620E-05  0.2927E-05  0.2386E-05  0.1954E-05  0.1625E-05  0.1366E-05  0.1163E-05  0.1004E-05  0.8821E-06  0.7794E-06  0.6912E-06  0.6161E-06  0.5531E-06  0.4951E-06  0.4465E-06  0.4011E-06  0.3637E-06  0.3303E-06  0.3020E-06  0.2753E-06  0.2509E-06  0.2277E-06
  0.1863E-05  0.2044E-05  0.2232E-05  0.2433E-05  0.2650E-05  0.3015E-05  0.3536E-05  0.4290E-05  0.5320E-05  0.6337E-05  0.6980E-05  0.7119E-05  0.6847E-05  0.6454E-05  0.6115E-05  0.6058E-05  0.6064E-05  0.6063E-05  0.6057E-05  0.6031E-05  0.5997E-05  0.5947E-05  0.5881E-05  0.5794E-05  0.5690E-05  0.5581E-05  0.5511E-05  0.5492E-05  0.5568E-05  0.5755E-05  0.6005E-05  0.6269E-05  0.6551E-05  0.6845E-05  0.7155E-05  0.7586E-05  0.8858E-05  0.1192E-04  0.1643E-04  0.1907E-04  0.1766E-04  0.1477E-04  0.1416E-04  0.1779E-04  0.2455E-04  0.3136E-04  0.3407E-04  0.3073E-04  0.2366E-04  0.1674E-04  0.1208E-04  0.9437E-05  0.7939E-05  0.6818E-05  0.5844E-05  0.4916E-05  0.4087E-05  0.3393E-05  0.2804E-05  0.2323E-05  0.1938E-05  0.1625E-05  0.1376E-05  0.1179E-05  0.1022E-05  0.8970E-06  0.7962E-06  0.7085E-06  0.6337E-06  0.5667E-06  0.5075E-06  0.4571E-06  0.4110E-06  0.3724E-06  0.3380E-06  0.3086E-06  0.2805E-06  0.2547E-06  0.2313E-06
  0.1790E-05  0.1959E-05  0.2137E-05  0.2322E-05  0.2511E-05  0.2728E-05  0.3077E-05  0.3493E-05  0.3983E-05  0.4473E-05  0.4815E-05  0.4968E-05  0.5007E-05  0.4971E-05  0.5083E-05  0.5153E-05  0.5197E-05  0.5224E-05  0.5228E-05  0.5220E-05  0.5206E-05  0.5161E-05  0.5129E-05  0.5084E-05  0.5056E-05  0.5061E-05  0.5102E-05  0.5217E-05  0.5422E-05  0.5686E-05  0.5959E-05  0.6238E-05  0.6527E-05  0.6823E-05  0.7135E-05  0.7500E-05  0.8554E-05  0.1103E-04  0.1508E-04  0.1831E-04  0.1806E-04  0.1532E-04  0.1359E-04  0.1509E-04  0.2025E-04  0.2707E-04  0.3229E-04  0.3273E-04  0.2800E-04  0.2086E-04  0.1444E-04  0.1014E-04  0.7707E-05  0.6298E-05  0.5311E-05  0.4517E-05  0.3815E-05  0.3199E-05  0.2683E-05  0.2259E-05  0.1907E-05  0.1611E-05  0.1381E-05  0.1189E-05  0.1037E-05  0.9115E-06  0.8102E-06  0.7234E-06  0.6464E-06  0.5785E-06  0.5192E-06  0.4683E-06  0.4206E-06  0.3809E-06  0.3447E-06  0.3136E-06  0.2852E-06  0.2591E-06  0.2352E-06
  0.1714E-05  0.1868E-05  0.2033E-05  0.2203E-05  0.2378E-05  0.2557E-05  0.2749E-05  0.3013E-05  0.3285E-05  0.3541E-05  0.3775E-05  0.3918E-05  0.4089E-05  0.4237E-05  0.4355E-05  0.4458E-05  0.4517E-05  0.4563E-05  0.4581E-05  0.4585E-05  0.4584E-05  0.4567E-05  0.4572E-05  0.4585E-05  0.4635E-05  0.4723E-05  0.4863E-05  0.5073E-05  0.5345E-05  0.5623E-05  0.5903E-05  0.6187E-05  0.6465E-05  0.6754E-05  0.7047E-05  0.7366E-05  0.8231E-05  0.1016E-04  0.1350E-04  0.1665E-04  0.1725E-04  0.1532E-04  0.1353E-04  0.1400E-04  0.1778E-04  0.2387E-04  0.2963E-04  0.3215E-04  0.3024E-04  0.2476E-04  0.1806E-04  0.1234E-04  0.8445E-05  0.6270E-05  0.5021E-05  0.4194E-05  0.3590E-05  0.3049E-05  0.2581E-05  0.2196E-05  0.1873E-05  0.1605E-05  0.1378E-05  0.1196E-05  0.1048E-05  0.9238E-06  0.8250E-06  0.7351E-06  0.6574E-06  0.5904E-06  0.5300E-06  0.4772E-06  0.4291E-06  0.3875E-06  0.3501E-06  0.3193E-06  0.2900E-06  0.2634E-06  0.2382E-06
  0.1632E-05  0.1777E-05  0.1928E-05  0.2081E-05  0.2240E-05  0.2401E-05  0.2560E-05  0.2719E-05  0.2898E-05  0.3073E-05  0.3250E-05  0.3417E-05  0.3569E-05  0.3695E-05  0.3806E-05  0.3905E-05  0.3975E-05  0.4023E-05  0.4054E-05  0.4082E-05  0.4100E-05  0.4125E-05  0.4171E-05  0.4242E-05  0.4349E-05  0.4507E-05  0.4713E-05  0.4977E-05  0.5261E-05  0.5546E-05  0.5822E-05  0.6091E-05  0.6361E-05  0.6626E-05  0.6906E-05  0.7213E-05  0.7896E-05  0.9313E-05  0.1177E-04  0.1436E-04  0.1538E-04  0.1451E-04  0.1336E-04  0.1397E-04  0.1697E-04  0.2216E-04  0.2715E-04  0.2998E-04  0.2998E-04  0.2715E-04  0.2190E-04  0.1567E-04  0.1034E-04  0.6906E-05  0.5028E-05  0.3995E-05  0.3391E-05  0.2904E-05  0.2494E-05  0.2140E-05  0.1840E-05  0.1589E-05  0.1373E-05  0.1199E-05  0.1056E-05  0.9346E-06  0.8325E-06  0.7441E-06  0.6656E-06  0.5985E-06  0.5389E-06  0.4848E-06  0.4359E-06  0.3937E-06  0.3562E-06  0.3239E-06  0.2940E-06  0.2660E-06  0.2404E-06
  0.1546E-05  0.1680E-05  0.1819E-05  0.1958E-05  0.2102E-05  0.2247E-05  0.2389E-05  0.2531E-05  0.2663E-05  0.2800E-05  0.2931E-05  0.3067E-05  0.3176E-05  0.3288E-05  0.3386E-05  0.3470E-05  0.3531E-05  0.3574E-05  0.3631E-05  0.3669E-05  0.3713E-05  0.3777E-05  0.3865E-05  0.3972E-05  0.4130E-05  0.4331E-05  0.4583E-05  0.4866E-05  0.5152E-05  0.5429E-05  0.5694E-05  0.5950E-05  0.6198E-05  0.6452E-05  0.6723E-05  0.7018E-05  0.7548E-05  0.8555E-05  0.1021E-04  0.1207E-04  0.1318E-04  0.1325E-04  0.1316E-04  0.1428E-04  0.1707E-04  0.2109E-04  0.2488E-04  0.2715E-04  0.2809E-04  0.2763E-04  0.2470E-04  0.1923E-04  0.1307E-04  0.8322E-05  0.5409E-05  0.3963E-05  0.3246E-05  0.2783E-05  0.2409E-05  0.2081E-05  0.1800E-05  0.1566E-05  0.1367E-05  0.1199E-05  0.1059E-05  0.9397E-06  0.8389E-06  0.7516E-06  0.6746E-06  0.6071E-06  0.5450E-06  0.4902E-06  0.4421E-06  0.3983E-06  0.3609E-06  0.3280E-06  0.2967E-06  0.2683E-06  0.2426E-06
  0.1459E-05  0.1582E-05  0.1710E-05  0.1837E-05  0.1967E-05  0.2095E-05  0.2224E-05  0.2347E-05  0.2469E-05  0.2576E-05  0.2684E-05  0.2781E-05  0.2877E-05  0.2965E-05  0.3049E-05  0.3117E-05  0.3169E-05  0.3230E-05  0.3280E-05  0.3337E-05  0.3402E-05  0.3493E-05  0.3607E-05  0.3751E-05  0.3940E-05  0.4174E-05  0.4445E-05  0.4732E-05  0.5008E-05  0.5273E-05  0.5525E-05  0.5764E-05  0.6002E-05  0.6241E-05  0.6499E-05  0.6790E-05  0.7234E-05  0.7956E-05  0.9057E-05  0.1035E-04  0.1143E-04  0.1215E-04  0.1295E-04  0.1448E-04  0.1699E-04  0.1994E-04  0.2270E-04  0.2454E-04  0.2603E-04  0.2705E-04  0.2599E-04  0.2171E-04  0.1550E-04  0.9864E-05  0.6194E-05  0.4168E-05  0.3168E-05  0.2678E-05  0.2323E-05  0.2023E-05  0.1761E-05  0.1541E-05  0.1352E-05  0.1193E-05  0.1057E-05  0.9400E-06  0.8415E-06  0.7564E-06  0.6798E-06  0.6115E-06  0.5503E-06  0.4942E-06  0.4460E-06  0.4029E-06  0.3647E-06  0.3304E-06  0.2988E-06  0.2705E-06  0.2444E-06
  0.1370E-05  0.1484E-05  0.1599E-05  0.1716E-05  0.1835E-05  0.1953E-05  0.2063E-05  0.2177E-05  0.2279E-05  0.2381E-05  0.2467E-05  0.2548E-05  0.2620E-05  0.2697E-05  0.2770E-05  0.2827E-05  0.2878E-05  0.2942E-05  0.2997E-05  0.3063E-05  0.3149E-05  0.3254E-05  0.3390E-05  0.3552E-05  0.3763E-05  0.4014E-05  0.4291E-05  0.4567E-05  0.4832E-05  0.5084E-05  0.5320E-05  0.5546E-05  0.5764E-05  0.5995E-05  0.6250E-05  0.6557E-05  0.6945E-05  0.7540E-05  0.8346E-05  0.9349E-05  0.1041E-04  0.1149E-04  0.1277E-04  0.1443E-04  0.1657E-04  0.1888E-04  0.2094E-04  0.2283E-04  0.2464E-04  0.2616E-04  0.2586E-04  0.2243E-04  0.1667E-04  0.1088E-04  0.6770E-05  0.4419E-05  0.3224E-05  0.2597E-05  0.2259E-05  0.1968E-05  0.1727E-05  0.1515E-05  0.1338E-05  0.1184E-05  0.1050E-05  0.9373E-06  0.8418E-06  0.7568E-06  0.6807E-06  0.6131E-06  0.5517E-06  0.4975E-06  0.4492E-06  0.4057E-06  0.3669E-06  0.3320E-06  0.3007E-06  0.2719E-06  0.2457E-06
  0.1281E-05  0.1386E-05  0.1494E-05  0.1599E-05  0.1708E-05  0.1810E-05  0.1916E-05  0.2011E-05  0.2109E-05  0.2192E-05  0.2273E-05  0.2343E-05  0.2404E-05  0.2476E-05  0.2534E-05  0.2587E-05  0.2644E-05  0.2702E-05  0.2760E-05  0.2837E-05  0.2930E-05  0.3049E-05  0.3191E-05  0.3371E-05  0.3586E-05  0.3851E-05  0.4118E-05  0.4381E-05  0.4632E-05  0.4867E-05  0.5082E-05  0.5293E-05  0.5500E-05  0.5725E-05  0.5983E-05  0.6300E-05  0.6703E-05  0.7242E-05  0.7954E-05  0.8863E-05  0.9936E-05  0.1116E-04  0.1259E-04  0.1423E-04  0.1609E-04  0.1802E-04  0.1991E-04  0.2176E-04  0.2351E-04  0.2473E-04  0.2424E-04  0.2119E-04  0.1611E-04  0.1086E-04  0.6912E-05  0.4545E-05  0.3257E-05  0.2562E-05  0.2186E-05  0.1920E-05  0.1688E-05  0.1482E-05  0.1314E-05  0.1166E-05  0.1041E-05  0.9329E-06  0.8382E-06  0.7544E-06  0.6816E-06  0.6137E-06  0.5527E-06  0.4985E-06  0.4507E-06  0.4077E-06  0.3682E-06  0.3328E-06  0.3011E-06  0.2728E-06  0.2463E-06
  0.1193E-05  0.1291E-05  0.1388E-05  0.1486E-05  0.1581E-05  0.1680E-05  0.1769E-05  0.1862E-05  0.1944E-05  0.2023E-05  0.2094E-05  0.2155E-05  0.2217E-05  0.2278E-05  0.2331E-05  0.2382E-05  0.2435E-05  0.2496E-05  0.2562E-05  0.2641E-05  0.2737E-05  0.2861E-05  0.3012E-05  0.3189E-05  0.3417E-05  0.3672E-05  0.3930E-05  0.4178E-05  0.4410E-05  0.4627E-05  0.4828E-05  0.5021E-05  0.5217E-05  0.5435E-05  0.5696E-05  0.6026E-05  0.6454E-05  0.7005E-05  0.7731E-05  0.8620E-05  0.9697E-05  0.1095E-04  0.1237E-04  0.1395E-04  0.1562E-04  0.1736E-04  0.1905E-04  0.2059E-04  0.2189E-04  0.2234E-04  0.2130E-04  0.1840E-04  0.1421E-04  0.9903E-05  0.6582E-05  0.4446E-05  0.3243E-05  0.2544E-05  0.2127E-05  0.1865E-05  0.1642E-05  0.1452E-05  0.1286E-05  0.1150E-05  0.1029E-05  0.9227E-06  0.8330E-06  0.7511E-06  0.6793E-06  0.6122E-06  0.5518E-06  0.4983E-06  0.4502E-06  0.4068E-06  0.3683E-06  0.3332E-06  0.3013E-06  0.2723E-06  0.2457E-06
  0.1111E-05  0.1197E-05  0.1286E-05  0.1374E-05  0.1465E-05  0.1550E-05  0.1635E-05  0.1715E-05  0.1791E-05  0.1865E-05  0.1928E-05  0.1984E-05  0.2044E-05  0.2099E-05  0.2150E-05  0.2200E-05  0.2254E-05  0.2311E-05  0.2382E-05  0.2464E-05  0.2565E-05  0.2687E-05  0.2836E-05  0.3016E-05  0.3241E-05  0.3485E-05  0.3726E-05  0.3953E-05  0.4163E-05  0.4362E-05  0.4548E-05  0.4729E-05  0.4922E-05  0.5137E-05  0.5403E-05  0.5755E-05  0.6213E-05  0.6797E-05  0.7521E-05  0.8422E-05  0.9479E-05  0.1070E-04  0.1207E-04  0.1354E-04  0.1508E-04  0.1660E-04  0.1798E-04  0.1908E-04  0.1961E-04  0.1931E-04  0.1783E-04  0.1519E-04  0.1184E-04  0.8567E-05  0.5960E-05  0.4217E-05  0.3163E-05  0.2493E-05  0.2084E-05  0.1804E-05  0.1595E-05  0.1416E-05  0.1261E-05  0.1126E-05  0.1010E-05  0.9136E-06  0.8241E-06  0.7438E-06  0.6727E-06  0.6078E-06  0.5490E-06  0.4971E-06  0.4490E-06  0.4059E-06  0.3670E-06  0.3321E-06  0.3000E-06  0.2708E-06  0.2443E-06
  0.1029E-05  0.1111E-05  0.1188E-05  0.1272E-05  0.1351E-05  0.1431E-05  0.1508E-05  0.1579E-05  0.1653E-05  0.1717E-05  0.1776E-05  0.1836E-05  0.1887E-05  0.1939E-05  0.1991E-05  0.2038E-05  0.2090E-05  0.2149E-05  0.2216E-05  0.2297E-05  0.2394E-05  0.2514E-05  0.2660E-05  0.2837E-05  0.3052E-05  0.3279E-05  0.3504E-05  0.3717E-05  0.3909E-05  0.4093E-05  0.4269E-05  0.4442E-05  0.4624E-05  0.4843E-05  0.5120E-05  0.5486E-05  0.5957E-05  0.6553E-05  0.7283E-05  0.8156E-05  0.9177E-05  0.1034E-04  0.1162E-04  0.1297E-04  0.1430E-04  0.1554E-04  0.1654E-04  0.1712E-04  0.1710E-04  0.1630E-04  0.1467E-04  0.1238E-04  0.9764E-05  0.7317E-05  0.5337E-05  0.3933E-05  0.3026E-05  0.2427E-05  0.2027E-05  0.1748E-05  0.1549E-05  0.1378E-05  0.1227E-05  0.1100E-05  0.9948E-06  0.8966E-06  0.8115E-06  0.7354E-06  0.6661E-06  0.6023E-06  0.5435E-06  0.4913E-06  0.4463E-06  0.4035E-06  0.3645E-06  0.3299E-06  0.2979E-06  0.2693E-06  0.2423E-06
  0.9555E-06  0.1024E-05  0.1102E-05  0.1172E-05  0.1245E-05  0.1319E-05  0.1387E-05  0.1459E-05  0.1522E-05  0.1581E-05  0.1635E-05  0.1693E-05  0.1744E-05  0.1796E-05  0.1847E-05  0.1896E-05  0.1946E-05  0.2003E-05  0.2069E-05  0.2146E-05  0.2239E-05  0.2354E-05  0.2495E-05  0.2669E-05  0.2871E-05  0.3082E-05  0.3288E-05  0.3483E-05  0.3660E-05  0.3831E-05  0.3995E-05  0.4157E-05  0.4340E-05  0.4563E-05  0.4845E-05  0.5216E-05  0.5685E-05  0.6261E-05  0.6964E-05  0.7794E-05  0.8752E-05  0.9827E-05  0.1098E-04  0.1215E-04  0.1328E-04  0.1423E-04  0.1486E-04  0.1503E-04  0.1465E-04  0.1366E-04  0.1209E-04  0.1018E-04  0.8151E-05  0.6284E-05  0.4757E-05  0.3653E-05  0.2874E-05  0.2345E-05  0.1964E-05  0.1694E-05  0.1496E-05  0.1335E-05  0.1195E-05  0.1075E-05  0.9704E-06  0.8795E-06  0.7983E-06  0.7226E-06  0.6541E-06  0.5938E-06  0.5380E-06  0.4865E-06  0.4402E-06  0.3996E-06  0.3610E-06  0.3262E-06  0.2948E-06  0.2658E-06  0.2394E-06
  0.8815E-06  0.9491E-06  0.1016E-05  0.1081E-05  0.1150E-05  0.1214E-05  0.1275E-05  0.1342E-05  0.1400E-05  0.1455E-05  0.1512E-05  0.1562E-05  0.1612E-05  0.1663E-05  0.1712E-05  0.1763E-05  0.1815E-05  0.1870E-05  0.1935E-05  0.2011E-05  0.2099E-05  0.2207E-05  0.2344E-05  0.2510E-05  0.2695E-05  0.2887E-05  0.3079E-05  0.3258E-05  0.3424E-05  0.3579E-05  0.3730E-05  0.3888E-05  0.4065E-05  0.4280E-05  0.4562E-05  0.4917E-05  0.5364E-05  0.5911E-05  0.6568E-05  0.7343E-05  0.8214E-05  0.9178E-05  0.1018E-04  0.1117E-04  0.1206E-04  0.1272E-04  0.1305E-04  0.1299E-04  0.1244E-04  0.1145E-04  0.1008E-04  0.8506E-05  0.6908E-05  0.5460E-05  0.4268E-05  0.3361E-05  0.2703E-05  0.2230E-05  0.1890E-05  0.1630E-05  0.1440E-05  0.1289E-05  0.1160E-05  0.1044E-05  0.9443E-06  0.8600E-06  0.7804E-06  0.7077E-06  0.6443E-06  0.5836E-06  0.5287E-06  0.4793E-06  0.4346E-06  0.3934E-06  0.3563E-06  0.3220E-06  0.2906E-06  0.2622E-06  0.2361E-06
