DSAA
          79         109
    318.3670    342.0670
   7336.5760   7369.2760
  0.0000E+00  0.1952E-04
  0.0000E+00  0.0000E+00  0.0000E+00  0.0000E+00  0.0000E+00  0.0000E+00  0.0000E+00  0.0000E+00  0.0000E+00  0.0000E+00  0.0000E+00  0.0000E+00  0.0000E+00  0.0000E+00  0.0000E+00  0.0000E+00  0.0000E+00  0.0000E+00  0.0000E+00  0.0000E+00  0.0000E+00  0.0000E+00  0.0000E+00  0.0000E+00  0.0000E+00  0.0000E+00  0.0000E+00  0.0000E+00  0.0000E+00  0.0000E+00  0.0000E+00  0.0000E+00  0.0000E+00  0.0000E+00  0.0000E+00  0.0000E+00  0.0000E+00  0.0000E+00  0.0000E+00  0.0000E+00  0.0000E+00  0.0000E+00  0.0000E+00  0.0000E+00  0.0000E+00  0.0000E+00  0.0000E+00  0.0000E+00  0.0000E+00  0.0000E+00  0.0000E+00  0.0000E+00  0.0000E+00  0.0000E+00  0.0000E+00  0.0000E+00  0.0000E+00  0.0000E+00  0.0000E+00  0.0000E+00  0.0000E+00  0.0000E+00  0.0000E+00  0.0000E+00  0.0000E+00  0.0000E+00  0.0000E+00  0.0000E+00  0.0000E+00  0.0000E+00  0.0000E+00  0.0000E+00  0.0000E+00  0.0000E+00  0.0000E+00  0.0000E+00  0.0000E+00  0.0000E+00  0.0000E+00
  0.0000E+00  0.0000E+00  0.0000E+00  0.0000E+00  0.0000E+00  0.0000E+00  0.0000E+00  0.0000E+00  0.0000E+00  0.0000E+00  0.0000E+00  0.0000E+00  0.0000E+00  0.0000E+00  0.0000E+00  0.0000E+00  0.0000E+00  0.0000E+00  0.0000E+00  0.0000E+00  0.0000E+00  0.0000E+00  0.0000E+00  0.0000E+00  0.0000E+00  0.0000E+00  0.0000E+00  0.0000E+00  0.0000E+00  0.0000E+00  0.0000E+00  0.0000E+00  0.0000E+00  0.0000E+00  0.0000E+00  0.0000E+00  0.0000E+00  0.0000E+00  0.0000E+00  0.0000E+00  0.0000E+00  0.0000E+00  0.0000E+00  0.0000E+00  0.0000E+00  0.0000E+00  0.0000E+00  0.0000E+00  0.0000E+00  0.0000E+00  0.0000E+00  0.0000E+00  0.0000E+00  0.0000E+00  0.0000E+00  0.0000E+00  0.0000E+00  0.0000E+00  0.0000E+00  0.0000E+00  0.0000E+00  0.0000E+00  0.0000E+00  0.0000E+00  0.0000E+00  0.0000E+00  0.0000E+00  0.0000E+00  0.0000E+00  0.0000E+00  0.0000E+00  0.0000E+00  0.0000E+00  0.0000E+00  0.0000E+00  0.0000E+00  0.0000E+00  0.0000E+00  0.0000E+00
  0.0000E+00  0.0000E+00  0.0000E+00  0.0000E+00  0.0000E+00  0.0000E+00  0.0000E+00  0.0000E+00  0.0000E+00  0.0000E+00  0.0000E+00  0.0000E+00  0.0000E+00  0.0000E+00  0.0000E+00  0.0000E+00  0.0000E+00  0.0000E+00  0.0000E+00  0.0000E+00  0.0000E+00  0.0000E+00  0.0000E+00  0.0000E+00  0.0000E+00  0.0000E+00  0.0000E+00  0.0000E+00  0.0000E+00  0.0000E+00  0.0000E+00  0.0000E+00  0.0000E+00  0.0000E+00  0.0000E+00  0.0000E+00  0.0000E+00  0.0000E+00  0.0000E+00  0.0000E+00  0.0000E+00  0.0000E+00  0.0000E+00  0.0000E+00  0.0000E+00  0.0000E+00  0.0000E+00  0.0000E+00  0.0000E+00  0.0000E+00  0.0000E+00  0.0000E+00  0.0000E+00  0.0000E+00  0.0000E+00  0.0000E+00  0.0000E+00  0.0000E+00  0.0000E+00  0.0000E+00  0.0000E+00  0.0000E+00  0.0000E+00  0.0000E+00  0.0000E+00  0.0000E+00  0.0000E+00  0.0000E+00  0.0000E+00  0.0000E+00  0.0000E+00  0.0000E+00  0.0000E+00  0.0000E+00  0.0000E+00  0.0000E+00  0.0000E+00  0.0000E+00  0.0000E+00
  0.0000E+00  0.0000E+00  0.0000E+00  0.0000E+00  0.0000E+00  0.0000E+00  0.0000E+00  0.0000E+00  0.0000E+00  0.0000E+00  0.0000E+00  0.0000E+00  0.0000E+00  0.0000E+00  0.0000E+00  0.0000E+00  0.0000E+00  0.0000E+00  0.0000E+00  0.0000E+00  0.0000E+00  0.0000E+00  0.0000E+00  0.0000E+00  0.0000E+00  0.0000E+00  0.0000E+00  0.0000E+00  0.0000E+00  0.0000E+00  0.0000E+00  0.0000E+00  0.0000E+00  0.0000E+00  0.0000E+00  0.0000E+00  0.0000E+00  0.0000E+00  0.0000E+00  0.0000E+00  0.0000E+00  0.0000E+00  0.0000E+00  0.0000E+00  0.0000E+00  0.0000E+00  0.0000E+00  0.0000E+00  0.0000E+00  0.0000E+00  0.0000E+00  0.0000E+00  0.0000E+00  0.0000E+00  0.0000E+00  0.0000E+00  0.0000E+00  0.0000E+00  0.0000E+00  0.0000E+00  0.0000E+00  0.0000E+00  0.0000E+00  0.0000E+00  0.0000E+00  0.0000E+00  0.0000E+00  0.0000E+00  0.0000E+00  0.0000E+00  0.0000E+00  0.0000E+00  0.0000E+00  0.0000E+00  0.0000E+00  0.0000E+00  0.0000E+00  0.0000E+00  0.0000E+00
  0.0000E+00  0.0000E+00  0.0000E+00  0.0000E+00  0.0000E+00  0.0000E+00  0.0000E+00  0.0000E+00  0.0000E+00  0.0000E+00  0.0000E+00  0.0000E+00  0.0000E+00  0.0000E+00  0.0000E+00  0.0000E+00  0.0000E+00  0.0000E+00  0.0000E+00  0.0000E+00  0.0000E+00  0.0000E+00  0.0000E+00  0.0000E+00  0.0000E+00  0.0000E+00  0.0000E+00  0.0000E+00  0.0000E+00  0.0000E+00  0.0000E+00  0.0000E+00  0.0000E+00  0.0000E+00  0.0000E+00  0.0000E+00  0.0000E+00  0.0000E+00  0.0000E+00  0.0000E+00  0.0000E+00  0.0000E+00  0.0000E+00  0.0000E+00  0.0000E+00  0.0000E+00  0.0000E+00  0.0000E+00  0.0000E+00  0.0000E+00  0.0000E+00  0.0000E+00  0.0000E+00  0.0000E+00  0.0000E+00  0.0000E+00  0.0000E+00  0.0000E+00  0.0000E+00  0.0000E+00  0.0000E+00  0.0000E+00  0.0000E+00  0.0000E+00  0.0000E+00  0.0000E+00  0.0000E+00  0.0000E+00  0.0000E+00  0.0000E+00  0.0000E+00  0.0000E+00  0.0000E+00  0.0000E+00  0.0000E+00  0.0000E+00  0.0000E+00  0.0000E+00  0.0000E+00
  0.0000E+00  0.0000E+00  0.0000E+00  0.0000E+00  0.0000E+00  0.0000E+00  0.0000E+00  0.0000E+00  0.0000E+00  0.0000E+00  0.0000E+00  0.0000E+00  0.0000E+00  0.0000E+00  0.0000E+00  0.0000E+00  0.0000E+00  0.0000E+00  0.0000E+00  0.0000E+00  0.0000E+00  0.0000E+00  0.0000E+00  0.0000E+00  0.0000E+00  0.0000E+00  0.0000E+00  0.0000E+00  0.0000E+00  0.0000E+00  0.0000E+00  0.0000E+00  0.0000E+00  0.0000E+00  0.0000E+00  0.0000E+00  0.0000E+00  0.0000E+00  0.0000E+00  0.0000E+00  0.0000E+00  0.0000E+00  0.0000E+00  0.0000E+00  0.0000E+00  0.0000E+00  0.0000E+00  0.0000E+00  0.0000E+00  0.0000E+00  0.0000E+00  0.0000E+00  0.0000E+00  0.0000E+00  0.0000E+00  0.0000E+00  0.0000E+00  0.0000E+00  0.0000E+00  0.0000E+00  0.0000E+00  0.0000E+00  0.0000E+00  0.0000E+00  0.0000E+00  0.0000E+00  0.0000E+00  0.0000E+00  0.0000E+00  0.0000E+00  0.0000E+00  0.0000E+00  0.0000E+00  0.0000E+00  0.0000E+00  0.0000E+00  0.0000E+00  0.0000E+00  0.0000E+00
  0.0000E+00  0.0000E+00  0.0000E+00  0.0000E+00  0.0000E+00  0.0000E+00  0.0000E+00  0.0000E+00  0.0000E+00  0.0000E+00  0.0000E+00  0.0000E+00  0.0000E+00  0.0000E+00  0.0000E+00  0.0000E+00  0.0000E+00  0.0000E+00  0.0000E+00  0.0000E+00  0.0000E+00  0.0000E+00  0.0000E+00  0.0000E+00  0.0000E+00  0.0000E+00  0.0000E+00  0.0000E+00  0.0000E+00  0.0000E+00  0.0000E+00  0.0000E+00  0.0000E+00  0.0000E+00  0.0000E+00  0.0000E+00  0.0000E+00  0.0000E+00  0.0000E+00  0.0000E+00  0.0000E+00  0.0000E+00  0.0000E+00  0.0000E+00  0.0000E+00  0.0000E+00  0.0000E+00  0.0000E+00  0.0000E+00  0.0000E+00  0.0000E+00  0.0000E+00  0.0000E+00  0.0000E+00  0.0000E+00  0.0000E+00  0.0000E+00  0.0000E+00  0.0000E+00  0.0000E+00  0.0000E+00  0.0000E+00  0.0000E+00  0.0000E+00  0.0000E+00  0.0000E+00  0.0000E+00  0.0000E+00  0.0000E+00  0.0000E+00  0.0000E+00  0.0000E+00  0.0000E+00  0.0000E+00  0.0000E+00  0.0000E+00  0.0000E+00  0.0000E+00  0.0000E+00
  0.0000E+00  0.0000E+00  0.0000E+00  0.0000E+00  0.0000E+00  0.0000E+00  0.0000E+00  0.0000E+00  0.0000E+00  0.0000E+00  0.0000E+00  0.0000E+00  0.0000E+00  0.0000E+00  0.0000E+00  0.0000E+00  0.0000E+00  0.0000E+00  0.0000E+00  0.0000E+00  0.0000E+00  0.0000E+00  0.0000E+00  0.0000E+00  0.0000E+00  0.0000E+00  0.0000E+00  0.0000E+00  0.0000E+00  0.0000E+00  0.0000E+00  0.0000E+00  0.0000E+00  0.0000E+00  0.0000E+00  0.0000E+00  0.0000E+00  0.0000E+00  0.0000E+00  0.0000E+00  0.0000E+00  0.0000E+00  0.0000E+00  0.0000E+00  0.0000E+00  0.0000E+00  0.0000E+00  0.0000E+00  0.0000E+00  0.0000E+00  0.0000E+00  0.0000E+00  0.0000E+00  0.0000E+00  0.0000E+00  0.0000E+00  0.0000E+00  0.0000E+00  0.0000E+00  0.0000E+00  0.0000E+00  0.0000E+00  0.0000E+00  0.0000E+00  0.0000E+00  0.0000E+00  0.0000E+00  0.0000E+00  0.0000E+00  0.0000E+00  0.0000E+00  0.0000E+00  0.0000E+00  0.0000E+00  0.0000E+00  0.0000E+00  0.0000E+00  0.0000E+00  0.0000E+00
  0.0000E+00  0.0000E+00  0.0000E+00  0.0000E+00  0.0000E+00  0.0000E+00  0.0000E+00  0.0000E+00  0.0000E+00  0.0000E+00  0.0000E+00  0.0000E+00  0.0000E+00  0.0000E+00  0.0000E+00  0.0000E+00  0.0000E+00  0.0000E+00  0.0000E+00  0.0000E+00  0.0000E+00  0.0000E+00  0.0000E+00  0.0000E+00  0.0000E+00  0.0000E+00  0.0000E+00  0.0000E+00  0.0000E+00  0.0000E+00  0.0000E+00  0.0000E+00  0.0000E+00  0.0000E+00  0.0000E+00  0.0000E+00  0.0000E+00  0.0000E+00  0.0000E+00  0.0000E+00  0.0000E+00  0.0000E+00  0.0000E+00  0.0000E+00  0.0000E+00  0.0000E+00  0.0000E+00  0.0000E+00  0.0000E+00  0.0000E+00  0.0000E+00  0.0000E+00  0.0000E+00  0.0000E+00  0.0000E+00  0.0000E+00  0.0000E+00  0.0000E+00  0.0000E+00  0.0000E+00  0.0000E+00  0.0000E+00  0.0000E+00  0.0000E+00  0.0000E+00  0.0000E+00  0.0000E+00  0.0000E+00  0.0000E+00  0.0000E+00  0.0000E+00  0.0000E+00  0.0000E+00  0.0000E+00  0.0000E+00  0.0000E+00  0.0000E+00  0.0000E+00  0.0000E+00
  0.0000E+00  0.0000E+00  0.0000E+00  0.0000E+00  0.0000E+00  0.0000E+00  0.0000E+00  0.0000E+00  0.0000E+00  0.0000E+00  0.0000E+00  0.0000E+00  0.0000E+00  0.0000E+00  0.0000E+00  0.0000E+00  0.0000E+00  0.0000E+00  0.0000E+00  0.0000E+00  0.0000E+00  0.0000E+00  0.0000E+00  0.0000E+00  0.0000E+00  0.0000E+00  0.0000E+00  0.0000E+00  0.0000E+00  0.0000E+00  0.0000E+00  0.0000E+00  0.0000E+00  0.0000E+00  0.0000E+00  0.0000E+00  0.0000E+00  0.0000E+00  0.0000E+00  0.0000E+00  0.0000E+00  0.0000E+00  0.0000E+00  0.0000E+00  0.0000E+00  0.0000E+00  0.0000E+00  0.0000E+00  0.0000E+00  0.0000E+00  0.0000E+00  0.0000E+00  0.0000E+00  0.0000E+00  0.0000E+00  0.0000E+00  0.0000E+00  0.0000E+00  0.0000E+00  0.0000E+00  0.0000E+00  0.0000E+00  0.0000E+00  0.0000E+00  0.0000E+00  0.0000E+00  0.0000E+00  0.0000E+00  0.0000E+00  0.0000E+00  0.0000E+00  0.0000E+00  0.0000E+00  0.0000E+00  0.0000E+00  0.0000E+00  0.0000E+00  0.0000E+00  0.0000E+00
  0.0000E+00  0.0000E+00  0.0000E+00  0.0000E+00  0.0000E+00  0.0000E+00  0.0000E+00  0.0000E+00  0.0000E+00  0.0000E+00  0.0000E+00  0.0000E+00  0.0000E+00  0.0000E+00  0.0000E+00  0.0000E+00  0.0000E+00  0.0000E+00  0.0000E+00  0.0000E+00  0.0000E+00  0.0000E+00  0.0000E+00  0.0000E+00  0.0000E+00  0.0000E+00  0.0000E+00  0.0000E+00  0.0000E+00  0.0000E+00  0.0000E+00  0.0000E+00  0.0000E+00  0.0000E+00  0.0000E+00  0.0000E+00  0.0000E+00  0.0000E+00  0.0000E+00  0.0000E+00  0.0000E+00  0.0000E+00  0.0000E+00  0.0000E+00  0.0000E+00  0.0000E+00  0.0000E+00  0.0000E+00  0.0000E+00  0.0000E+00  0.0000E+00  0.0000E+00  0.0000E+00  0.0000E+00  0.0000E+00  0.0000E+00  0.0000E+00  0.0000E+00  0.0000E+00  0.0000E+00  0.0000E+00  0.0000E+00  0.0000E+00  0.0000E+00  0.0000E+00  0.0000E+00  0.0000E+00  0.0000E+00  0.0000E+00  0.0000E+00  0.0000E+00  0.0000E+00  0.0000E+00  0.0000E+00  0.0000E+00  0.0000E+00  0.0000E+00  0.0000E+00  0.0000E+00
  0.0000E+00  0.0000E+00  0.0000E+00  0.0000E+00  0.0000E+00  0.0000E+00  0.0000E+00  0.0000E+00  0.0000E+00  0.0000E+00  0.0000E+00  0.0000E+00  0.0000E+00  0.0000E+00  0.0000E+00  0.0000E+00  0.0000E+00  0.0000E+00  0.0000E+00  0.0000E+00  0.0000E+00  0.0000E+00  0.0000E+00  0.0000E+00  0.0000E+00  0.0000E+00  0.0000E+00  0.0000E+00  0.0000E+00  0.0000E+00  0.0000E+00  0.0000E+00  0.0000E+00  0.0000E+00  0.0000E+00  0.0000E+00  0.0000E+00  0.0000E+00  0.0000E+00  0.0000E+00  0.0000E+00  0.0000E+00  0.0000E+00  0.0000E+00  0.0000E+00  0.0000E+00  0.0000E+00  0.0000E+00  0.0000E+00  0.0000E+00  0.0000E+00  0.0000E+00  0.0000E+00  0.0000E+00  0.0000E+00  0.0000E+00  0.0000E+00  0.0000E+00  0.0000E+00  0.0000E+00  0.0000E+00  0.0000E+00  0.0000E+00  0.0000E+00  0.0000E+00  0.0000E+00  0.0000E+00  0.0000E+00  0.0000E+00  0.0000E+00  0.0000E+00  0.0000E+00  0.0000E+00  0.0000E+00  0.0000E+00  0.0000E+00  0.0000E+00  0.0000E+00  0.0000E+00
  0.0000E+00  0.0000E+00  0.0000E+00  0.0000E+00  0.0000E+00  0.0000E+00  0.0000E+00  0.0000E+00  0.0000E+00  0.0000E+00  0.0000E+00  0.0000E+00  0.0000E+00  0.0000E+00  0.0000E+00  0.0000E+00  0.0000E+00  0.0000E+00  0.0000E+00  0.0000E+00  0.0000E+00  0.0000E+00  0.0000E+00  0.0000E+00  0.0000E+00  0.0000E+00  0.0000E+00  0.0000E+00  0.0000E+00  0.0000E+00  0.0000E+00  0.0000E+00  0.0000E+00  0.0000E+00  0.0000E+00  0.0000E+00  0.0000E+00  0.0000E+00  0.0000E+00  0.0000E+00  0.0000E+00  0.0000E+00  0.0000E+00  0.0000E+00  0.0000E+00  0.0000E+00  0.0000E+00  0.0000E+00  0.0000E+00  0.0000E+00  0.0000E+00  0.0000E+00  0.0000E+00  0.0000E+00  0.0000E+00  0.0000E+00  0.0000E+00  0.0000E+00  0.0000E+00  0.0000E+00  0.0000E+00  0.0000E+00  0.0000E+00  0.0000E+00  0.0000E+00  0.0000E+00  0.0000E+00  0.0000E+00  0.0000E+00  0.0000E+00  0.0000E+00  0.0000E+00  0.0000E+00  0.0000E+00  0.0000E+00  0.0000E+00  0.0000E+00  0.0000E+00  0.0000E+00
  0.0000E+00  0.0000E+00  0.0000E+00  0.0000E+00  0.0000E+00  0.0000E+00  0.0000E+00  0.0000E+00  0.0000E+00  0.0000E+00  0.0000E+00  0.0000E+00  0.0000E+00  0.0000E+00  0.0000E+00  0.0000E+00  0.0000E+00  0.0000E+00  0.0000E+00  0.0000E+00  0.0000E+00  0.0000E+00  0.0000E+00  0.0000E+00  0.0000E+00  0.0000E+00  0.0000E+00  0.0000E+00  0.0000E+00  0.0000E+00  0.0000E+00  0.0000E+00  0.0000E+00  0.0000E+00  0.0000E+00  0.0000E+00  0.0000E+00  0.0000E+00  0.0000E+00  0.0000E+00  0.0000E+00  0.0000E+00  0.0000E+00  0.0000E+00  0.0000E+00  0.0000E+00  0.0000E+00  0.0000E+00  0.0000E+00  0.0000E+00  0.0000E+00  0.0000E+00  0.0000E+00  0.0000E+00  0.0000E+00  0.0000E+00  0.0000E+00  0.0000E+00  0.0000E+00  0.0000E+00  0.0000E+00  0.0000E+00  0.0000E+00  0.0000E+00  0.0000E+00  0.0000E+00  0.0000E+00  0.0000E+00  0.0000E+00  0.0000E+00  0.0000E+00  0.0000E+00  0.0000E+00  0.0000E+00  0.0000E+00  0.0000E+00  0.0000E+00  0.0000E+00  0.0000E+00
  0.0000E+00  0.0000E+00  0.0000E+00  0.0000E+00  0.0000E+00  0.0000E+00  0.0000E+00  0.0000E+00  0.0000E+00  0.0000E+00  0.0000E+00  0.0000E+00  0.0000E+00  0.0000E+00  0.0000E+00  0.0000E+00  0.0000E+00  0.0000E+00  0.0000E+00  0.0000E+00  0.0000E+00  0.0000E+00  0.0000E+00  0.0000E+00  0.0000E+00  0.0000E+00  0.0000E+00  0.0000E+00  0.0000E+00  0.0000E+00  0.0000E+00  0.0000E+00  0.0000E+00  0.0000E+00  0.0000E+00  0.0000E+00  0.0000E+00  0.0000E+00  0.0000E+00  0.0000E+00  0.0000E+00  0.0000E+00  0.0000E+00  0.0000E+00  0.0000E+00  0.0000E+00  0.0000E+00  0.0000E+00  0.0000E+00  0.0000E+00  0.0000E+00  0.0000E+00  0.0000E+00  0.0000E+00  0.0000E+00  0.0000E+00  0.0000E+00  0.0000E+00  0.0000E+00  0.0000E+00  0.0000E+00  0.0000E+00  0.0000E+00  0.0000E+00  0.0000E+00  0.0000E+00  0.0000E+00  0.0000E+00  0.0000E+00  0.0000E+00  0.0000E+00  0.0000E+00  0.0000E+00  0.0000E+00  0.0000E+00  0.0000E+00  0.0000E+00  0.0000E+00  0.0000E+00
  0.0000E+00  0.0000E+00  0.0000E+00  0.0000E+00  0.0000E+00  0.0000E+00  0.0000E+00  0.0000E+00  0.0000E+00  0.0000E+00  0.0000E+00  0.0000E+00  0.0000E+00  0.0000E+00  0.0000E+00  0.0000E+00  0.0000E+00  0.0000E+00  0.0000E+00  0.0000E+00  0.0000E+00  0.0000E+00  0.0000E+00  0.0000E+00  0.0000E+00  0.0000E+00  0.0000E+00  0.0000E+00  0.0000E+00  0.0000E+00  0.0000E+00  0.0000E+00  0.0000E+00  0.0000E+00  0.0000E+00  0.0000E+00  0.0000E+00  0.0000E+00  0.0000E+00  0.0000E+00  0.0000E+00  0.0000E+00  0.0000E+00  0.0000E+00  0.0000E+00  0.0000E+00  0.0000E+00  0.0000E+00  0.0000E+00  0.0000E+00  0.0000E+00  0.0000E+00  0.0000E+00  0.0000E+00  0.0000E+00  0.0000E+00  0.0000E+00  0.0000E+00  0.0000E+00  0.0000E+00  0.0000E+00  0.0000E+00  0.0000E+00  0.0000E+00  0.0000E+00  0.0000E+00  0.0000E+00  0.0000E+00  0.0000E+00  0.0000E+00  0.0000E+00  0.0000E+00  0.0000E+00  0.0000E+00  0.0000E+00  0.0000E+00  0.0000E+00  0.0000E+00  0.0000E+00
  0.0000E+00  0.0000E+00  0.0000E+00  0.0000E+00  0.0000E+00  0.0000E+00  0.0000E+00  0.0000E+00  0.0000E+00  0.0000E+00  0.0000E+00  0.0000E+00  0.0000E+00  0.0000E+00  0.0000E+00  0.0000E+00  0.0000E+00  0.0000E+00  0.0000E+00  0.0000E+00  0.0000E+00  0.0000E+00  0.0000E+00  0.0000E+00  0.0000E+00  0.0000E+00  0.0000E+00  0.0000E+00  0.0000E+00  0.0000E+00  0.0000E+00  0.0000E+00  0.0000E+00  0.0000E+00  0.0000E+00  0.0000E+00  0.0000E+00  0.0000E+00  0.0000E+00  0.0000E+00  0.0000E+00  0.0000E+00  0.0000E+00  0.0000E+00  0.0000E+00  0.0000E+00  0.0000E+00  0.0000E+00  0.0000E+00  0.0000E+00  0.0000E+00  0.0000E+00  0.0000E+00  0.0000E+00  0.0000E+00  0.0000E+00  0.0000E+00  0.0000E+00  0.0000E+00  0.0000E+00  0.0000E+00  0.0000E+00  0.0000E+00  0.0000E+00  0.0000E+00  0.0000E+00  0.0000E+00  0.0000E+00  0.0000E+00  0.0000E+00  0.0000E+00  0.0000E+00  0.0000E+00  0.0000E+00  0.0000E+00  0.0000E+00  0.0000E+00  0.0000E+00  0.0000E+00
  0.0000E+00  0.0000E+00  0.0000E+00  0.0000E+00  0.0000E+00  0.0000E+00  0.0000E+00  0.0000E+00  0.0000E+00  0.0000E+00  0.0000E+00  0.0000E+00  0.0000E+00  0.0000E+00  0.0000E+00  0.0000E+00  0.0000E+00  0.0000E+00  0.0000E+00  0.0000E+00  0.0000E+00  0.0000E+00  0.0000E+00  0.0000E+00  0.0000E+00  0.0000E+00  0.0000E+00  0.0000E+00  0.0000E+00  0.0000E+00  0.0000E+00  0.0000E+00  0.0000E+00  0.0000E+00  0.0000E+00  0.0000E+00  0.0000E+00  0.0000E+00  0.0000E+00  0.0000E+00  0.0000E+00  0.0000E+00  0.0000E+00  0.0000E+00  0.0000E+00  0.0000E+00  0.0000E+00  0.0000E+00  0.0000E+00  0.0000E+00  0.0000E+00  0.0000E+00  0.0000E+00  0.0000E+00  0.0000E+00  0.0000E+00  0.0000E+00  0.0000E+00  0.0000E+00  0.0000E+00  0.0000E+00  0.0000E+00  0.0000E+00  0.0000E+00  0.0000E+00  0.0000E+00  0.0000E+00  0.0000E+00  0.0000E+00  0.0000E+00  0.0000E+00  0.0000E+00  0.0000E+00  0.0000E+00  0.0000E+00  0.0000E+00  0.0000E+00  0.0000E+00  0.0000E+00
  0.0000E+00  0.0000E+00  0.0000E+00  0.0000E+00  0.0000E+00  0.0000E+00  0.0000E+00  0.0000E+00  0.0000E+00  0.0000E+00  0.0000E+00  0.0000E+00  0.0000E+00  0.0000E+00  0.0000E+00  0.0000E+00  0.0000E+00  0.0000E+00  0.0000E+00  0.0000E+00  0.0000E+00  0.0000E+00  0.0000E+00  0.0000E+00  0.0000E+00  0.0000E+00  0.0000E+00  0.0000E+00  0.0000E+00  0.0000E+00  0.0000E+00  0.0000E+00  0.0000E+00  0.0000E+00  0.0000E+00  0.0000E+00  0.0000E+00  0.0000E+00  0.0000E+00  0.0000E+00  0.0000E+00  0.0000E+00  0.0000E+00  0.0000E+00  0.0000E+00  0.0000E+00  0.0000E+00  0.0000E+00  0.0000E+00  0.0000E+00  0.0000E+00  0.0000E+00  0.0000E+00  0.0000E+00  0.0000E+00  0.0000E+00  0.0000E+00  0.0000E+00  0.0000E+00  0.0000E+00  0.0000E+00  0.0000E+00  0.0000E+00  0.0000E+00  0.0000E+00  0.0000E+00  0.0000E+00  0.0000E+00  0.0000E+00  0.0000E+00  0.0000E+00  0.0000E+00  0.0000E+00  0.0000E+00  0.0000E+00  0.0000E+00  0.0000E+00  0.0000E+00  0.0000E+00
  0.0000E+00  0.0000E+00  0.0000E+00  0.0000E+00  0.0000E+00  0.0000E+00  0.0000E+00  0.0000E+00  0.0000E+00  0.0000E+00  0.0000E+00  0.0000E+00  0.0000E+00  0.0000E+00  0.0000E+00  0.0000E+00  0.0000E+00  0.0000E+00  0.0000E+00  0.0000E+00  0.0000E+00  0.0000E+00  0.0000E+00  0.0000E+00  0.0000E+00  0.0000E+00  0.0000E+00  0.0000E+00  0.0000E+00  0.0000E+00  0.0000E+00  0.0000E+00  0.0000E+00  0.0000E+00  0.0000E+00  0.0000E+00  0.0000E+00  0.0000E+00  0.0000E+00  0.0000E+00  0.0000E+00  0.0000E+00  0.0000E+00  0.0000E+00  0.0000E+00  0.0000E+00  0.0000E+00  0.0000E+00  0.0000E+00  0.0000E+00  0.0000E+00  0.0000E+00  0.0000E+00  0.0000E+00  0.0000E+00  0.0000E+00  0.0000E+00  0.0000E+00  0.0000E+00  0.0000E+00  0.0000E+00  0.0000E+00  0.0000E+00  0.0000E+00  0.0000E+00  0.0000E+00  0.0000E+00  0.0000E+00  0.0000E+00  0.0000E+00  0.0000E+00  0.0000E+00  0.0000E+00  0.0000E+00  0.0000E+00  0.0000E+00  0.0000E+00  0.0000E+00  0.0000E+00
  0.0000E+00  0.0000E+00  0.0000E+00  0.0000E+00  0.0000E+00  0.0000E+00  0.0000E+00  0.0000E+00  0.0000E+00  0.0000E+00  0.0000E+00  0.0000E+00  0.0000E+00  0.0000E+00  0.0000E+00  0.0000E+00  0.0000E+00  0.0000E+00  0.0000E+00  0.0000E+00  0.0000E+00  0.0000E+00  0.0000E+00  0.0000E+00  0.0000E+00  0.0000E+00  0.0000E+00  0.0000E+00  0.0000E+00  0.0000E+00  0.0000E+00  0.0000E+00  0.0000E+00  0.0000E+00  0.0000E+00  0.0000E+00  0.0000E+00  0.0000E+00  0.0000E+00  0.0000E+00  0.0000E+00  0.0000E+00  0.0000E+00  0.0000E+00  0.0000E+00  0.0000E+00  0.0000E+00  0.0000E+00  0.0000E+00  0.0000E+00  0.0000E+00  0.0000E+00  0.0000E+00  0.0000E+00  0.0000E+00  0.0000E+00  0.0000E+00  0.0000E+00  0.0000E+00  0.0000E+00  0.0000E+00  0.0000E+00  0.0000E+00  0.0000E+00  0.0000E+00  0.0000E+00  0.0000E+00  0.0000E+00  0.0000E+00  0.0000E+00  0.0000E+00  0.0000E+00  0.0000E+00  0.0000E+00  0.0000E+00  0.0000E+00  0.0000E+00  0.0000E+00  0.0000E+00
  0.0000E+00  0.0000E+00  0.0000E+00  0.0000E+00  0.0000E+00  0.0000E+00  0.0000E+00  0.0000E+00  0.0000E+00  0.0000E+00  0.0000E+00  0.0000E+00  0.0000E+00  0.0000E+00  0.0000E+00  0.0000E+00  0.0000E+00  0.0000E+00  0.0000E+00  0.0000E+00  0.0000E+00  0.0000E+00  0.0000E+00  0.0000E+00  0.0000E+00  0.0000E+00  0.0000E+00  0.0000E+00  0.0000E+00  0.0000E+00  0.0000E+00  0.0000E+00  0.0000E+00  0.0000E+00  0.0000E+00  0.0000E+00  0.0000E+00  0.0000E+00  0.0000E+00  0.0000E+00  0.0000E+00  0.0000E+00  0.0000E+00  0.0000E+00  0.0000E+00  0.0000E+00  0.0000E+00  0.0000E+00  0.0000E+00  0.0000E+00  0.0000E+00  0.0000E+00  0.0000E+00  0.0000E+00  0.0000E+00  0.0000E+00  0.0000E+00  0.0000E+00  0.0000E+00  0.0000E+00  0.0000E+00  0.0000E+00  0.0000E+00  0.0000E+00  0.0000E+00  0.0000E+00  0.0000E+00  0.0000E+00  0.0000E+00  0.0000E+00  0.0000E+00  0.0000E+00  0.0000E+00  0.0000E+00  0.0000E+00  0.0000E+00  0.0000E+00  0.0000E+00  0.0000E+00
  0.0000E+00  0.0000E+00  0.0000E+00  0.0000E+00  0.0000E+00  0.0000E+00  0.0000E+00  0.0000E+00  0.0000E+00  0.0000E+00  0.0000E+00  0.0000E+00  0.0000E+00  0.0000E+00  0.0000E+00  0.0000E+00  0.0000E+00  0.0000E+00  0.0000E+00  0.0000E+00  0.0000E+00  0.0000E+00  0.0000E+00  0.0000E+00  0.0000E+00  0.0000E+00  0.0000E+00  0.0000E+00  0.0000E+00  0.0000E+00  0.0000E+00  0.0000E+00  0.0000E+00  0.0000E+00  0.0000E+00  0.0000E+00  0.0000E+00  0.0000E+00  0.0000E+00  0.0000E+00  0.0000E+00  0.0000E+00  0.0000E+00  0.0000E+00  0.0000E+00  0.0000E+00  0.0000E+00  0.0000E+00  0.0000E+00  0.0000E+00  0.0000E+00  0.0000E+00  0.0000E+00  0.0000E+00  0.0000E+00  0.0000E+00  0.0000E+00  0.0000E+00  0.0000E+00  0.0000E+00  0.0000E+00  0.0000E+00  0.0000E+00  0.0000E+00  0.0000E+00  0.0000E+00  0.0000E+00  0.0000E+00  0.0000E+00  0.0000E+00  0.0000E+00  0.0000E+00  0.0000E+00  0.0000E+00  0.0000E+00  0.0000E+00  0.0000E+00  0.0000E+00  0.0000E+00
  0.0000E+00  0.0000E+00  0.0000E+00  0.0000E+00  0.0000E+00  0.0000E+00  0.0000E+00  0.0000E+00  0.0000E+00  0.0000E+00  0.0000E+00  0.0000E+00  0.0000E+00  0.0000E+00  0.0000E+00  0.0000E+00  0.0000E+00  0.0000E+00  0.0000E+00  0.0000E+00  0.0000E+00  0.0000E+00  0.0000E+00  0.0000E+00  0.0000E+00  0.0000E+00  0.0000E+00  0.0000E+00  0.0000E+00  0.0000E+00  0.0000E+00  0.0000E+00  0.0000E+00  0.0000E+00  0.0000E+00  0.0000E+00  0.0000E+00  0.0000E+00  0.5806E-10  0.8892E-10  0.9121E-10  0.9311E-10  0.9462E-10  0.1837E-09  0.1557E-09  0.1268E-09  0.6487E-10  0.3252E-10  0.0000E+00  0.0000E+00  0.0000E+00  0.0000E+00  0.0000E+00  0.0000E+00  0.0000E+00  0.0000E+00  0.0000E+00  0.0000E+00  0.0000E+00  0.0000E+00  0.0000E+00  0.0000E+00  0.0000E+00  0.0000E+00  0.0000E+00  0.0000E+00  0.0000E+00  0.0000E+00  0.0000E+00  0.0000E+00  0.0000E+00  0.0000E+00  0.0000E+00  0.0000E+00  0.0000E+00  0.0000E+00  0.0000E+00  0.0000E+00  0.0000E+00
  0.0000E+00  0.0000E+00  0.0000E+00  0.0000E+00  0.0000E+00  0.0000E+00  0.0000E+00  0.0000E+00  0.0000E+00  0.0000E+00  0.0000E+00  0.0000E+00  0.0000E+00  0.0000E+00  0.0000E+00  0.0000E+00  0.0000E+00  0.0000E+00  0.0000E+00  0.0000E+00  0.0000E+00  0.0000E+00  0.0000E+00  0.0000E+00  0.0000E+00  0.0000E+00  0.0000E+00  0.0000E+00  0.0000E+00  0.0000E+00  0.0000E+00  0.0000E+00  0.0000E+00  0.3086E-10  0.9418E-10  0.9883E-10  0.1350E-09  0.2041E-09  0.2107E-09  0.2163E-09  0.2858E-09  0.3233E-09  0.3276E-09  0.3306E-09  0.2982E-09  0.2986E-09  0.2271E-09  0.1549E-09  0.7829E-10  0.3897E-10  0.0000E+00  0.0000E+00  0.0000E+00  0.0000E+00  0.0000E+00  0.0000E+00  0.0000E+00  0.0000E+00  0.0000E+00  0.0000E+00  0.0000E+00  0.0000E+00  0.0000E+00  0.0000E+00  0.0000E+00  0.0000E+00  0.0000E+00  0.0000E+00  0.0000E+00  0.0000E+00  0.0000E+00  0.0000E+00  0.0000E+00  0.0000E+00  0.0000E+00  0.0000E+00  0.0000E+00  0.0000E+00  0.0000E+00
  0.0000E+00  0.0000E+00  0.0000E+00  0.0000E+00  0.0000E+00  0.0000E+00  0.0000E+00  0.0000E+00  0.0000E+00  0.0000E+00  0.0000E+00  0.0000E+00  0.0000E+00  0.0000E+00  0.0000E+00  0.0000E+00  0.0000E+00  0.0000E+00  0.0000E+00  0.0000E+00  0.0000E+00  0.0000E+00  0.0000E+00  0.0000E+00  0.0000E+00  0.0000E+00  0.0000E+00  0.0000E+00  0.0000E+00  0.0000E+00  0.6590E-10  0.1034E-09  0.1778E-09  0.2219E-09  0.2680E-09  0.3494E-09  0.3635E-09  0.3757E-09  0.4584E-09  0.5053E-09  0.5146E-09  0.5215E-09  0.5262E-09  0.6002E-09  0.5651E-09  0.4883E-09  0.4041E-09  0.3190E-09  0.2295E-09  0.1371E-09  0.4602E-10  0.0000E+00  0.0000E+00  0.0000E+00  0.0000E+00  0.0000E+00  0.0000E+00  0.0000E+00  0.0000E+00  0.0000E+00  0.0000E+00  0.0000E+00  0.0000E+00  0.0000E+00  0.0000E+00  0.0000E+00  0.0000E+00  0.0000E+00  0.0000E+00  0.0000E+00  0.0000E+00  0.0000E+00  0.0000E+00  0.0000E+00  0.0000E+00  0.0000E+00  0.0000E+00  0.0000E+00  0.0000E+00
  0.0000E+00  0.0000E+00  0.0000E+00  0.0000E+00  0.0000E+00  0.0000E+00  0.0000E+00  0.0000E+00  0.0000E+00  0.0000E+00  0.0000E+00  0.0000E+00  0.0000E+00  0.0000E+00  0.0000E+00  0.0000E+00  0.0000E+00  0.0000E+00  0.0000E+00  0.0000E+00  0.0000E+00  0.0000E+00  0.0000E+00  0.0000E+00  0.0000E+00  0.0000E+00  0.0000E+00  0.6871E-10  0.1436E-09  0.1911E-09  0.2419E-09  0.3341E-09  0.3924E-09  0.4908E-09  0.5530E-09  0.5765E-09  0.6768E-09  0.7372E-09  0.7555E-09  0.7700E-09  0.9013E-09  0.9106E-09  0.9156E-09  0.8750E-09  0.8306E-09  0.7378E-09  0.6369E-09  0.5351E-09  0.4768E-09  0.3200E-09  0.2130E-09  0.1059E-09  0.5220E-10  0.0000E+00  0.0000E+00  0.0000E+00  0.0000E+00  0.0000E+00  0.0000E+00  0.0000E+00  0.0000E+00  0.0000E+00  0.0000E+00  0.0000E+00  0.0000E+00  0.0000E+00  0.0000E+00  0.0000E+00  0.0000E+00  0.0000E+00  0.0000E+00  0.0000E+00  0.0000E+00  0.0000E+00  0.0000E+00  0.0000E+00  0.0000E+00  0.0000E+00  0.0000E+00
  0.0000E+00  0.0000E+00  0.0000E+00  0.0000E+00  0.0000E+00  0.0000E+00  0.0000E+00  0.0000E+00  0.0000E+00  0.0000E+00  0.0000E+00  0.0000E+00  0.0000E+00  0.0000E+00  0.0000E+00  0.0000E+00  0.0000E+00  0.0000E+00  0.0000E+00  0.0000E+00  0.0000E+00  0.0000E+00  0.0000E+00  0.3266E-10  0.6813E-10  0.1098E-09  0.1963E-09  0.2905E-09  0.3558E-09  0.4647E-09  0.5402E-09  0.6179E-09  0.7408E-09  0.8224E-09  0.9037E-09  0.1027E-08  0.1060E-08  0.1133E-08  0.1247E-08  0.1266E-08  0.1280E-08  0.1287E-08  0.1288E-08  0.1328E-08  0.1226E-08  0.1112E-08  0.9947E-09  0.8708E-09  0.7427E-09  0.5578E-09  0.4303E-09  0.3038E-09  0.1797E-09  0.5944E-10  0.0000E+00  0.0000E+00  0.0000E+00  0.0000E+00  0.0000E+00  0.0000E+00  0.0000E+00  0.0000E+00  0.0000E+00  0.0000E+00  0.0000E+00  0.0000E+00  0.0000E+00  0.0000E+00  0.0000E+00  0.0000E+00  0.0000E+00  0.0000E+00  0.0000E+00  0.0000E+00  0.0000E+00  0.0000E+00  0.0000E+00  0.0000E+00  0.0000E+00
  0.0000E+00  0.0000E+00  0.0000E+00  0.0000E+00  0.0000E+00  0.0000E+00  0.0000E+00  0.0000E+00  0.0000E+00  0.0000E+00  0.0000E+00  0.0000E+00  0.0000E+00  0.0000E+00  0.3287E-10  0.1005E-09  0.1058E-09  0.1106E-09  0.1869E-09  0.2289E-09  0.2350E-09  0.2396E-09  0.2426E-09  0.2449E-09  0.2554E-09  0.3597E-09  0.4381E-09  0.5684E-09  0.7062E-09  0.8081E-09  0.9585E-09  0.1112E-08  0.1175E-08  0.1331E-08  0.1436E-08  0.1536E-08  0.1680E-08  0.1719E-08  0.1748E-08  0.1818E-08  0.1931E-08  0.1935E-08  0.1877E-08  0.1811E-08  0.1680E-08  0.1537E-08  0.1391E-08  0.1238E-08  0.1082E-08  0.8619E-09  0.7085E-09  0.5575E-09  0.4104E-09  0.2028E-09  0.6676E-10  0.0000E+00  0.0000E+00  0.0000E+00  0.0000E+00  0.0000E+00  0.0000E+00  0.0000E+00  0.0000E+00  0.0000E+00  0.0000E+00  0.0000E+00  0.0000E+00  0.0000E+00  0.0000E+00  0.0000E+00  0.0000E+00  0.0000E+00  0.0000E+00  0.0000E+00  0.0000E+00  0.0000E+00  0.0000E+00  0.0000E+00  0.0000E+00
  0.0000E+00  0.0000E+00  0.0000E+00  0.0000E+00  0.0000E+00  0.0000E+00  0.0000E+00  0.0000E+00  0.0000E+00  0.0000E+00  0.0000E+00  0.6635E-10  0.1049E-09  0.1486E-09  0.2305E-09  0.2451E-09  0.3365E-09  0.3922E-09  0.4094E-09  0.4662E-09  0.5632E-09  0.5766E-09  0.5858E-09  0.5957E-09  0.6229E-09  0.6755E-09  0.8387E-09  0.1014E-08  0.1152E-08  0.1344E-08  0.1539E-08  0.1688E-08  0.1885E-08  0.1971E-08  0.2160E-08  0.2284E-08  0.2341E-08  0.2499E-08  0.2589E-08  0.2608E-08  0.2613E-08  0.2605E-08  0.2522E-08  0.2430E-08  0.2324E-08  0.2079E-08  0.1894E-08  0.1704E-08  0.1511E-08  0.1246E-08  0.1060E-08  0.8778E-09  0.7020E-09  0.4596E-09  0.2260E-09  0.7405E-10  0.0000E+00  0.0000E+00  0.0000E+00  0.0000E+00  0.0000E+00  0.0000E+00  0.0000E+00  0.0000E+00  0.0000E+00  0.0000E+00  0.0000E+00  0.0000E+00  0.0000E+00  0.0000E+00  0.0000E+00  0.0000E+00  0.0000E+00  0.0000E+00  0.0000E+00  0.0000E+00  0.0000E+00  0.0000E+00  0.0000E+00
  0.0000E+00  0.0000E+00  0.0000E+00  0.0000E+00  0.0000E+00  0.0000E+00  0.0000E+00  0.0000E+00  0.3290E-10  0.1024E-09  0.1480E-09  0.2331E-09  0.2916E-09  0.3917E-09  0.4617E-09  0.5349E-09  0.6105E-09  0.6894E-09  0.8131E-09  0.8471E-09  0.8757E-09  0.1045E-08  0.1067E-08  0.1096E-08  0.1151E-08  0.1237E-08  0.1404E-08  0.1589E-08  0.1836E-08  0.2087E-08  0.2287E-08  0.2540E-08  0.2731E-08  0.2971E-08  0.3075E-08  0.3225E-08  0.3424E-08  0.3474E-08  0.3502E-08  0.3643E-08  0.3700E-08  0.3606E-08  0.3494E-08  0.3294E-08  0.3074E-08  0.2764E-08  0.2611E-08  0.2370E-08  0.2048E-08  0.1727E-08  0.1499E-08  0.1278E-08  0.1066E-08  0.7809E-09  0.5084E-09  0.2489E-09  0.8122E-10  0.0000E+00  0.0000E+00  0.0000E+00  0.0000E+00  0.0000E+00  0.0000E+00  0.0000E+00  0.0000E+00  0.0000E+00  0.0000E+00  0.0000E+00  0.0000E+00  0.0000E+00  0.0000E+00  0.0000E+00  0.0000E+00  0.0000E+00  0.0000E+00  0.0000E+00  0.0000E+00  0.0000E+00  0.0000E+00
  0.0000E+00  0.0000E+00  0.0000E+00  0.0000E+00  0.0000E+00  0.0000E+00  0.3335E-10  0.1045E-09  0.1876E-09  0.2437E-09  0.3471E-09  0.4200E-09  0.5438E-09  0.6331E-09  0.7755E-09  0.8784E-09  0.1035E-08  0.1147E-08  0.1260E-08  0.1423E-08  0.1479E-08  0.1525E-08  0.1682E-08  0.1802E-08  0.1899E-08  0.2029E-08  0.2198E-08  0.2453E-08  0.2719E-08  0.3051E-08  0.3380E-08  0.3638E-08  0.3952E-08  0.4179E-08  0.4383E-08  0.4562E-08  0.4636E-08  0.5658E-08  0.5695E-08  0.5694E-08  0.5656E-08  0.5253E-08  0.4831E-08  0.4309E-08  0.4017E-08  0.3721E-08  0.3417E-08  0.3111E-08  0.2713E-08  0.2323E-08  0.2041E-08  0.1771E-08  0.1514E-08  0.1177E-08  0.8578E-09  0.5556E-09  0.2710E-09  0.8813E-10  0.0000E+00  0.0000E+00  0.0000E+00  0.0000E+00  0.0000E+00  0.0000E+00  0.0000E+00  0.0000E+00  0.0000E+00  0.0000E+00  0.0000E+00  0.0000E+00  0.0000E+00  0.0000E+00  0.0000E+00  0.0000E+00  0.0000E+00  0.0000E+00  0.0000E+00  0.0000E+00  0.0000E+00
  0.0000E+00  0.0000E+00  0.0000E+00  0.0000E+00  0.3266E-10  0.1031E-09  0.1530E-09  0.2460E-09  0.3546E-09  0.4757E-09  0.6097E-09  0.7180E-09  0.8790E-09  0.1056E-08  0.1195E-08  0.1395E-08  0.1550E-08  0.1710E-08  0.1926E-08  0.2025E-08  0.2241E-08  0.2387E-08  0.2476E-08  0.2592E-08  0.2950E-08  0.3144E-08  0.3380E-08  0.3652E-08  0.4016E-08  0.4449E-08  0.4804E-08  0.5217E-08  0.5833E-08  0.6812E-08  0.7034E-08  0.7196E-08  0.7635E-08  0.8354E-08  0.8362E-08  0.8311E-08  0.7865E-08  0.7381E-08  0.7208E-08  0.6251E-08  0.5523E-08  0.4811E-08  0.4416E-08  0.4026E-08  0.3533E-08  0.3055E-08  0.2594E-08  0.2374E-08  0.2061E-08  0.1662E-08  0.1285E-08  0.9316E-09  0.6009E-09  0.2922E-09  0.9472E-10  0.0000E+00  0.0000E+00  0.0000E+00  0.0000E+00  0.0000E+00  0.0000E+00  0.0000E+00  0.0000E+00  0.0000E+00  0.0000E+00  0.0000E+00  0.0000E+00  0.0000E+00  0.0000E+00  0.0000E+00  0.0000E+00  0.0000E+00  0.0000E+00  0.0000E+00  0.0000E+00
  0.0000E+00  0.0000E+00  0.0000E+00  0.6815E-10  0.1477E-09  0.2398E-09  0.3494E-09  0.4739E-09  0.5752E-09  0.7335E-09  0.9090E-09  0.1107E-08  0.1271E-08  0.1505E-08  0.1754E-08  0.2018E-08  0.2239E-08  0.2525E-08  0.2757E-08  0.3050E-08  0.3202E-08  0.3421E-08  0.3736E-08  0.3939E-08  0.4175E-08  0.4452E-08  0.4941E-08  0.5395E-08  0.5794E-08  0.6629E-08  0.7900E-08  0.8354E-08  0.9548E-08  0.1031E-07  0.1060E-07  0.1079E-07  0.1190E-07  0.1192E-07  0.1185E-07  0.1135E-07  0.1113E-07  0.1051E-07  0.9416E-08  0.8660E-08  0.7375E-08  0.6561E-08  0.5648E-08  0.5148E-08  0.4534E-08  0.3945E-08  0.3385E-08  0.2978E-08  0.2722E-08  0.2246E-08  0.1801E-08  0.1384E-08  0.9921E-09  0.6288E-09  0.3004E-09  0.9503E-10  0.0000E+00  0.0000E+00  0.0000E+00  0.0000E+00  0.0000E+00  0.0000E+00  0.0000E+00  0.0000E+00  0.0000E+00  0.0000E+00  0.0000E+00  0.0000E+00  0.0000E+00  0.0000E+00  0.0000E+00  0.0000E+00  0.0000E+00  0.0000E+00  0.0000E+00
  0.0000E+00  0.3285E-10  0.1049E-09  0.1936E-09  0.2972E-09  0.4172E-09  0.5595E-09  0.7216E-09  0.9046E-09  0.1115E-08  0.1298E-08  0.1558E-08  0.1841E-08  0.2148E-08  0.2483E-08  0.2773E-08  0.3149E-08  0.3464E-08  0.3865E-08  0.4187E-08  0.4591E-08  0.4922E-08  0.5627E-08  0.6875E-08  0.7353E-08  0.7820E-08  0.8385E-08  0.8945E-08  0.1001E-07  0.1121E-07  0.1244E-07  0.1352E-07  0.1490E-07  0.1534E-07  0.1562E-07  0.1609E-07  0.1680E-07  0.1663E-07  0.1637E-07  0.1565E-07  0.1489E-07  0.1362E-07  0.1267E-07  0.1116E-07  0.1067E-07  0.9666E-08  0.8099E-08  0.6965E-08  0.5749E-08  0.5022E-08  0.4338E-08  0.3698E-08  0.3235E-08  0.2942E-08  0.2406E-08  0.1902E-08  0.1433E-08  0.1006E-08  0.6263E-09  0.2966E-09  0.9369E-10  0.0000E+00  0.0000E+00  0.0000E+00  0.0000E+00  0.0000E+00  0.0000E+00  0.0000E+00  0.0000E+00  0.0000E+00  0.0000E+00  0.0000E+00  0.0000E+00  0.0000E+00  0.0000E+00  0.0000E+00  0.0000E+00  0.0000E+00  0.0000E+00
  0.3446E-10  0.1450E-09  0.2388E-09  0.3537E-09  0.4879E-09  0.6434E-09  0.8276E-09  0.1038E-08  0.1276E-08  0.1549E-08  0.1855E-08  0.2192E-08  0.2511E-08  0.2915E-08  0.3361E-08  0.3835E-08  0.4336E-08  0.4789E-08  0.5330E-08  0.6146E-08  0.7555E-08  0.8111E-08  0.9695E-08  0.1080E-07  0.1163E-07  0.1234E-07  0.1312E-07  0.1400E-07  0.1600E-07  0.1771E-07  0.1922E-07  0.2055E-07  0.2170E-07  0.2220E-07  0.2246E-07  0.2312E-07  0.2331E-07  0.2293E-07  0.2199E-07  0.2090E-07  0.1933E-07  0.1801E-07  0.1674E-07  0.1541E-07  0.1411E-07  0.1223E-07  0.1096E-07  0.9075E-08  0.7733E-08  0.6317E-08  0.5481E-08  0.4704E-08  0.3982E-08  0.3310E-08  0.2809E-08  0.2474E-08  0.1921E-08  0.1426E-08  0.9914E-09  0.6155E-09  0.2911E-09  0.9188E-10  0.0000E+00  0.0000E+00  0.0000E+00  0.0000E+00  0.0000E+00  0.0000E+00  0.0000E+00  0.0000E+00  0.0000E+00  0.0000E+00  0.0000E+00  0.0000E+00  0.0000E+00  0.0000E+00  0.0000E+00  0.0000E+00  0.0000E+00
  0.1505E-09  0.2492E-09  0.3713E-09  0.5152E-09  0.6836E-09  0.8851E-09  0.1117E-08  0.1434E-08  0.1742E-08  0.2096E-08  0.2493E-08  0.2933E-08  0.3428E-08  0.3896E-08  0.4486E-08  0.5118E-08  0.5791E-08  0.7309E-08  0.8862E-08  0.1026E-07  0.1174E-07  0.1320E-07  0.1526E-07  0.1637E-07  0.1758E-07  0.1860E-07  0.1970E-07  0.2171E-07  0.2442E-07  0.2619E-07  0.2851E-07  0.3005E-07  0.3085E-07  0.3127E-07  0.3136E-07  0.3217E-07  0.3158E-07  0.3050E-07  0.2913E-07  0.2714E-07  0.2545E-07  0.2419E-07  0.2185E-07  0.2003E-07  0.1766E-07  0.1597E-07  0.1369E-07  0.1216E-07  0.9976E-08  0.8435E-08  0.6824E-08  0.5867E-08  0.4979E-08  0.4161E-08  0.3407E-08  0.2717E-08  0.2098E-08  0.1551E-08  0.1076E-08  0.9700E-09  0.6013E-09  0.2841E-09  0.8959E-10  0.0000E+00  0.0000E+00  0.0000E+00  0.0000E+00  0.0000E+00  0.0000E+00  0.0000E+00  0.0000E+00  0.0000E+00  0.0000E+00  0.0000E+00  0.0000E+00  0.0000E+00  0.0000E+00  0.0000E+00  0.0000E+00
  0.2565E-09  0.3843E-09  0.5761E-09  0.7601E-09  0.9757E-09  0.1233E-08  0.1530E-08  0.1871E-08  0.2269E-08  0.2719E-08  0.3224E-08  0.3799E-08  0.4437E-08  0.5218E-08  0.5916E-08  0.7224E-08  0.9438E-08  0.1146E-07  0.1337E-07  0.1580E-07  0.1743E-07  0.2012E-07  0.2226E-07  0.2406E-07  0.2561E-07  0.2720E-07  0.2898E-07  0.3258E-07  0.3559E-07  0.3826E-07  0.4089E-07  0.4219E-07  0.4289E-07  0.4309E-07  0.4351E-07  0.4321E-07  0.4177E-07  0.4004E-07  0.3810E-07  0.3586E-07  0.3354E-07  0.3057E-07  0.2814E-07  0.2510E-07  0.2278E-07  0.1983E-07  0.1772E-07  0.1501E-07  0.1320E-07  0.1070E-07  0.8948E-08  0.7161E-08  0.6082E-08  0.5097E-08  0.4201E-08  0.3395E-08  0.2679E-08  0.2055E-08  0.1515E-08  0.1050E-08  0.6498E-09  0.3067E-09  0.9659E-10  0.0000E+00  0.0000E+00  0.0000E+00  0.0000E+00  0.0000E+00  0.0000E+00  0.0000E+00  0.0000E+00  0.0000E+00  0.0000E+00  0.0000E+00  0.0000E+00  0.0000E+00  0.0000E+00  0.0000E+00  0.0000E+00
  0.4281E-09  0.5903E-09  0.7833E-09  0.1011E-08  0.1286E-08  0.1606E-08  0.2033E-08  0.2501E-08  0.3042E-08  0.3655E-08  0.4347E-08  0.5096E-08  0.5968E-08  0.6892E-08  0.8691E-08  0.1127E-07  0.1428E-07  0.1677E-07  0.1985E-07  0.2278E-07  0.2586E-07  0.2930E-07  0.3197E-07  0.3433E-07  0.3669E-07  0.3908E-07  0.4262E-07  0.4741E-07  0.5073E-07  0.5428E-07  0.5677E-07  0.5793E-07  0.5835E-07  0.5818E-07  0.5846E-07  0.5673E-07  0.5442E-07  0.5194E-07  0.4897E-07  0.4587E-07  0.4213E-07  0.3893E-07  0.3504E-07  0.3192E-07  0.2812E-07  0.2530E-07  0.2179E-07  0.1923E-07  0.1600E-07  0.1384E-07  0.1108E-07  0.9173E-08  0.7289E-08  0.6121E-08  0.5071E-08  0.4138E-08  0.3319E-08  0.2611E-08  0.1999E-08  0.1472E-08  0.1018E-08  0.6294E-09  0.2968E-09  0.9342E-10  0.0000E+00  0.0000E+00  0.0000E+00  0.0000E+00  0.0000E+00  0.0000E+00  0.0000E+00  0.0000E+00  0.0000E+00  0.0000E+00  0.0000E+00  0.0000E+00  0.0000E+00  0.0000E+00  0.0000E+00
  0.5960E-09  0.8235E-09  0.1122E-08  0.1417E-08  0.1827E-08  0.2325E-08  0.2844E-08  0.3449E-08  0.4140E-08  0.4925E-08  0.5826E-08  0.6916E-08  0.8383E-08  0.1082E-07  0.1383E-07  0.1730E-07  0.2089E-07  0.2436E-07  0.2867E-07  0.3219E-07  0.3697E-07  0.4130E-07  0.4485E-07  0.4836E-07  0.5154E-07  0.5529E-07  0.6142E-07  0.6668E-07  0.7127E-07  0.7506E-07  0.7837E-07  0.7929E-07  0.7921E-07  0.7825E-07  0.7728E-07  0.7452E-07  0.7125E-07  0.6704E-07  0.6306E-07  0.5783E-07  0.5315E-07  0.4812E-07  0.4391E-07  0.3910E-07  0.3530E-07  0.3082E-07  0.2740E-07  0.2327E-07  0.2018E-07  0.1649E-07  0.1321E-07  0.1017E-07  0.8021E-08  0.6697E-08  0.5698E-08  0.4805E-08  0.3887E-08  0.3218E-08  0.2527E-08  0.1932E-08  0.1420E-08  0.9815E-09  0.6061E-09  0.2857E-09  0.8987E-10  0.0000E+00  0.0000E+00  0.0000E+00  0.0000E+00  0.0000E+00  0.0000E+00  0.0000E+00  0.0000E+00  0.0000E+00  0.0000E+00  0.0000E+00  0.0000E+00  0.0000E+00  0.0000E+00
  0.9857E-09  0.1245E-08  0.1656E-08  0.2035E-08  0.2605E-08  0.3173E-08  0.3840E-08  0.4646E-08  0.5487E-08  0.6545E-08  0.7779E-08  0.9378E-08  0.1257E-07  0.1604E-07  0.2020E-07  0.2500E-07  0.2938E-07  0.3478E-07  0.4007E-07  0.4561E-07  0.5185E-07  0.5709E-07  0.6224E-07  0.6683E-07  0.7158E-07  0.7837E-07  0.8620E-07  0.9349E-07  0.9896E-07  0.1030E-06  0.1057E-06  0.1061E-06  0.1051E-06  0.1038E-06  0.1004E-06  0.9626E-07  0.9135E-07  0.8563E-07  0.7903E-07  0.7292E-07  0.6656E-07  0.6061E-07  0.5400E-07  0.4839E-07  0.4269E-07  0.3811E-07  0.3284E-07  0.2868E-07  0.2390E-07  0.1956E-07  0.1569E-07  0.1313E-07  0.1006E-07  0.7885E-08  0.6534E-08  0.5359E-08  0.4345E-08  0.3473E-08  0.2722E-08  0.2078E-08  0.1526E-08  0.1053E-08  0.6493E-09  0.3058E-09  0.9609E-10  0.0000E+00  0.0000E+00  0.0000E+00  0.0000E+00  0.0000E+00  0.0000E+00  0.0000E+00  0.0000E+00  0.0000E+00  0.0000E+00  0.0000E+00  0.0000E+00  0.0000E+00  0.0000E+00
  0.1471E-08  0.1813E-08  0.2284E-08  0.2803E-08  0.3380E-08  0.4231E-08  0.5031E-08  0.6083E-08  0.7169E-08  0.8582E-08  0.1039E-07  0.1376E-07  0.1812E-07  0.2326E-07  0.2893E-07  0.3501E-07  0.4124E-07  0.4866E-07  0.5541E-07  0.6355E-07  0.7129E-07  0.7838E-07  0.8501E-07  0.9117E-07  0.1006E-06  0.1103E-06  0.1209E-06  0.1283E-06  0.1342E-06  0.1383E-06  0.1399E-06  0.1393E-06  0.1371E-06  0.1338E-06  0.1291E-06  0.1225E-06  0.1152E-06  0.1068E-06  0.9881E-07  0.9049E-07  0.8335E-07  0.7481E-07  0.6766E-07  0.5985E-07  0.5253E-07  0.4537E-07  0.3983E-07  0.3366E-07  0.2893E-07  0.2386E-07  0.1941E-07  0.1547E-07  0.1205E-07  0.9764E-08  0.7626E-08  0.6298E-08  0.5156E-08  0.4175E-08  0.3332E-08  0.2609E-08  0.1989E-08  0.1459E-08  0.1006E-08  0.6199E-09  0.2918E-09  0.9168E-10  0.0000E+00  0.0000E+00  0.0000E+00  0.0000E+00  0.0000E+00  0.0000E+00  0.0000E+00  0.0000E+00  0.0000E+00  0.0000E+00  0.0000E+00  0.0000E+00  0.0000E+00
  0.1927E-08  0.2503E-08  0.3018E-08  0.3744E-08  0.4474E-08  0.5473E-08  0.6525E-08  0.7750E-08  0.9214E-08  0.1079E-07  0.1480E-07  0.1977E-07  0.2568E-07  0.3214E-07  0.3978E-07  0.4758E-07  0.5669E-07  0.6685E-07  0.7730E-07  0.8823E-07  0.9810E-07  0.1076E-06  0.1164E-06  0.1260E-06  0.1393E-06  0.1519E-06  0.1636E-06  0.1723E-06  0.1785E-06  0.1820E-06  0.1822E-06  0.1801E-06  0.1760E-06  0.1707E-06  0.1627E-06  0.1536E-06  0.1431E-06  0.1335E-06  0.1236E-06  0.1129E-06  0.1023E-06  0.9171E-07  0.8195E-07  0.7296E-07  0.6384E-07  0.5522E-07  0.4651E-07  0.4015E-07  0.3353E-07  0.2767E-07  0.2257E-07  0.1807E-07  0.1417E-07  0.1061E-07  0.8225E-08  0.6781E-08  0.5543E-08  0.4481E-08  0.3571E-08  0.2792E-08  0.2126E-08  0.1558E-08  0.1073E-08  0.6603E-09  0.3106E-09  0.9749E-10  0.0000E+00  0.0000E+00  0.0000E+00  0.0000E+00  0.0000E+00  0.0000E+00  0.0000E+00  0.0000E+00  0.0000E+00  0.0000E+00  0.0000E+00  0.0000E+00  0.0000E+00
  0.2560E-08  0.3170E-08  0.3884E-08  0.4745E-08  0.5772E-08  0.6848E-08  0.8238E-08  0.9784E-08  0.1159E-07  0.1481E-07  0.2029E-07  0.2748E-07  0.3510E-07  0.4478E-07  0.5407E-07  0.6518E-07  0.7792E-07  0.9111E-07  0.1054E-06  0.1195E-06  0.1330E-06  0.1458E-06  0.1577E-06  0.1731E-06  0.1904E-06  0.2060E-06  0.2177E-06  0.2268E-06  0.2327E-06  0.2348E-06  0.2333E-06  0.2292E-06  0.2227E-06  0.2137E-06  0.2027E-06  0.1911E-06  0.1781E-06  0.1648E-06  0.1510E-06  0.1377E-06  0.1235E-06  0.1117E-06  0.9913E-07  0.8671E-07  0.7590E-07  0.6438E-07  0.5602E-07  0.4667E-07  0.3861E-07  0.3187E-07  0.2600E-07  0.2088E-07  0.1647E-07  0.1271E-07  0.1011E-07  0.7844E-08  0.6459E-08  0.5274E-08  0.4260E-08  0.3392E-08  0.2650E-08  0.2016E-08  0.1476E-08  0.1016E-08  0.6249E-09  0.2939E-09  0.9226E-10  0.0000E+00  0.0000E+00  0.0000E+00  0.0000E+00  0.0000E+00  0.0000E+00  0.0000E+00  0.0000E+00  0.0000E+00  0.0000E+00  0.0000E+00  0.0000E+00
  0.3140E-08  0.3924E-08  0.4790E-08  0.5810E-08  0.7008E-08  0.8426E-08  0.1006E-07  0.1198E-07  0.1495E-07  0.2084E-07  0.2868E-07  0.3726E-07  0.4841E-07  0.5967E-07  0.7278E-07  0.8775E-07  0.1046E-06  0.1225E-06  0.1415E-06  0.1598E-06  0.1778E-06  0.1948E-06  0.2128E-06  0.2348E-06  0.2549E-06  0.2728E-06  0.2850E-06  0.2935E-06  0.2982E-06  0.2981E-06  0.2945E-06  0.2877E-06  0.2776E-06  0.2652E-06  0.2507E-06  0.2348E-06  0.2181E-06  0.2007E-06  0.1835E-06  0.1658E-06  0.1496E-06  0.1332E-06  0.1181E-06  0.1038E-06  0.8943E-07  0.7662E-07  0.6450E-07  0.5415E-07  0.4463E-07  0.3739E-07  0.2973E-07  0.2400E-07  0.1983E-07  0.1480E-07  0.1106E-07  0.8427E-08  0.6900E-08  0.5626E-08  0.4539E-08  0.3610E-08  0.2817E-08  0.2141E-08  0.1566E-08  0.1077E-08  0.6618E-09  0.3110E-09  0.9757E-10  0.0000E+00  0.0000E+00  0.0000E+00  0.0000E+00  0.0000E+00  0.0000E+00  0.0000E+00  0.0000E+00  0.0000E+00  0.0000E+00  0.0000E+00  0.0000E+00
  0.3907E-08  0.4732E-08  0.5765E-08  0.6982E-08  0.8480E-08  0.1017E-07  0.1207E-07  0.1436E-07  0.2008E-07  0.2904E-07  0.3912E-07  0.5016E-07  0.6404E-07  0.7909E-07  0.9654E-07  0.1167E-06  0.1384E-06  0.1622E-06  0.1866E-06  0.2108E-06  0.2345E-06  0.2580E-06  0.2844E-06  0.3126E-06  0.3367E-06  0.3550E-06  0.3672E-06  0.3746E-06  0.3765E-06  0.3736E-06  0.3669E-06  0.3561E-06  0.3429E-06  0.3260E-06  0.3064E-06  0.2861E-06  0.2651E-06  0.2439E-06  0.2210E-06  0.1998E-06  0.1788E-06  0.1588E-06  0.1396E-06  0.1214E-06  0.1041E-06  0.8870E-07  0.7546E-07  0.6333E-07  0.5236E-07  0.4189E-07  0.3476E-07  0.2815E-07  0.2180E-07  0.1704E-07  0.1391E-07  0.1037E-07  0.7943E-08  0.6498E-08  0.5296E-08  0.4270E-08  0.3394E-08  0.2647E-08  0.2011E-08  0.1470E-08  0.1010E-08  0.6210E-09  0.2919E-09  0.9159E-10  0.0000E+00  0.0000E+00  0.0000E+00  0.0000E+00  0.0000E+00  0.0000E+00  0.0000E+00  0.0000E+00  0.0000E+00  0.0000E+00  0.0000E+00
  0.4671E-08  0.5702E-08  0.6859E-08  0.8362E-08  0.1006E-07  0.1205E-07  0.1439E-07  0.1827E-07  0.2734E-07  0.3949E-07  0.5168E-07  0.6556E-07  0.8359E-07  0.1032E-06  0.1261E-06  0.1523E-06  0.1809E-06  0.2118E-06  0.2429E-06  0.2743E-06  0.3055E-06  0.3382E-06  0.3742E-06  0.4066E-06  0.4340E-06  0.4534E-06  0.4647E-06  0.4707E-06  0.4703E-06  0.4641E-06  0.4540E-06  0.4393E-06  0.4215E-06  0.3998E-06  0.3764E-06  0.3512E-06  0.3250E-06  0.2965E-06  0.2683E-06  0.2407E-06  0.2141E-06  0.1883E-06  0.1639E-06  0.1409E-06  0.1215E-06  0.1028E-06  0.8662E-07  0.7205E-07  0.5983E-07  0.4893E-07  0.3952E-07  0.3090E-07  0.2468E-07  0.2025E-07  0.1514E-07  0.1127E-07  0.8587E-08  0.6887E-08  0.5608E-08  0.4517E-08  0.3587E-08  0.2795E-08  0.2122E-08  0.1550E-08  0.1064E-08  0.6538E-09  0.3072E-09  0.9633E-10  0.0000E+00  0.0000E+00  0.0000E+00  0.0000E+00  0.0000E+00  0.0000E+00  0.0000E+00  0.0000E+00  0.0000E+00  0.0000E+00  0.0000E+00
  0.5449E-08  0.6650E-08  0.8071E-08  0.9816E-08  0.1180E-07  0.1414E-07  0.1677E-07  0.2404E-07  0.3616E-07  0.5084E-07  0.6655E-07  0.8559E-07  0.1076E-06  0.1331E-06  0.1631E-06  0.1962E-06  0.2332E-06  0.2722E-06  0.3122E-06  0.3523E-06  0.3932E-06  0.4378E-06  0.4826E-06  0.5208E-06  0.5499E-06  0.5699E-06  0.5823E-06  0.5862E-06  0.5825E-06  0.5730E-06  0.5578E-06  0.5378E-06  0.5141E-06  0.4873E-06  0.4567E-06  0.4250E-06  0.3900E-06  0.3557E-06  0.3204E-06  0.2869E-06  0.2530E-06  0.2228E-06  0.1925E-06  0.1652E-06  0.1402E-06  0.1185E-06  0.9862E-07  0.8219E-07  0.6763E-07  0.5515E-07  0.4412E-07  0.3557E-07  0.2858E-07  0.2205E-07  0.1635E-07  0.1298E-07  0.1021E-07  0.7799E-08  0.6260E-08  0.5220E-08  0.4204E-08  0.3338E-08  0.2601E-08  0.1974E-08  0.1442E-08  0.9902E-09  0.6082E-09  0.2858E-09  0.8969E-10  0.0000E+00  0.0000E+00  0.0000E+00  0.0000E+00  0.0000E+00  0.0000E+00  0.0000E+00  0.0000E+00  0.0000E+00  0.0000E+00
  0.6447E-08  0.7752E-08  0.9392E-08  0.1140E-07  0.1369E-07  0.1639E-07  0.2064E-07  0.3214E-07  0.4774E-07  0.6573E-07  0.8513E-07  0.1093E-06  0.1368E-06  0.1695E-06  0.2074E-06  0.2499E-06  0.2968E-06  0.3455E-06  0.3960E-06  0.4473E-06  0.5017E-06  0.5593E-06  0.6102E-06  0.6532E-06  0.6845E-06  0.7042E-06  0.7154E-06  0.7170E-06  0.7105E-06  0.6964E-06  0.6761E-06  0.6502E-06  0.6201E-06  0.5847E-06  0.5477E-06  0.5067E-06  0.4655E-06  0.4225E-06  0.3808E-06  0.3386E-06  0.2990E-06  0.2598E-06  0.2238E-06  0.1905E-06  0.1613E-06  0.1352E-06  0.1131E-06  0.9300E-07  0.7674E-07  0.6250E-07  0.5048E-07  0.4046E-07  0.3116E-07  0.2383E-07  0.1941E-07  0.1508E-07  0.1142E-07  0.8839E-08  0.7261E-08  0.6070E-08  0.5150E-08  0.4394E-08  0.3720E-08  0.2926E-08  0.2115E-08  0.1336E-08  0.7579E-09  0.2991E-09  0.9381E-10  0.0000E+00  0.0000E+00  0.0000E+00  0.0000E+00  0.0000E+00  0.0000E+00  0.0000E+00  0.0000E+00  0.0000E+00  0.0000E+00
  0.7358E-08  0.8938E-08  0.1081E-07  0.1302E-07  0.1551E-07  0.1865E-07  0.2628E-07  0.4292E-07  0.6223E-07  0.8330E-07  0.1079E-06  0.1372E-06  0.1721E-06  0.2137E-06  0.2609E-06  0.3145E-06  0.3725E-06  0.4334E-06  0.4969E-06  0.5623E-06  0.6330E-06  0.7016E-06  0.7590E-06  0.8046E-06  0.8364E-06  0.8560E-06  0.8654E-06  0.8643E-06  0.8544E-06  0.8366E-06  0.8098E-06  0.7775E-06  0.7385E-06  0.6976E-06  0.6511E-06  0.6025E-06  0.5514E-06  0.5002E-06  0.4478E-06  0.3981E-06  0.3491E-06  0.3022E-06  0.2593E-06  0.2198E-06  0.1852E-06  0.1546E-06  0.1282E-06  0.1061E-06  0.8651E-07  0.7029E-07  0.5719E-07  0.4460E-07  0.3530E-07  0.2793E-07  0.2219E-07  0.1678E-07  0.1285E-07  0.1022E-07  0.8585E-08  0.7379E-08  0.6480E-08  0.5769E-08  0.5201E-08  0.4645E-08  0.3997E-08  0.3121E-08  0.2296E-08  0.1583E-08  0.1007E-08  0.5919E-09  0.3301E-09  0.1057E-09  0.0000E+00  0.0000E+00  0.0000E+00  0.0000E+00  0.0000E+00  0.0000E+00  0.0000E+00
  0.8415E-08  0.1020E-07  0.1219E-07  0.1468E-07  0.1761E-07  0.2106E-07  0.3468E-07  0.5395E-07  0.7765E-07  0.1032E-06  0.1345E-06  0.1705E-06  0.2142E-06  0.2659E-06  0.3250E-06  0.3915E-06  0.4626E-06  0.5382E-06  0.6170E-06  0.7017E-06  0.7889E-06  0.8638E-06  0.9269E-06  0.9740E-06  0.1006E-05  0.1027E-05  0.1034E-05  0.1029E-05  0.1014E-05  0.9890E-06  0.9576E-06  0.9187E-06  0.8723E-06  0.8227E-06  0.7675E-06  0.7083E-06  0.6483E-06  0.5874E-06  0.5247E-06  0.4638E-06  0.4048E-06  0.3499E-06  0.2998E-06  0.2528E-06  0.2127E-06  0.1768E-06  0.1457E-06  0.1192E-06  0.9784E-07  0.7953E-07  0.6286E-07  0.5076E-07  0.4055E-07  0.3171E-07  0.2476E-07  0.1898E-07  0.1482E-07  0.1274E-07  0.1044E-07  0.9068E-08  0.8170E-08  0.7415E-08  0.6781E-08  0.6361E-08  0.5881E-08  0.5075E-08  0.4087E-08  0.3061E-08  0.2130E-08  0.1394E-08  0.8892E-09  0.5180E-09  0.2151E-09  0.3470E-10  0.0000E+00  0.0000E+00  0.0000E+00  0.0000E+00  0.0000E+00
  0.9343E-08  0.1132E-07  0.1380E-07  0.1651E-07  0.1978E-07  0.2558E-07  0.4441E-07  0.6957E-07  0.9682E-07  0.1273E-06  0.1652E-06  0.2100E-06  0.2640E-06  0.3276E-06  0.4007E-06  0.4818E-06  0.5692E-06  0.6622E-06  0.7603E-06  0.8652E-06  0.9637E-06  0.1046E-05  0.1114E-05  0.1163E-05  0.1196E-05  0.1213E-05  0.1215E-05  0.1206E-05  0.1184E-05  0.1155E-05  0.1116E-05  0.1069E-05  0.1017E-05  0.9575E-06  0.8950E-06  0.8272E-06  0.7562E-06  0.6826E-06  0.6099E-06  0.5387E-06  0.4699E-06  0.4048E-06  0.3452E-06  0.2902E-06  0.2425E-06  0.1996E-06  0.1640E-06  0.1347E-06  0.1094E-06  0.8788E-07  0.7096E-07  0.5812E-07  0.4565E-07  0.3577E-07  0.2794E-07  0.2174E-07  0.1886E-07  0.1539E-07  0.1288E-07  0.1135E-07  0.1007E-07  0.9201E-08  0.8503E-08  0.7896E-08  0.7392E-08  0.6787E-08  0.5997E-08  0.4816E-08  0.3581E-08  0.2610E-08  0.1857E-08  0.1281E-08  0.7759E-09  0.3280E-09  0.4415E-10  0.0000E+00  0.0000E+00  0.0000E+00  0.0000E+00
  0.1061E-07  0.1267E-07  0.1525E-07  0.1814E-07  0.2181E-07  0.3207E-07  0.5765E-07  0.8595E-07  0.1187E-06  0.1566E-06  0.2012E-06  0.2564E-06  0.3228E-06  0.4013E-06  0.4901E-06  0.5882E-06  0.6943E-06  0.8079E-06  0.9306E-06  0.1054E-05  0.1160E-05  0.1250E-05  0.1319E-05  0.1367E-05  0.1397E-05  0.1409E-05  0.1407E-05  0.1391E-05  0.1365E-05  0.1329E-05  0.1282E-05  0.1230E-05  0.1170E-05  0.1103E-05  0.1030E-05  0.9535E-06  0.8716E-06  0.7877E-06  0.7038E-06  0.6205E-06  0.5400E-06  0.4646E-06  0.3947E-06  0.3319E-06  0.2741E-06  0.2259E-06  0.1858E-06  0.1501E-06  0.1215E-06  0.9843E-07  0.8009E-07  0.6349E-07  0.5089E-07  0.4038E-07  0.3137E-07  0.2745E-07  0.2222E-07  0.1840E-07  0.1573E-07  0.1401E-07  0.1259E-07  0.1142E-07  0.1059E-07  0.9869E-08  0.9243E-08  0.8725E-08  0.8054E-08  0.6991E-08  0.5435E-08  0.4180E-08  0.3213E-08  0.2355E-08  0.1614E-08  0.9710E-09  0.4078E-09  0.1115E-09  0.0000E+00  0.0000E+00  0.0000E+00
  0.1157E-07  0.1387E-07  0.1661E-07  0.1993E-07  0.2392E-07  0.4135E-07  0.7132E-07  0.1059E-06  0.1435E-06  0.1889E-06  0.2434E-06  0.3105E-06  0.3921E-06  0.4872E-06  0.5941E-06  0.7122E-06  0.8405E-06  0.9803E-06  0.1125E-05  0.1260E-05  0.1373E-05  0.1467E-05  0.1535E-05  0.1581E-05  0.1607E-05  0.1614E-05  0.1607E-05  0.1585E-05  0.1552E-05  0.1508E-05  0.1458E-05  0.1398E-05  0.1331E-05  0.1255E-05  0.1173E-05  0.1087E-05  0.9956E-06  0.9013E-06  0.8059E-06  0.7111E-06  0.6193E-06  0.5317E-06  0.4508E-06  0.3754E-06  0.3115E-06  0.2550E-06  0.2065E-06  0.1665E-06  0.1349E-06  0.1097E-06  0.8806E-07  0.7060E-07  0.5655E-07  0.4481E-07  0.3793E-07  0.3127E-07  0.2588E-07  0.2198E-07  0.1928E-07  0.1749E-07  0.1583E-07  0.1446E-07  0.1330E-07  0.1239E-07  0.1156E-07  0.1087E-07  0.1029E-07  0.9620E-08  0.8134E-08  0.6511E-08  0.5031E-08  0.3721E-08  0.2774E-08  0.1974E-08  0.1181E-08  0.4937E-09  0.1343E-09  0.0000E+00  0.0000E+00
  0.1251E-07  0.1514E-07  0.1818E-07  0.2168E-07  0.2577E-07  0.5309E-07  0.8710E-07  0.1281E-06  0.1727E-06  0.2255E-06  0.2924E-06  0.3742E-06  0.4729E-06  0.5867E-06  0.7154E-06  0.8567E-06  0.1010E-05  0.1177E-05  0.1340E-05  0.1483E-05  0.1604E-05  0.1696E-05  0.1761E-05  0.1804E-05  0.1824E-05  0.1825E-05  0.1811E-05  0.1784E-05  0.1745E-05  0.1697E-05  0.1640E-05  0.1574E-05  0.1498E-05  0.1416E-05  0.1324E-05  0.1226E-05  0.1124E-05  0.1019E-05  0.9133E-06  0.8063E-06  0.7030E-06  0.6038E-06  0.5099E-06  0.4272E-06  0.3517E-06  0.2855E-06  0.2300E-06  0.1857E-06  0.1493E-06  0.1207E-06  0.9727E-07  0.7810E-07  0.6270E-07  0.5293E-07  0.4343E-07  0.3614E-07  0.3032E-07  0.2624E-07  0.2333E-07  0.2146E-07  0.1981E-07  0.1824E-07  0.1680E-07  0.1574E-07  0.1461E-07  0.1376E-07  0.1303E-07  0.1232E-07  0.1113E-07  0.9453E-08  0.7404E-08  0.5607E-08  0.4328E-08  0.3210E-08  0.2232E-08  0.1298E-08  0.5840E-09  0.1583E-09  0.0000E+00
  0.1362E-07  0.1637E-07  0.1943E-07  0.2322E-07  0.3115E-07  0.6449E-07  0.1073E-06  0.1529E-06  0.2051E-06  0.2699E-06  0.3501E-06  0.4492E-06  0.5677E-06  0.7032E-06  0.8560E-06  0.1023E-05  0.1206E-05  0.1397E-05  0.1572E-05  0.1720E-05  0.1843E-05  0.1933E-05  0.1994E-05  0.2030E-05  0.2045E-05  0.2040E-05  0.2021E-05  0.1988E-05  0.1945E-05  0.1890E-05  0.1827E-05  0.1752E-05  0.1669E-05  0.1576E-05  0.1474E-05  0.1367E-05  0.1254E-05  0.1138E-05  0.1020E-05  0.9047E-06  0.7884E-06  0.6792E-06  0.5757E-06  0.4801E-06  0.3945E-06  0.3195E-06  0.2575E-06  0.2064E-06  0.1654E-06  0.1324E-06  0.1062E-06  0.8572E-07  0.7276E-07  0.6040E-07  0.5059E-07  0.4206E-07  0.3619E-07  0.3159E-07  0.2837E-07  0.2610E-07  0.2421E-07  0.2253E-07  0.2124E-07  0.1982E-07  0.1850E-07  0.1713E-07  0.1598E-07  0.1497E-07  0.1405E-07  0.1221E-07  0.1037E-07  0.7970E-08  0.6429E-08  0.4896E-08  0.3460E-08  0.2371E-08  0.1413E-08  0.5715E-09  0.8996E-10
  0.1444E-07  0.1733E-07  0.2056E-07  0.2454E-07  0.3777E-07  0.8086E-07  0.1284E-06  0.1802E-06  0.2429E-06  0.3205E-06  0.4169E-06  0.5370E-06  0.6774E-06  0.8371E-06  0.1016E-05  0.1213E-05  0.1426E-05  0.1635E-05  0.1817E-05  0.1970E-05  0.2089E-05  0.2173E-05  0.2229E-05  0.2259E-05  0.2266E-05  0.2257E-05  0.2232E-05  0.2194E-05  0.2144E-05  0.2085E-05  0.2012E-05  0.1931E-05  0.1839E-05  0.1736E-05  0.1623E-05  0.1505E-05  0.1379E-05  0.1254E-05  0.1127E-05  0.9989E-06  0.8754E-06  0.7552E-06  0.6421E-06  0.5368E-06  0.4407E-06  0.3580E-06  0.2880E-06  0.2292E-06  0.1821E-06  0.1456E-06  0.1170E-06  0.9756E-07  0.8173E-07  0.6835E-07  0.5774E-07  0.4913E-07  0.4291E-07  0.3824E-07  0.3455E-07  0.3186E-07  0.2944E-07  0.2761E-07  0.2596E-07  0.2431E-07  0.2272E-07  0.2109E-07  0.1951E-07  0.1807E-07  0.1682E-07  0.1541E-07  0.1315E-07  0.1099E-07  0.8734E-08  0.6958E-08  0.5089E-08  0.3827E-08  0.2561E-08  0.1493E-08  0.5447E-09
  0.1518E-07  0.1819E-07  0.2163E-07  0.2589E-07  0.4952E-07  0.9702E-07  0.1533E-06  0.2132E-06  0.2873E-06  0.3800E-06  0.4972E-06  0.6391E-06  0.8038E-06  0.9908E-06  0.1199E-05  0.1430E-05  0.1669E-05  0.1887E-05  0.2072E-05  0.2224E-05  0.2337E-05  0.2415E-05  0.2465E-05  0.2487E-05  0.2490E-05  0.2473E-05  0.2444E-05  0.2401E-05  0.2345E-05  0.2279E-05  0.2198E-05  0.2108E-05  0.2006E-05  0.1892E-05  0.1769E-05  0.1637E-05  0.1502E-05  0.1365E-05  0.1227E-05  0.1092E-05  0.9592E-06  0.8317E-06  0.7091E-06  0.5942E-06  0.4925E-06  0.4017E-06  0.3214E-06  0.2549E-06  0.2018E-06  0.1617E-06  0.1324E-06  0.1101E-06  0.9161E-07  0.7735E-07  0.6613E-07  0.5722E-07  0.5061E-07  0.4567E-07  0.4175E-07  0.3871E-07  0.3599E-07  0.3355E-07  0.3111E-07  0.2907E-07  0.2726E-07  0.2547E-07  0.2362E-07  0.2173E-07  0.1995E-07  0.1834E-07  0.1648E-07  0.1363E-07  0.1144E-07  0.9307E-08  0.7191E-08  0.5380E-08  0.3954E-08  0.2596E-08  0.1409E-08
  0.1581E-07  0.1893E-07  0.2265E-07  0.2688E-07  0.6340E-07  0.1150E-06  0.1798E-06  0.2498E-06  0.3385E-06  0.4492E-06  0.5899E-06  0.7562E-06  0.9488E-06  0.1166E-05  0.1408E-05  0.1671E-05  0.1926E-05  0.2148E-05  0.2334E-05  0.2480E-05  0.2584E-05  0.2655E-05  0.2696E-05  0.2714E-05  0.2710E-05  0.2689E-05  0.2653E-05  0.2604E-05  0.2541E-05  0.2466E-05  0.2378E-05  0.2279E-05  0.2164E-05  0.2040E-05  0.1904E-05  0.1764E-05  0.1618E-05  0.1470E-05  0.1325E-05  0.1183E-05  0.1042E-05  0.9050E-06  0.7748E-06  0.6569E-06  0.5505E-06  0.4523E-06  0.3664E-06  0.2945E-06  0.2347E-06  0.1878E-06  0.1527E-06  0.1251E-06  0.1037E-06  0.8816E-07  0.7625E-07  0.6669E-07  0.5982E-07  0.5411E-07  0.4973E-07  0.4626E-07  0.4324E-07  0.4027E-07  0.3729E-07  0.3444E-07  0.3209E-07  0.3009E-07  0.2800E-07  0.2583E-07  0.2352E-07  0.2134E-07  0.1923E-07  0.1712E-07  0.1390E-07  0.1163E-07  0.9426E-08  0.7250E-08  0.5546E-08  0.3840E-08  0.2552E-08
  0.1634E-07  0.1954E-07  0.2346E-07  0.3274E-07  0.7521E-07  0.1357E-06  0.2113E-06  0.2945E-06  0.3993E-06  0.5326E-06  0.6974E-06  0.8908E-06  0.1114E-05  0.1365E-05  0.1646E-05  0.1933E-05  0.2194E-05  0.2415E-05  0.2595E-05  0.2732E-05  0.2828E-05  0.2891E-05  0.2925E-05  0.2934E-05  0.2923E-05  0.2896E-05  0.2855E-05  0.2799E-05  0.2730E-05  0.2646E-05  0.2550E-05  0.2438E-05  0.2314E-05  0.2178E-05  0.2034E-05  0.1883E-05  0.1727E-05  0.1572E-05  0.1418E-05  0.1267E-05  0.1119E-05  0.9766E-06  0.8475E-06  0.7255E-06  0.6159E-06  0.5192E-06  0.4294E-06  0.3513E-06  0.2831E-06  0.2276E-06  0.1838E-06  0.1488E-06  0.1235E-06  0.1043E-06  0.8964E-07  0.7818E-07  0.7027E-07  0.6375E-07  0.5879E-07  0.5467E-07  0.5098E-07  0.4773E-07  0.4415E-07  0.4077E-07  0.3763E-07  0.3492E-07  0.3243E-07  0.2999E-07  0.2741E-07  0.2483E-07  0.2247E-07  0.1987E-07  0.1652E-07  0.1389E-07  0.1158E-07  0.9529E-08  0.7114E-08  0.5551E-08  0.3621E-08
  0.1676E-07  0.2019E-07  0.2399E-07  0.3962E-07  0.8884E-07  0.1575E-06  0.2475E-06  0.3464E-06  0.4699E-06  0.6294E-06  0.8213E-06  0.1046E-05  0.1303E-05  0.1595E-05  0.1908E-05  0.2208E-05  0.2470E-05  0.2687E-05  0.2857E-05  0.2980E-05  0.3066E-05  0.3118E-05  0.3143E-05  0.3144E-05  0.3129E-05  0.3095E-05  0.3049E-05  0.2986E-05  0.2907E-05  0.2815E-05  0.2707E-05  0.2586E-05  0.2452E-05  0.2307E-05  0.2154E-05  0.1992E-05  0.1829E-05  0.1665E-05  0.1503E-05  0.1344E-05  0.1193E-05  0.1054E-05  0.9232E-06  0.8033E-06  0.7013E-06  0.6078E-06  0.5173E-06  0.4344E-06  0.3590E-06  0.2932E-06  0.2358E-06  0.1895E-06  0.1535E-06  0.1273E-06  0.1080E-06  0.9343E-07  0.8305E-07  0.7477E-07  0.6883E-07  0.6406E-07  0.5930E-07  0.5554E-07  0.5152E-07  0.4760E-07  0.4383E-07  0.4028E-07  0.3711E-07  0.3415E-07  0.3130E-07  0.2856E-07  0.2565E-07  0.2268E-07  0.1953E-07  0.1628E-07  0.1363E-07  0.1129E-07  0.9019E-08  0.6796E-08  0.5211E-08
  0.1700E-07  0.2052E-07  0.2436E-07  0.4653E-07  0.1041E-06  0.1839E-06  0.2915E-06  0.4061E-06  0.5549E-06  0.7417E-06  0.9643E-06  0.1224E-05  0.1521E-05  0.1853E-05  0.2189E-05  0.2492E-05  0.2747E-05  0.2953E-05  0.3109E-05  0.3218E-05  0.3291E-05  0.3334E-05  0.3349E-05  0.3345E-05  0.3322E-05  0.3285E-05  0.3229E-05  0.3157E-05  0.3071E-05  0.2968E-05  0.2851E-05  0.2720E-05  0.2579E-05  0.2425E-05  0.2263E-05  0.2095E-05  0.1924E-05  0.1750E-05  0.1582E-05  0.1422E-05  0.1274E-05  0.1135E-05  0.1012E-05  0.9048E-06  0.8141E-06  0.7240E-06  0.6403E-06  0.5617E-06  0.4838E-06  0.4059E-06  0.3279E-06  0.2580E-06  0.2014E-06  0.1609E-06  0.1332E-06  0.1129E-06  0.9901E-07  0.8809E-07  0.8029E-07  0.7400E-07  0.6856E-07  0.6392E-07  0.5923E-07  0.5471E-07  0.5044E-07  0.4624E-07  0.4213E-07  0.3843E-07  0.3522E-07  0.3222E-07  0.2899E-07  0.2552E-07  0.2202E-07  0.1876E-07  0.1577E-07  0.1313E-07  0.1079E-07  0.8108E-08  0.6314E-08
  0.1719E-07  0.2072E-07  0.2591E-07  0.6029E-07  0.1240E-06  0.2247E-06  0.3420E-06  0.4786E-06  0.6553E-06  0.8723E-06  0.1131E-05  0.1430E-05  0.1774E-05  0.2139E-05  0.2482E-05  0.2779E-05  0.3023E-05  0.3212E-05  0.3350E-05  0.3444E-05  0.3504E-05  0.3534E-05  0.3543E-05  0.3531E-05  0.3505E-05  0.3458E-05  0.3395E-05  0.3315E-05  0.3220E-05  0.3106E-05  0.2982E-05  0.2842E-05  0.2689E-05  0.2528E-05  0.2360E-05  0.2186E-05  0.2007E-05  0.1831E-05  0.1661E-05  0.1502E-05  0.1359E-05  0.1232E-05  0.1126E-05  0.1036E-05  0.9626E-06  0.8959E-06  0.8321E-06  0.7650E-06  0.6844E-06  0.5888E-06  0.4856E-06  0.3808E-06  0.2889E-06  0.2181E-06  0.1702E-06  0.1392E-06  0.1183E-06  0.1040E-06  0.9301E-07  0.8496E-07  0.7844E-07  0.7239E-07  0.6735E-07  0.6216E-07  0.5718E-07  0.5236E-07  0.4764E-07  0.4308E-07  0.3911E-07  0.3563E-07  0.3221E-07  0.2876E-07  0.2502E-07  0.2131E-07  0.1798E-07  0.1503E-07  0.1242E-07  0.9887E-08  0.7466E-08
  0.1726E-07  0.2060E-07  0.3147E-07  0.7263E-07  0.1509E-06  0.2657E-06  0.4026E-06  0.5644E-06  0.7729E-06  0.1026E-05  0.1324E-05  0.1671E-05  0.2058E-05  0.2441E-05  0.2781E-05  0.3064E-05  0.3290E-05  0.3457E-05  0.3575E-05  0.3654E-05  0.3699E-05  0.3722E-05  0.3721E-05  0.3704E-05  0.3669E-05  0.3617E-05  0.3545E-05  0.3457E-05  0.3350E-05  0.3229E-05  0.3093E-05  0.2944E-05  0.2784E-05  0.2617E-05  0.2444E-05  0.2264E-05  0.2085E-05  0.1910E-05  0.1746E-05  0.1593E-05  0.1460E-05  0.1350E-05  0.1272E-05  0.1220E-05  0.1176E-05  0.1146E-05  0.1118E-05  0.1070E-05  0.9909E-06  0.8749E-06  0.7303E-06  0.5753E-06  0.4267E-06  0.3075E-06  0.2272E-06  0.1767E-06  0.1415E-06  0.1217E-06  0.1075E-06  0.9706E-07  0.8892E-07  0.8181E-07  0.7585E-07  0.6977E-07  0.6392E-07  0.5854E-07  0.5320E-07  0.4806E-07  0.4324E-07  0.3911E-07  0.3528E-07  0.3175E-07  0.2792E-07  0.2403E-07  0.1996E-07  0.1672E-07  0.1385E-07  0.1109E-07  0.8658E-08
  0.1723E-07  0.2046E-07  0.4018E-07  0.8856E-07  0.1853E-06  0.3158E-06  0.4734E-06  0.6685E-06  0.9115E-06  0.1206E-05  0.1552E-05  0.1951E-05  0.2369E-05  0.2753E-05  0.3079E-05  0.3341E-05  0.3542E-05  0.3684E-05  0.3782E-05  0.3844E-05  0.3880E-05  0.3891E-05  0.3885E-05  0.3859E-05  0.3817E-05  0.3755E-05  0.3675E-05  0.3576E-05  0.3461E-05  0.3330E-05  0.3184E-05  0.3028E-05  0.2866E-05  0.2691E-05  0.2513E-05  0.2334E-05  0.2157E-05  0.1995E-05  0.1836E-05  0.1698E-05  0.1588E-05  0.1515E-05  0.1482E-05  0.1475E-05  0.1489E-05  0.1517E-05  0.1531E-05  0.1506E-05  0.1427E-05  0.1284E-05  0.1087E-05  0.8560E-06  0.6317E-06  0.4445E-06  0.3091E-06  0.2253E-06  0.1763E-06  0.1462E-06  0.1256E-06  0.1102E-06  0.1002E-06  0.9174E-07  0.8414E-07  0.7756E-07  0.7091E-07  0.6469E-07  0.5878E-07  0.5298E-07  0.4769E-07  0.4280E-07  0.3831E-07  0.3442E-07  0.3056E-07  0.2628E-07  0.2196E-07  0.1821E-07  0.1509E-07  0.1233E-07  0.9876E-08
  0.1709E-07  0.2072E-07  0.5193E-07  0.1120E-06  0.2211E-06  0.3746E-06  0.5607E-06  0.7936E-06  0.1078E-05  0.1420E-05  0.1823E-05  0.2268E-05  0.2696E-05  0.3068E-05  0.3371E-05  0.3604E-05  0.3773E-05  0.3891E-05  0.3970E-05  0.4021E-05  0.4041E-05  0.4044E-05  0.4028E-05  0.3997E-05  0.3944E-05  0.3873E-05  0.3783E-05  0.3674E-05  0.3550E-05  0.3407E-05  0.3255E-05  0.3095E-05  0.2924E-05  0.2747E-05  0.2570E-05  0.2394E-05  0.2231E-05  0.2078E-05  0.1939E-05  0.1830E-05  0.1761E-05  0.1744E-05  0.1775E-05  0.1848E-05  0.1952E-05  0.2042E-05  0.2101E-05  0.2103E-05  0.2017E-05  0.1829E-05  0.1554E-05  0.1234E-05  0.9119E-06  0.6332E-06  0.4284E-06  0.2990E-06  0.2233E-06  0.1775E-06  0.1465E-06  0.1281E-06  0.1122E-06  0.1022E-06  0.9325E-07  0.8551E-07  0.7789E-07  0.7082E-07  0.6426E-07  0.5806E-07  0.5198E-07  0.4663E-07  0.4150E-07  0.3708E-07  0.3321E-07  0.2872E-07  0.2427E-07  0.2017E-07  0.1678E-07  0.1378E-07  0.1111E-07
  0.1724E-07  0.2510E-07  0.6752E-07  0.1418E-06  0.2663E-06  0.4454E-06  0.6664E-06  0.9420E-06  0.1278E-05  0.1679E-05  0.2138E-05  0.2609E-05  0.3030E-05  0.3376E-05  0.3644E-05  0.3844E-05  0.3985E-05  0.4079E-05  0.4138E-05  0.4169E-05  0.4185E-05  0.4179E-05  0.4154E-05  0.4110E-05  0.4048E-05  0.3968E-05  0.3867E-05  0.3750E-05  0.3612E-05  0.3466E-05  0.3306E-05  0.3137E-05  0.2964E-05  0.2786E-05  0.2611E-05  0.2451E-05  0.2297E-05  0.2166E-05  0.2060E-05  0.1992E-05  0.1996E-05  0.2056E-05  0.2192E-05  0.2392E-05  0.2611E-05  0.2768E-05  0.2866E-05  0.2873E-05  0.2758E-05  0.2502E-05  0.2127E-05  0.1689E-05  0.1256E-05  0.8738E-06  0.5928E-06  0.4061E-06  0.2904E-06  0.2197E-06  0.1755E-06  0.1465E-06  0.1274E-06  0.1127E-06  0.1025E-06  0.9315E-07  0.8492E-07  0.7693E-07  0.6964E-07  0.6283E-07  0.5642E-07  0.5044E-07  0.4476E-07  0.3975E-07  0.3544E-07  0.3113E-07  0.2640E-07  0.2197E-07  0.1797E-07  0.1498E-07  0.1213E-07
  0.1764E-07  0.3069E-07  0.8516E-07  0.1740E-06  0.3225E-06  0.5367E-06  0.7993E-06  0.1125E-05  0.1520E-05  0.1989E-05  0.2494E-05  0.2965E-05  0.3359E-05  0.3668E-05  0.3899E-05  0.4060E-05  0.4167E-05  0.4236E-05  0.4280E-05  0.4302E-05  0.4305E-05  0.4290E-05  0.4256E-05  0.4202E-05  0.4131E-05  0.4041E-05  0.3927E-05  0.3796E-05  0.3654E-05  0.3497E-05  0.3331E-05  0.3159E-05  0.2984E-05  0.2810E-05  0.2647E-05  0.2496E-05  0.2362E-05  0.2262E-05  0.2203E-05  0.2210E-05  0.2299E-05  0.2490E-05  0.2811E-05  0.3188E-05  0.3519E-05  0.3756E-05  0.3865E-05  0.3832E-05  0.3638E-05  0.3261E-05  0.2759E-05  0.2192E-05  0.1640E-05  0.1173E-05  0.8089E-06  0.5525E-06  0.3841E-06  0.2788E-06  0.2131E-06  0.1713E-06  0.1441E-06  0.1258E-06  0.1118E-06  0.1013E-06  0.9194E-07  0.8307E-07  0.7501E-07  0.6750E-07  0.6056E-07  0.5404E-07  0.4806E-07  0.4250E-07  0.3763E-07  0.3299E-07  0.2850E-07  0.2371E-07  0.1955E-07  0.1597E-07  0.1297E-07
  0.1812E-07  0.4475E-07  0.1081E-06  0.2161E-06  0.3896E-06  0.6490E-06  0.9614E-06  0.1349E-05  0.1816E-05  0.2349E-05  0.2871E-05  0.3320E-05  0.3674E-05  0.3936E-05  0.4120E-05  0.4243E-05  0.4319E-05  0.4371E-05  0.4399E-05  0.4409E-05  0.4402E-05  0.4380E-05  0.4334E-05  0.4274E-05  0.4189E-05  0.4083E-05  0.3957E-05  0.3819E-05  0.3667E-05  0.3503E-05  0.3332E-05  0.3159E-05  0.2987E-05  0.2824E-05  0.2668E-05  0.2534E-05  0.2428E-05  0.2367E-05  0.2379E-05  0.2479E-05  0.2717E-05  0.3121E-05  0.3698E-05  0.4284E-05  0.4741E-05  0.5031E-05  0.5107E-05  0.4951E-05  0.4574E-05  0.4039E-05  0.3377E-05  0.2697E-05  0.2053E-05  0.1505E-05  0.1067E-05  0.7412E-06  0.5109E-06  0.3579E-06  0.2614E-06  0.2008E-06  0.1623E-06  0.1391E-06  0.1220E-06  0.1094E-06  0.9857E-07  0.8909E-07  0.8021E-07  0.7209E-07  0.6455E-07  0.5759E-07  0.5131E-07  0.4522E-07  0.3988E-07  0.3501E-07  0.3031E-07  0.2540E-07  0.2091E-07  0.1692E-07  0.1399E-07
  0.1948E-07  0.6057E-07  0.1327E-06  0.2674E-06  0.4855E-06  0.7905E-06  0.1164E-05  0.1627E-05  0.2173E-05  0.2747E-05  0.3257E-05  0.3663E-05  0.3966E-05  0.4174E-05  0.4308E-05  0.4390E-05  0.4445E-05  0.4477E-05  0.4495E-05  0.4494E-05  0.4479E-05  0.4444E-05  0.4390E-05  0.4316E-05  0.4215E-05  0.4095E-05  0.3961E-05  0.3811E-05  0.3650E-05  0.3481E-05  0.3311E-05  0.3141E-05  0.2976E-05  0.2820E-05  0.2677E-05  0.2567E-05  0.2496E-05  0.2488E-05  0.2584E-05  0.2845E-05  0.3323E-05  0.4038E-05  0.4952E-05  0.5776E-05  0.6334E-05  0.6584E-05  0.6508E-05  0.6112E-05  0.5471E-05  0.4727E-05  0.3938E-05  0.3167E-05  0.2466E-05  0.1858E-05  0.1357E-05  0.9606E-06  0.6622E-06  0.4500E-06  0.3157E-06  0.2328E-06  0.1823E-06  0.1516E-06  0.1314E-06  0.1172E-06  0.1054E-06  0.9471E-07  0.8532E-07  0.7648E-07  0.6837E-07  0.6094E-07  0.5423E-07  0.4787E-07  0.4207E-07  0.3679E-07  0.3173E-07  0.2699E-07  0.2227E-07  0.1802E-07  0.1482E-07
  0.2499E-07  0.8014E-07  0.1686E-06  0.3343E-06  0.6070E-06  0.9704E-06  0.1421E-05  0.1975E-05  0.2592E-05  0.3169E-05  0.3643E-05  0.3992E-05  0.4227E-05  0.4382E-05  0.4468E-05  0.4516E-05  0.4539E-05  0.4558E-05  0.4562E-05  0.4553E-05  0.4527E-05  0.4482E-05  0.4417E-05  0.4324E-05  0.4213E-05  0.4079E-05  0.3933E-05  0.3772E-05  0.3605E-05  0.3437E-05  0.3269E-05  0.3106E-05  0.2949E-05  0.2804E-05  0.2679E-05  0.2594E-05  0.2562E-05  0.2636E-05  0.2894E-05  0.3405E-05  0.4242E-05  0.5407E-05  0.6693E-05  0.7698E-05  0.8232E-05  0.8274E-05  0.7837E-05  0.7101E-05  0.6178E-05  0.5261E-05  0.4397E-05  0.3590E-05  0.2852E-05  0.2198E-05  0.1638E-05  0.1176E-05  0.8106E-06  0.5419E-06  0.3661E-06  0.2631E-06  0.2016E-06  0.1647E-06  0.1415E-06  0.1248E-06  0.1120E-06  0.1004E-06  0.9029E-07  0.8076E-07  0.7202E-07  0.6411E-07  0.5694E-07  0.5043E-07  0.4417E-07  0.3852E-07  0.3309E-07  0.2815E-07  0.2340E-07  0.1918E-07  0.1564E-07
  0.3369E-07  0.1045E-06  0.2174E-06  0.4300E-06  0.7640E-06  0.1206E-05  0.1761E-05  0.2406E-05  0.3057E-05  0.3610E-05  0.4020E-05  0.4299E-05  0.4475E-05  0.4571E-05  0.4620E-05  0.4629E-05  0.4623E-05  0.4608E-05  0.4604E-05  0.4586E-05  0.4550E-05  0.4494E-05  0.4409E-05  0.4303E-05  0.4177E-05  0.4030E-05  0.3869E-05  0.3703E-05  0.3536E-05  0.3370E-05  0.3208E-05  0.3056E-05  0.2910E-05  0.2778E-05  0.2673E-05  0.2611E-05  0.2651E-05  0.2859E-05  0.3372E-05  0.4292E-05  0.5676E-05  0.7376E-05  0.8935E-05  0.9892E-05  0.1010E-04  0.9670E-05  0.8772E-05  0.7709E-05  0.6631E-05  0.5648E-05  0.4762E-05  0.3942E-05  0.3174E-05  0.2472E-05  0.1853E-05  0.1332E-05  0.9163E-06  0.6088E-06  0.4052E-06  0.2849E-06  0.2165E-06  0.1757E-06  0.1499E-06  0.1320E-06  0.1182E-06  0.1058E-06  0.9470E-07  0.8481E-07  0.7547E-07  0.6707E-07  0.5949E-07  0.5261E-07  0.4620E-07  0.4016E-07  0.3440E-07  0.2919E-07  0.2443E-07  0.2029E-07  0.1654E-07
  0.5029E-07  0.1375E-06  0.2755E-06  0.5534E-06  0.9674E-06  0.1511E-05  0.2184E-05  0.2911E-05  0.3566E-05  0.4068E-05  0.4412E-05  0.4615E-05  0.4722E-05  0.4764E-05  0.4772E-05  0.4760E-05  0.4711E-05  0.4667E-05  0.4620E-05  0.4594E-05  0.4545E-05  0.4469E-05  0.4369E-05  0.4248E-05  0.4102E-05  0.3942E-05  0.3776E-05  0.3608E-05  0.3443E-05  0.3284E-05  0.3136E-05  0.2995E-05  0.2862E-05  0.2742E-05  0.2655E-05  0.2641E-05  0.2789E-05  0.3263E-05  0.4219E-05  0.5766E-05  0.7811E-05  0.9940E-05  0.1140E-04  0.1182E-04  0.1134E-04  0.1036E-04  0.9133E-05  0.7953E-05  0.6875E-05  0.5915E-05  0.5009E-05  0.4159E-05  0.3340E-05  0.2596E-05  0.1938E-05  0.1390E-05  0.9537E-06  0.6331E-06  0.4207E-06  0.2959E-06  0.2265E-06  0.1846E-06  0.1576E-06  0.1384E-06  0.1240E-06  0.1109E-06  0.9903E-07  0.8828E-07  0.7876E-07  0.6981E-07  0.6184E-07  0.5465E-07  0.4808E-07  0.4171E-07  0.3566E-07  0.3022E-07  0.2531E-07  0.2114E-07  0.1724E-07
  0.7324E-07  0.1721E-06  0.3584E-06  0.6991E-06  0.1218E-05  0.1896E-05  0.2692E-05  0.3479E-05  0.4126E-05  0.4582E-05  0.4861E-05  0.5002E-05  0.5048E-05  0.5030E-05  0.4982E-05  0.4923E-05  0.4856E-05  0.4753E-05  0.4663E-05  0.4572E-05  0.4503E-05  0.4410E-05  0.4294E-05  0.4150E-05  0.3990E-05  0.3823E-05  0.3654E-05  0.3487E-05  0.3331E-05  0.3184E-05  0.3049E-05  0.2923E-05  0.2806E-05  0.2701E-05  0.2639E-05  0.2714E-05  0.3104E-05  0.4033E-05  0.5708E-05  0.8080E-05  0.1063E-04  0.1256E-04  0.1321E-04  0.1271E-04  0.1157E-04  0.1026E-04  0.9036E-05  0.7952E-05  0.6912E-05  0.5959E-05  0.4997E-05  0.4101E-05  0.3252E-05  0.2501E-05  0.1857E-05  0.1330E-05  0.9202E-06  0.6162E-06  0.4137E-06  0.2964E-06  0.2315E-06  0.1904E-06  0.1646E-06  0.1447E-06  0.1292E-06  0.1155E-06  0.1031E-06  0.9175E-07  0.8176E-07  0.7235E-07  0.6396E-07  0.5645E-07  0.4965E-07  0.4310E-07  0.3683E-07  0.3123E-07  0.2610E-07  0.2190E-07  0.1788E-07
  0.8971E-07  0.2087E-06  0.4463E-06  0.8671E-06  0.1505E-05  0.2332E-05  0.3251E-05  0.4090E-05  0.4748E-05  0.5192E-05  0.5451E-05  0.5566E-05  0.5567E-05  0.5506E-05  0.5408E-05  0.5288E-05  0.5143E-05  0.4975E-05  0.4763E-05  0.4574E-05  0.4427E-05  0.4316E-05  0.4173E-05  0.4014E-05  0.3845E-05  0.3673E-05  0.3507E-05  0.3351E-05  0.3204E-05  0.3071E-05  0.2951E-05  0.2842E-05  0.2745E-05  0.2655E-05  0.2657E-05  0.2941E-05  0.3801E-05  0.5535E-05  0.8162E-05  0.1115E-04  0.1339E-04  0.1417E-04  0.1358E-04  0.1228E-04  0.1090E-04  0.9695E-05  0.8600E-05  0.7603E-05  0.6563E-05  0.5559E-05  0.4590E-05  0.3695E-05  0.2903E-05  0.2219E-05  0.1648E-05  0.1188E-05  0.8316E-06  0.5705E-06  0.3927E-06  0.2899E-06  0.2335E-06  0.1962E-06  0.1694E-06  0.1506E-06  0.1341E-06  0.1196E-06  0.1066E-06  0.9485E-07  0.8416E-07  0.7462E-07  0.6585E-07  0.5800E-07  0.5102E-07  0.4442E-07  0.3795E-07  0.3215E-07  0.2711E-07  0.2280E-07  0.1895E-07
  0.1060E-06  0.2444E-06  0.5289E-06  0.1031E-05  0.1796E-05  0.2759E-05  0.3780E-05  0.4688E-05  0.5402E-05  0.5909E-05  0.6229E-05  0.6395E-05  0.6439E-05  0.6384E-05  0.6256E-05  0.6058E-05  0.5811E-05  0.5519E-05  0.5187E-05  0.4852E-05  0.4534E-05  0.4253E-05  0.4013E-05  0.3842E-05  0.3668E-05  0.3501E-05  0.3343E-05  0.3197E-05  0.3066E-05  0.2950E-05  0.2846E-05  0.2758E-05  0.2681E-05  0.2636E-05  0.2795E-05  0.3526E-05  0.5267E-05  0.8136E-05  0.1149E-04  0.1402E-04  0.1473E-04  0.1390E-04  0.1242E-04  0.1095E-04  0.9725E-05  0.8685E-05  0.7656E-05  0.6642E-05  0.5641E-05  0.4681E-05  0.3821E-05  0.3059E-05  0.2402E-05  0.1850E-05  0.1388E-05  0.1018E-05  0.7292E-06  0.5167E-06  0.3715E-06  0.2826E-06  0.2328E-06  0.2013E-06  0.1756E-06  0.1563E-06  0.1387E-06  0.1232E-06  0.1098E-06  0.9759E-07  0.8645E-07  0.7646E-07  0.6753E-07  0.5939E-07  0.5220E-07  0.4550E-07  0.3891E-07  0.3296E-07  0.2758E-07  0.2339E-07  0.1951E-07
  0.1142E-06  0.2684E-06  0.5889E-06  0.1153E-05  0.2018E-05  0.3071E-05  0.4160E-05  0.5146E-05  0.5967E-05  0.6612E-05  0.7098E-05  0.7440E-05  0.7654E-05  0.7744E-05  0.7699E-05  0.7519E-05  0.7203E-05  0.6776E-05  0.6252E-05  0.5678E-05  0.5132E-05  0.4630E-05  0.4205E-05  0.3864E-05  0.3567E-05  0.3310E-05  0.3164E-05  0.3033E-05  0.2920E-05  0.2824E-05  0.2742E-05  0.2672E-05  0.2615E-05  0.2691E-05  0.3266E-05  0.4968E-05  0.8084E-05  0.1181E-04  0.1448E-04  0.1496E-04  0.1374E-04  0.1199E-04  0.1040E-04  0.9111E-05  0.8007E-05  0.7014E-05  0.6055E-05  0.5135E-05  0.4331E-05  0.3604E-05  0.2961E-05  0.2407E-05  0.1919E-05  0.1506E-05  0.1156E-05  0.8702E-06  0.6416E-06  0.4723E-06  0.3549E-06  0.2798E-06  0.2345E-06  0.2042E-06  0.1816E-06  0.1613E-06  0.1433E-06  0.1268E-06  0.1124E-06  0.9985E-07  0.8840E-07  0.7814E-07  0.6884E-07  0.6055E-07  0.5320E-07  0.4614E-07  0.3956E-07  0.3374E-07  0.2823E-07  0.2370E-07  0.1975E-07
  0.1150E-06  0.2716E-06  0.6031E-06  0.1207E-05  0.2094E-05  0.3170E-05  0.4275E-05  0.5317E-05  0.6246E-05  0.7053E-05  0.7748E-05  0.8350E-05  0.8867E-05  0.9240E-05  0.9480E-05  0.9511E-05  0.9332E-05  0.8940E-05  0.8358E-05  0.7635E-05  0.6846E-05  0.6064E-05  0.5325E-05  0.4674E-05  0.4102E-05  0.3621E-05  0.3254E-05  0.2973E-05  0.2772E-05  0.2697E-05  0.2637E-05  0.2587E-05  0.2586E-05  0.2997E-05  0.4601E-05  0.8031E-05  0.1222E-04  0.1487E-04  0.1485E-04  0.1310E-04  0.1099E-04  0.9207E-05  0.7818E-05  0.6694E-05  0.5760E-05  0.4932E-05  0.4245E-05  0.3650E-05  0.3119E-05  0.2672E-05  0.2261E-05  0.1891E-05  0.1555E-05  0.1254E-05  0.9868E-06  0.7611E-06  0.5799E-06  0.4466E-06  0.3467E-06  0.2789E-06  0.2361E-06  0.2098E-06  0.1872E-06  0.1663E-06  0.1474E-06  0.1304E-06  0.1152E-06  0.1019E-06  0.9000E-07  0.7945E-07  0.6999E-07  0.6154E-07  0.5373E-07  0.4662E-07  0.4025E-07  0.3409E-07  0.2877E-07  0.2413E-07  0.2013E-07
  0.1075E-06  0.2521E-06  0.5640E-06  0.1155E-05  0.2001E-05  0.3015E-05  0.4076E-05  0.5107E-05  0.6073E-05  0.6974E-05  0.7836E-05  0.8646E-05  0.9425E-05  0.1013E-04  0.1069E-04  0.1110E-04  0.1123E-04  0.1114E-04  0.1080E-04  0.1024E-04  0.9560E-05  0.8791E-05  0.7987E-05  0.7149E-05  0.6294E-05  0.5438E-05  0.4614E-05  0.3882E-05  0.3284E-05  0.2865E-05  0.2612E-05  0.2502E-05  0.2734E-05  0.4170E-05  0.7972E-05  0.1277E-04  0.1510E-04  0.1409E-04  0.1169E-04  0.9336E-05  0.7471E-05  0.6089E-05  0.5066E-05  0.4285E-05  0.3734E-05  0.3297E-05  0.2932E-05  0.2627E-05  0.2340E-05  0.2075E-05  0.1818E-05  0.1568E-05  0.1325E-05  0.1095E-05  0.8840E-06  0.7020E-06  0.5505E-06  0.4329E-06  0.3461E-06  0.2840E-06  0.2429E-06  0.2148E-06  0.1923E-06  0.1708E-06  0.1514E-06  0.1337E-06  0.1178E-06  0.1037E-06  0.9142E-07  0.8044E-07  0.7087E-07  0.6228E-07  0.5438E-07  0.4719E-07  0.4053E-07  0.3441E-07  0.2924E-07  0.2456E-07  0.2027E-07
  0.8976E-07  0.2122E-06  0.4987E-06  0.1021E-05  0.1767E-05  0.2658E-05  0.3606E-05  0.4551E-05  0.5469E-05  0.6365E-05  0.7249E-05  0.8140E-05  0.9017E-05  0.9870E-05  0.1061E-04  0.1120E-04  0.1163E-04  0.1180E-04  0.1180E-04  0.1159E-04  0.1127E-04  0.1090E-04  0.1047E-04  0.1002E-04  0.9491E-05  0.8850E-05  0.8078E-05  0.7166E-05  0.6127E-05  0.5014E-05  0.3951E-05  0.3197E-05  0.3801E-05  0.7765E-05  0.1343E-04  0.1491E-04  0.1217E-04  0.9149E-05  0.6867E-05  0.5336E-05  0.4314E-05  0.3639E-05  0.3208E-05  0.2912E-05  0.2654E-05  0.2451E-05  0.2252E-05  0.2093E-05  0.1931E-05  0.1755E-05  0.1580E-05  0.1394E-05  0.1201E-05  0.1015E-05  0.8340E-06  0.6725E-06  0.5387E-06  0.4344E-06  0.3526E-06  0.2912E-06  0.2497E-06  0.2203E-06  0.1965E-06  0.1752E-06  0.1551E-06  0.1366E-06  0.1204E-06  0.1055E-06  0.9272E-07  0.8149E-07  0.7144E-07  0.6281E-07  0.5485E-07  0.4755E-07  0.4067E-07  0.3478E-07  0.2938E-07  0.2463E-07  0.2054E-07
  0.6710E-07  0.1638E-06  0.4121E-06  0.8508E-06  0.1461E-05  0.2202E-05  0.3002E-05  0.3816E-05  0.4628E-05  0.5423E-05  0.6231E-05  0.7066E-05  0.7903E-05  0.8715E-05  0.9453E-05  0.1002E-04  0.1044E-04  0.1066E-04  0.1070E-04  0.1063E-04  0.1049E-04  0.1034E-04  0.1021E-04  0.1010E-04  0.1000E-04  0.9864E-05  0.9666E-05  0.9393E-05  0.9001E-05  0.8438E-05  0.7645E-05  0.7161E-05  0.1016E-04  0.1539E-04  0.1320E-04  0.8171E-05  0.5795E-05  0.4377E-05  0.3528E-05  0.3066E-05  0.2816E-05  0.2659E-05  0.2516E-05  0.2374E-05  0.2219E-05  0.2114E-05  0.1966E-05  0.1853E-05  0.1732E-05  0.1604E-05  0.1468E-05  0.1315E-05  0.1144E-05  0.9749E-06  0.8112E-06  0.6681E-06  0.5430E-06  0.4409E-06  0.3602E-06  0.3018E-06  0.2572E-06  0.2256E-06  0.2010E-06  0.1788E-06  0.1587E-06  0.1395E-06  0.1226E-06  0.1073E-06  0.9404E-07  0.8219E-07  0.7216E-07  0.6319E-07  0.5489E-07  0.4756E-07  0.4090E-07  0.3480E-07  0.2939E-07  0.2487E-07  0.2076E-07
  0.4908E-07  0.1304E-06  0.3219E-06  0.6727E-06  0.1152E-05  0.1740E-05  0.2391E-05  0.3068E-05  0.3754E-05  0.4438E-05  0.5134E-05  0.5851E-05  0.6564E-05  0.7265E-05  0.7907E-05  0.8413E-05  0.8763E-05  0.8932E-05  0.8875E-05  0.8697E-05  0.8493E-05  0.8313E-05  0.8165E-05  0.8042E-05  0.7927E-05  0.7806E-05  0.7645E-05  0.7456E-05  0.7208E-05  0.6886E-05  0.6584E-05  0.1032E-04  0.1952E-04  0.9669E-05  0.6497E-05  0.5929E-05  0.6716E-05  0.3448E-05  0.2613E-05  0.2538E-05  0.2479E-05  0.2429E-05  0.2350E-05  0.2264E-05  0.2161E-05  0.2037E-05  0.1916E-05  0.1800E-05  0.1665E-05  0.1541E-05  0.1405E-05  0.1264E-05  0.1116E-05  0.9593E-06  0.8119E-06  0.6728E-06  0.5534E-06  0.4542E-06  0.3742E-06  0.3126E-06  0.2653E-06  0.2308E-06  0.2052E-06  0.1824E-06  0.1616E-06  0.1422E-06  0.1246E-06  0.1090E-06  0.9527E-07  0.8316E-07  0.7262E-07  0.6317E-07  0.5490E-07  0.4743E-07  0.4048E-07  0.3467E-07  0.2955E-07  0.2480E-07  0.2069E-07
  0.3817E-07  0.9752E-07  0.2438E-06  0.5117E-06  0.8849E-06  0.1342E-05  0.1864E-05  0.2410E-05  0.2979E-05  0.3562E-05  0.4146E-05  0.4749E-05  0.5344E-05  0.5924E-05  0.6456E-05  0.6883E-05  0.7174E-05  0.7352E-05  0.7347E-05  0.7113E-05  0.6808E-05  0.6552E-05  0.6317E-05  0.6099E-05  0.5879E-05  0.5623E-05  0.5359E-05  0.5035E-05  0.4695E-05  0.4378E-05  0.4379E-05  0.7797E-05  0.5738E-05  0.5834E-05  0.7042E-05  0.1068E-04  0.5874E-05  0.2935E-05  0.2540E-05  0.2502E-05  0.2475E-05  0.2432E-05  0.2372E-05  0.2290E-05  0.2191E-05  0.2070E-05  0.1940E-05  0.1802E-05  0.1662E-05  0.1530E-05  0.1389E-05  0.1246E-05  0.1105E-05  0.9578E-06  0.8185E-06  0.6867E-06  0.5695E-06  0.4696E-06  0.3887E-06  0.3238E-06  0.2735E-06  0.2364E-06  0.2088E-06  0.1859E-06  0.1646E-06  0.1445E-06  0.1266E-06  0.1105E-06  0.9636E-07  0.8398E-07  0.7316E-07  0.6347E-07  0.5493E-07  0.4735E-07  0.4047E-07  0.3441E-07  0.2937E-07  0.2465E-07  0.2078E-07
  0.3168E-07  0.7479E-07  0.1864E-06  0.3861E-06  0.6702E-06  0.1019E-05  0.1425E-05  0.1867E-05  0.2342E-05  0.2827E-05  0.3316E-05  0.3816E-05  0.4309E-05  0.4776E-05  0.5198E-05  0.5538E-05  0.5758E-05  0.5863E-05  0.5912E-05  0.5788E-05  0.5456E-05  0.5114E-05  0.4825E-05  0.4534E-05  0.4221E-05  0.3938E-05  0.3675E-05  0.3495E-05  0.3542E-05  0.4002E-05  0.4956E-05  0.5953E-05  0.6711E-05  0.7685E-05  0.8761E-05  0.9847E-05  0.8144E-05  0.3003E-05  0.2561E-05  0.2505E-05  0.2488E-05  0.2453E-05  0.2397E-05  0.2322E-05  0.2224E-05  0.2106E-05  0.1975E-05  0.1835E-05  0.1690E-05  0.1543E-05  0.1400E-05  0.1256E-05  0.1114E-05  0.9740E-06  0.8363E-06  0.7072E-06  0.5897E-06  0.4878E-06  0.4028E-06  0.3351E-06  0.2819E-06  0.2421E-06  0.2130E-06  0.1888E-06  0.1673E-06  0.1464E-06  0.1286E-06  0.1121E-06  0.9770E-07  0.8485E-07  0.7339E-07  0.6355E-07  0.5479E-07  0.4704E-07  0.4033E-07  0.3408E-07  0.2905E-07  0.2441E-07  0.2053E-07
  0.3235E-07  0.6198E-07  0.1450E-06  0.2897E-06  0.4993E-06  0.7649E-06  0.1090E-05  0.1444E-05  0.1832E-05  0.2233E-05  0.2626E-05  0.3034E-05  0.3425E-05  0.3796E-05  0.4107E-05  0.4354E-05  0.4476E-05  0.4541E-05  0.4479E-05  0.4373E-05  0.4096E-05  0.3759E-05  0.3468E-05  0.3224E-05  0.3036E-05  0.2986E-05  0.3157E-05  0.3753E-05  0.4818E-05  0.6066E-05  0.6957E-05  0.7335E-05  0.7899E-05  0.8793E-05  0.9636E-05  0.8960E-05  0.5110E-05  0.2962E-05  0.2604E-05  0.2521E-05  0.2502E-05  0.2473E-05  0.2421E-05  0.2348E-05  0.2252E-05  0.2137E-05  0.2004E-05  0.1864E-05  0.1717E-05  0.1569E-05  0.1425E-05  0.1281E-05  0.1139E-05  0.9987E-06  0.8609E-06  0.7297E-06  0.6103E-06  0.5049E-06  0.4171E-06  0.3459E-06  0.2903E-06  0.2479E-06  0.2169E-06  0.1918E-06  0.1698E-06  0.1487E-06  0.1301E-06  0.1133E-06  0.9880E-07  0.8585E-07  0.7390E-07  0.6364E-07  0.5446E-07  0.4650E-07  0.3982E-07  0.3389E-07  0.2872E-07  0.2430E-07  0.2028E-07
  0.3264E-07  0.5147E-07  0.1089E-06  0.2158E-06  0.3741E-06  0.5836E-06  0.8315E-06  0.1112E-05  0.1418E-05  0.1741E-05  0.2066E-05  0.2378E-05  0.2689E-05  0.2951E-05  0.3190E-05  0.3344E-05  0.3449E-05  0.3437E-05  0.3351E-05  0.3178E-05  0.2983E-05  0.2758E-05  0.2605E-05  0.2622E-05  0.2882E-05  0.3503E-05  0.4534E-05  0.5851E-05  0.6981E-05  0.7477E-05  0.7452E-05  0.7702E-05  0.8628E-05  0.9568E-05  0.9431E-05  0.6991E-05  0.4103E-05  0.3010E-05  0.2669E-05  0.2553E-05  0.2521E-05  0.2490E-05  0.2439E-05  0.2368E-05  0.2275E-05  0.2161E-05  0.2028E-05  0.1888E-05  0.1742E-05  0.1595E-05  0.1448E-05  0.1304E-05  0.1161E-05  0.1020E-05  0.8822E-06  0.7505E-06  0.6292E-06  0.5221E-06  0.4307E-06  0.3566E-06  0.2980E-06  0.2534E-06  0.2206E-06  0.1946E-06  0.1719E-06  0.1506E-06  0.1318E-06  0.1146E-06  0.9994E-07  0.8626E-07  0.7455E-07  0.6425E-07  0.5473E-07  0.4654E-07  0.3963E-07  0.3376E-07  0.2841E-07  0.2394E-07  0.1993E-07
  0.3326E-07  0.4711E-07  0.8461E-07  0.1631E-06  0.2809E-06  0.4349E-06  0.6269E-06  0.8494E-06  0.1096E-05  0.1340E-05  0.1591E-05  0.1839E-05  0.2062E-05  0.2257E-05  0.2433E-05  0.2537E-05  0.2625E-05  0.2607E-05  0.2563E-05  0.2476E-05  0.2404E-05  0.2424E-05  0.2656E-05  0.3217E-05  0.4179E-05  0.5446E-05  0.6707E-05  0.7518E-05  0.7609E-05  0.7262E-05  0.7340E-05  0.8268E-05  0.9383E-05  0.9603E-05  0.7975E-05  0.5419E-05  0.3755E-05  0.3107E-05  0.2761E-05  0.2607E-05  0.2547E-05  0.2510E-05  0.2454E-05  0.2381E-05  0.2291E-05  0.2179E-05  0.2051E-05  0.1912E-05  0.1765E-05  0.1618E-05  0.1470E-05  0.1323E-05  0.1179E-05  0.1038E-05  0.9003E-06  0.7688E-06  0.6464E-06  0.5369E-06  0.4434E-06  0.3667E-06  0.3058E-06  0.2588E-06  0.2239E-06  0.1970E-06  0.1738E-06  0.1523E-06  0.1335E-06  0.1159E-06  0.1009E-06  0.8700E-07  0.7481E-07  0.6393E-07  0.5413E-07  0.4614E-07  0.3922E-07  0.3320E-07  0.2804E-07  0.2357E-07  0.1950E-07
  0.3337E-07  0.4433E-07  0.6407E-07  0.1210E-06  0.2061E-06  0.3257E-06  0.4670E-06  0.6404E-06  0.8206E-06  0.1013E-05  0.1198E-05  0.1376E-05  0.1548E-05  0.1709E-05  0.1861E-05  0.2009E-05  0.2095E-05  0.2200E-05  0.2296E-05  0.2425E-05  0.2701E-05  0.3189E-05  0.3958E-05  0.5054E-05  0.6291E-05  0.7296E-05  0.7718E-05  0.7487E-05  0.6985E-05  0.6991E-05  0.7903E-05  0.9142E-05  0.9681E-05  0.8605E-05  0.6374E-05  0.4530E-05  0.3661E-05  0.3196E-05  0.2849E-05  0.2669E-05  0.2587E-05  0.2528E-05  0.2470E-05  0.2395E-05  0.2304E-05  0.2197E-05  0.2071E-05  0.1933E-05  0.1788E-05  0.1638E-05  0.1487E-05  0.1339E-05  0.1194E-05  0.1053E-05  0.9161E-06  0.7841E-06  0.6616E-06  0.5510E-06  0.4554E-06  0.3761E-06  0.3130E-06  0.2640E-06  0.2272E-06  0.1992E-06  0.1752E-06  0.1538E-06  0.1347E-06  0.1171E-06  0.1017E-06  0.8737E-07  0.7530E-07  0.6419E-07  0.5464E-07  0.4615E-07  0.3893E-07  0.3268E-07  0.2755E-07  0.2310E-07  0.1925E-07
  0.3336E-07  0.4192E-07  0.6028E-07  0.8892E-07  0.1488E-06  0.2283E-06  0.3315E-06  0.4483E-06  0.5847E-06  0.7258E-06  0.8858E-06  0.1053E-05  0.1222E-05  0.1389E-05  0.1570E-05  0.1774E-05  0.1993E-05  0.2284E-05  0.2649E-05  0.3189E-05  0.3954E-05  0.4944E-05  0.6041E-05  0.7065E-05  0.7690E-05  0.7720E-05  0.7209E-05  0.6631E-05  0.6640E-05  0.7555E-05  0.8906E-05  0.9685E-05  0.9087E-05  0.7176E-05  0.5179E-05  0.4110E-05  0.3644E-05  0.3266E-05  0.2928E-05  0.2728E-05  0.2626E-05  0.2553E-05  0.2488E-05  0.2412E-05  0.2321E-05  0.2214E-05  0.2090E-05  0.1951E-05  0.1804E-05  0.1653E-05  0.1502E-05  0.1352E-05  0.1205E-05  0.1064E-05  0.9273E-06  0.7969E-06  0.6742E-06  0.5629E-06  0.4656E-06  0.3847E-06  0.3191E-06  0.2689E-06  0.2302E-06  0.2007E-06  0.1765E-06  0.1550E-06  0.1358E-06  0.1177E-06  0.1023E-06  0.8793E-07  0.7535E-07  0.6382E-07  0.5442E-07  0.4571E-07  0.3862E-07  0.3240E-07  0.2712E-07  0.2270E-07  0.1865E-07
  0.3319E-07  0.4171E-07  0.5445E-07  0.7826E-07  0.1121E-06  0.1648E-06  0.2346E-06  0.3245E-06  0.4314E-06  0.5583E-06  0.7153E-06  0.8912E-06  0.1089E-05  0.1313E-05  0.1610E-05  0.1972E-05  0.2436E-05  0.3029E-05  0.3796E-05  0.4755E-05  0.5840E-05  0.6882E-05  0.7654E-05  0.7933E-05  0.7615E-05  0.6917E-05  0.6275E-05  0.6268E-05  0.7195E-05  0.8621E-05  0.9628E-05  0.9441E-05  0.7939E-05  0.5866E-05  0.4436E-05  0.3902E-05  0.3630E-05  0.3317E-05  0.2995E-05  0.2790E-05  0.2669E-05  0.2589E-05  0.2514E-05  0.2431E-05  0.2336E-05  0.2226E-05  0.2103E-05  0.1964E-05  0.1815E-05  0.1663E-05  0.1511E-05  0.1361E-05  0.1214E-05  0.1072E-05  0.9352E-06  0.8051E-06  0.6836E-06  0.5723E-06  0.4750E-06  0.3927E-06  0.3256E-06  0.2730E-06  0.2332E-06  0.2020E-06  0.1775E-06  0.1561E-06  0.1362E-06  0.1186E-06  0.1026E-06  0.8762E-07  0.7561E-07  0.6416E-07  0.5443E-07  0.4563E-07  0.3806E-07  0.3191E-07  0.2638E-07  0.2189E-07  0.1808E-07
  0.3300E-07  0.4171E-07  0.5138E-07  0.6857E-07  0.9225E-07  0.1276E-06  0.1791E-06  0.2521E-06  0.3656E-06  0.4947E-06  0.6761E-06  0.8965E-06  0.1189E-05  0.1572E-05  0.2051E-05  0.2655E-05  0.3410E-05  0.4322E-05  0.5358E-05  0.6414E-05  0.7324E-05  0.7871E-05  0.7890E-05  0.7389E-05  0.6585E-05  0.5903E-05  0.5859E-05  0.6742E-05  0.8203E-05  0.9437E-05  0.9592E-05  0.8511E-05  0.6639E-05  0.4887E-05  0.3975E-05  0.3742E-05  0.3592E-05  0.3328E-05  0.3043E-05  0.2847E-05  0.2718E-05  0.2625E-05  0.2540E-05  0.2448E-05  0.2347E-05  0.2235E-05  0.2110E-05  0.1970E-05  0.1822E-05  0.1669E-05  0.1516E-05  0.1365E-05  0.1217E-05  0.1076E-05  0.9406E-06  0.8121E-06  0.6909E-06  0.5801E-06  0.4818E-06  0.3986E-06  0.3303E-06  0.2767E-06  0.2351E-06  0.2034E-06  0.1777E-06  0.1559E-06  0.1361E-06  0.1181E-06  0.1030E-06  0.8784E-07  0.7526E-07  0.6375E-07  0.5402E-07  0.4551E-07  0.3811E-07  0.3153E-07  0.2622E-07  0.2163E-07  0.1789E-07
  0.3267E-07  0.4113E-07  0.5038E-07  0.6368E-07  0.8142E-07  0.1071E-06  0.1513E-06  0.2381E-06  0.3494E-06  0.5230E-06  0.7573E-06  0.1079E-05  0.1531E-05  0.2101E-05  0.2804E-05  0.3633E-05  0.4576E-05  0.5580E-05  0.6538E-05  0.7269E-05  0.7614E-05  0.7501E-05  0.6955E-05  0.6158E-05  0.5477E-05  0.5383E-05  0.6118E-05  0.7527E-05  0.8918E-05  0.9472E-05  0.8846E-05  0.7328E-05  0.5545E-05  0.4273E-05  0.3730E-05  0.3601E-05  0.3514E-05  0.3307E-05  0.3074E-05  0.2891E-05  0.2757E-05  0.2653E-05  0.2558E-05  0.2460E-05  0.2354E-05  0.2239E-05  0.2110E-05  0.1972E-05  0.1822E-05  0.1669E-05  0.1516E-05  0.1365E-05  0.1219E-05  0.1077E-05  0.9418E-06  0.8142E-06  0.6949E-06  0.5852E-06  0.4874E-06  0.4038E-06  0.3346E-06  0.2793E-06  0.2368E-06  0.2035E-06  0.1777E-06  0.1555E-06  0.1353E-06  0.1186E-06  0.1018E-06  0.8743E-07  0.7517E-07  0.6373E-07  0.5397E-07  0.4484E-07  0.3768E-07  0.3075E-07  0.2561E-07  0.2098E-07  0.1708E-07
  0.3139E-07  0.3957E-07  0.4897E-07  0.5942E-07  0.7417E-07  0.9771E-07  0.1511E-06  0.2407E-06  0.3850E-06  0.6113E-06  0.9397E-06  0.1416E-05  0.2035E-05  0.2787E-05  0.3636E-05  0.4539E-05  0.5432E-05  0.6216E-05  0.6779E-05  0.7009E-05  0.6819E-05  0.6306E-05  0.5626E-05  0.5030E-05  0.4860E-05  0.5410E-05  0.6578E-05  0.7955E-05  0.8828E-05  0.8736E-05  0.7729E-05  0.6195E-05  0.4768E-05  0.3886E-05  0.3557E-05  0.3473E-05  0.3418E-05  0.3263E-05  0.3074E-05  0.2909E-05  0.2778E-05  0.2671E-05  0.2572E-05  0.2465E-05  0.2355E-05  0.2234E-05  0.2105E-05  0.1967E-05  0.1819E-05  0.1665E-05  0.1512E-05  0.1361E-05  0.1214E-05  0.1074E-05  0.9405E-06  0.8145E-06  0.6969E-06  0.5877E-06  0.4902E-06  0.4065E-06  0.3371E-06  0.2811E-06  0.2378E-06  0.2030E-06  0.1765E-06  0.1539E-06  0.1353E-06  0.1170E-06  0.1010E-06  0.8716E-07  0.7499E-07  0.6304E-07  0.5338E-07  0.4470E-07  0.3728E-07  0.3076E-07  0.2511E-07  0.2049E-07  0.1654E-07
  0.3104E-07  0.3888E-07  0.4792E-07  0.5841E-07  0.7028E-07  0.9563E-07  0.1624E-06  0.2685E-06  0.4565E-06  0.7487E-06  0.1190E-05  0.1813E-05  0.2573E-05  0.3412E-05  0.4263E-05  0.5047E-05  0.5698E-05  0.6124E-05  0.6266E-05  0.6091E-05  0.5665E-05  0.5083E-05  0.4584E-05  0.4397E-05  0.4730E-05  0.5616E-05  0.6774E-05  0.7734E-05  0.8089E-05  0.7648E-05  0.6579E-05  0.5302E-05  0.4251E-05  0.3660E-05  0.3438E-05  0.3376E-05  0.3321E-05  0.3204E-05  0.3053E-05  0.2909E-05  0.2783E-05  0.2676E-05  0.2573E-05  0.2462E-05  0.2349E-05  0.2226E-05  0.2097E-05  0.1958E-05  0.1810E-05  0.1656E-05  0.1503E-05  0.1353E-05  0.1208E-05  0.1068E-05  0.9356E-06  0.8108E-06  0.6940E-06  0.5873E-06  0.4911E-06  0.4080E-06  0.3386E-06  0.2819E-06  0.2372E-06  0.2027E-06  0.1749E-06  0.1536E-06  0.1334E-06  0.1164E-06  0.1001E-06  0.8643E-07  0.7353E-07  0.6291E-07  0.5312E-07  0.4404E-07  0.3668E-07  0.2987E-07  0.2466E-07  0.1984E-07  0.1600E-07
  0.3011E-07  0.3801E-07  0.4688E-07  0.5707E-07  0.6879E-07  0.1087E-06  0.1848E-06  0.3165E-06  0.5441E-06  0.9106E-06  0.1462E-05  0.2177E-05  0.2995E-05  0.3822E-05  0.4563E-05  0.5141E-05  0.5507E-05  0.5629E-05  0.5497E-05  0.5150E-05  0.4687E-05  0.4233E-05  0.4030E-05  0.4220E-05  0.4814E-05  0.5697E-05  0.6583E-05  0.7119E-05  0.7129E-05  0.6569E-05  0.5625E-05  0.4654E-05  0.3912E-05  0.3493E-05  0.3338E-05  0.3284E-05  0.3232E-05  0.3143E-05  0.3017E-05  0.2890E-05  0.2774E-05  0.2669E-05  0.2565E-05  0.2455E-05  0.2338E-05  0.2213E-05  0.2081E-05  0.1941E-05  0.1795E-05  0.1643E-05  0.1490E-05  0.1340E-05  0.1196E-05  0.1057E-05  0.9264E-06  0.8045E-06  0.6903E-06  0.5853E-06  0.4904E-06  0.4075E-06  0.3378E-06  0.2813E-06  0.2363E-06  0.2008E-06  0.1737E-06  0.1508E-06  0.1322E-06  0.1143E-06  0.9915E-07  0.8573E-07  0.7331E-07  0.6173E-07  0.5246E-07  0.4370E-07  0.3625E-07  0.2985E-07  0.2403E-07  0.1926E-07  0.1539E-07
  0.2972E-07  0.3696E-07  0.4575E-07  0.5556E-07  0.7211E-07  0.1240E-06  0.2123E-06  0.3688E-06  0.6347E-06  0.1056E-05  0.1668E-05  0.2434E-05  0.3247E-05  0.3998E-05  0.4589E-05  0.4970E-05  0.5131E-05  0.5071E-05  0.4818E-05  0.4450E-05  0.4047E-05  0.3777E-05  0.3810E-05  0.4171E-05  0.4808E-05  0.5550E-05  0.6145E-05  0.6394E-05  0.6220E-05  0.5666E-05  0.4915E-05  0.4204E-05  0.3671E-05  0.3363E-05  0.3243E-05  0.3196E-05  0.3152E-05  0.3078E-05  0.2971E-05  0.2861E-05  0.2752E-05  0.2649E-05  0.2547E-05  0.2438E-05  0.2319E-05  0.2192E-05  0.2059E-05  0.1919E-05  0.1774E-05  0.1624E-05  0.1472E-05  0.1323E-05  0.1179E-05  0.1043E-05  0.9153E-06  0.7948E-06  0.6830E-06  0.5797E-06  0.4866E-06  0.4054E-06  0.3365E-06  0.2801E-06  0.2347E-06  0.1989E-06  0.1708E-06  0.1485E-06  0.1296E-06  0.1124E-06  0.9803E-07  0.8397E-07  0.7128E-07  0.6119E-07  0.5160E-07  0.4275E-07  0.3562E-07  0.2897E-07  0.2367E-07  0.1878E-07  0.1510E-07
  0.2888E-07  0.3572E-07  0.4398E-07  0.5357E-07  0.7519E-07  0.1382E-06  0.2383E-06  0.4117E-06  0.7004E-06  0.1155E-05  0.1791E-05  0.2557E-05  0.3326E-05  0.3983E-05  0.4451E-05  0.4702E-05  0.4742E-05  0.4605E-05  0.4322E-05  0.3972E-05  0.3662E-05  0.3550E-05  0.3690E-05  0.4087E-05  0.4644E-05  0.5213E-05  0.5596E-05  0.5678E-05  0.5443E-05  0.4961E-05  0.4392E-05  0.3860E-05  0.3476E-05  0.3254E-05  0.3153E-05  0.3110E-05  0.3073E-05  0.3009E-05  0.2920E-05  0.2817E-05  0.2715E-05  0.2621E-05  0.2520E-05  0.2412E-05  0.2293E-05  0.2164E-05  0.2031E-05  0.1891E-05  0.1748E-05  0.1599E-05  0.1448E-05  0.1302E-05  0.1161E-05  0.1027E-05  0.9009E-06  0.7826E-06  0.6728E-06  0.5724E-06  0.4819E-06  0.4022E-06  0.3341E-06  0.2776E-06  0.2320E-06  0.1962E-06  0.1682E-06  0.1461E-06  0.1267E-06  0.1110E-06  0.9532E-07  0.8204E-07  0.7035E-07  0.6009E-07  0.5012E-07  0.4220E-07  0.3514E-07  0.2858E-07  0.2282E-07  0.1820E-07  0.1411E-07
  0.2694E-07  0.3400E-07  0.4239E-07  0.5160E-07  0.8016E-07  0.1512E-06  0.2562E-06  0.4371E-06  0.7331E-06  0.1193E-05  0.1828E-05  0.2561E-05  0.3268E-05  0.3849E-05  0.4235E-05  0.4410E-05  0.4394E-05  0.4237E-05  0.3966E-05  0.3655E-05  0.3426E-05  0.3391E-05  0.3572E-05  0.3929E-05  0.4374E-05  0.4778E-05  0.4996E-05  0.5005E-05  0.4781E-05  0.4396E-05  0.3967E-05  0.3589E-05  0.3314E-05  0.3153E-05  0.3069E-05  0.3031E-05  0.2996E-05  0.2940E-05  0.2863E-05  0.2767E-05  0.2676E-05  0.2580E-05  0.2481E-05  0.2375E-05  0.2258E-05  0.2131E-05  0.1996E-05  0.1858E-05  0.1716E-05  0.1569E-05  0.1422E-05  0.1277E-05  0.1138E-05  0.1007E-05  0.8828E-06  0.7673E-06  0.6606E-06  0.5630E-06  0.4752E-06  0.3968E-06  0.3295E-06  0.2728E-06  0.2284E-06  0.1922E-06  0.1649E-06  0.1427E-06  0.1241E-06  0.1078E-06  0.9366E-07  0.8049E-07  0.6916E-07  0.5865E-07  0.4957E-07  0.4110E-07  0.3433E-07  0.2764E-07  0.2260E-07  0.1776E-07  0.1380E-07
  0.2564E-07  0.3265E-07  0.4085E-07  0.4994E-07  0.8756E-07  0.1603E-06  0.2661E-06  0.4452E-06  0.7365E-06  0.1185E-05  0.1787E-05  0.2478E-05  0.3131E-05  0.3650E-05  0.3980E-05  0.4127E-05  0.4103E-05  0.3946E-05  0.3702E-05  0.3435E-05  0.3268E-05  0.3256E-05  0.3407E-05  0.3701E-05  0.4033E-05  0.4313E-05  0.4444E-05  0.4407E-05  0.4221E-05  0.3934E-05  0.3625E-05  0.3364E-05  0.3172E-05  0.3056E-05  0.2994E-05  0.2955E-05  0.2921E-05  0.2870E-05  0.2798E-05  0.2715E-05  0.2623E-05  0.2531E-05  0.2434E-05  0.2329E-05  0.2214E-05  0.2089E-05  0.1957E-05  0.1820E-05  0.1678E-05  0.1534E-05  0.1390E-05  0.1249E-05  0.1112E-05  0.9833E-06  0.8623E-06  0.7502E-06  0.6468E-06  0.5517E-06  0.4663E-06  0.3895E-06  0.3235E-06  0.2686E-06  0.2247E-06  0.1900E-06  0.1615E-06  0.1397E-06  0.1207E-06  0.1054E-06  0.9139E-07  0.7826E-07  0.6754E-07  0.5684E-07  0.4772E-07  0.4016E-07  0.3342E-07  0.2710E-07  0.2171E-07  0.1703E-07  0.1283E-07
  0.2471E-07  0.3168E-07  0.3922E-07  0.5195E-07  0.9562E-07  0.1634E-06  0.2695E-06  0.4432E-06  0.7155E-06  0.1139E-05  0.1708E-05  0.2343E-05  0.2942E-05  0.3418E-05  0.3729E-05  0.3865E-05  0.3848E-05  0.3715E-05  0.3494E-05  0.3274E-05  0.3126E-05  0.3106E-05  0.3231E-05  0.3437E-05  0.3674E-05  0.3857E-05  0.3943E-05  0.3909E-05  0.3759E-05  0.3561E-05  0.3349E-05  0.3175E-05  0.3040E-05  0.2959E-05  0.2912E-05  0.2877E-05  0.2844E-05  0.2796E-05  0.2730E-05  0.2651E-05  0.2563E-05  0.2474E-05  0.2378E-05  0.2275E-05  0.2162E-05  0.2042E-05  0.1912E-05  0.1776E-05  0.1636E-05  0.1496E-05  0.1355E-05  0.1217E-05  0.1083E-05  0.9573E-06  0.8395E-06  0.7309E-06  0.6307E-06  0.5392E-06  0.4554E-06  0.3815E-06  0.3168E-06  0.2634E-06  0.2201E-06  0.1852E-06  0.1578E-06  0.1357E-06  0.1177E-06  0.1021E-06  0.8819E-07  0.7621E-07  0.6492E-07  0.5512E-07  0.4677E-07  0.3929E-07  0.3185E-07  0.2584E-07  0.2095E-07  0.1638E-07  0.1240E-07
  0.2377E-07  0.3002E-07  0.3743E-07  0.5460E-07  0.9994E-07  0.1646E-06  0.2664E-06  0.4280E-06  0.6872E-06  0.1079E-05  0.1596E-05  0.2179E-05  0.2733E-05  0.3180E-05  0.3475E-05  0.3620E-05  0.3619E-05  0.3507E-05  0.3325E-05  0.3136E-05  0.2997E-05  0.2967E-05  0.3037E-05  0.3174E-05  0.3331E-05  0.3457E-05  0.3511E-05  0.3486E-05  0.3385E-05  0.3257E-05  0.3115E-05  0.3002E-05  0.2917E-05  0.2861E-05  0.2825E-05  0.2794E-05  0.2763E-05  0.2716E-05  0.2654E-05  0.2579E-05  0.2498E-05  0.2408E-05  0.2315E-05  0.2214E-05  0.2103E-05  0.1986E-05  0.1860E-05  0.1726E-05  0.1590E-05  0.1453E-05  0.1316E-05  0.1182E-05  0.1052E-05  0.9288E-06  0.8146E-06  0.7092E-06  0.6127E-06  0.5236E-06  0.4428E-06  0.3715E-06  0.3095E-06  0.2571E-06  0.2148E-06  0.1801E-06  0.1530E-06  0.1313E-06  0.1138E-06  0.9849E-07  0.8545E-07  0.7342E-07  0.6247E-07  0.5378E-07  0.4515E-07  0.3722E-07  0.3091E-07  0.2517E-07  0.2020E-07  0.1527E-07  0.1187E-07
  0.2226E-07  0.2831E-07  0.3573E-07  0.5865E-07  0.1013E-06  0.1626E-06  0.2601E-06  0.4129E-06  0.6483E-06  0.1004E-05  0.1476E-05  0.2007E-05  0.2513E-05  0.2937E-05  0.3232E-05  0.3383E-05  0.3404E-05  0.3320E-05  0.3170E-05  0.2997E-05  0.2879E-05  0.2825E-05  0.2850E-05  0.2933E-05  0.3032E-05  0.3118E-05  0.3154E-05  0.3134E-05  0.3076E-05  0.2995E-05  0.2915E-05  0.2846E-05  0.2796E-05  0.2764E-05  0.2738E-05  0.2711E-05  0.2681E-05  0.2636E-05  0.2574E-05  0.2502E-05  0.2420E-05  0.2336E-05  0.2243E-05  0.2144E-05  0.2038E-05  0.1924E-05  0.1802E-05  0.1673E-05  0.1539E-05  0.1406E-05  0.1273E-05  0.1144E-05  0.1017E-05  0.8975E-06  0.7874E-06  0.6861E-06  0.5925E-06  0.5068E-06  0.4295E-06  0.3612E-06  0.3012E-06  0.2507E-06  0.2083E-06  0.1750E-06  0.1481E-06  0.1278E-06  0.1101E-06  0.9560E-07  0.8242E-07  0.7116E-07  0.6098E-07  0.5143E-07  0.4358E-07  0.3598E-07  0.2956E-07  0.2375E-07  0.1913E-07  0.1468E-07  0.1121E-07
  0.2078E-07  0.2714E-07  0.3500E-07  0.6071E-07  0.1016E-06  0.1585E-06  0.2499E-06  0.3909E-06  0.6079E-06  0.9286E-06  0.1350E-05  0.1830E-05  0.2301E-05  0.2699E-05  0.2988E-05  0.3151E-05  0.3191E-05  0.3137E-05  0.3010E-05  0.2873E-05  0.2756E-05  0.2690E-05  0.2679E-05  0.2714E-05  0.2774E-05  0.2823E-05  0.2848E-05  0.2844E-05  0.2815E-05  0.2766E-05  0.2734E-05  0.2695E-05  0.2676E-05  0.2657E-05  0.2640E-05  0.2619E-05  0.2588E-05  0.2545E-05  0.2486E-05  0.2419E-05  0.2342E-05  0.2257E-05  0.2165E-05  0.2070E-05  0.1966E-05  0.1855E-05  0.1738E-05  0.1614E-05  0.1485E-05  0.1354E-05  0.1228E-05  0.1102E-05  0.9810E-06  0.8654E-06  0.7586E-06  0.6607E-06  0.5712E-06  0.4888E-06  0.4150E-06  0.3497E-06  0.2916E-06  0.2430E-06  0.2022E-06  0.1692E-06  0.1436E-06  0.1226E-06  0.1062E-06  0.9147E-07  0.7913E-07  0.6806E-07  0.5804E-07  0.4936E-07  0.4117E-07  0.3415E-07  0.2853E-07  0.2303E-07  0.1788E-07  0.1383E-07  0.1034E-07
  0.1988E-07  0.2637E-07  0.3626E-07  0.6286E-07  0.9904E-07  0.1544E-06  0.2385E-06  0.3675E-06  0.5642E-06  0.8490E-06  0.1228E-05  0.1662E-05  0.2091E-05  0.2466E-05  0.2751E-05  0.2922E-05  0.2980E-05  0.2949E-05  0.2855E-05  0.2739E-05  0.2631E-05  0.2551E-05  0.2521E-05  0.2522E-05  0.2551E-05  0.2580E-05  0.2598E-05  0.2599E-05  0.2588E-05  0.2569E-05  0.2560E-05  0.2556E-05  0.2554E-05  0.2548E-05  0.2538E-05  0.2520E-05  0.2489E-05  0.2446E-05  0.2392E-05  0.2324E-05  0.2252E-05  0.2170E-05  0.2082E-05  0.1987E-05  0.1888E-05  0.1782E-05  0.1669E-05  0.1551E-05  0.1428E-05  0.1301E-05  0.1178E-05  0.1059E-05  0.9426E-06  0.8311E-06  0.7284E-06  0.6344E-06  0.5483E-06  0.4701E-06  0.3995E-06  0.3366E-06  0.2818E-06  0.2346E-06  0.1952E-06  0.1635E-06  0.1382E-06  0.1184E-06  0.1017E-06  0.8752E-07  0.7566E-07  0.6472E-07  0.5560E-07  0.4690E-07  0.3934E-07  0.3296E-07  0.2682E-07  0.2134E-07  0.1677E-07  0.1323E-07  0.9490E-08
  0.1913E-07  0.2487E-07  0.3692E-07  0.6187E-07  0.9713E-07  0.1490E-06  0.2277E-06  0.3426E-06  0.5196E-06  0.7759E-06  0.1109E-05  0.1499E-05  0.1891E-05  0.2243E-05  0.2517E-05  0.2692E-05  0.2769E-05  0.2756E-05  0.2689E-05  0.2593E-05  0.2495E-05  0.2415E-05  0.2366E-05  0.2352E-05  0.2354E-05  0.2366E-05  0.2383E-05  0.2389E-05  0.2392E-05  0.2393E-05  0.2400E-05  0.2416E-05  0.2424E-05  0.2432E-05  0.2427E-05  0.2410E-05  0.2383E-05  0.2342E-05  0.2289E-05  0.2226E-05  0.2155E-05  0.2078E-05  0.1992E-05  0.1901E-05  0.1806E-05  0.1705E-05  0.1596E-05  0.1484E-05  0.1366E-05  0.1246E-05  0.1128E-05  0.1012E-05  0.9026E-06  0.7957E-06  0.6973E-06  0.6070E-06  0.5250E-06  0.4502E-06  0.3834E-06  0.3234E-06  0.2713E-06  0.2265E-06  0.1878E-06  0.1571E-06  0.1323E-06  0.1134E-06  0.9696E-07  0.8388E-07  0.7220E-07  0.6229E-07  0.5296E-07  0.4440E-07  0.3769E-07  0.3074E-07  0.2482E-07  0.2031E-07  0.1581E-07  0.1209E-07  0.8442E-08
  0.1803E-07  0.2352E-07  0.3713E-07  0.6044E-07  0.9399E-07  0.1434E-06  0.2155E-06  0.3203E-06  0.4760E-06  0.7024E-06  0.1000E-05  0.1346E-05  0.1700E-05  0.2026E-05  0.2287E-05  0.2461E-05  0.2549E-05  0.2562E-05  0.2518E-05  0.2441E-05  0.2356E-05  0.2279E-05  0.2221E-05  0.2190E-05  0.2181E-05  0.2185E-05  0.2190E-05  0.2204E-05  0.2212E-05  0.2231E-05  0.2247E-05  0.2275E-05  0.2293E-05  0.2306E-05  0.2306E-05  0.2293E-05  0.2268E-05  0.2229E-05  0.2181E-05  0.2121E-05  0.2054E-05  0.1979E-05  0.1898E-05  0.1811E-05  0.1719E-05  0.1623E-05  0.1520E-05  0.1413E-05  0.1302E-05  0.1189E-05  0.1075E-05  0.9662E-06  0.8607E-06  0.7597E-06  0.6646E-06  0.5791E-06  0.5005E-06  0.4296E-06  0.3657E-06  0.3101E-06  0.2601E-06  0.2171E-06  0.1799E-06  0.1502E-06  0.1273E-06  0.1081E-06  0.9264E-07  0.7938E-07  0.6870E-07  0.5872E-07  0.4982E-07  0.4220E-07  0.3518E-07  0.2927E-07  0.2361E-07  0.1889E-07  0.1472E-07  0.1112E-07  0.7813E-08
  0.1707E-07  0.2270E-07  0.3679E-07  0.5923E-07  0.9071E-07  0.1360E-06  0.2006E-06  0.2951E-06  0.4339E-06  0.6309E-06  0.8940E-06  0.1201E-05  0.1520E-05  0.1817E-05  0.2063E-05  0.2237E-05  0.2335E-05  0.2366E-05  0.2336E-05  0.2281E-05  0.2209E-05  0.2134E-05  0.2081E-05  0.2039E-05  0.2019E-05  0.2016E-05  0.2022E-05  0.2034E-05  0.2049E-05  0.2071E-05  0.2103E-05  0.2134E-05  0.2161E-05  0.2176E-05  0.2181E-05  0.2171E-05  0.2148E-05  0.2113E-05  0.2067E-05  0.2012E-05  0.1950E-05  0.1879E-05  0.1802E-05  0.1719E-05  0.1631E-05  0.1539E-05  0.1441E-05  0.1340E-05  0.1236E-05  0.1130E-05  0.1022E-05  0.9182E-06  0.8181E-06  0.7234E-06  0.6325E-06  0.5499E-06  0.4762E-06  0.4091E-06  0.3484E-06  0.2949E-06  0.2487E-06  0.2074E-06  0.1724E-06  0.1437E-06  0.1208E-06  0.1031E-06  0.8803E-07  0.7572E-07  0.6493E-07  0.5563E-07  0.4733E-07  0.3969E-07  0.3342E-07  0.2756E-07  0.2206E-07  0.1786E-07  0.1368E-07  0.9902E-08  0.6884E-08
  0.1614E-07  0.2223E-07  0.3578E-07  0.5781E-07  0.8563E-07  0.1265E-06  0.1854E-06  0.2709E-06  0.3923E-06  0.5680E-06  0.7964E-06  0.1066E-05  0.1350E-05  0.1621E-05  0.1850E-05  0.2017E-05  0.2121E-05  0.2163E-05  0.2155E-05  0.2116E-05  0.2051E-05  0.1992E-05  0.1934E-05  0.1894E-05  0.1870E-05  0.1861E-05  0.1865E-05  0.1876E-05  0.1894E-05  0.1921E-05  0.1956E-05  0.1993E-05  0.2025E-05  0.2043E-05  0.2048E-05  0.2043E-05  0.2022E-05  0.1992E-05  0.1950E-05  0.1899E-05  0.1841E-05  0.1775E-05  0.1702E-05  0.1625E-05  0.1540E-05  0.1452E-05  0.1361E-05  0.1266E-05  0.1168E-05  0.1069E-05  0.9684E-06  0.8694E-06  0.7745E-06  0.6850E-06  0.6003E-06  0.5214E-06  0.4511E-06  0.3879E-06  0.3312E-06  0.2803E-06  0.2366E-06  0.1978E-06  0.1639E-06  0.1370E-06  0.1149E-06  0.9785E-07  0.8329E-07  0.7140E-07  0.6113E-07  0.5265E-07  0.4458E-07  0.3783E-07  0.3124E-07  0.2523E-07  0.2083E-07  0.1615E-07  0.1214E-07  0.9355E-08  0.6493E-08
  0.1544E-07  0.2197E-07  0.3568E-07  0.5432E-07  0.8075E-07  0.1186E-06  0.1715E-06  0.2453E-06  0.3525E-06  0.5050E-06  0.7058E-06  0.9411E-06  0.1194E-05  0.1439E-05  0.1647E-05  0.1807E-05  0.1912E-05  0.1962E-05  0.1969E-05  0.1943E-05  0.1895E-05  0.1840E-05  0.1791E-05  0.1749E-05  0.1725E-05  0.1716E-05  0.1719E-05  0.1728E-05  0.1747E-05  0.1777E-05  0.1815E-05  0.1855E-05  0.1886E-05  0.1908E-05  0.1914E-05  0.1910E-05  0.1896E-05  0.1869E-05  0.1832E-05  0.1784E-05  0.1730E-05  0.1669E-05  0.1601E-05  0.1527E-05  0.1449E-05  0.1366E-05  0.1280E-05  0.1191E-05  0.1101E-05  0.1007E-05  0.9140E-06  0.8211E-06  0.7312E-06  0.6464E-06  0.5668E-06  0.4929E-06  0.4263E-06  0.3667E-06  0.3136E-06  0.2656E-06  0.2236E-06  0.1874E-06  0.1562E-06  0.1296E-06  0.1093E-06  0.9206E-07  0.7903E-07  0.6725E-07  0.5779E-07  0.4918E-07  0.4182E-07  0.3497E-07  0.2869E-07  0.2374E-07  0.1886E-07  0.1470E-07  0.1157E-07  0.8372E-08  0.5491E-08
